ARRI/ARRI_LogC2Video_709_33.cube
LUT_3D_SIZE 5
0.000000 0.000000 0.000000
0.068177 0.000000 0.000000
0.278218 0.000000 0.000000
0.510918 0.000000 0.000000
0.715297 0.000000 0.000000
0.000000 0.123964 0.000000
0.149737 0.164385 0.000000
0.582071 0.129412 0.000000
0.888197 0.079164 0.000000
1.000000 0.181735 0.000000
0.000000 0.523690 0.000000
0.000000 0.625055 0.000000
0.608087 0.649943 0.000000
1.000000 0.660655 0.000000
1.000000 0.711559 0.000000
0.000000 0.937972 0.000000
0.000000 1.000000 0.000000
0.547997 1.000000 0.000000
0.993545 1.000000 0.000000
1.000000 1.000000 0.034394
0.000000 1.000000 0.294057
0.000000 1.000000 0.095140
0.612650 1.000000 0.000000
0.906447 1.000000 0.349432
1.000000 1.000000 0.631205
0.000000 0.000000 0.025315
0.124071 0.000000 0.103273
0.406104 0.000000 0.141497
0.641276 0.000000 0.132845
0.803754 0.000000 0.141360
0.000000 0.134234 0.128939
0.149966 0.149966 0.149966
0.670024 0.020737 0.145037
1.000000 0.000000 0.178744
1.000000 0.000000 0.281468
0.000000 0.583536 0.026017
0.000000 0.661509 0.000000
0.623178 0.662928 0.000000
1.000000 0.638956 0.000000
1.000000 0.695216 0.319539
0.000000 0.975860 0.232273
0.000000 1.000000 0.000000
0.258793 1.000000 0.000000
1.000000 1.000000 0.000000
1.000000 1.000000 0.425025
0.000000 1.000000 0.517754
0.000000 1.000000 0.422309
0.535149 1.000000 0.404273
0.888579 1.000000 0.563958
1.000000 1.000000 0.779294
0.000000 0.000000 0.134127
0.138689 0.000000 0.308537
0.435996 0.000000 0.385855
0.671305 0.000000 0.365682
0.821775 0.000000 0.347158
0.000000 0.000000 0.424399
0.010758 0.000000 0.569879
0.669368 0.000000 0.600900
1.000000 0.000000 0.569940
1.000000 0.000000 0.563439
0.000000 0.558648 0.543664
0.000000 0.614099 0.599023
0.607630 0.607630 0.607630
1.000000 0.572641 0.613107
1.000000 0.639200 0.670466
0.000000 0.980636 0.618097
0.000000 1.000000 0.571832
0.000000 1.000000 0.496956
0.988128 1.000000 0.529458
1.000000 0.981857 0.691203
0.000000 1.000000 0.734020
0.000000 1.000000 0.681468
0.481605 1.000000 0.664393
0.873167 1.000000 0.744045
1.000000 1.000000 0.896132
0.000000 0.000000 0.267002
0.079240 0.000000 0.475227
0.383902 0.000000 0.571405
0.622492 0.000000 0.554818
0.792798 0.000000 0.527108
0.000000 0.000000 0.643671
0.000000 0.000000 0.871855
0.583459 0.000000 0.924422
0.964096 0.000000 0.868971
1.000000 0.000000 0.819623
0.000000 0.439460 0.843381
0.000000 0.422034 1.000000
0.559350 0.404517 1.000000
1.000000 0.363226 1.000000
1.000000 0.552605 1.000000
0.000000 0.942351 0.919722
0.000000 1.000000 1.000000
0.000000 1.000000 0.996658
0.954528 0.954528 0.954528
1.000000 0.940612 0.944411
0.000000 1.000000 0.944396
0.000000 1.000000 0.922591
0.546075 1.000000 0.899931
0.897963 1.000000 0.923644
1.000000 1.000000 0.981155
0.000000 0.000000 0.412314
0.000000 0.000000 0.607614
0.314488 0.000000 0.687236
0.550240 0.000000 0.676875
0.749264 0.000000 0.670207
0.000000 0.000000 0.766567
0.000000 0.000000 0.936263
0.487388 0.000000 1.000000
0.853727 0.000000 1.000000
1.000000 0.000000 0.994705
0.000000 0.291661 1.000000
0.000000 0.391379 1.000000
0.579416 0.440589 1.000000
1.000000 0.471763 1.000000
1.000000 0.638041 1.000000
0.000000 0.917632 1.000000
0.000000 0.984344 1.000000
0.367620 0.976608 1.000000
0.945769 0.936034 1.000000
1.000000 0.943832 1.000000
0.000000 1.000000 1.000000
0.302312 1.000000 1.000000
0.729671 1.000000 1.000000
0.950561 1.000000 1.000000
1.000000 1.000000 1.000000
