ARRI/ARRI_LogC4-to-Gamma26_P3-D65_v1-33.cube
LUT_3D_SIZE 5
0.00000000 0.00000000 0.00000000
0.21071221 0.01182804 0.05118150
0.94568641 0.02595515 0.20744469
1.00000000 0.74821983 0.68494989
1.00000000 0.99897114 0.99859595
0.01041661 0.21653250 0.09135015
0.35677406 0.36079714 0.00546215
0.97660533 0.05747800 0.19426514
1.00000000 0.75014049 0.68678459
1.00000000 0.99897152 0.99859631
0.00000000 0.90144233 0.29371412
0.00000000 0.91631403 0.30294026
0.88591017 0.90310266 0.11426070
0.99997642 0.78131439 0.71711336
0.99999999 0.99897661 0.99860143
0.90358438 1.00000000 0.87727266
0.90406747 1.00000000 0.87772578
0.91149876 0.99999069 0.88480698
0.99397072 0.99903114 0.94419097
0.99999894 0.99907292 0.99871937
0.99959717 1.00000000 0.99943341
0.99959717 1.00000000 0.99943337
0.99959755 1.00000000 0.99943356
0.99962579 1.00000000 0.99947182
0.99996840 0.99999926 0.99972093
0.00267794 0.05077113 0.14107832
0.32025692 0.02714043 0.28910686
0.96920919 0.06077442 0.31195538
1.00000000 0.74967643 0.68812316
1.00000000 0.99897057 0.99859564
0.00838075 0.31112774 0.29805845
0.35939108 0.35939108 0.35939108
0.98757570 0.19544352 0.31829268
1.00000000 0.75159843 0.68995715
1.00000000 0.99897095 0.99859601
0.00510038 0.90976796 0.35132410
0.00112256 0.92620591 0.35694953
0.88186718 0.90397585 0.26822996
0.99997501 0.78274491 0.72017393
0.99999999 0.99897608 0.99860118
0.90409713 1.00000000 0.87805805
0.90457535 1.00000000 0.87851179
0.91202498 0.99999062 0.88562006
0.99400532 0.99901948 0.94429179
0.99999893 0.99907284 0.99871964
0.99959715 1.00000000 0.99943343
0.99959715 1.00000000 0.99943339
0.99959766 1.00000000 0.99943376
0.99962587 1.00000000 0.99947196
0.99996841 0.99999926 0.99972098
0.01246263 0.33991812 0.84406306
0.15081790 0.31767925 0.91234738
0.93782321 0.11117780 0.84870944
1.00000000 0.77532411 0.76180709
1.00000000 0.99896333 0.99859736
0.00699466 0.36945775 0.86040135
0.15268085 0.35618704 0.92082783
0.94361569 0.16533785 0.85387008
1.00000000 0.77729284 0.76346633
1.00000000 0.99896374 0.99859774
0.59510709 0.86063419 0.83736155
0.60691287 0.86332747 0.84106466
0.85144700 0.85144700 0.85144700
0.99995688 0.80791428 0.78975306
0.99999999 0.99896941 0.99860320
0.92058462 0.99994934 0.90311741
0.92100061 0.99995031 0.90354261
0.92762388 0.99995507 0.91038701
0.99449713 0.99859289 0.94476575
0.99999895 0.99907161 0.99872549
0.99959969 0.99999998 0.99943803
0.99959984 0.99999998 0.99943819
0.99960302 0.99999997 0.99944212
0.99962716 1.00000000 0.99947421
0.99996855 0.99999927 0.99972167
0.72972674 0.84195910 0.99999446
0.73222201 0.84288476 1.00000000
0.76707046 0.85551421 0.99989385
1.00000000 0.88847862 0.96478331
1.00000000 0.99868403 0.99853159
0.73157888 0.84324316 0.99999794
0.73405421 0.84416270 1.00000000
0.76861205 0.85667167 0.99989437
1.00000000 0.88910013 0.96497588
1.00000000 0.99868498 0.99853255
0.75561292 0.85982635 0.99999222
0.75780379 0.86063213 0.99999220
0.78914806 0.87159025 1.00000000
1.00000000 0.89771493 0.96774550
1.00000000 0.99869839 0.99854640
0.95971135 0.99186547 0.98795124
0.95986819 0.99187596 0.98798481
0.96199445 0.99199902 0.98843123
0.98977052 0.98977052 0.98977052
0.99999792 0.99890865 0.99876708
0.99966677 0.99999798 0.99952189
0.99966662 0.99999798 0.99952182
0.99966419 0.99999803 0.99952059
0.99964844 0.99999701 0.99952142
0.99997214 1.00000000 0.99974430
0.99833028 0.99910734 1.00000000
0.99833144 0.99910773 1.00000000
0.99834667 0.99911316 1.00000000
0.99851041 0.99917740 0.99999801
1.00000000 0.99944264 0.99981963
0.99833118 0.99910788 1.00000000
0.99833233 0.99910827 1.00000000
0.99834756 0.99911369 1.00000000
0.99851110 0.99917786 0.99999801
1.00000000 0.99944280 0.99981969
0.99834288 0.99911479 1.00000000
0.99834403 0.99911518 1.00000000
0.99835929 0.99912060 1.00000000
0.99852104 0.99918423 0.99999795
1.00000000 0.99944502 0.99982053
0.99849795 0.99919683 0.99999830
0.99849882 0.99919711 0.99999830
0.99851117 0.99920112 0.99999830
0.99864914 0.99925480 0.99999686
1.00000000 0.99947473 0.99983157
0.99961370 1.00000000 0.99996710
0.99961381 1.00000000 0.99996712
0.99961549 1.00000000 0.99996727
0.99963671 1.00000000 0.99996924
1.00000000 1.00000000 1.00000000
