ARRI/ARRI_LogC2Video_2020_33.cube
LUT_3D_SIZE 9
0.000000 0.000000 0.000000
0.006241 0.000290 0.000092
0.042283 0.001999 0.000671
0.120500 0.006897 0.002304
0.243214 0.023331 0.007813
0.404120 0.066453 0.022461
0.590997 0.127398 0.053269
0.778058 0.188418 0.094057
0.944945 0.242847 0.130495
0.004089 0.022995 0.001617
0.031693 0.036027 0.000000
0.103380 0.043137 0.000290
0.222004 0.050614 0.005280
0.380499 0.074693 0.018952
0.562982 0.120775 0.047379
0.755276 0.180987 0.089082
0.936522 0.240589 0.128618
0.996582 0.264378 0.141375
0.010834 0.114748 0.000000
0.050095 0.141924 0.000000
0.150240 0.162158 0.000000
0.303746 0.182238 0.001755
0.490578 0.210056 0.023438
0.684108 0.248402 0.062974
0.870130 0.294759 0.106188
0.997543 0.334524 0.134432
0.997818 0.350500 0.132479
0.055818 0.289448 0.000000
0.101839 0.335348 0.000000
0.206241 0.368551 0.000000
0.370459 0.393011 0.000000
0.563394 0.416693 0.000000
0.756863 0.445411 0.034745
0.935454 0.479606 0.088472
1.000000 0.503700 0.103883
1.000000 0.522271 0.098711
0.151736 0.532052 0.000000
0.188022 0.579004 0.000000
0.279332 0.611231 0.000000
0.432761 0.632670 0.000000
0.615671 0.650034 0.000000
0.801434 0.669551 0.000000
0.980896 0.693523 0.000000
1.000000 0.708995 0.003113
1.000000 0.725170 0.000000
0.252461 0.786770 0.000000
0.284352 0.822019 0.000000
0.366766 0.845075 0.000000
0.504707 0.861372 0.000000
0.671153 0.876829 0.000000
0.847868 0.893431 0.000000
1.000000 0.911208 0.000000
1.000000 0.917021 0.000000
1.000000 0.917647 0.000000
0.342443 1.000000 0.000000
0.381827 1.000000 0.000000
0.463508 1.000000 0.000000
0.584497 1.000000 0.000000
0.726390 1.000000 0.000000
0.875349 1.000000 0.000000
1.000000 1.000000 0.000000
1.000000 1.000000 0.000000
1.000000 1.000000 0.000000
0.378454 1.000000 0.000000
0.420325 1.000000 0.000000
0.492988 1.000000 0.000000
0.591745 1.000000 0.000000
0.710475 1.000000 0.000000
0.840650 1.000000 0.000000
0.967864 1.000000 0.000000
1.000000 1.000000 0.000000
1.000000 1.000000 0.184939
0.390326 1.000000 0.000000
0.430625 1.000000 0.000000
0.492500 1.000000 0.000000
0.580453 1.000000 0.000000
0.690257 1.000000 0.000000
0.810132 1.000000 0.000000
0.921935 1.000000 0.000000
1.000000 1.000000 0.286885
1.000000 1.000000 0.463325
0.000000 0.000000 0.002991
0.013092 0.000000 0.015152
0.064897 0.000000 0.029023
0.162905 0.003449 0.038483
0.303563 0.028809 0.046250
0.475837 0.085496 0.059113
0.666224 0.150454 0.082078
0.847272 0.210666 0.112001
0.996521 0.259602 0.142428
0.000214 0.023896 0.024674
0.031022 0.031022 0.031022
0.118959 0.033814 0.030198
0.260807 0.041978 0.024674
0.431281 0.076600 0.027573
0.618997 0.136538 0.059327
0.806210 0.197604 0.100206
0.980545 0.254459 0.138277
0.996521 0.262699 0.147921
0.010056 0.126223 0.031037
0.037369 0.149508 0.015488
0.154910 0.166888 0.000000
0.327962 0.184497 0.003876
0.525124 0.212284 0.029694
0.721859 0.252735 0.072572
0.901884 0.300465 0.113756
0.997498 0.333928 0.144015
0.997650 0.348562 0.157717
0.063050 0.314076 0.008255
0.089189 0.355459 0.000000
0.199878 0.382391 0.000000
0.377737 0.400626 0.000000
0.581048 0.420859 0.000000
0.778897 0.448707 0.041291
0.958450 0.482628 0.109361
1.000000 0.502831 0.135927
1.000000 0.519738 0.153246
0.161013 0.559014 0.000000
0.185016 0.599954 0.000000
0.272511 0.625849 0.000000
0.430930 0.642115 0.000000
0.621637 0.656291 0.000000
0.815488 0.673777 0.000000
1.000000 0.696315 0.063294
1.000000 0.708797 0.094560
1.000000 0.723613 0.129274
0.259312 0.807324 0.000000
0.284092 0.836973 0.000000
0.362142 0.856321 0.000000
0.499565 0.871656 0.000000
0.670527 0.885405 0.000000
0.854215 0.899687 0.000000
1.000000 0.913558 0.000000
1.000000 0.915129 0.000000
1.000000 0.912886 0.108980
0.346304 1.000000 0.000000
0.380102 1.000000 0.000000
0.457420 1.000000 0.000000
0.574105 1.000000 0.000000
0.716396 1.000000 0.000000
0.869383 1.000000 0.000000
1.000000 1.000000 0.000000
1.000000 1.000000 0.000000
1.000000 1.000000 0.191745
0.370214 1.000000 0.000000
0.406546 1.000000 0.000000
0.474617 1.000000 0.000000
0.572869 1.000000 0.000000
0.696483 1.000000 0.000000
0.831800 1.000000 0.000000
0.960998 1.000000 0.000000
1.000000 1.000000 0.226001
1.000000 1.000000 0.386007
0.377890 1.000000 0.000366
0.413199 1.000000 0.000000
0.474586 1.000000 0.000000
0.566918 1.000000 0.000000
0.684169 1.000000 0.000000
0.810300 1.000000 0.111925
0.920500 1.000000 0.303624
1.000000 1.000000 0.457435
1.000000 1.000000 0.601740
0.000000 0.000000 0.022156
0.018860 0.000000 0.057939
0.085054 0.000000 0.095094
0.201343 0.000000 0.126909
0.356359 0.007980 0.151415
0.536278 0.076646 0.170428
0.724620 0.151308 0.187289
0.895933 0.213581 0.203799
0.995941 0.248508 0.215854
0.000000 0.015335 0.080293
0.021973 0.007340 0.112612
0.128069 0.000000 0.138842
0.287968 0.000000 0.156161
0.469337 0.045899 0.165866
0.659159 0.127047 0.179538
0.840970 0.193362 0.200763
0.995850 0.246571 0.225605
0.995773 0.248493 0.236225
0.001389 0.124575 0.127214
0.010330 0.138949 0.141604
0.149966 0.149966 0.149966
0.337194 0.166644 0.157122
0.550683 0.197711 0.168353
0.745617 0.242679 0.191547
0.921721 0.292714 0.222293
0.996612 0.322271 0.247089
0.996643 0.335683 0.266178
0.055619 0.327489 0.153002
0.072129 0.362936 0.146715
0.190249 0.381827 0.142016
0.378225 0.397070 0.145663
0.592523 0.416571 0.159152
0.794232 0.443534 0.195972
0.978820 0.477424 0.236759
0.999985 0.494087 0.262135
1.000000 0.509987 0.286275
0.159762 0.575265 0.155245
0.175082 0.610086 0.132311
0.261311 0.631952 0.111284
0.424750 0.645289 0.109148
0.624521 0.656870 0.135378
0.826520 0.672068 0.182269
1.000000 0.692409 0.230091
1.000000 0.702739 0.260197
1.000000 0.717678 0.299367
0.257511 0.818418 0.145357
0.278325 0.843931 0.120790
0.352956 0.862837 0.098802
0.490761 0.877317 0.091142
0.666682 0.889555 0.110933
0.857908 0.901549 0.155734
1.000000 0.910918 0.210773
1.000000 0.908049 0.259983
1.000000 0.904341 0.324468
0.343114 1.000000 0.161837
0.374166 1.000000 0.138842
0.444984 1.000000 0.120089
0.559518 1.000000 0.094224
0.702754 1.000000 0.065293
0.860990 1.000000 0.103090
1.000000 1.000000 0.198245
1.000000 1.000000 0.292592
1.000000 1.000000 0.405203
0.357794 1.000000 0.268162
0.390417 1.000000 0.225391
0.455619 1.000000 0.170260
0.556893 1.000000 0.125780
0.685466 1.000000 0.129900
0.825086 1.000000 0.199588
0.954345 1.000000 0.310491
1.000000 1.000000 0.429358
1.000000 1.000000 0.548547
0.362890 1.000000 0.290791
0.396277 1.000000 0.231388
0.459876 1.000000 0.186725
0.559304 1.000000 0.190173
0.685863 1.000000 0.260594
0.814343 1.000000 0.367330
0.920760 1.000000 0.483513
0.994919 1.000000 0.604166
1.000000 1.000000 0.722530
0.000000 0.000000 0.065949
0.018067 0.000000 0.128496
0.096437 0.000000 0.192569
0.229740 0.000000 0.247730
0.395911 0.000000 0.288029
0.580041 0.000000 0.314702
0.762463 0.098253 0.329625
0.923491 0.181430 0.336889
0.994324 0.213504 0.337911
0.000000 0.000000 0.167926
0.000000 0.000000 0.234257
0.119005 0.000000 0.286458
0.297017 0.000000 0.318715
0.488960 0.000000 0.335775
0.679713 0.010803 0.346242
0.857588 0.135149 0.357275
0.993759 0.199451 0.369131
0.993683 0.202533 0.375814
0.000000 0.079637 0.257481
0.000000 0.058473 0.305562
0.121050 0.041474 0.333837
0.335637 0.052110 0.354482
0.556756 0.111147 0.367773
0.753155 0.185245 0.376349
0.929259 0.251606 0.391119
0.994034 0.283757 0.406043
0.993957 0.298054 0.420798
0.007675 0.317754 0.322667
0.009018 0.343069 0.348302
0.159869 0.355734 0.360006
0.368978 0.368978 0.368978
0.587274 0.389136 0.379934
0.803845 0.417365 0.394034
0.989960 0.454444 0.416510
0.996948 0.469261 0.432929
0.996994 0.485817 0.451987
0.133349 0.574502 0.359060
0.145968 0.603326 0.365469
0.237171 0.622232 0.366079
0.415000 0.631235 0.372580
0.619867 0.642512 0.383001
0.832517 0.658366 0.393332
1.000000 0.676951 0.419059
1.000000 0.686793 0.443076
1.000000 0.703395 0.479057
0.239597 0.816846 0.382666
0.259068 0.840070 0.382010
0.335348 0.859129 0.377539
0.475380 0.874372 0.371603
0.656855 0.886412 0.369894
0.857328 0.895399 0.383780
1.000000 0.899840 0.417685
1.000000 0.893629 0.454246
1.000000 0.890288 0.509453
0.329183 1.000000 0.412268
0.358831 1.000000 0.408179
0.426017 1.000000 0.400534
0.539086 1.000000 0.382345
0.686625 1.000000 0.368048
0.849989 1.000000 0.375814
1.000000 1.000000 0.419699
1.000000 1.000000 0.489372
1.000000 1.000000 0.575845
0.337224 1.000000 0.466285
0.368688 1.000000 0.437278
0.435584 1.000000 0.407355
0.541543 1.000000 0.386984
0.675700 1.000000 0.388937
0.819593 1.000000 0.428214
0.947082 1.000000 0.501503
1.000000 1.000000 0.590951
1.000000 1.000000 0.686305
0.342916 1.000000 0.463661
0.377844 1.000000 0.427100
0.448173 1.000000 0.406775
0.559350 1.000000 0.419150
0.694896 1.000000 0.471809
0.821653 1.000000 0.545876
0.922698 1.000000 0.634195
0.989761 1.000000 0.729641
1.000000 1.000000 0.823209
0.000000 0.000000 0.137789
0.000916 0.000000 0.229267
0.088640 0.000000 0.318563
0.241535 0.000000 0.393210
0.418524 0.000000 0.446921
0.603540 0.000000 0.477653
0.779004 0.000000 0.489082
0.930266 0.026490 0.487739
0.991165 0.112306 0.479454
0.000000 0.000000 0.284794
0.000000 0.000000 0.375662
0.059449 0.000000 0.449104
0.284047 0.000000 0.496803
0.487785 0.000000 0.519997
0.680354 0.000000 0.527810
0.855879 0.000000 0.530648
0.989563 0.003021 0.532555
0.989624 0.028183 0.533135
0.000000 0.000000 0.412985
0.000000 0.000000 0.485389
0.000000 0.000000 0.540154
0.312596 0.000000 0.567422
0.541512 0.000000 0.574121
0.743389 0.000000 0.573724
0.924987 0.104875 0.577249
0.988891 0.176242 0.582940
0.988861 0.202090 0.590661
0.000000 0.262501 0.506859
0.000000 0.269322 0.551720
0.044602 0.271443 0.581445
0.343221 0.286488 0.589471
0.575769 0.311788 0.598947
0.798016 0.348058 0.607950
0.990249 0.397711 0.614649
0.990982 0.415549 0.620615
0.991150 0.438163 0.630671
0.025742 0.549722 0.557397
0.028183 0.571679 0.579614
0.183169 0.586633 0.594095
0.392309 0.595560 0.600656
0.607630 0.607630 0.607630
0.823621 0.624216 0.615885
0.997604 0.642649 0.625208
0.997665 0.656229 0.639796
0.997772 0.677775 0.662852
0.192279 0.799771 0.585443
0.213870 0.822141 0.595346
0.301366 0.840833 0.600656
0.450004 0.856870 0.600977
0.644404 0.865202 0.606058
0.848264 0.872526 0.615396
1.000000 0.876371 0.624048
1.000000 0.870008 0.646632
1.000000 0.870527 0.684398
0.298451 1.000000 0.613214
0.327108 1.000000 0.617487
0.396735 1.000000 0.614221
0.514824 1.000000 0.601114
0.667628 1.000000 0.586481
0.835233 1.000000 0.585000
0.989578 1.000000 0.613016
1.000000 1.000000 0.663859
1.000000 0.983963 0.723125
0.302998 1.000000 0.644678
0.337057 1.000000 0.623957
0.411460 1.000000 0.603052
0.526589 1.000000 0.587533
0.668467 1.000000 0.587671
0.816236 1.000000 0.615991
0.939910 1.000000 0.664683
1.000000 1.000000 0.728374
1.000000 1.000000 0.798795
0.313787 1.000000 0.626337
0.355474 1.000000 0.601038
0.440330 1.000000 0.590036
0.569055 1.000000 0.605585
0.708003 1.000000 0.641871
0.831373 1.000000 0.693812
0.926162 1.000000 0.758343
0.986130 1.000000 0.829847
1.000000 1.000000 0.899428
0.000000 0.000000 0.238575
0.000000 0.000000 0.356054
0.031540 0.000000 0.466331
0.231647 0.000000 0.555932
0.421363 0.000000 0.616190
0.606439 0.000000 0.645182
0.774838 0.000000 0.649241
0.917723 0.000000 0.638102
0.986267 0.000000 0.622354
0.000000 0.000000 0.424674
0.000000 0.000000 0.535637
0.000000 0.000000 0.622736
0.242054 0.000000 0.675914
0.465537 0.000000 0.699687
0.663661 0.000000 0.705562
0.838590 0.000000 0.701015
0.982879 0.000000 0.697612
0.983200 0.000000 0.692805
0.000000 0.000000 0.581933
0.000000 0.000000 0.668513
0.000000 0.000000 0.727504
0.256199 0.000000 0.758648
0.509712 0.000000 0.766354
0.721218 0.000000 0.764279
0.909453 0.000000 0.761975
0.980621 0.000000 0.762036
0.980789 0.000000 0.763684
0.000000 0.035004 0.692164
0.000000 0.000000 0.748241
0.000000 0.000000 0.784741
0.289769 0.000000 0.807492
0.551675 0.000000 0.816236
0.776959 0.158404 0.815763
0.978332 0.266835 0.814786
0.981338 0.304616 0.811719
0.982132 0.350530 0.809751
0.000000 0.493172 0.749493
0.000000 0.507378 0.781048
0.023484 0.517128 0.805295
0.344167 0.524834 0.824018
0.584802 0.539071 0.827893
0.810132 0.557580 0.835065
0.986496 0.581460 0.839063
0.987503 0.606027 0.836667
0.988632 0.640497 0.839979
0.056580 0.766567 0.776822
0.099397 0.786587 0.796994
0.237232 0.803555 0.813611
0.412772 0.817594 0.826322
0.624323 0.825391 0.830808
0.833005 0.833005 0.833005
0.998718 0.838468 0.832334
0.998703 0.836744 0.830549
0.998779 0.847150 0.841398
0.238590 1.000000 0.802609
0.271092 1.000000 0.814786
0.353033 1.000000 0.818494
0.485878 1.000000 0.810529
0.647211 1.000000 0.796628
0.822904 1.000000 0.793118
0.971740 0.990997 0.802487
1.000000 0.974304 0.817578
1.000000 0.964218 0.848142
0.244633 1.000000 0.817350
0.288991 1.000000 0.804135
0.382223 1.000000 0.787930
0.514794 1.000000 0.773602
0.668986 1.000000 0.769940
0.815122 1.000000 0.779507
0.933410 1.000000 0.803265
1.000000 1.000000 0.841489
1.000000 1.000000 0.887739
0.269657 1.000000 0.784375
0.329152 1.000000 0.765438
0.441184 1.000000 0.757351
0.586282 1.000000 0.764904
0.726375 1.000000 0.784482
0.844602 1.000000 0.815793
0.932433 1.000000 0.858274
0.984771 1.000000 0.906310
1.000000 1.000000 0.952285
0.000000 0.000000 0.366796
0.000000 0.000000 0.506325
0.000000 0.000000 0.630991
0.186435 0.000000 0.726711
0.401511 0.000000 0.783642
0.588357 0.000000 0.804379
0.751904 0.000000 0.798672
0.889418 0.000000 0.777890
0.979553 0.000000 0.760418
0.000000 0.000000 0.584222
0.000000 0.000000 0.704845
0.000000 0.000000 0.793515
0.147036 0.000000 0.845914
0.425864 0.000000 0.868666
0.632761 0.000000 0.870039
0.812924 0.000000 0.863035
0.973632 0.000000 0.856184
0.974304 0.000000 0.847623
0.000000 0.000000 0.756085
0.000000 0.000000 0.843229
0.000000 0.000000 0.902663
0.146334 0.000000 0.932677
0.465217 0.000000 0.939269
0.688502 0.000000 0.939071
0.885603 0.000000 0.937819
0.968978 0.000000 0.935943
0.969619 0.000000 0.931548
0.000000 0.000000 0.870954
0.000000 0.000000 0.927108
0.000000 0.000000 0.964660
0.204501 0.000000 0.989029
0.511208 0.000000 1.000000
0.746395 0.000000 1.000000
0.955200 0.000000 1.000000
0.968124 0.000000 0.993011
0.970321 0.159319 0.977081
0.000000 0.389380 0.928481
0.000000 0.394995 0.964675
0.000000 0.395666 0.998352
0.285649 0.412146 1.000000
0.555276 0.434470 1.000000
0.791348 0.462989 1.000000
0.973526 0.503014 1.000000
0.974624 0.538277 1.000000
0.977844 0.598230 0.994965
0.000000 0.714702 0.958007
0.000000 0.730831 0.986770
0.103593 0.748577 1.000000
0.376654 0.765927 1.000000
0.600229 0.777371 1.000000
0.815335 0.784527 1.000000
0.985763 0.790799 1.000000
0.987335 0.799710 0.991104
0.990143 0.825177 0.970169
0.092958 0.971069 0.983749
0.167773 0.981109 0.993729
0.298421 0.981918 0.994003
0.457755 0.983749 0.994598
0.631403 0.982483 0.991012
0.812436 0.965499 0.969924
0.954528 0.954528 0.954528
0.999542 0.947845 0.946075
0.999542 0.947417 0.945617
0.126284 0.983108 0.984131
0.212589 0.985504 0.975113
0.351492 0.990173 0.958846
0.513802 0.996368 0.940551
0.677592 1.000000 0.925566
0.819013 1.000000 0.917052
0.932036 1.000000 0.920607
0.999496 1.000000 0.933516
1.000000 0.996780 0.951186
0.203006 0.994202 0.933623
0.306554 0.998550 0.915496
0.456596 1.000000 0.902052
0.613367 1.000000 0.896422
0.752026 1.000000 0.899351
0.863600 1.000000 0.911681
0.942000 1.000000 0.932341
0.985916 1.000000 0.958206
1.000000 1.000000 0.983490
0.000000 0.000000 0.512642
0.000000 0.000000 0.667689
0.000000 0.000000 0.798138
0.032197 0.000000 0.888853
0.355184 0.000000 0.935531
0.551324 0.000000 0.945785
0.713466 0.000000 0.929717
0.854353 0.000000 0.906767
0.971176 0.000000 0.890272
0.000000 0.000000 0.752789
0.000000 0.000000 0.876005
0.000000 0.000000 0.958968
0.000000 0.000000 1.000000
0.370108 0.000000 1.000000
0.592294 0.000000 1.000000
0.778958 0.000000 1.000000
0.945968 0.000000 1.000000
0.963088 0.000000 0.993332
0.000000 0.000000 0.927062
0.000000 0.000000 1.000000
0.000000 0.000000 1.000000
0.000000 0.000000 1.000000
0.434913 0.000000 1.000000
0.664912 0.000000 1.000000
0.865660 0.000000 1.000000
0.962112 0.000000 1.000000
0.962493 0.000000 1.000000
0.000000 0.000000 1.000000
0.000000 0.000000 1.000000
0.000000 0.000000 1.000000
0.202136 0.000000 1.000000
0.506493 0.000000 1.000000
0.735973 0.000000 1.000000
0.937987 0.000000 1.000000
0.966461 0.000000 1.000000
0.967544 0.139239 1.000000
0.000000 0.310292 1.000000
0.000000 0.355322 1.000000
0.000000 0.389425 1.000000
0.305333 0.416968 1.000000
0.560693 0.443168 1.000000
0.783948 0.476387 1.000000
0.974121 0.522499 1.000000
0.975494 0.564324 1.000000
0.977646 0.622004 1.000000
0.000000 0.697978 1.000000
0.000000 0.724819 1.000000
0.146975 0.747189 1.000000
0.399283 0.764492 1.000000
0.615351 0.776486 1.000000
0.815412 0.784619 1.000000
0.980087 0.794705 1.000000
0.986709 0.807141 1.000000
0.988098 0.830610 1.000000
0.072862 0.968154 0.994156
0.183154 0.981170 0.993759
0.322179 0.982116 0.994064
0.484428 0.983078 0.994781
0.656321 0.966201 0.996765
0.817441 0.949371 0.999222
0.946654 0.938964 1.000000
0.995117 0.935912 1.000000
0.995468 0.940673 1.000000
0.127718 0.980957 0.993683
0.226841 0.981399 0.993835
0.379294 0.982712 0.994263
0.548745 0.985306 0.995117
0.704723 0.988983 0.996338
0.834684 0.993133 0.997711
0.934997 0.997086 0.999023
0.991455 0.991455 0.991455
0.999908 0.989532 0.989197
0.187915 0.981201 0.993759
0.330465 0.982193 0.994095
0.495109 0.984344 0.994797
0.652445 0.987594 0.995880
0.785962 0.994430 0.983795
0.887861 0.999588 0.978225
0.954849 1.000000 0.980117
0.989776 1.000000 0.988144
0.999481 0.999786 0.997208
0.000000 0.000000 0.666835
0.000000 0.000000 0.827222
0.000000 0.000000 0.952514
0.000000 0.000000 1.000000
0.305211 0.000000 1.000000
0.511116 0.000000 1.000000
0.670924 0.000000 1.000000
0.816388 0.000000 1.000000
0.952743 0.000000 1.000000
0.000000 0.000000 0.913054
0.000000 0.000000 1.000000
0.000000 0.000000 1.000000
0.000000 0.000000 1.000000
0.350683 0.000000 1.000000
0.572015 0.000000 1.000000
0.756939 0.000000 1.000000
0.923095 0.000000 1.000000
0.960876 0.000000 1.000000
0.000000 0.000000 1.000000
0.000000 0.000000 1.000000
0.000000 0.000000 1.000000
0.000610 0.000000 1.000000
0.428000 0.000000 1.000000
0.654398 0.000000 1.000000
0.852598 0.000000 1.000000
0.962310 0.000000 1.000000
0.962799 0.000000 1.000000
0.000000 0.000000 1.000000
0.000000 0.000000 1.000000
0.000000 0.000000 1.000000
0.219730 0.000000 1.000000
0.505928 0.000000 1.000000
0.726680 0.000000 1.000000
0.919493 0.000000 1.000000
0.967041 0.002564 1.000000
0.968414 0.243351 1.000000
0.000000 0.312902 1.000000
0.000000 0.359411 1.000000
0.000000 0.394736 1.000000
0.327413 0.424903 1.000000
0.568399 0.455375 1.000000
0.778790 0.493965 1.000000
0.958816 0.546410 1.000000
0.976730 0.598459 1.000000
0.979110 0.657450 1.000000
0.000000 0.697154 1.000000
0.000000 0.724926 1.000000
0.191669 0.746456 1.000000
0.429618 0.764050 1.000000
0.635523 0.777829 1.000000
0.819409 0.789425 1.000000
0.963241 0.805051 1.000000
0.987686 0.823651 1.000000
0.989334 0.850416 1.000000
0.088685 0.965057 0.994278
0.208270 0.981186 0.993805
0.355550 0.979553 0.994293
0.521584 0.968109 0.995621
0.688960 0.953506 0.997589
0.834836 0.942229 0.999725
0.945449 0.937591 1.000000
0.995438 0.940337 1.000000
0.996170 0.950240 1.000000
0.153231 0.981048 0.993713
0.272908 0.981704 0.993927
0.437446 0.983459 0.994507
0.603464 0.986450 0.995499
0.747784 0.990249 0.996750
0.864225 0.994232 0.998077
0.945266 0.993271 0.999344
0.989441 0.987991 1.000000
0.999145 0.989273 1.000000
0.248875 0.981537 0.993881
0.404761 0.983017 0.994369
0.564828 0.985626 0.995224
0.711971 0.989181 0.996399
0.830884 0.992996 0.997665
0.917189 0.996323 0.998779
0.970169 0.998627 0.999542
0.994354 0.998581 0.998734
1.000000 1.000000 1.000000
