ARRI/ARRI_LogC2Video_2100PQ-PW-1k-DW100_33.cube
LUT_3D_SIZE 5
0.006302 0.006302 0.006302
0.205234 0.068299 0.012955
0.429923 0.191394 0.051255
0.675532 0.370352 0.132631
0.751827 0.593225 0.271092
0.073213 0.184863 0.006302
0.181262 0.188922 0.006302
0.435904 0.237903 0.006302
0.684993 0.386145 0.123461
0.751827 0.574670 0.253666
0.244266 0.459327 0.006302
0.275120 0.464897 0.006302
0.457740 0.470405 0.006302
0.675380 0.499275 0.006302
0.751827 0.576761 0.006302
0.449775 0.714351 0.006302
0.444831 0.700832 0.006302
0.514504 0.687877 0.006302
0.668132 0.682185 0.006302
0.751827 0.691310 0.006302
0.617548 0.751827 0.006302
0.586862 0.751827 0.006302
0.599542 0.751827 0.006302
0.683803 0.751827 0.006302
0.751827 0.751827 0.006302
0.006302 0.006302 0.181643
0.185733 0.006302 0.152575
0.427741 0.182879 0.158282
0.675883 0.369558 0.190188
0.751827 0.583551 0.281849
0.031144 0.173617 0.172580
0.177722 0.177722 0.177722
0.438605 0.233051 0.184558
0.676432 0.378698 0.211658
0.751827 0.549264 0.278004
0.243412 0.460929 0.006302
0.274769 0.464820 0.006302
0.458045 0.470085 0.006302
0.664988 0.498360 0.126970
0.751827 0.564416 0.267475
0.441962 0.705928 0.006302
0.439307 0.692119 0.006302
0.518059 0.680964 0.006302
0.665278 0.678859 0.006302
0.751827 0.689235 0.006302
0.596353 0.751827 0.006302
0.571847 0.751827 0.006302
0.599405 0.751827 0.006302
0.687144 0.751827 0.006302
0.751827 0.751827 0.540505
0.006302 0.006302 0.261021
0.154772 0.006302 0.254871
0.419669 0.084154 0.282826
0.667781 0.353521 0.317266
0.751827 0.556939 0.363668
0.006302 0.006302 0.351019
0.006302 0.006302 0.381277
0.428977 0.006302 0.404196
0.659983 0.331044 0.421897
0.751827 0.511238 0.441810
0.146899 0.444114 0.435126
0.220447 0.444694 0.445731
0.452201 0.452201 0.452201
0.653117 0.484962 0.463722
0.751827 0.547829 0.485756
0.423438 0.693812 0.345403
0.425742 0.680507 0.394186
0.519387 0.672801 0.437369
0.662882 0.673732 0.481010
0.751827 0.685283 0.530892
0.573220 0.751827 0.006302
0.557214 0.751827 0.006302
0.601404 0.751827 0.377218
0.694911 0.751827 0.550164
0.750393 0.751827 0.720394
0.006302 0.006302 0.314031
0.086076 0.006302 0.326162
0.408286 0.006302 0.359365
0.649256 0.313893 0.394385
0.751827 0.515496 0.432898
0.006302 0.006302 0.440894
0.006302 0.006302 0.478355
0.404578 0.006302 0.511635
0.635554 0.006302 0.541863
0.751827 0.431907 0.565133
0.006302 0.362402 0.588739
0.006302 0.300908 0.611200
0.417197 0.285420 0.624765
0.635050 0.390829 0.630915
0.751827 0.497368 0.636545
0.295460 0.667231 0.652247
0.336278 0.654200 0.652155
0.505028 0.650965 0.653483
0.657511 0.657511 0.657511
0.751827 0.675319 0.669642
0.535454 0.751827 0.617533
0.532540 0.751827 0.633021
0.602548 0.751827 0.652628
0.720195 0.751827 0.713603
0.749706 0.750042 0.747036
0.006302 0.006302 0.354314
0.006302 0.006302 0.382055
0.391608 0.006302 0.417960
0.622446 0.194095 0.453437
0.751827 0.460273 0.489418
0.006302 0.006302 0.507942
0.006302 0.006302 0.545296
0.368231 0.006302 0.578439
0.606592 0.006302 0.607660
0.751827 0.006302 0.634043
0.006302 0.006302 0.664912
0.006302 0.006302 0.690089
0.326406 0.006302 0.709758
0.611231 0.006302 0.721431
0.745998 0.262104 0.724987
0.006302 0.614755 0.751827
0.006302 0.595392 0.751827
0.457527 0.598642 0.751827
0.647761 0.622080 0.751827
0.716075 0.681529 0.720348
0.400214 0.751827 0.751827
0.469413 0.751827 0.751827
0.640131 0.748730 0.751278
0.738842 0.744228 0.744488
0.751003 0.751003 0.751003
