ARRI/ARRI_LogC4-to-Gamma26_P3-D65_v1-33.cube
LUT_3D_SIZE 33
0.00000000 0.00000000 0.00000000
0.00000000 0.00128120 0.00108999
0.00071775 0.00394243 0.00386246
0.00863579 0.00387634 0.00552352
0.02381407 0.00341686 0.00893033
0.04692549 0.00507458 0.01593300
0.08386060 0.00761573 0.02563331
0.13840168 0.00976559 0.03734256
0.21071221 0.01182804 0.05118150
0.29795943 0.01324765 0.06734703
0.39585489 0.01756963 0.08608918
0.49926049 0.02782841 0.10716081
0.60218906 0.03878117 0.12937430
0.69975314 0.04577963 0.15120458
0.78986666 0.04228016 0.17136195
0.87289905 0.01921205 0.18896383
0.94568641 0.02595515 0.20744469
0.99197606 0.14229689 0.23951520
1.00000000 0.29433778 0.28991890
1.00000000 0.39330244 0.34302499
1.00000000 0.46374574 0.39676593
0.99983698 0.53055833 0.45598709
0.99990133 0.60071880 0.52400106
0.99999036 0.67397200 0.60109203
1.00000000 0.74821983 0.68494989
1.00000000 0.81945891 0.76984908
1.00000000 0.88252997 0.84797852
0.99999980 0.93257996 0.91142689
0.99999995 0.96705345 0.95605292
1.00000000 0.98666687 0.98198249
1.00000000 0.99524097 0.99351210
1.00000000 0.99810813 0.99741531
1.00000000 0.99897114 0.99859595
0.00144952 0.00010178 0.00096594
0.00131736 0.00148734 0.00235740
0.00208727 0.00402574 0.00499906
0.01000198 0.00371101 0.00619958
0.02541237 0.00292681 0.00938755
0.04865973 0.00440615 0.01640759
0.08563797 0.00686614 0.02605068
0.14021983 0.00899000 0.03756809
0.21266038 0.01150185 0.05118808
0.30014126 0.01323186 0.06717374
0.39816959 0.01786558 0.08579247
0.50147193 0.02752044 0.10675933
0.60412376 0.03736466 0.12888813
0.70131359 0.04446647 0.15073522
0.79106468 0.04145932 0.17096873
0.87377450 0.01940448 0.18868054
0.94625579 0.02623686 0.20729966
0.99216429 0.14318251 0.23959986
1.00000000 0.29506535 0.29008505
1.00000000 0.39368834 0.34316470
1.00000000 0.46396233 0.39687513
0.99983652 0.53070142 0.45607669
0.99990098 0.60081871 0.52407449
0.99999022 0.67404037 0.60114949
1.00000000 0.74826480 0.68499223
1.00000000 0.81948657 0.76987736
1.00000000 0.88254550 0.84799535
0.99999981 0.93258766 0.91143561
0.99999995 0.96705669 0.95605674
1.00000000 0.98666794 0.98198380
1.00000000 0.99524122 0.99351241
1.00000000 0.99810818 0.99741536
1.00000000 0.99897116 0.99859597
0.00400097 0.00226176 0.00402675
0.00396157 0.00344211 0.00532932
0.00487481 0.00569271 0.00744648
0.01285827 0.00523776 0.00726094
0.02908500 0.00345026 0.00944487
0.05282391 0.00375150 0.01622211
0.08978907 0.00537548 0.02579955
0.14431058 0.00718956 0.03721771
0.21698696 0.00969858 0.05078529
0.30481589 0.01154175 0.06674882
0.40287023 0.01678623 0.08530577
0.50578117 0.02517102 0.10609251
0.60779605 0.03280982 0.12801663
0.70420218 0.04122971 0.14989290
0.79324329 0.04060865 0.17027244
0.87537949 0.02049826 0.18815390
0.94731542 0.02733540 0.20700597
0.99250748 0.14492380 0.23974316
1.00000000 0.29641853 0.29039420
1.00000000 0.39438523 0.34342254
1.00000000 0.46434653 0.39707404
0.99983786 0.53095649 0.45623890
0.99990220 0.60099831 0.52420753
0.99999027 0.67416398 0.60125414
1.00000000 0.74834610 0.68506932
1.00000000 0.81953643 0.76992868
1.00000000 0.88257333 0.84802570
0.99999981 0.93260133 0.91145116
0.99999995 0.96706232 0.95606343
1.00000000 0.98666974 0.98198601
1.00000000 0.99524159 0.99351288
1.00000000 0.99810823 0.99741543
1.00000000 0.99897117 0.99859599
0.00341572 0.01081833 0.00802828
0.00323749 0.01218731 0.00909019
0.00427571 0.01488605 0.01032077
0.01375428 0.01616164 0.00820737
0.03439826 0.01341208 0.00716547
0.06150020 0.01129869 0.01192999
0.09959473 0.01013009 0.02080059
0.15417334 0.00930847 0.03223988
0.22676421 0.00871566 0.04673135
0.31414395 0.00786939 0.06391867
0.41115111 0.01295044 0.08356431
0.51263424 0.02091457 0.10491873
0.61313498 0.02981579 0.12701288
0.70820768 0.04023977 0.14895733
0.79621055 0.04160670 0.16944877
0.87760691 0.02190849 0.18743829
0.94881310 0.02861367 0.20656305
0.99298243 0.14736961 0.23992656
1.00000000 0.29831006 0.29082710
1.00000000 0.39533796 0.34377896
1.00000000 0.46486727 0.39734765
0.99984239 0.53130431 0.45646186
0.99990579 0.60124441 0.52439061
0.99999068 0.67433386 0.60139865
1.00000000 0.74845779 0.68517577
1.00000000 0.81960476 0.76999935
1.00000000 0.88261130 0.84806728
0.99999982 0.93261984 0.91147231
0.99999995 0.96706984 0.95607239
1.00000000 0.98667205 0.98198888
1.00000000 0.99524204 0.99351344
1.00000000 0.99810828 0.99741548
1.00000000 0.99897119 0.99859600
0.00288231 0.02677841 0.01526255
0.00231828 0.02844484 0.01629014
0.00226890 0.03196973 0.01725875
0.01023227 0.03678085 0.01383351
0.03757908 0.04096516 0.00624661
0.07561892 0.04377523 0.00507545
0.12033348 0.04356632 0.00937092
0.17676567 0.03789930 0.01712563
0.24823252 0.02749319 0.03166818
0.33298702 0.01564793 0.05128548
0.42656669 0.01258636 0.07513243
0.52437325 0.01841031 0.10044056
0.62155447 0.02977047 0.12482019
0.71406122 0.04361405 0.14770194
0.80039405 0.04491830 0.16843095
0.88073105 0.02363769 0.18647975
0.95091827 0.02994502 0.20593678
0.99363978 0.15063885 0.24018164
1.00000000 0.30090877 0.29143578
1.00000000 0.39665008 0.34427268
1.00000000 0.46558800 0.39772547
0.99984994 0.53178677 0.45676988
0.99991137 0.60158491 0.52464355
0.99999132 0.67456833 0.60159834
1.00000000 0.74861177 0.68532278
1.00000000 0.81969891 0.77009684
1.00000000 0.88266357 0.84812456
0.99999983 0.93264527 0.91150137
0.99999996 0.96708015 0.95608468
1.00000000 0.98667520 0.98199280
1.00000000 0.99524263 0.99351419
1.00000000 0.99810833 0.99741554
1.00000000 0.99897122 0.99859603
0.00488881 0.05158905 0.02701388
0.00422469 0.05333246 0.02808025
0.00307262 0.05707444 0.02922976
0.00735410 0.06422684 0.02556931
0.03644764 0.07754262 0.01257843
0.09184605 0.09603343 0.00451075
0.15148899 0.10831374 0.00361472
0.21200504 0.10843606 0.00474816
0.28135691 0.09549234 0.01012475
0.36246059 0.06854117 0.02360669
0.45171944 0.04095293 0.05070323
0.54403591 0.03059030 0.08570317
0.63550973 0.03769975 0.11794297
0.72344470 0.05112337 0.14462580
0.80685201 0.04956729 0.16655137
0.88538674 0.02512955 0.18495459
0.95397043 0.03106071 0.20500206
0.99456929 0.15486497 0.24055615
1.00000000 0.30441332 0.29231148
1.00000000 0.39845422 0.34497478
1.00000000 0.46660008 0.39825844
0.99986068 0.53246843 0.45720231
0.99991938 0.60206350 0.52499767
0.99999229 0.67489619 0.60187749
1.00000000 0.74882664 0.68552813
1.00000000 0.81983027 0.77023296
1.00000000 0.88273653 0.84820451
0.99999985 0.93268077 0.91154193
0.99999996 0.96709454 0.95610184
1.00000000 0.98667961 0.98199827
1.00000000 0.99524345 0.99351525
1.00000000 0.99810842 0.99741564
1.00000000 0.99897126 0.99859607
0.00718665 0.09047050 0.04368103
0.00634100 0.09214693 0.04464642
0.00457131 0.09563428 0.04596712
0.00570248 0.10333234 0.04323454
0.02924728 0.12192304 0.02791528
0.09607654 0.15345037 0.01028346
0.17662713 0.18153297 0.00364538
0.24871058 0.19265673 0.00144308
0.31803538 0.18771373 0.00121059
0.39475658 0.16664747 0.00399829
0.48094327 0.12917044 0.01986394
0.57028924 0.08957106 0.05877526
0.65622049 0.07310524 0.10303555
0.73837795 0.06987920 0.13721374
0.81745123 0.05622540 0.16205536
0.89288385 0.02520569 0.18177911
0.95863786 0.03192313 0.20329810
0.99592206 0.16079287 0.24105383
1.00000000 0.30917707 0.29357141
1.00000000 0.40088895 0.34598336
1.00000000 0.46800840 0.39901904
0.99987477 0.53343456 0.45781465
0.99993058 0.60273991 0.52549609
0.99999381 0.67535644 0.60226898
1.00000000 0.74912718 0.68581560
1.00000000 0.82001385 0.77042336
1.00000000 0.88283852 0.84831631
0.99999987 0.93273043 0.91159866
0.99999997 0.96711467 0.95612583
1.00000000 0.98668579 0.98200593
1.00000000 0.99524462 0.99351672
1.00000000 0.99810854 0.99741578
1.00000000 0.99897132 0.99859612
0.00977780 0.14590372 0.06534448
0.00925884 0.14748092 0.06608634
0.00739320 0.15071241 0.06744006
0.00581324 0.15819554 0.06636363
0.01850414 0.17750062 0.05286072
0.07943409 0.21251407 0.02418375
0.17648841 0.24980113 0.00715751
0.26813024 0.27288433 0.00241331
0.34721004 0.27791930 0.00192844
0.42408969 0.26721784 0.00094478
0.50688795 0.24057971 0.00872381
0.59435621 0.19987048 0.03962109
0.67900621 0.15681738 0.08757303
0.75846257 0.11710482 0.12628814
0.83396025 0.07346214 0.15322017
0.90520218 0.02712388 0.17501671
0.96595438 0.03667026 0.19987440
0.99782322 0.17252877 0.24166579
1.00000000 0.31628791 0.29536853
1.00000000 0.40417677 0.34742579
0.99996654 0.46995188 0.40010941
0.99989035 0.53480589 0.45868842
0.99994529 0.60370068 0.52620178
0.99999609 0.67600510 0.60281977
1.00000000 0.74954822 0.68621844
1.00000000 0.82027038 0.77068968
0.99999998 0.88298095 0.84847259
0.99999990 0.93279981 0.91167794
0.99999998 0.96714282 0.95615937
1.00000000 0.98669442 0.98201663
1.00000000 0.99524625 0.99351879
1.00000000 0.99810871 0.99741597
1.00000000 0.99897140 0.99859620
0.01041661 0.21653250 0.09135015
0.01010503 0.21810361 0.09182929
0.00869972 0.22138060 0.09305805
0.00598686 0.22855329 0.09364358
0.00881018 0.24571152 0.08512050
0.04771649 0.27721878 0.05394952
0.14655458 0.31504957 0.01890819
0.25901531 0.34556075 0.00550310
0.35677406 0.36079714 0.00546215
0.44273240 0.35969042 0.00540163
0.52643517 0.34377043 0.01423093
0.61179066 0.31440049 0.04420673
0.69552779 0.27290626 0.08889712
0.77668186 0.21197952 0.12315410
0.85402217 0.12752929 0.14414502
0.92313034 0.04831780 0.16440891
0.97660533 0.05747800 0.19426514
1.00000000 0.19663998 0.24273493
1.00000000 0.32680470 0.29788329
1.00000000 0.40850858 0.34943256
0.99990577 0.47260437 0.40165648
0.99990478 0.53674775 0.45993820
0.99996318 0.60506959 0.52720714
0.99999918 0.67692403 0.60359862
1.00000000 0.75014049 0.68678459
1.00000000 0.82062944 0.77106256
0.99999993 0.88317982 0.84869098
0.99999992 0.93289659 0.91178865
0.99999999 0.96718210 0.95620621
1.00000000 0.98670649 0.98203160
1.00000000 0.99524853 0.99352169
1.00000000 0.99810896 0.99741624
1.00000000 0.99897152 0.99859631
0.00855225 0.29814760 0.12054088
0.00869225 0.29982306 0.12082861
0.00837573 0.30328269 0.12182284
0.00624302 0.30989407 0.12337253
0.00328246 0.32364725 0.12032278
0.01899616 0.34861644 0.09737125
0.09353149 0.38226601 0.04850262
0.21725955 0.41452711 0.01436538
0.33838966 0.43698044 0.00972587
0.44194100 0.44500481 0.01438135
0.53400268 0.43793357 0.02587561
0.62140528 0.41796807 0.05647952
0.70521903 0.38669202 0.09998270
0.78697129 0.33485947 0.13439151
0.86828921 0.24370907 0.14857463
0.94140356 0.12918152 0.15842273
0.98869775 0.11645219 0.19023439
1.00000000 0.23452607 0.24564072
1.00000000 0.34105228 0.30147411
1.00000000 0.41416642 0.35215309
0.99985321 0.47619874 0.40379517
0.99992439 0.53946113 0.46170717
0.99998369 0.60700883 0.52864087
1.00000000 0.67822921 0.60470552
1.00000000 0.75097828 0.68758410
1.00000000 0.82113428 0.77158621
0.99999986 0.88345801 0.84899651
0.99999994 0.93303156 0.91194318
1.00000000 0.96723682 0.95627153
1.00000000 0.98672331 0.98205246
1.00000000 0.99525173 0.99352573
1.00000000 0.99810931 0.99741663
1.00000000 0.99897168 0.99859647
0.01038352 0.38630242 0.15208528
0.01058635 0.38801868 0.15225300
0.01079043 0.39142095 0.15293138
0.00977897 0.39711874 0.15455387
0.00537553 0.40746464 0.15506573
0.00655822 0.42572360 0.14391640
0.04104422 0.45289461 0.10364878
0.14355977 0.48352990 0.04613423
0.28568942 0.50913614 0.02282886
0.41414877 0.52419844 0.02641202
0.52289657 0.52547330 0.03534188
0.61917202 0.51298745 0.06321904
0.70752303 0.48923494 0.10568998
0.79077153 0.45119609 0.14688080
0.87309543 0.38397774 0.16666861
0.94912403 0.28763920 0.17285408
0.99475160 0.24338574 0.20052157
1.00000000 0.29499638 0.25461764
1.00000000 0.36250973 0.30742896
1.00000000 0.42260201 0.35602669
0.99985279 0.48124345 0.40672129
0.99995084 0.54319657 0.46417003
1.00000000 0.60971049 0.53066901
1.00000000 0.68007282 0.60627927
1.00000000 0.75216719 0.68871835
0.99999990 0.82184836 0.77232526
0.99999978 0.88384905 0.84942538
0.99999994 0.93322020 0.91215916
1.00000000 0.96731297 0.95636255
1.00000000 0.98674664 0.98208149
1.00000000 0.99525616 0.99353136
1.00000000 0.99810980 0.99741717
1.00000000 0.99897193 0.99859670
0.01438289 0.47749009 0.18523721
0.01435937 0.47905717 0.18531915
0.01482245 0.48205595 0.18565823
0.01572161 0.48664882 0.18673057
0.01231292 0.49413895 0.18832821
0.00662772 0.50678143 0.18552939
0.01281485 0.52675535 0.16360084
0.06605207 0.55313909 0.10944919
0.19742273 0.57942506 0.05505024
0.35075455 0.59882388 0.03638181
0.48532786 0.60724497 0.03777009
0.59914340 0.60217419 0.05442118
0.69860590 0.58403499 0.09158476
0.78791911 0.55391851 0.14106651
0.87164636 0.50660232 0.17922067
0.94778356 0.43918375 0.19812415
0.99441599 0.38403216 0.22641431
1.00000000 0.37484049 0.27337040
1.00000000 0.39731268 0.31866095
0.99998401 0.43758553 0.36254499
0.99984057 0.48915799 0.41106726
0.99995563 0.54842756 0.46762769
1.00000000 0.61340924 0.53350147
1.00000000 0.68263569 0.60849718
1.00000000 0.75384542 0.69032628
0.99999979 0.82286142 0.77337254
0.99999970 0.88440225 0.85003058
0.99999992 0.93348539 0.91246229
1.00000000 0.96741928 0.95648964
1.00000000 0.98677897 0.98212180
1.00000000 0.99526223 0.99353910
1.00000000 0.99811047 0.99741792
1.00000000 0.99897228 0.99859703
0.01404411 0.56854408 0.21916146
0.01392062 0.56983220 0.21917020
0.01401821 0.57224301 0.21923474
0.01404395 0.57574961 0.21965242
0.01142174 0.58105330 0.22084798
0.00609119 0.58953119 0.22155696
0.00222217 0.60315282 0.21417345
0.01779852 0.62329400 0.18242918
0.09376430 0.64784191 0.11879371
0.24544079 0.67002012 0.05784287
0.41001704 0.68394752 0.03315306
0.55212405 0.68612516 0.03374083
0.67124208 0.67439427 0.05549996
0.77359695 0.64904659 0.10196756
0.86376629 0.61074200 0.16342007
0.94213276 0.55952400 0.21041336
0.99210504 0.50730597 0.25359430
1.00000000 0.47064752 0.30215586
1.00000000 0.45437685 0.33997619
1.00000000 0.46645267 0.37547115
0.99979236 0.50342758 0.41870850
0.99991494 0.55640598 0.47284766
0.99999507 0.61852880 0.53747133
1.00000000 0.68613471 0.61157688
1.00000000 0.75617437 0.69258134
1.00000000 0.82428861 0.77485243
0.99999969 0.88518644 0.85088719
0.99999986 0.93386091 0.91289023
0.99999998 0.96756896 0.95666816
1.00000000 0.98682407 0.98217803
1.00000000 0.99527052 0.99354976
1.00000000 0.99811132 0.99741889
1.00000000 0.99897274 0.99859747
0.01271341 0.65714334 0.25264576
0.01266371 0.65812687 0.25261929
0.01265099 0.65994433 0.25255659
0.01251840 0.66251703 0.25258027
0.01154098 0.66623265 0.25307507
0.00914893 0.67186908 0.25424148
0.00574809 0.68075668 0.25369336
0.00517730 0.69464528 0.24171101
0.03021396 0.71437158 0.20036502
0.12119571 0.73703558 0.12383796
0.28757116 0.75548417 0.05338814
0.46341477 0.76424781 0.02279067
0.61375050 0.76007121 0.02444811
0.73795881 0.74094055 0.04560750
0.84285283 0.70742258 0.10676438
0.93010844 0.66288920 0.18762050
0.98828879 0.61482033 0.26162310
1.00000000 0.57214970 0.33135063
1.00000000 0.53592217 0.37383018
1.00000000 0.51813960 0.40073294
0.99974848 0.53085751 0.43402356
0.99984659 0.57032246 0.48191548
0.99997211 0.62621563 0.54339799
1.00000000 0.69096095 0.61586323
1.00000000 0.75934530 0.69569389
1.00000000 0.82625992 0.77691462
0.99999992 0.88628701 0.85209234
0.99999982 0.93439297 0.91349516
0.99999993 0.96778165 0.95692064
0.99999999 0.98688795 0.98225734
1.00000000 0.99528207 0.99356462
1.00000000 0.99811238 0.99742013
1.00000000 0.99897330 0.99859800
0.01150706 0.74240894 0.27996448
0.01144248 0.74311907 0.27997003
0.01135602 0.74442236 0.27995479
0.01126826 0.74624607 0.27992969
0.01102844 0.74881848 0.28008899
0.01044531 0.75256519 0.28088899
0.00933088 0.75824159 0.28234869
0.00593079 0.76712945 0.28115096
0.00723523 0.78084396 0.26550877
0.03760073 0.79985569 0.21571796
0.13519342 0.82059077 0.12760219
0.31621010 0.83544571 0.04687296
0.50682127 0.83906273 0.01387038
0.66650593 0.82831511 0.00903766
0.79610271 0.80145962 0.03738489
0.90190455 0.76083248 0.12237712
0.97622196 0.71426980 0.23367960
1.00000000 0.67024610 0.34188965
1.00000000 0.62854878 0.41022344
1.00000000 0.59385312 0.44067958
0.99987042 0.57970626 0.46330836
0.99980137 0.59643293 0.49938449
0.99993352 0.63946522 0.55353022
0.99999595 0.69819230 0.62223723
1.00000000 0.76371385 0.70001262
1.00000000 0.82892812 0.77973915
1.00000000 0.88779563 0.85375801
0.99999995 0.93513581 0.91434126
0.99999989 0.96808329 0.95727727
0.99999995 0.98697973 0.98237028
0.99999999 0.99529894 0.99358604
1.00000000 0.99811388 0.99742191
1.00000000 0.99897393 0.99859863
0.00403847 0.82446063 0.29100807
0.00400380 0.82494909 0.29107673
0.00395280 0.82584194 0.29118717
0.00389812 0.82708532 0.29131298
0.00377156 0.82882242 0.29152411
0.00353170 0.83129069 0.29213989
0.00284518 0.83487629 0.29379511
0.00008667 0.84029431 0.29653223
0.00000000 0.84877454 0.29647876
0.00000000 0.86181677 0.28026741
0.02152090 0.87972341 0.22417430
0.13025096 0.89832612 0.12400868
0.33727323 0.90930485 0.03770415
0.54597092 0.90736644 0.00144401
0.71217964 0.88986375 0.00134855
0.84460812 0.85607441 0.04936741
0.94479979 0.81100004 0.16636946
0.99635950 0.76436858 0.31430907
1.00000000 0.72030504 0.42854750
1.00000000 0.68021576 0.48372344
1.00000000 0.65036037 0.50767926
0.99985548 0.64214233 0.53135244
0.99988000 0.66401840 0.57254251
0.99996463 0.71057842 0.63303686
0.99999855 0.77025048 0.70642030
1.00000000 0.83259343 0.78365055
1.00000000 0.88982061 0.85602381
1.00000000 0.93614297 0.91549845
0.99999998 0.96850138 0.95777219
0.99999993 0.98711067 0.98253012
0.99999997 0.99532436 0.99361756
0.99999999 0.99811652 0.99742493
1.00000000 0.99897483 0.99859956
0.00000000 0.90144233 0.29371412
0.00000000 0.90176705 0.29379726
0.00000000 0.90235966 0.29394105
0.00000000 0.90318471 0.29411392
0.00000000 0.90433599 0.29432298
0.00000000 0.90594974 0.29470864
0.00000000 0.90820656 0.29577715
0.00000000 0.91144146 0.29842329
0.00000000 0.91631403 0.30294026
0.00000000 0.92395484 0.30536246
0.00000000 0.93571386 0.29051261
0.03235842 0.95140036 0.23297288
0.17885971 0.96568817 0.13723115
0.41417456 0.97029491 0.07397574
0.61006366 0.96252468 0.05111826
0.76235183 0.94031766 0.05429577
0.88591017 0.90310266 0.11426070
0.97011468 0.85642445 0.25718873
1.00000000 0.80908373 0.41202020
1.00000000 0.76602332 0.51042360
1.00000000 0.73048360 0.55543421
1.00000000 0.70742751 0.57840134
0.99988996 0.70617121 0.60601402
0.99992104 0.73309289 0.65271255
0.99997642 0.78131439 0.71711336
0.99999888 0.83807616 0.78948375
1.00000000 0.89259115 0.85916142
1.00000000 0.93747679 0.91705468
1.00000000 0.96905800 0.95843825
0.99999999 0.98728990 0.98274911
0.99999995 0.99536164 0.99366287
0.99999998 0.99812152 0.99743036
0.99999999 0.99897661 0.99860143
0.04697896 0.96552866 0.31829657
0.04709118 0.96572054 0.31841703
0.04724829 0.96606910 0.31863441
0.04731072 0.96655435 0.31891786
0.04752521 0.96723011 0.31927733
0.05034029 0.96814752 0.31983006
0.06168264 0.96930851 0.32106852
0.07798203 0.97080695 0.32387097
0.09122421 0.97293940 0.32922782
0.10081933 0.97623060 0.33756671
0.10962675 0.98150302 0.34489402
0.14162705 0.98912923 0.33892531
0.25203924 0.99676116 0.31138742
0.42209036 1.00000000 0.28624408
0.57869603 0.99963358 0.27124912
0.70697157 0.99231547 0.24568553
0.82116528 0.97359807 0.21501825
0.92155671 0.93915469 0.25942134
0.98355540 0.89422563 0.37947274
1.00000000 0.84837555 0.50880723
1.00000000 0.80944396 0.58944495
1.00000000 0.78042309 0.62886149
1.00000000 0.76503691 0.65365710
0.99992255 0.77063541 0.68584449
0.99994633 0.80085441 0.73580434
0.99998394 0.84723510 0.79908309
0.99999916 0.89672437 0.86383028
1.00000000 0.93928625 0.91919363
1.00000000 0.96977800 0.95931743
1.00000000 0.98751972 0.98303483
1.00000000 0.99541117 0.99372296
0.99999997 0.99812985 0.99743903
0.99999998 0.99898038 0.99860530
0.30558166 0.99832953 0.41200001
0.30595872 0.99838803 0.41224160
0.30660886 0.99849070 0.41268729
0.30736966 0.99863015 0.41330394
0.30854312 0.99882299 0.41414159
0.31267147 0.99906264 0.41535317
0.32587135 0.99927169 0.41738216
0.34501914 0.99941815 0.42087807
0.36289842 0.99956720 0.42658630
0.37968122 0.99981821 0.43582049
0.39679388 1.00000000 0.44935631
0.42263899 1.00000000 0.46529166
0.47468492 1.00000000 0.48020602
0.55334757 1.00000000 0.49455772
0.63913564 1.00000000 0.50886366
0.72175881 1.00000000 0.50969669
0.80059364 1.00000000 0.47924599
0.87899676 0.99030314 0.43150567
0.94999907 0.96381529 0.42426340
0.99086491 0.92412138 0.50496622
1.00000000 0.88331417 0.60480195
1.00000000 0.85075383 0.66869544
1.00000000 0.82905081 0.70366929
1.00000000 0.82114666 0.73057089
0.99994783 0.83221732 0.76581405
0.99996211 0.86292193 0.81527306
0.99998818 0.90353245 0.87135320
0.99999923 0.94198203 0.92236309
1.00000000 0.97074231 0.96051567
1.00000000 0.98780227 0.98339827
1.00000000 0.99546795 0.99379420
0.99999999 0.99814058 0.99744980
0.99999996 0.99898708 0.99861192
0.58351958 1.00000000 0.55954235
0.58385393 1.00000000 0.55979768
0.58444830 1.00000000 0.56027288
0.58515645 1.00000000 0.56093639
0.58600196 1.00000000 0.56184266
0.58772682 1.00000000 0.56309823
0.59185874 1.00000000 0.56489847
0.59796721 1.00000000 0.56751950
0.60480726 1.00000000 0.57140979
0.61254333 1.00000000 0.57747404
0.62135656 1.00000000 0.58693241
0.63285194 1.00000000 0.60052088
0.65204252 1.00000000 0.61811683
0.68412518 1.00000000 0.63945208
0.72792114 1.00000000 0.66450031
0.77758778 1.00000000 0.68756244
0.82693827 1.00000000 0.69353119
0.87462146 1.00000000 0.66765504
0.92330567 0.99777509 0.61604006
0.96864773 0.97932327 0.58356000
0.99412598 0.94711243 0.63156374
1.00000000 0.91390596 0.69791854
1.00000000 0.88875757 0.74548793
1.00000000 0.87425838 0.77672650
1.00000000 0.87274736 0.80465506
0.99996253 0.88699953 0.83977981
0.99997218 0.91480668 0.88346266
0.99999129 0.94638170 0.92740834
0.99999937 0.97218696 0.96230034
1.00000000 0.98817162 0.98388725
1.00000000 0.99552654 0.99387410
1.00000000 0.99814989 0.99745893
0.99999999 0.99899616 0.99862050
0.74693469 1.00000000 0.70137505
0.74713165 1.00000000 0.70154729
0.74748393 1.00000000 0.70186508
0.74791092 1.00000000 0.70230709
0.74836129 1.00000000 0.70291331
0.74890739 1.00000000 0.70374773
0.74982170 1.00000000 0.70489854
0.75126876 1.00000000 0.70648835
0.75341202 1.00000000 0.70872652
0.75653288 1.00000000 0.71200394
0.76064301 1.00000000 0.71683409
0.76582874 1.00000000 0.72361191
0.77355338 1.00000000 0.73304139
0.78657428 0.99989812 0.74627776
0.80681623 0.99995001 0.76432812
0.83321633 1.00000000 0.78559409
0.86133509 1.00000000 0.80306948
0.88962682 1.00000000 0.80772294
0.91889682 1.00000000 0.79010274
0.94946164 1.00000000 0.75179605
0.97819137 0.98800204 0.72467213
0.99576992 0.96449964 0.73941817
1.00000000 0.93970468 0.77898880
1.00000000 0.92174654 0.81465700
1.00000000 0.91352147 0.84254138
1.00000000 0.91659859 0.86935544
0.99997365 0.93131546 0.90081712
0.99998049 0.95344447 0.93529065
0.99999396 0.97454337 0.96512962
0.99999952 0.98874018 0.98463063
1.00000000 0.99559809 0.99397922
1.00000000 0.99815412 0.99746383
1.00000000 0.99900502 0.99862849
0.82760536 0.99995899 0.78995124
0.82768388 0.99995808 0.79001919
0.82782502 0.99995609 0.79014097
0.82800275 0.99995328 0.79030633
0.82819532 0.99995020 0.79053289
0.82838761 0.99994775 0.79084629
0.82861837 0.99994690 0.79127727
0.82898932 0.99994819 0.79186610
0.82966023 0.99995051 0.79267627
0.83078012 0.99995026 0.79380354
0.83230078 0.99994296 0.79529483
0.83395631 0.99992615 0.79705504
0.83600857 0.99989886 0.79940498
0.83947936 0.99985960 0.80314611
0.84576742 0.99981593 0.80925250
0.85624967 0.99982086 0.81850668
0.87151334 1.00000000 0.83068201
0.89084483 1.00000000 0.84363279
0.91308063 1.00000000 0.85213789
0.93729769 1.00000000 0.84980763
0.96203380 1.00000000 0.83452677
0.98380704 0.99344536 0.81453214
0.99695778 0.97756957 0.81710124
1.00000000 0.96002816 0.84499626
1.00000000 0.94828938 0.87347281
1.00000000 0.94504812 0.89736009
1.00000000 0.95062003 0.92093984
0.99998306 0.96328450 0.94607431
0.99998732 0.97821879 0.96940381
0.99999607 0.98969495 0.98582364
0.99999963 0.99572878 0.99416187
1.00000000 0.99815757 0.99747150
1.00000000 0.99901087 0.99863419
