ARRI/ARRI_LogC4-to-Gamma24_Rec2020-D65_v1-33.cube
LUT_3D_SIZE 5
0.00000000 0.00000000 0.00000000
0.17580490 0.00481220 0.01456264
0.89679427 0.02388596 0.05679012
1.00000000 0.73854409 0.63560138
0.99999990 0.99892858 0.99831675
0.00859513 0.19537762 0.01699314
0.32088272 0.32817073 0.00628562
0.90906412 0.16768107 0.08069106
1.00000000 0.74061652 0.63765876
0.99999988 0.99892894 0.99831710
0.26000622 0.90306700 0.00000000
0.26270221 0.91953210 0.00164642
0.86357741 0.89159615 0.14670341
0.99997120 0.77395866 0.67193696
0.99999997 0.99893379 0.99832189
0.90888107 1.00000000 0.85455971
0.90931065 1.00000000 0.85509609
0.91634629 0.99999025 0.86372877
0.99316394 0.99948727 0.93223245
0.99999852 0.99902845 0.99845026
0.99961809 1.00000000 0.99933075
0.99961808 1.00000000 0.99933069
0.99961831 1.00000000 0.99933069
0.99964353 1.00000000 0.99937366
0.99996262 1.00000000 0.99966887
0.03385217 0.00540205 0.14506717
0.27659852 0.00918095 0.27514924
0.89824991 0.18952329 0.24298933
1.00000000 0.73998686 0.63935753
0.99999988 0.99892797 0.99831648
0.00000000 0.29062067 0.28158243
0.33001314 0.33001314 0.33001314
0.91314949 0.25072778 0.25407604
1.00000000 0.74205864 0.64141673
0.99999987 0.99892833 0.99831683
0.09733073 0.92247065 0.07277665
0.11662219 0.94011057 0.07429551
0.86165210 0.89210920 0.26829044
0.99996586 0.77538736 0.67558135
0.99999998 0.99893322 0.99832167
0.90933690 1.00000000 0.85547517
0.90977140 1.00000000 0.85601659
0.91684702 0.99999012 0.86470089
0.99320175 0.99947366 0.93236657
0.99999852 0.99902836 0.99845071
0.99961806 1.00000000 0.99933075
0.99961805 1.00000000 0.99933069
0.99961841 1.00000000 0.99933089
0.99964361 1.00000000 0.99937383
0.99996263 1.00000000 0.99966893
0.25771789 0.28623097 0.88987030
0.29358240 0.30518319 0.89860830
0.85142715 0.26974536 0.83531630
0.99990570 0.76745550 0.73264998
0.99999998 0.99892011 0.99832072
0.26764867 0.32261229 0.89880223
0.30322297 0.33891678 0.90872536
0.85781724 0.29820599 0.84082854
0.99991977 0.76952267 0.73445545
0.99999999 0.99892051 0.99832107
0.65236196 0.83912748 0.82617222
0.66154997 0.84228329 0.83007583
0.84011246 0.84011246 0.84011246
1.00000000 0.80164763 0.76299223
0.99999997 0.99892598 0.99832619
0.92498904 0.99994902 0.88558434
0.92539108 0.99995030 0.88610254
0.93171078 0.99997238 0.89433235
0.99363936 0.99901216 0.93450964
0.99999847 0.99902701 0.99846025
0.99962026 0.99999997 0.99933579
0.99962039 0.99999997 0.99933597
0.99962320 0.99999996 0.99934028
0.99964484 1.00000000 0.99937646
0.99996278 1.00000000 0.99966976
0.75178690 0.82697825 0.99999993
0.75390177 0.82805591 1.00000000
0.78404925 0.84297575 0.99992194
0.99819566 0.88798046 0.97751145
0.99999984 0.99863114 0.99832302
0.75347931 0.82836278 1.00000000
0.75557765 0.82943112 1.00000000
0.78547589 0.84420384 0.99992276
0.99818517 0.88861689 0.97762046
0.99999984 0.99863210 0.99832405
0.77547872 0.84620558 0.99999931
0.77736220 0.84714209 0.99999983
0.80440108 0.86008457 1.00000000
0.99799072 0.89742801 0.97911192
0.99999986 0.99864580 0.99833905
0.96497860 0.98954613 0.98710735
0.96510859 0.98956462 0.98714280
0.96686649 0.98979715 0.98761390
0.98892280 0.98892280 0.98892280
0.99999655 0.99886003 0.99858078
0.99967649 0.99999739 0.99942546
0.99967638 0.99999739 0.99942542
0.99967450 0.99999743 0.99942443
0.99966373 0.99999658 0.99943105
0.99996669 1.00000000 0.99969580
0.99844631 0.99901266 1.00000000
0.99844734 0.99901311 1.00000000
0.99846104 0.99901936 1.00000000
0.99861115 0.99909309 1.00000000
1.00000000 0.99944521 0.99991991
0.99844715 0.99901325 1.00000000
0.99844818 0.99901370 1.00000000
0.99846187 0.99901994 1.00000000
0.99861179 0.99909359 1.00000000
1.00000000 0.99944537 0.99991994
0.99845817 0.99902082 1.00000000
0.99845920 0.99902127 1.00000000
0.99847288 0.99902752 1.00000000
0.99862109 0.99910049 1.00000000
1.00000000 0.99944759 0.99992031
0.99860188 0.99911159 0.99999842
0.99860265 0.99911191 0.99999842
0.99861359 0.99911657 0.99999841
0.99873854 0.99917788 0.99999748
1.00000000 0.99947726 0.99992536
0.99966500 0.99999621 0.99997690
0.99966509 0.99999620 0.99997691
0.99966644 0.99999610 0.99997702
0.99968579 0.99999530 0.99997805
1.00000000 1.00000000 1.00000000
