ARRI/ARRI_LogC2Video_Classic709_33.cube
LUT_3D_SIZE 9
0.000000 0.000000 0.000000
0.048615 0.000000 0.000351
0.192752 0.000000 0.002319
0.439322 0.000000 0.012390
0.718578 0.000000 0.038849
0.981018 0.000000 0.079835
1.000000 0.000000 0.103014
1.000000 0.000000 0.110048
1.000000 0.000000 0.111055
0.000000 0.041993 0.000000
0.035477 0.040894 0.000000
0.188312 0.034745 0.000000
0.437812 0.003189 0.008408
0.717830 0.000000 0.034852
0.980560 0.000000 0.076661
1.000000 0.000000 0.100465
1.000000 0.000000 0.107652
1.000000 0.000000 0.108675
0.000000 0.177600 0.000000
0.000000 0.177188 0.000000
0.161120 0.174929 0.000000
0.429221 0.162722 0.000000
0.713725 0.124804 0.012634
0.978027 0.015564 0.056870
1.000000 0.000000 0.085100
1.000000 0.000000 0.093309
1.000000 0.000000 0.094469
0.000000 0.411292 0.000000
0.000000 0.411139 0.000000
0.000000 0.410361 0.000000
0.380789 0.406332 0.000000
0.692027 0.395499 0.000000
0.964858 0.376379 0.000000
1.000000 0.361151 0.000000
1.000000 0.355657 0.000000
1.000000 0.354833 0.000000
0.000000 0.675944 0.000000
0.000000 0.675868 0.000000
0.000000 0.675486 0.000000
0.172534 0.673548 0.000000
0.629557 0.668421 0.000000
0.928893 0.659693 0.000000
1.000000 0.653040 0.000000
1.000000 0.650721 0.000000
1.000000 0.650370 0.000000
0.000000 0.924666 0.000000
0.000000 0.924620 0.000000
0.000000 0.924392 0.000000
0.000000 0.923186 0.000000
0.497307 0.920043 0.000000
0.863355 0.914717 0.000000
1.000000 0.910719 0.000000
1.000000 0.909316 0.000000
1.000000 0.909102 0.000000
0.000000 1.000000 0.000000
0.000000 1.000000 0.000000
0.000000 1.000000 0.000000
0.000000 1.000000 0.000000
0.347860 1.000000 0.000000
0.808682 1.000000 0.000000
0.989212 1.000000 0.000000
1.000000 1.000000 0.000000
1.000000 1.000000 0.000000
0.000000 1.000000 0.000000
0.000000 1.000000 0.000000
0.000000 1.000000 0.000000
0.000000 1.000000 0.000000
0.268025 1.000000 0.000000
0.788342 1.000000 0.000000
0.974441 1.000000 0.000000
1.000000 1.000000 0.000000
1.000000 1.000000 0.000000
0.000000 1.000000 0.000000
0.000000 1.000000 0.000000
0.000000 1.000000 0.000000
0.000000 1.000000 0.000000
0.253437 1.000000 0.000000
0.785275 1.000000 0.000000
0.972244 1.000000 0.000000
1.000000 1.000000 0.000000
1.000000 1.000000 0.000000
0.000000 0.000000 0.036378
0.045869 0.000000 0.036728
0.191836 0.000000 0.038697
0.439002 0.000000 0.048783
0.718425 0.000000 0.073503
0.980926 0.000000 0.105043
1.000000 0.000000 0.124041
1.000000 0.000000 0.129992
1.000000 0.000000 0.130861
0.000000 0.033845 0.032380
0.032746 0.032746 0.032746
0.187366 0.026596 0.034699
0.437491 0.000000 0.044785
0.717678 0.000000 0.070130
0.980468 0.000000 0.102541
1.000000 0.000000 0.121889
1.000000 0.000000 0.127962
1.000000 0.000000 0.128832
0.000000 0.174594 0.010163
0.000000 0.174182 0.010513
0.160006 0.171862 0.012482
0.428901 0.159411 0.022553
0.713573 0.120409 0.049012
0.977935 0.007401 0.087480
1.000000 0.000000 0.109255
1.000000 0.000000 0.115953
1.000000 0.000000 0.116899
0.000000 0.410254 0.000000
0.000000 0.410117 0.000000
0.000000 0.409339 0.000000
0.380392 0.405295 0.000000
0.691859 0.394400 0.000000
0.964767 0.375219 0.000000
1.000000 0.359915 0.012222
1.000000 0.354391 0.023713
1.000000 0.353567 0.025406
0.000000 0.675441 0.000000
0.000000 0.675364 0.000000
0.000000 0.674998 0.000000
0.171481 0.673045 0.000000
0.629358 0.667903 0.000000
0.928801 0.659174 0.000000
1.000000 0.652522 0.000000
1.000000 0.650187 0.000000
1.000000 0.649836 0.000000
0.000000 0.924361 0.000000
0.000000 0.924315 0.000000
0.000000 0.924086 0.000000
0.000000 0.922881 0.000000
0.497047 0.919722 0.000000
0.863233 0.914412 0.000000
1.000000 0.910399 0.000000
1.000000 0.908995 0.000000
1.000000 0.908797 0.000000
0.000000 1.000000 0.000000
0.000000 1.000000 0.000000
0.000000 1.000000 0.000000
0.000000 1.000000 0.000000
0.347433 1.000000 0.000000
0.808560 1.000000 0.000000
0.989105 1.000000 0.000000
1.000000 1.000000 0.000000
1.000000 1.000000 0.000000
0.000000 1.000000 0.000000
0.000000 1.000000 0.000000
0.000000 1.000000 0.000000
0.000000 1.000000 0.000000
0.267414 1.000000 0.000000
0.788205 1.000000 0.000000
0.974350 1.000000 0.000000
1.000000 1.000000 0.000000
1.000000 1.000000 0.000000
0.000000 1.000000 0.000000
0.000000 1.000000 0.000000
0.000000 1.000000 0.000000
0.000000 1.000000 0.000000
0.252766 1.000000 0.000000
0.785138 1.000000 0.000000
0.972152 1.000000 0.000000
1.000000 1.000000 0.000000
1.000000 1.000000 0.000000
0.000000 0.000000 0.163500
0.030610 0.000000 0.163638
0.186633 0.000000 0.164431
0.437247 0.000000 0.168383
0.717571 0.000000 0.178317
0.980392 0.000000 0.193668
1.000000 0.000000 0.204303
1.000000 0.000000 0.207858
1.000000 0.000000 0.208362
0.000000 0.000000 0.161898
0.017472 0.000000 0.162036
0.182025 0.000000 0.162829
0.435706 0.000000 0.166827
0.716823 0.000000 0.176852
0.979934 0.000000 0.192340
1.000000 0.000000 0.203067
1.000000 0.000000 0.206622
1.000000 0.000000 0.207141
0.000000 0.156680 0.152621
0.000000 0.156222 0.152773
0.153613 0.153613 0.153613
0.427070 0.139422 0.157855
0.712703 0.092638 0.168475
0.977401 0.000000 0.184741
1.000000 0.000000 0.195941
1.000000 0.000000 0.199664
1.000000 0.000000 0.200198
0.000000 0.404440 0.091157
0.000000 0.404303 0.091402
0.000000 0.403494 0.092775
0.378241 0.399374 0.099535
0.690959 0.388266 0.115602
0.964218 0.368627 0.138552
1.000000 0.352926 0.153506
1.000000 0.347250 0.158343
1.000000 0.346410 0.159045
0.000000 0.672648 0.000000
0.000000 0.672572 0.000000
0.000000 0.672190 0.000000
0.165576 0.670237 0.000000
0.628321 0.665064 0.000000
0.928222 0.656275 0.000000
1.000000 0.649577 0.000000
1.000000 0.647227 0.000000
1.000000 0.646876 0.000000
0.000000 0.922637 0.000000
0.000000 0.922591 0.000000
0.000000 0.922362 0.000000
0.000000 0.921157 0.000000
0.495567 0.917983 0.000000
0.862593 0.912657 0.000000
1.000000 0.908629 0.000000
1.000000 0.907225 0.000000
1.000000 0.907027 0.000000
0.000000 1.000000 0.000000
0.000000 1.000000 0.000000
0.000000 1.000000 0.000000
0.000000 1.000000 0.000000
0.344976 1.000000 0.000000
0.807843 1.000000 0.000000
0.988586 1.000000 0.000000
1.000000 1.000000 0.000000
1.000000 1.000000 0.000000
0.000000 1.000000 0.000000
0.000000 1.000000 0.000000
0.000000 1.000000 0.000000
0.000000 1.000000 0.000000
0.263951 1.000000 0.000000
0.787457 1.000000 0.000000
0.973816 1.000000 0.000000
1.000000 1.000000 0.000000
1.000000 1.000000 0.000000
0.000000 1.000000 0.000000
0.000000 1.000000 0.000000
0.000000 1.000000 0.000000
0.000000 1.000000 0.000000
0.249058 1.000000 0.000000
0.784390 1.000000 0.000000
0.971618 1.000000 0.000000
1.000000 1.000000 0.000000
1.000000 1.000000 0.000000
0.000000 0.000000 0.385183
0.000000 0.000000 0.385229
0.156924 0.000000 0.385504
0.428016 0.000000 0.386893
0.713146 0.000000 0.390509
0.977676 0.000000 0.396460
1.000000 0.000000 0.400839
1.000000 0.000000 0.402335
1.000000 0.000000 0.402548
0.000000 0.000000 0.384634
0.000000 0.000000 0.384680
0.151308 0.000000 0.384955
0.426444 0.000000 0.386343
0.712413 0.000000 0.389975
0.977218 0.000000 0.395926
1.000000 0.000000 0.400305
1.000000 0.000000 0.401816
1.000000 0.000000 0.402029
0.000000 0.000000 0.381537
0.000000 0.000000 0.381582
0.115160 0.000000 0.381857
0.417533 0.000000 0.383261
0.708248 0.000000 0.386923
0.974670 0.000000 0.392950
1.000000 0.000000 0.397375
1.000000 0.000000 0.398901
1.000000 0.000000 0.399115
0.000000 0.372564 0.365042
0.000000 0.372396 0.365087
0.000000 0.371511 0.365377
0.366873 0.366873 0.366873
0.686290 0.354345 0.370764
0.961440 0.331899 0.377142
1.000000 0.313680 0.381827
1.000000 0.307012 0.383429
1.000000 0.306020 0.383658
0.000000 0.658000 0.316045
0.000000 0.657923 0.316121
0.000000 0.657542 0.316472
0.130770 0.655512 0.318288
0.622919 0.650172 0.322972
0.925261 0.641062 0.330617
1.000000 0.634119 0.336202
1.000000 0.631693 0.338109
1.000000 0.631327 0.338384
0.000000 0.913695 0.198810
0.000000 0.913664 0.198917
0.000000 0.913420 0.199542
0.000000 0.912200 0.202747
0.487877 0.908980 0.210864
0.859266 0.903563 0.223682
1.000000 0.899474 0.232731
1.000000 0.898054 0.235767
1.000000 0.897841 0.236210
0.000000 1.000000 0.000000
0.000000 1.000000 0.000000
0.000000 1.000000 0.000000
0.000000 1.000000 0.000000
0.332052 1.000000 0.001297
0.804166 1.000000 0.045533
0.985916 1.000000 0.076326
1.000000 1.000000 0.085206
1.000000 1.000000 0.086458
0.000000 1.000000 0.000000
0.000000 1.000000 0.000000
0.000000 1.000000 0.000000
0.000000 1.000000 0.000000
0.245243 1.000000 0.000000
0.783642 1.000000 0.000000
0.971069 1.000000 0.000000
1.000000 1.000000 0.000000
1.000000 1.000000 0.000000
0.000000 1.000000 0.000000
0.000000 1.000000 0.000000
0.000000 1.000000 0.000000
0.000000 1.000000 0.000000
0.228824 1.000000 0.000000
0.780545 1.000000 0.000000
0.968856 1.000000 0.000000
1.000000 1.000000 0.000000
1.000000 1.000000 0.000000
0.000000 0.000000 0.636255
0.000000 0.000000 0.636271
0.017014 0.000000 0.636408
0.402365 0.000000 0.637079
0.701366 0.000000 0.638849
0.970489 0.000000 0.641794
1.000000 0.000000 0.643992
1.000000 0.000000 0.644739
1.000000 0.000000 0.644862
0.000000 0.000000 0.635981
0.000000 0.000000 0.636011
0.003876 0.000000 0.636133
0.400641 0.000000 0.636820
0.700603 0.000000 0.638590
0.970031 0.000000 0.641535
1.000000 0.000000 0.643717
1.000000 0.000000 0.644480
1.000000 0.000000 0.644587
0.000000 0.000000 0.634485
0.000000 0.000000 0.634516
0.000000 0.000000 0.634638
0.390906 0.000000 0.635325
0.696345 0.000000 0.637095
0.967453 0.000000 0.640055
1.000000 0.000000 0.642252
1.000000 0.000000 0.643015
1.000000 0.000000 0.643122
0.000000 0.263249 0.626719
0.000000 0.263005 0.626734
0.000000 0.261585 0.626871
0.334539 0.254185 0.627573
0.673793 0.233326 0.629374
0.954055 0.192233 0.632380
1.000000 0.153170 0.634623
1.000000 0.136828 0.635401
1.000000 0.134249 0.635508
0.000000 0.617044 0.605615
0.000000 0.616968 0.605631
0.000000 0.616541 0.605783
0.000000 0.614313 0.606500
0.608408 0.608408 0.608408
0.917418 0.598337 0.611582
1.000000 0.590631 0.613931
1.000000 0.587930 0.614740
1.000000 0.587533 0.614862
0.000000 0.889586 0.567651
0.000000 0.889540 0.567681
0.000000 0.889296 0.567834
0.000000 0.888029 0.568627
0.466835 0.884672 0.570733
0.850462 0.879026 0.574197
1.000000 0.874754 0.576791
1.000000 0.873259 0.577676
1.000000 0.873045 0.577813
0.000000 1.000000 0.536553
0.000000 1.000000 0.536584
0.000000 1.000000 0.536751
0.000000 1.000000 0.537621
0.294453 1.000000 0.539895
0.794400 1.000000 0.543664
0.978820 1.000000 0.546471
1.000000 1.000000 0.547433
1.000000 1.000000 0.547570
0.000000 1.000000 0.525139
0.000000 1.000000 0.525170
0.000000 1.000000 0.525338
0.000000 1.000000 0.526238
0.185107 1.000000 0.528588
0.773465 1.000000 0.532479
0.963806 1.000000 0.535363
1.000000 1.000000 0.536355
1.000000 1.000000 0.536492
0.000000 1.000000 0.523430
0.000000 1.000000 0.523461
0.000000 1.000000 0.523629
0.000000 1.000000 0.524529
0.161440 1.000000 0.526894
0.770306 1.000000 0.530800
0.961563 1.000000 0.533700
1.000000 1.000000 0.534691
1.000000 1.000000 0.534844
0.000000 0.000000 0.872206
0.000000 0.000000 0.872221
0.000000 0.000000 0.872297
0.353506 0.000000 0.872724
0.680980 0.000000 0.873823
0.958282 0.000000 0.875654
1.000000 0.000000 0.877012
1.000000 0.000000 0.877485
1.000000 0.000000 0.877562
0.000000 0.000000 0.872038
0.000000 0.000000 0.872053
0.000000 0.000000 0.872145
0.351461 0.000000 0.872557
0.680171 0.000000 0.873655
0.957809 0.000000 0.875486
1.000000 0.000000 0.876844
1.000000 0.000000 0.877317
1.000000 0.000000 0.877394
0.000000 0.000000 0.871122
0.000000 0.000000 0.871138
0.000000 0.000000 0.871214
0.339742 0.000000 0.871641
0.675715 0.000000 0.872740
0.955184 0.000000 0.874571
1.000000 0.000000 0.875929
1.000000 0.000000 0.876402
1.000000 0.000000 0.876478
0.000000 0.000000 0.866346
0.000000 0.000000 0.866361
0.000000 0.000000 0.866453
0.268482 0.000000 0.866865
0.652064 0.000000 0.867979
0.941512 0.000000 0.869825
1.000000 0.000000 0.871199
1.000000 0.000000 0.871687
1.000000 0.000000 0.871748
0.000000 0.537728 0.853651
0.000000 0.537636 0.853651
0.000000 0.537102 0.853742
0.000000 0.534371 0.854170
0.582925 0.527108 0.855314
0.904067 0.514611 0.857191
1.000000 0.504952 0.858610
1.000000 0.501534 0.859098
1.000000 0.501030 0.859174
0.000000 0.846830 0.831708
0.000000 0.846784 0.831724
0.000000 0.846509 0.831815
0.000000 0.845136 0.832258
0.428229 0.841520 0.833448
0.835416 0.835416 0.835416
1.000000 0.830793 0.836881
1.000000 0.829175 0.837385
1.000000 0.828931 0.837461
0.000000 0.996872 0.814679
0.000000 0.996826 0.814694
0.000000 0.996628 0.814786
0.000000 0.995560 0.815244
0.212039 0.992752 0.816464
0.777630 0.988052 0.818494
0.966781 0.984497 0.820020
1.000000 0.983261 0.820539
1.000000 0.983078 0.820615
0.000000 1.000000 0.808652
0.000000 1.000000 0.808667
0.000000 1.000000 0.808759
0.000000 1.000000 0.809216
0.000000 1.000000 0.810452
0.755978 1.000000 0.812512
0.951461 1.000000 0.814038
1.000000 1.000000 0.814572
1.000000 1.000000 0.814649
0.000000 1.000000 0.807752
0.000000 1.000000 0.807767
0.000000 1.000000 0.807858
0.000000 1.000000 0.808331
0.000000 1.000000 0.809567
0.752697 1.000000 0.811612
0.949172 1.000000 0.813153
1.000000 1.000000 0.813687
1.000000 1.000000 0.813764
0.000000 0.000000 0.999222
0.000000 0.000000 0.999237
0.000000 0.000000 0.999298
0.309865 0.000000 0.999634
0.665064 0.000000 1.000000
0.948974 0.000000 1.000000
1.000000 0.000000 1.000000
1.000000 0.000000 1.000000
1.000000 0.000000 1.000000
0.000000 0.000000 0.999084
0.000000 0.000000 0.999100
0.000000 0.000000 0.999161
0.307408 0.000000 0.999496
0.664240 0.000000 1.000000
0.948501 0.000000 1.000000
1.000000 0.000000 1.000000
1.000000 0.000000 1.000000
1.000000 0.000000 1.000000
0.000000 0.000000 0.998337
0.000000 0.000000 0.998352
0.000000 0.000000 0.998413
0.293294 0.000000 0.998764
0.659617 0.000000 0.999649
0.945830 0.000000 1.000000
1.000000 0.000000 1.000000
1.000000 0.000000 1.000000
1.000000 0.000000 1.000000
0.000000 0.000000 0.994491
0.000000 0.000000 0.994507
0.000000 0.000000 0.994568
0.200580 0.000000 0.994903
0.635050 0.000000 0.995804
0.931945 0.000000 0.997299
1.000000 0.000000 0.998413
1.000000 0.000000 0.998795
1.000000 0.000000 0.998856
0.000000 0.464698 0.984283
0.000000 0.464576 0.984298
0.000000 0.463920 0.984360
0.000000 0.460548 0.984710
0.562692 0.451499 0.985611
0.893858 0.435752 0.987137
1.000000 0.423423 0.988266
1.000000 0.419028 0.988647
1.000000 0.418387 0.988708
0.000000 0.812467 0.966827
0.000000 0.812421 0.966827
0.000000 0.812131 0.966903
0.000000 0.810666 0.967254
0.395758 0.806806 0.968200
0.823850 0.800290 0.969757
1.000000 0.795346 0.970916
1.000000 0.793622 0.971313
1.000000 0.793362 0.971374
0.000000 0.970520 0.953414
0.000000 0.970474 0.953429
0.000000 0.970260 0.953506
0.000000 0.969146 0.953857
0.107057 0.966232 0.954818
0.764691 0.961303 0.956405
0.957595 0.957595 0.957595
1.000000 0.956313 0.958007
1.000000 0.956115 0.958068
0.000000 1.000000 0.948699
0.000000 1.000000 0.948714
0.000000 1.000000 0.948775
0.000000 1.000000 0.949142
0.000000 1.000000 0.950103
0.742458 1.000000 0.951720
0.942061 1.000000 0.952911
0.997726 1.000000 0.953323
1.000000 1.000000 0.953384
0.000000 1.000000 0.947997
0.000000 1.000000 0.948013
0.000000 1.000000 0.948089
0.000000 1.000000 0.948455
0.000000 1.000000 0.949416
0.739101 1.000000 0.951019
0.939727 1.000000 0.952224
0.995605 1.000000 0.952636
1.000000 1.000000 0.952697
0.000000 0.000000 1.000000
0.000000 0.000000 1.000000
0.000000 0.000000 1.000000
0.292668 0.000000 1.000000
0.659419 0.000000 1.000000
0.945724 0.000000 1.000000
1.000000 0.000000 1.000000
1.000000 0.000000 1.000000
1.000000 0.000000 1.000000
0.000000 0.000000 1.000000
0.000000 0.000000 1.000000
0.000000 0.000000 1.000000
0.290028 0.000000 1.000000
0.658579 0.000000 1.000000
0.945235 0.000000 1.000000
1.000000 0.000000 1.000000
1.000000 0.000000 1.000000
1.000000 0.000000 1.000000
0.000000 0.000000 1.000000
0.000000 0.000000 1.000000
0.000000 0.000000 1.000000
0.274739 0.000000 1.000000
0.653895 0.000000 1.000000
0.942565 0.000000 1.000000
1.000000 0.000000 1.000000
1.000000 0.000000 1.000000
1.000000 0.000000 1.000000
0.000000 0.000000 1.000000
0.000000 0.000000 1.000000
0.000000 0.000000 1.000000
0.169406 0.000000 1.000000
0.628992 0.000000 1.000000
0.928588 0.000000 1.000000
1.000000 0.000000 1.000000
1.000000 0.000000 1.000000
1.000000 0.000000 1.000000
0.000000 0.435111 1.000000
0.000000 0.434989 1.000000
0.000000 0.434272 1.000000
0.000000 0.430549 1.000000
0.555428 0.420569 1.000000
0.890288 0.403113 1.000000
1.000000 0.389303 1.000000
1.000000 0.384360 1.000000
1.000000 0.383612 1.000000
0.000000 0.800031 1.000000
0.000000 0.799969 1.000000
0.000000 0.799680 1.000000
0.000000 0.798184 1.000000
0.383597 0.794217 1.000000
0.819791 0.787533 1.000000
0.997360 0.782467 1.000000
1.000000 0.780697 1.000000
1.000000 0.780438 1.000000
0.000000 0.961120 0.994797
0.000000 0.961074 0.994812
0.000000 0.960861 0.994873
0.000000 0.959731 0.995209
0.033402 0.956756 0.996109
0.760128 0.951766 0.997604
0.954391 0.947997 0.998718
1.000000 0.946685 0.999100
1.000000 0.946487 0.999161
0.000000 1.000000 0.990387
0.000000 1.000000 0.990402
0.000000 1.000000 0.990463
0.000000 1.000000 0.990799
0.000000 1.000000 0.991699
0.737682 0.999420 0.993210
0.938766 0.995926 0.994324
0.994720 0.994720 0.994720
1.000000 0.994537 0.994766
0.000000 1.000000 0.989731
0.000000 1.000000 0.989746
0.000000 1.000000 0.989807
0.000000 1.000000 0.990158
0.000000 1.000000 0.991058
0.734295 1.000000 0.992554
0.936416 1.000000 0.993683
0.992584 1.000000 0.994064
1.000000 1.000000 0.994125
0.000000 0.000000 1.000000
0.000000 0.000000 1.000000
0.000000 0.000000 1.000000
0.290028 0.000000 1.000000
0.658579 0.000000 1.000000
0.945235 0.000000 1.000000
1.000000 0.000000 1.000000
1.000000 0.000000 1.000000
1.000000 0.000000 1.000000
0.000000 0.000000 1.000000
0.000000 0.000000 1.000000
0.000000 0.000000 1.000000
0.287343 0.000000 1.000000
0.657740 0.000000 1.000000
0.944762 0.000000 1.000000
1.000000 0.000000 1.000000
1.000000 0.000000 1.000000
1.000000 0.000000 1.000000
0.000000 0.000000 1.000000
0.000000 0.000000 1.000000
0.000000 0.000000 1.000000
0.271855 0.000000 1.000000
0.653056 0.000000 1.000000
0.942077 0.000000 1.000000
1.000000 0.000000 1.000000
1.000000 0.000000 1.000000
1.000000 0.000000 1.000000
0.000000 0.000000 1.000000
0.000000 0.000000 1.000000
0.000000 0.000000 1.000000
0.164263 0.000000 1.000000
0.628092 0.000000 1.000000
0.928099 0.000000 1.000000
1.000000 0.000000 1.000000
1.000000 0.000000 1.000000
1.000000 0.000000 1.000000
0.000000 0.430518 1.000000
0.000000 0.430381 1.000000
0.000000 0.429648 1.000000
0.000000 0.425879 1.000000
0.554345 0.415747 1.000000
0.889754 0.397971 1.000000
1.000000 0.383917 1.000000
1.000000 0.378866 1.000000
1.000000 0.378119 1.000000
0.000000 0.798169 1.000000
0.000000 0.798108 1.000000
0.000000 0.797818 1.000000
0.000000 0.796307 1.000000
0.381750 0.792340 1.000000
0.819181 0.785626 1.000000
0.996918 0.780545 1.000000
1.000000 0.778775 1.000000
1.000000 0.778515 1.000000
0.000000 0.959716 1.000000
0.000000 0.959670 1.000000
0.000000 0.959457 1.000000
0.000000 0.958328 1.000000
0.020249 0.955352 1.000000
0.759457 0.950347 1.000000
0.953918 0.946563 1.000000
1.000000 0.945251 1.000000
1.000000 0.945052 1.000000
0.000000 1.000000 0.996292
0.000000 1.000000 0.996307
0.000000 1.000000 0.996368
0.000000 1.000000 0.996704
0.000000 1.000000 0.997604
0.736980 0.998108 0.999084
0.938277 0.994614 1.000000
0.994263 0.993393 1.000000
1.000000 0.993210 1.000000
0.000000 1.000000 0.995651
0.000000 1.000000 0.995666
0.000000 1.000000 0.995727
0.000000 1.000000 0.996063
0.000000 1.000000 0.996963
0.733577 1.000000 0.998444
0.935927 1.000000 0.999557
0.992142 1.000000 0.999939
1.000000 1.000000 1.000000
