ARRI/ARRI_LogC2Video_2020_33.cube
LUT_3D_SIZE 33
0.000000 0.000000 0.000000
0.000153 0.000046 0.000046
0.000931 0.000137 0.000107
0.002808 0.000168 0.000076
0.006241 0.000290 0.000092
0.011627 0.000549 0.000183
0.019333 0.000916 0.000305
0.029526 0.001389 0.000473
0.042283 0.001999 0.000671
0.057527 0.002716 0.000916
0.075547 0.003662 0.001236
0.096544 0.005020 0.001678
0.120500 0.006897 0.002304
0.147341 0.009476 0.003174
0.176867 0.012924 0.004334
0.208835 0.017456 0.005844
0.243214 0.023331 0.007813
0.280095 0.030900 0.010346
0.319341 0.040467 0.013550
0.360754 0.052384 0.017548
0.404120 0.066453 0.022461
0.449195 0.081147 0.028397
0.495705 0.096315 0.035477
0.543206 0.111818 0.043778
0.590997 0.127398 0.053269
0.638682 0.142962 0.063630
0.685985 0.158389 0.073960
0.732540 0.173571 0.084123
0.778058 0.188418 0.094057
0.822217 0.202823 0.103700
0.864790 0.216709 0.112993
0.905699 0.230045 0.121935
0.944945 0.242847 0.130495
0.000610 0.000946 0.000580
0.001495 0.001602 0.000656
0.003403 0.002289 0.000504
0.006760 0.002945 0.000046
0.011902 0.003265 0.000076
0.019272 0.003250 0.000214
0.029175 0.002823 0.000397
0.041810 0.001968 0.000656
0.057343 0.002701 0.000900
0.075593 0.003677 0.001236
0.096300 0.005005 0.001678
0.119951 0.006851 0.002289
0.146609 0.009400 0.003143
0.176150 0.012833 0.004303
0.208377 0.017380 0.005829
0.243000 0.023301 0.007797
0.279698 0.030808 0.010315
0.318624 0.040269 0.013489
0.359716 0.052064 0.017441
0.402716 0.065995 0.022293
0.447379 0.080552 0.028138
0.493446 0.095583 0.035111
0.540642 0.110979 0.043305
0.588678 0.126650 0.052781
0.636957 0.142397 0.063249
0.684810 0.158007 0.073701
0.731899 0.173358 0.083986
0.777859 0.188357 0.094011
0.822416 0.202884 0.103746
0.865415 0.216907 0.113130
0.906813 0.230411 0.122164
0.946548 0.243366 0.130846
0.984619 0.255787 0.139162
0.001953 0.004456 0.001617
0.003632 0.005997 0.001236
0.006744 0.007584 0.000412
0.011566 0.008942 0.000000
0.018448 0.009918 0.000000
0.027802 0.010529 0.000061
0.039933 0.010712 0.000259
0.055024 0.010422 0.000549
0.073060 0.009720 0.000931
0.093965 0.008850 0.001450
0.117372 0.007996 0.002167
0.143435 0.009064 0.003037
0.172595 0.012375 0.004150
0.204639 0.016815 0.005631
0.239338 0.022614 0.007584
0.276387 0.030076 0.010071
0.315328 0.039399 0.013199
0.355917 0.050904 0.017044
0.398428 0.064591 0.021775
0.442618 0.079011 0.027481
0.488258 0.093889 0.034287
0.535088 0.109163 0.042283
0.582788 0.124727 0.051560
0.631052 0.140475 0.061967
0.679500 0.156268 0.072541
0.727337 0.171878 0.082979
0.773999 0.187091 0.093172
0.819303 0.201862 0.103059
0.863096 0.216159 0.112627
0.905348 0.229938 0.121843
0.945968 0.243183 0.130724
0.984955 0.255894 0.139239
0.996521 0.259678 0.141756
0.003311 0.011505 0.002243
0.005936 0.014160 0.001007
0.010300 0.016770 0.000000
0.016571 0.018845 0.000000
0.025208 0.020615 0.000000
0.036545 0.022034 0.000000
0.050858 0.022995 0.000000
0.068162 0.023514 0.000244
0.088609 0.023728 0.000702
0.112108 0.023865 0.001343
0.138277 0.024140 0.002213
0.166751 0.024842 0.003357
0.198093 0.026032 0.004883
0.232227 0.027985 0.006867
0.268956 0.031052 0.009430
0.307988 0.037522 0.012573
0.348898 0.048768 0.016342
0.391180 0.062226 0.020920
0.434974 0.076509 0.026429
0.480247 0.091279 0.033021
0.526741 0.106447 0.040772
0.574166 0.121920 0.049790
0.622217 0.137591 0.060029
0.670527 0.153338 0.070573
0.718746 0.169070 0.081102
0.766369 0.184604 0.091508
0.812757 0.199741 0.101640
0.857725 0.214405 0.111452
0.901183 0.228580 0.120943
0.943023 0.242222 0.130083
0.982986 0.255253 0.138811
0.996521 0.259678 0.141756
0.996521 0.259678 0.141756
0.004089 0.022995 0.001617
0.007813 0.026963 0.000000
0.013382 0.030274 0.000000
0.021225 0.033310 0.000000
0.031693 0.036027 0.000000
0.045029 0.038376 0.000000
0.061387 0.040269 0.000000
0.080690 0.041794 0.000000
0.103380 0.043137 0.000290
0.129213 0.044404 0.001053
0.157809 0.045869 0.002090
0.188632 0.047852 0.003464
0.222004 0.050614 0.005280
0.258167 0.054444 0.007614
0.296864 0.059709 0.010620
0.337789 0.066438 0.014359
0.380499 0.074693 0.018952
0.424506 0.084398 0.024445
0.469520 0.095384 0.030915
0.515755 0.107576 0.038529
0.562982 0.120775 0.047379
0.610880 0.134798 0.057481
0.659113 0.149615 0.068086
0.707332 0.165347 0.078614
0.755276 0.180987 0.089082
0.802792 0.196490 0.099458
0.849134 0.211597 0.109575
0.893751 0.226154 0.119326
0.936522 0.240589 0.128618
0.977371 0.254673 0.137469
0.996551 0.261860 0.141588
0.996551 0.263020 0.141482
0.996582 0.264378 0.141375
0.003845 0.039673 0.000000
0.008560 0.044465 0.000000
0.015534 0.048859 0.000000
0.025086 0.052964 0.000000
0.037461 0.056733 0.000000
0.052857 0.060014 0.000000
0.070848 0.062699 0.000000
0.091997 0.065003 0.000000
0.116579 0.067124 0.000000
0.144472 0.069245 0.000534
0.175311 0.071656 0.001755
0.208499 0.074617 0.003372
0.244038 0.078355 0.005478
0.282261 0.083055 0.008194
0.322942 0.088899 0.011643
0.365759 0.096010 0.015946
0.410269 0.104448 0.021180
0.455970 0.114153 0.027420
0.502342 0.124987 0.034699
0.549523 0.136843 0.043153
0.597436 0.149615 0.052873
0.645716 0.163134 0.063569
0.694087 0.177234 0.074296
0.742168 0.191608 0.084916
0.789670 0.206119 0.095384
0.836378 0.220645 0.105653
0.882002 0.235065 0.115663
0.925841 0.249149 0.125246
0.967758 0.262837 0.134401
0.996674 0.272694 0.140673
0.996689 0.273854 0.140581
0.996704 0.275181 0.140459
0.996719 0.276768 0.140322
0.004913 0.061418 0.000000
0.008087 0.066743 0.000000
0.016526 0.071717 0.000000
0.027756 0.076280 0.000000
0.041978 0.080400 0.000000
0.059297 0.084031 0.000000
0.078767 0.087236 0.000000
0.101717 0.090150 0.000000
0.128237 0.092897 0.000000
0.158190 0.095674 0.000000
0.191180 0.098665 0.001053
0.226673 0.102159 0.002899
0.264485 0.106371 0.005325
0.304860 0.111452 0.008438
0.347570 0.117586 0.012375
0.392264 0.124880 0.017243
0.438529 0.133394 0.023163
0.485863 0.143084 0.030167
0.533669 0.153826 0.038300
0.581735 0.165469 0.047578
0.629969 0.177752 0.058091
0.678126 0.190524 0.068956
0.726009 0.203708 0.079698
0.773404 0.217166 0.090257
0.820111 0.230793 0.100633
0.865934 0.244495 0.110780
0.910719 0.258183 0.120653
0.953872 0.271702 0.130129
0.994995 0.284916 0.139132
0.996857 0.287053 0.139391
0.996887 0.288975 0.139223
0.996918 0.291234 0.139010
0.996948 0.293874 0.138750
0.007263 0.085878 0.000000
0.007950 0.092027 0.000000
0.016403 0.097917 0.000000
0.029419 0.103395 0.000000
0.045686 0.108385 0.000000
0.064881 0.112871 0.000000
0.085939 0.116930 0.000000
0.110689 0.120714 0.000000
0.139147 0.124315 0.000000
0.171115 0.127886 0.000000
0.206226 0.131655 0.000000
0.243931 0.135821 0.001541
0.284092 0.140612 0.004257
0.326680 0.146181 0.007767
0.371450 0.152697 0.012177
0.418036 0.160250 0.017624
0.465873 0.168750 0.024186
0.514321 0.178088 0.031891
0.562768 0.188174 0.040726
0.610849 0.198932 0.050660
0.658869 0.210300 0.061646
0.706676 0.222187 0.072648
0.754055 0.234485 0.083436
0.800824 0.247105 0.093996
0.846815 0.259953 0.104326
0.891844 0.272953 0.114366
0.935729 0.286015 0.124117
0.978180 0.299031 0.133501
0.997116 0.306172 0.137545
0.997162 0.308675 0.137285
0.997192 0.311574 0.136980
0.997253 0.314900 0.136629
0.997299 0.318624 0.136233
0.010834 0.114748 0.000000
0.011902 0.122164 0.000000
0.016617 0.129168 0.000000
0.031571 0.135821 0.000000
0.050095 0.141924 0.000000
0.070954 0.147524 0.000000
0.093462 0.152667 0.000000
0.119921 0.157504 0.000000
0.150240 0.162158 0.000000
0.184176 0.166766 0.000000
0.221347 0.171511 0.000000
0.261265 0.176608 0.000000
0.303746 0.182238 0.001755
0.348302 0.188327 0.005600
0.394568 0.194934 0.010437
0.442145 0.202152 0.016373
0.490578 0.210056 0.023438
0.539376 0.218662 0.031678
0.588067 0.227970 0.041077
0.636240 0.237903 0.051560
0.684108 0.248402 0.062974
0.731624 0.259419 0.074220
0.778576 0.270878 0.085176
0.824796 0.282673 0.095842
0.870130 0.294759 0.106188
0.914397 0.307042 0.116197
0.957443 0.319463 0.125856
0.997498 0.331548 0.134783
0.997543 0.334524 0.134432
0.997604 0.337957 0.134035
0.997665 0.341802 0.133562
0.997742 0.345998 0.133043
0.997818 0.350500 0.132479
0.016297 0.148989 0.000000
0.017914 0.157641 0.000000
0.019532 0.165881 0.000000
0.036439 0.173907 0.000000
0.057420 0.181430 0.000000
0.079194 0.188373 0.000000
0.102846 0.194858 0.000000
0.130770 0.201022 0.000000
0.162783 0.206958 0.000000
0.198505 0.212757 0.000000
0.237308 0.218372 0.000000
0.278752 0.223941 0.000000
0.322454 0.229648 0.000000
0.368048 0.235615 0.001312
0.415137 0.241978 0.006485
0.463294 0.248814 0.012772
0.512123 0.256199 0.020249
0.561196 0.264195 0.028931
0.610071 0.272801 0.038758
0.658335 0.281987 0.049699
0.706111 0.291707 0.061616
0.753368 0.301946 0.073320
0.799954 0.312612 0.084596
0.845670 0.323644 0.095460
0.890379 0.334997 0.105943
0.933928 0.346593 0.115999
0.976181 0.358373 0.125658
0.998093 0.366308 0.130404
0.998154 0.370077 0.129885
0.998230 0.374197 0.129305
0.998322 0.378592 0.128679
0.998413 0.383230 0.127993
0.998505 0.388128 0.127260
0.024643 0.189288 0.000000
0.027085 0.199359 0.000000
0.029541 0.209003 0.000000
0.045930 0.218372 0.000000
0.069169 0.227344 0.000000
0.091127 0.235798 0.000000
0.115511 0.243656 0.000000
0.144152 0.250858 0.000000
0.176837 0.257496 0.000000
0.213169 0.263691 0.000000
0.252705 0.269581 0.000000
0.294972 0.275303 0.000000
0.339467 0.281041 0.000000
0.385733 0.286915 0.000000
0.433356 0.293065 0.000000
0.481926 0.299565 0.006271
0.531060 0.306538 0.014054
0.580316 0.314000 0.023056
0.629297 0.321996 0.033219
0.677607 0.330526 0.044495
0.725292 0.339559 0.056870
0.772320 0.349081 0.069352
0.818540 0.359014 0.081209
0.863783 0.369345 0.092485
0.907897 0.380011 0.103243
0.950774 0.390951 0.113497
0.992218 0.402090 0.123232
0.998886 0.407172 0.124239
0.998978 0.411231 0.123552
0.999069 0.415534 0.122820
0.999161 0.420081 0.122026
0.999268 0.424887 0.121172
0.999374 0.429953 0.120241
0.037247 0.236149 0.000000
0.040909 0.247807 0.000000
0.044633 0.259007 0.000000
0.061845 0.269612 0.000000
0.084627 0.279515 0.000000
0.105745 0.288609 0.000000
0.129885 0.296941 0.000000
0.158434 0.304570 0.000000
0.191196 0.311574 0.000000
0.227771 0.318059 0.000000
0.267674 0.324147 0.000000
0.310338 0.329992 0.000000
0.355261 0.335729 0.000000
0.401923 0.341512 0.000000
0.449866 0.347463 0.000000
0.498680 0.353704 0.000000
0.547967 0.360281 0.004303
0.597284 0.367300 0.013519
0.646265 0.374762 0.023926
0.694514 0.382696 0.035416
0.742092 0.391119 0.048005
0.788876 0.399985 0.061479
0.834730 0.409277 0.074327
0.879423 0.418875 0.086336
0.922820 0.428733 0.097597
0.964950 0.438819 0.108248
0.999802 0.448066 0.116747
0.999893 0.452003 0.115953
1.000000 0.456107 0.115099
1.000000 0.460426 0.114183
1.000000 0.465019 0.113191
1.000000 0.469856 0.112123
1.000000 0.474937 0.110979
0.055818 0.289448 0.000000
0.060807 0.302083 0.000000
0.065492 0.313924 0.000000
0.080690 0.325032 0.000000
0.101839 0.335348 0.000000
0.121950 0.344793 0.000000
0.145525 0.353429 0.000000
0.173693 0.361334 0.000000
0.206241 0.368551 0.000000
0.242741 0.375204 0.000000
0.282673 0.381399 0.000000
0.325429 0.387289 0.000000
0.370459 0.393011 0.000000
0.417243 0.398703 0.000000
0.465278 0.404471 0.000000
0.514137 0.410452 0.000000
0.563394 0.416693 0.000000
0.612634 0.423285 0.000000
0.661463 0.430274 0.010422
0.709575 0.437675 0.022049
0.756863 0.445411 0.034745
0.803174 0.453498 0.048447
0.848371 0.461906 0.062776
0.892332 0.470619 0.076081
0.935454 0.479606 0.088472
0.977905 0.488853 0.100175
1.000000 0.495735 0.105943
1.000000 0.499641 0.104936
1.000000 0.503700 0.103883
1.000000 0.507973 0.102739
1.000000 0.512490 0.101488
1.000000 0.517250 0.100160
1.000000 0.522271 0.098711
0.078325 0.346395 0.000000
0.083558 0.359609 0.000000
0.088426 0.371923 0.000000
0.101366 0.383383 0.000000
0.120928 0.393988 0.000000
0.139940 0.403647 0.000000
0.162753 0.412451 0.000000
0.190295 0.420462 0.000000
0.222370 0.427756 0.000000
0.258518 0.434455 0.000000
0.298177 0.440665 0.000000
0.340749 0.446540 0.000000
0.385611 0.452201 0.000000
0.432242 0.457771 0.000000
0.480140 0.463355 0.000000
0.528817 0.469078 0.000000
0.577813 0.474968 0.000000
0.626673 0.481025 0.000000
0.674998 0.487343 0.000000
0.722606 0.493950 0.004135
0.769345 0.500893 0.016892
0.815061 0.508171 0.030564
0.859846 0.515785 0.045167
0.903975 0.523705 0.060655
0.947417 0.531930 0.075242
0.990204 0.540398 0.088640
1.000000 0.545510 0.091463
1.000000 0.549310 0.090196
1.000000 0.553262 0.088838
1.000000 0.557412 0.087373
1.000000 0.561807 0.085786
1.000000 0.566445 0.084062
1.000000 0.571344 0.082185
0.101976 0.406180 0.000000
0.107286 0.419638 0.000000
0.112261 0.432212 0.000000
0.123842 0.443900 0.000000
0.141833 0.454643 0.000000
0.159762 0.464378 0.000000
0.181735 0.473198 0.000000
0.208499 0.481193 0.000000
0.239887 0.488457 0.000000
0.275456 0.495125 0.000000
0.314595 0.501289 0.000000
0.356695 0.507088 0.000000
0.401144 0.512642 0.000000
0.447318 0.517983 0.000000
0.494652 0.523186 0.000000
0.542702 0.528389 0.000000
0.591028 0.533654 0.000000
0.639200 0.539071 0.000000
0.686915 0.544732 0.000000
0.733959 0.550668 0.000000
0.780194 0.556939 0.000000
0.825803 0.563531 0.008225
0.870802 0.570459 0.023087
0.915175 0.577691 0.038956
0.958892 0.585214 0.055833
1.000000 0.593011 0.072206
1.000000 0.596750 0.071458
1.000000 0.600412 0.069749
1.000000 0.604242 0.067918
1.000000 0.608255 0.065934
1.000000 0.612497 0.063767
1.000000 0.616983 0.061387
1.000000 0.621714 0.058793
0.126528 0.468284 0.000000
0.131853 0.481743 0.000000
0.136797 0.494240 0.000000
0.147799 0.505821 0.000000
0.164370 0.516472 0.000000
0.181323 0.526131 0.000000
0.202487 0.534874 0.000000
0.228428 0.542794 0.000000
0.258991 0.549981 0.000000
0.293736 0.556527 0.000000
0.332052 0.562493 0.000000
0.373281 0.567971 0.000000
0.416831 0.573083 0.000000
0.462119 0.577935 0.000000
0.508629 0.582666 0.000000
0.555871 0.587350 0.000000
0.603403 0.592096 0.000000
0.650858 0.596994 0.000000
0.697932 0.602090 0.000000
0.744564 0.607507 0.000000
0.790753 0.613214 0.000000
0.836423 0.619257 0.000000
0.881529 0.625589 0.000000
0.926070 0.632227 0.012772
0.970001 0.639155 0.029938
1.000000 0.645686 0.044633
1.000000 0.649042 0.042557
1.000000 0.652567 0.040391
1.000000 0.656245 0.038102
1.000000 0.660105 0.035676
1.000000 0.664195 0.033082
1.000000 0.668513 0.030335
1.000000 0.673075 0.027390
0.151736 0.532052 0.000000
0.156970 0.545266 0.000000
0.161791 0.557473 0.000000
0.172717 0.568719 0.000000
0.188022 0.579004 0.000000
0.204257 0.588357 0.000000
0.224765 0.596826 0.000000
0.249821 0.604410 0.000000
0.279332 0.611231 0.000000
0.312932 0.617350 0.000000
0.350103 0.622904 0.000000
0.390249 0.627970 0.000000
0.432761 0.632670 0.000000
0.477073 0.637125 0.000000
0.522637 0.641444 0.000000
0.568978 0.645716 0.000000
0.615671 0.650034 0.000000
0.662409 0.654536 0.000000
0.709026 0.659266 0.000000
0.755398 0.664271 0.000000
0.801434 0.669551 0.000000
0.847044 0.675120 0.000000
0.892195 0.680980 0.000000
0.936812 0.687114 0.000000
0.980896 0.693523 0.000000
1.000000 0.698848 0.010163
1.000000 0.702083 0.007935
1.000000 0.705455 0.005585
1.000000 0.708995 0.003113
1.000000 0.712703 0.000504
1.000000 0.716640 0.000000
1.000000 0.720790 0.000000
1.000000 0.725170 0.000000
0.177325 0.596735 0.000000
0.182361 0.609491 0.000000
0.186999 0.621195 0.000000
0.198199 0.631891 0.000000
0.212207 0.641566 0.000000
0.227771 0.650263 0.000000
0.247517 0.658091 0.000000
0.271687 0.665110 0.000000
0.300221 0.671412 0.000000
0.332784 0.677089 0.000000
0.368872 0.682231 0.000000
0.407935 0.686915 0.000000
0.449378 0.691279 0.000000
0.492638 0.695399 0.000000
0.537209 0.699382 0.000000
0.582589 0.703334 0.000000
0.628428 0.707439 0.000000
0.674495 0.711696 0.000000
0.720607 0.716182 0.000000
0.766598 0.720882 0.000000
0.812375 0.725811 0.000000
0.857847 0.731014 0.000000
0.902922 0.736461 0.000000
0.947555 0.742168 0.000000
0.991714 0.748150 0.000000
1.000000 0.752529 0.000000
1.000000 0.755627 0.000000
1.000000 0.758877 0.000000
1.000000 0.762280 0.000000
1.000000 0.765850 0.000000
1.000000 0.769635 0.000000
1.000000 0.773617 0.000000
1.000000 0.777798 0.000000
0.202914 0.661448 0.000000
0.207630 0.673381 0.000000
0.211917 0.684230 0.000000
0.223453 0.694102 0.000000
0.236286 0.703029 0.000000
0.251377 0.711040 0.000000
0.270542 0.718242 0.000000
0.294011 0.724712 0.000000
0.321706 0.730526 0.000000
0.353353 0.735760 0.000000
0.388464 0.740490 0.000000
0.426505 0.744839 0.000000
0.466911 0.748867 0.000000
0.509133 0.752682 0.000000
0.552621 0.756497 0.000000
0.596979 0.760372 0.000000
0.641917 0.764355 0.000000
0.687251 0.768475 0.000000
0.732753 0.772763 0.000000
0.778271 0.777234 0.000000
0.823697 0.781903 0.000000
0.868925 0.786801 0.000000
0.913848 0.791928 0.000000
0.958419 0.797299 0.000000
1.000000 0.802914 0.000000
1.000000 0.806516 0.000000
1.000000 0.809522 0.000000
1.000000 0.812665 0.000000
1.000000 0.815885 0.000000
1.000000 0.819135 0.000000
1.000000 0.822446 0.000000
1.000000 0.825788 0.000000
1.000000 0.829023 0.000000
0.228016 0.724926 0.000000
0.232364 0.735943 0.000000
0.236316 0.745922 0.000000
0.248341 0.755032 0.000000
0.260334 0.763210 0.000000
0.275135 0.770565 0.000000
0.293889 0.777173 0.000000
0.316808 0.783108 0.000000
0.343862 0.788434 0.000000
0.374731 0.793240 0.000000
0.408988 0.797604 0.000000
0.446113 0.801617 0.000000
0.485466 0.805432 0.000000
0.526497 0.809232 0.000000
0.568811 0.813046 0.000000
0.612131 0.816907 0.000000
0.656168 0.820829 0.000000
0.700694 0.824857 0.000000
0.745525 0.829007 0.000000
0.790509 0.833310 0.000000
0.835508 0.837781 0.000000
0.880400 0.842451 0.000000
0.925093 0.847333 0.000000
0.969528 0.852430 0.000000
1.000000 0.857725 0.000000
1.000000 0.860609 0.000000
1.000000 0.863279 0.000000
1.000000 0.865843 0.000000
1.000000 0.868284 0.000000
1.000000 0.870603 0.000000
1.000000 0.872770 0.000000
1.000000 0.874678 0.000000
1.000000 0.876371 0.000000
0.252461 0.786770 0.000000
0.256504 0.796994 0.000000
0.261753 0.806195 0.000000
0.272877 0.814527 0.000000
0.284352 0.822019 0.000000
0.299031 0.828748 0.000000
0.317586 0.834791 0.000000
0.340185 0.840208 0.000000
0.366766 0.845075 0.000000
0.397040 0.849485 0.000000
0.430533 0.853529 0.000000
0.466575 0.857481 0.000000
0.504707 0.861372 0.000000
0.544549 0.865232 0.000000
0.585763 0.869062 0.000000
0.628046 0.872923 0.000000
0.671153 0.876829 0.000000
0.714855 0.880812 0.000000
0.758984 0.884886 0.000000
0.803357 0.889082 0.000000
0.847868 0.893431 0.000000
0.892317 0.897887 0.000000
0.936568 0.902403 0.000000
0.980438 0.906935 0.000000
1.000000 0.911208 0.000000
1.000000 0.913085 0.000000
1.000000 0.914717 0.000000
1.000000 0.916030 0.000000
1.000000 0.917021 0.000000
1.000000 0.917693 0.000000
1.000000 0.917937 0.000000
1.000000 0.917815 0.000000
1.000000 0.917647 0.000000
0.276158 0.846677 0.000000
0.279927 0.856229 0.000000
0.286763 0.864820 0.000000
0.297002 0.872511 0.000000
0.308385 0.879362 0.000000
0.323156 0.885496 0.000000
0.341711 0.890990 0.000000
0.364187 0.895918 0.000000
0.390478 0.900374 0.000000
0.420096 0.904616 0.000000
0.452598 0.908751 0.000000
0.487541 0.912795 0.000000
0.524559 0.916777 0.000000
0.563287 0.920699 0.000000
0.603418 0.924590 0.000000
0.644694 0.928481 0.000000
0.686885 0.932418 0.000000
0.729763 0.936385 0.000000
0.773068 0.940337 0.000000
0.816587 0.944244 0.000000
0.860136 0.948074 0.000000
0.903502 0.951751 0.000000
0.946532 0.955245 0.000000
0.989075 0.958495 0.000000
1.000000 0.961059 0.000000
1.000000 0.961425 0.000000
1.000000 0.961288 0.000000
1.000000 0.960647 0.000000
1.000000 0.959594 0.000000
1.000000 0.958358 0.000000
1.000000 0.957015 0.000000
1.000000 0.955657 0.000000
1.000000 0.954345 0.000000
0.299046 0.904585 0.000000
0.302571 0.913481 0.000000
0.311269 0.921492 0.000000
0.320851 0.928664 0.000000
0.332540 0.935027 0.000000
0.347601 0.940688 0.000000
0.366339 0.945708 0.000000
0.388769 0.950347 0.000000
0.414572 0.954833 0.000000
0.443458 0.959197 0.000000
0.475044 0.963439 0.000000
0.508995 0.967590 0.000000
0.544961 0.971664 0.000000
0.582666 0.975692 0.000000
0.621759 0.979644 0.000000
0.661952 0.983474 0.000000
0.702953 0.987137 0.000000
0.744488 0.990600 0.000000
0.786328 0.993820 0.000000
0.828260 0.996750 0.000000
0.870085 0.999329 0.000000
0.911604 1.000000 0.000000
0.952667 1.000000 0.000000
0.993042 1.000000 0.000000
1.000000 1.000000 0.000000
1.000000 1.000000 0.000000
1.000000 1.000000 0.000000
1.000000 0.999191 0.000000
1.000000 0.996872 0.000000
1.000000 0.994415 0.000000
1.000000 0.991913 0.000000
1.000000 0.989441 0.000000
1.000000 0.987076 0.000000
0.321141 0.960449 0.000000
0.326192 0.968734 0.000000
0.335195 0.976196 0.000000
0.344732 0.982849 0.000000
0.357000 0.988785 0.000000
0.372519 0.994125 0.000000
0.391394 0.999207 0.000000
0.413565 1.000000 0.000000
0.438880 1.000000 0.000000
0.467063 1.000000 0.000000
0.497856 1.000000 0.000000
0.530861 1.000000 0.000000
0.565713 1.000000 0.000000
0.602090 1.000000 0.000000
0.639658 1.000000 0.000000
0.678141 1.000000 0.000000
0.717250 1.000000 0.000000
0.756756 1.000000 0.000000
0.796414 1.000000 0.000000
0.836027 1.000000 0.000000
0.875380 1.000000 0.000000
0.914366 1.000000 0.000000
0.953033 1.000000 0.000000
0.991257 1.000000 0.000000
1.000000 1.000000 0.000000
1.000000 1.000000 0.000000
1.000000 1.000000 0.000000
1.000000 1.000000 0.000000
1.000000 1.000000 0.000000
1.000000 1.000000 0.000000
1.000000 1.000000 0.000000
1.000000 1.000000 0.000000
1.000000 1.000000 0.000000
0.342443 1.000000 0.000000
0.350179 1.000000 0.000000
0.358633 1.000000 0.000000
0.368841 1.000000 0.000000
0.381827 1.000000 0.000000
0.397757 1.000000 0.000000
0.416739 1.000000 0.000000
0.438712 1.000000 0.000000
0.463508 1.000000 0.000000
0.490852 1.000000 0.000000
0.520439 1.000000 0.000000
0.551919 1.000000 0.000000
0.584497 1.000000 0.000000
0.618540 1.000000 0.000000
0.653727 1.000000 0.000000
0.689769 1.000000 0.000000
0.726390 1.000000 0.000000
0.763317 1.000000 0.000000
0.800458 1.000000 0.000000
0.837827 1.000000 0.000000
0.875349 1.000000 0.000000
0.912688 1.000000 0.000000
0.949630 1.000000 0.000000
0.986114 1.000000 0.000000
1.000000 1.000000 0.000000
1.000000 1.000000 0.000000
1.000000 1.000000 0.000000
1.000000 1.000000 0.000000
1.000000 1.000000 0.000000
1.000000 1.000000 0.000000
1.000000 1.000000 0.000000
1.000000 1.000000 0.000000
1.000000 1.000000 0.000000
0.365240 1.000000 0.000000
0.372656 1.000000 0.000000
0.379019 1.000000 0.000000
0.387930 1.000000 0.000000
0.399710 1.000000 0.000000
0.414466 1.000000 0.000000
0.432227 1.000000 0.000000
0.452888 1.000000 0.000000
0.476249 1.000000 0.000000
0.502052 1.000000 0.000000
0.529992 1.000000 0.000000
0.559716 1.000000 0.000000
0.590921 1.000000 0.000000
0.623285 1.000000 0.000000
0.656519 1.000000 0.000000
0.690562 1.000000 0.000000
0.725307 1.000000 0.000000
0.760586 1.000000 0.000000
0.796353 1.000000 0.000000
0.832471 1.000000 0.000000
0.868727 1.000000 0.000000
0.904936 1.000000 0.000000
0.940856 1.000000 0.000000
0.976257 1.000000 0.000000
1.000000 1.000000 0.000000
1.000000 1.000000 0.000000
1.000000 1.000000 0.000000
1.000000 1.000000 0.000000
1.000000 1.000000 0.000000
1.000000 1.000000 0.000000
1.000000 1.000000 0.000000
1.000000 1.000000 0.000000
1.000000 1.000000 0.000000
0.370825 1.000000 0.000000
0.376394 1.000000 0.000000
0.384100 1.000000 0.000000
0.394293 1.000000 0.000000
0.407156 1.000000 0.000000
0.422705 1.000000 0.000000
0.440879 1.000000 0.000000
0.461540 1.000000 0.000000
0.484459 1.000000 0.000000
0.509361 1.000000 0.000000
0.535973 1.000000 0.000000
0.564034 1.000000 0.000000
0.593500 1.000000 0.000000
0.624140 1.000000 0.000000
0.655818 1.000000 0.000000
0.688365 1.000000 0.000000
0.721660 1.000000 0.000000
0.755703 1.000000 0.000000
0.790295 1.000000 0.000000
0.825223 1.000000 0.000000
0.860288 1.000000 0.000000
0.895247 1.000000 0.000000
0.929885 1.000000 0.000000
0.963973 1.000000 0.000000
0.997223 1.000000 0.000000
1.000000 1.000000 0.000000
1.000000 1.000000 0.000000
1.000000 1.000000 0.000000
1.000000 1.000000 0.000000
1.000000 1.000000 0.000000
