ARRI/ARRI_LogC4-to-St2084_1K_Rec2100-D65_DW100_v1_33.cube
LUT_3D_SIZE 5
0.00000000 0.00000000 0.00000000
0.17880857 0.00797360 0.02851478
0.57011171 0.04628223 0.17956774
0.75053555 0.49924415 0.43471761
0.75182710 0.75159212 0.75137608
0.01109986 0.19637589 0.03764996
0.27193487 0.27598117 0.00865219
0.57733772 0.18155564 0.17915986
0.75059280 0.50066756 0.43578820
0.75182710 0.75159060 0.75137434
0.04003771 0.57579976 0.13820133
0.09426640 0.58203272 0.09193670
0.58134261 0.58748485 0.26234923
0.75097207 0.53637705 0.45567480
0.75182710 0.75156600 0.75134649
0.55545651 0.75182710 0.48081153
0.55608810 0.75182710 0.48201766
0.58282226 0.75182710 0.50500861
0.72705838 0.73638335 0.58364734
0.75182090 0.75104428 0.75080568
0.75147688 0.75182709 0.75119859
0.75147724 0.75182709 0.75119911
0.75147925 0.75182706 0.75120560
0.75146684 0.75182700 0.75120138
0.75175426 0.75182655 0.75106202
0.03070878 0.00691402 0.15666025
0.24562809 0.03030397 0.24409858
0.57438401 0.16463624 0.29201817
0.75054552 0.50046784 0.43905873
0.75182710 0.75159025 0.75137200
0.00327002 0.25927466 0.25244600
0.27731951 0.27731951 0.27731951
0.57931557 0.24420422 0.29809393
0.75061800 0.50223493 0.44019975
0.75182710 0.75158871 0.75137025
0.04432311 0.57987465 0.23212892
0.16940330 0.58522225 0.23120154
0.58159617 0.58787593 0.32354463
0.75105722 0.53778679 0.45982637
0.75182710 0.75156406 0.75134241
0.55682776 0.75182710 0.48296507
0.55848055 0.75182710 0.48404329
0.58380736 0.75182710 0.50639217
0.72705879 0.73636512 0.58444121
0.75182090 0.75104335 0.75080358
0.75147674 0.75182709 0.75119829
0.75147697 0.75182709 0.75119882
0.75147873 0.75182706 0.75120474
0.75146669 0.75182700 0.75120108
0.75175427 0.75182655 0.75106218
0.22380815 0.23987487 0.57022762
0.26025728 0.25669257 0.57342509
0.57630964 0.26116349 0.57249119
0.74931644 0.53060035 0.53668238
0.75182710 0.75156061 0.75131261
0.22723666 0.26551641 0.57362081
0.26214511 0.27648777 0.57709125
0.57784933 0.27744149 0.57399836
0.74938457 0.53192608 0.53723936
0.75182710 0.75155904 0.75131087
0.46624130 0.57479095 0.56958174
0.46950797 0.57600705 0.57106513
0.57735060 0.57735060 0.57735060
0.74892731 0.56005063 0.54939039
0.75182710 0.75153461 0.75128366
0.58605373 0.75026295 0.54104791
0.58699226 0.75031906 0.54181635
0.60215016 0.75081778 0.55257573
0.72634059 0.73507734 0.61290257
0.75181997 0.75102889 0.75077834
0.75146619 0.75182710 0.75118397
0.75146621 0.75182710 0.75118401
0.75146634 0.75182710 0.75118591
0.75146229 0.75182708 0.75119443
0.75175456 0.75182652 0.75106436
0.47204819 0.56566435 0.74323128
0.47376271 0.56622949 0.74337645
0.51108254 0.57753240 0.74347847
0.73067477 0.59854854 0.71871983
0.75182565 0.75109437 0.75063613
0.47280188 0.56639405 0.74328870
0.47449693 0.56695292 0.74344960
0.51152051 0.57813365 0.74354853
0.73074334 0.59882161 0.71879912
0.75182565 0.75109323 0.75063548
0.48447490 0.57781427 0.74413605
0.48596086 0.57828477 0.74433642
0.51900904 0.58758495 0.74457673
0.73149671 0.60304467 0.71970507
0.75182591 0.75107490 0.75062505
0.69188101 0.72238262 0.72012836
0.69196776 0.72241367 0.72016798
0.69317969 0.72283233 0.72071744
0.72312849 0.72312849 0.72312849
0.75182403 0.75066832 0.75037577
0.75158771 0.75182083 0.75124805
0.75158786 0.75182084 0.75124857
0.75158991 0.75182101 0.75125617
0.75154752 0.75182607 0.75129284
0.75176278 0.75182621 0.75115875
0.75081778 0.75125932 0.75182576
0.75081573 0.75125819 0.75182575
0.75078639 0.75124198 0.75182598
0.75012850 0.75099505 0.75181594
0.75182710 0.75078123 0.75169829
0.75081597 0.75125823 0.75182575
0.75081393 0.75125711 0.75182574
0.75078463 0.75124093 0.75182597
0.75012810 0.75099445 0.75181597
0.75182710 0.75078143 0.75169831
0.75078679 0.75124054 0.75182615
0.75078483 0.75123945 0.75182613
0.75075675 0.75122379 0.75182638
0.75012194 0.75098452 0.75181651
0.75182710 0.75078428 0.75169864
0.75020413 0.75086771 0.75182691
0.75020352 0.75086736 0.75182692
0.75019406 0.75086212 0.75182698
0.74998364 0.75078203 0.75182710
0.75182710 0.75082208 0.75170275
0.75125357 0.75181746 0.75178708
0.75125364 0.75181746 0.75178708
0.75125471 0.75181733 0.75178712
0.75126725 0.75181643 0.75178706
0.75182710 0.75182710 0.75182710
