ARRI/ARRI_LogC4-to-St2084_1K_Rec2100-D65_DW100_v1_33.cube
LUT_3D_SIZE 9
0.00000000 0.00000000 0.00000000
0.01604736 0.00073263 0.00288427
0.17880857 0.00797360 0.02851478
0.40678301 0.02711235 0.09173180
0.57011171 0.04628223 0.17956774
0.68491084 0.13495210 0.25551913
0.75053555 0.49924415 0.43471761
0.75180671 0.67910818 0.64662089
0.75182710 0.75159212 0.75137608
0.00058212 0.02015476 0.00523883
0.03518049 0.03771537 0.00117242
0.21371812 0.05312450 0.00789425
0.41554406 0.02906303 0.08032370
0.57183043 0.06712063 0.17768404
0.68512849 0.14899563 0.25610596
0.75054749 0.49947464 0.43493817
0.75180677 0.67913976 0.64665665
0.75182710 0.75159188 0.75137582
0.01109986 0.19637589 0.03764996
0.05453677 0.22886686 0.01466663
0.27193487 0.27598117 0.00865219
0.43566410 0.27683849 0.04198273
0.57733772 0.18155564 0.17915986
0.68582332 0.18204093 0.25937530
0.75059280 0.50066756 0.43578820
0.75180705 0.67925977 0.64679527
0.75182710 0.75159060 0.75137434
0.04016291 0.41639257 0.08152442
0.04910160 0.42327380 0.06234986
0.27500340 0.44054547 0.03601523
0.45038884 0.45502292 0.06481676
0.58237743 0.44358309 0.25805637
0.68788557 0.33278176 0.28003512
0.75075454 0.50552056 0.43894856
0.75180792 0.67972797 0.64732705
0.75182710 0.75158562 0.75136867
0.04003771 0.57579976 0.13820133
0.03584085 0.57708301 0.13651298
0.09426640 0.58203272 0.09193670
0.41719619 0.59050880 0.07052768
0.58134261 0.58748485 0.26234923
0.68575126 0.55786988 0.38447917
0.75097207 0.53637705 0.45567480
0.75180313 0.68144457 0.64933970
0.75182710 0.75156600 0.75134649
0.10937802 0.68962800 0.13039680
0.11130538 0.68985612 0.13694677
0.10568499 0.69072556 0.14755619
0.12753960 0.69418975 0.10207545
0.51604776 0.69619352 0.19108971
0.67271392 0.68020665 0.41295291
0.74539219 0.65564181 0.53504216
0.75182029 0.69012697 0.65871148
0.75182710 0.75148994 0.75124741
0.55545651 0.75182710 0.48081153
0.55570614 0.75182710 0.48104720
0.55608810 0.75182710 0.48201766
0.56288928 0.75182710 0.48829628
0.58282226 0.75182710 0.50500861
0.65067976 0.75057975 0.52762256
0.72705838 0.73638335 0.58364734
0.75182710 0.72925101 0.69360899
0.75182090 0.75104428 0.75080568
0.73056797 0.75181192 0.71615274
0.73057203 0.75181198 0.71616518
0.73060769 0.75181228 0.71621410
0.73076503 0.75181342 0.71639086
0.73130555 0.75181271 0.71710376
0.73292166 0.75179919 0.71992799
0.73890241 0.75182710 0.72451664
0.74946014 0.75151287 0.73018563
0.75182710 0.75159462 0.75140724
0.75147688 0.75182709 0.75119859
0.75147699 0.75182709 0.75119873
0.75147724 0.75182709 0.75119911
0.75147791 0.75182709 0.75120052
0.75147925 0.75182706 0.75120560
0.75147726 0.75182710 0.75119905
0.75146684 0.75182700 0.75120138
0.75149690 0.75182498 0.75118532
0.75175426 0.75182655 0.75106202
0.00128410 0.00041276 0.00769598
0.02662514 0.00189301 0.02495147
0.20283107 0.01193545 0.08410450
0.41203588 0.02954768 0.13423038
0.57133884 0.05958133 0.19405969
0.68503203 0.15111782 0.26164961
0.75053954 0.49944690 0.43560376
0.75180672 0.67913114 0.64669057
0.75182710 0.75159179 0.75137535
0.00000000 0.03159839 0.02931997
0.05613715 0.05613715 0.05613715
0.23603416 0.03404859 0.08038140
0.41960997 0.06201937 0.13262718
0.57255313 0.11418785 0.19510519
0.68523861 0.15203352 0.26228622
0.75055517 0.49978780 0.43584080
0.75180679 0.67916209 0.64672608
0.75182710 0.75159154 0.75137509
0.01124536 0.22082528 0.08226074
0.03284578 0.24831974 0.07304838
0.27819357 0.28003772 0.04959847
0.43926342 0.27638005 0.11714297
0.57777329 0.20445581 0.19759872
0.68599446 0.19421184 0.26501371
0.75061029 0.50106213 0.43673668
0.75180708 0.67928100 0.64686394
0.75182710 0.75159026 0.75137361
0.05021584 0.42148836 0.11006588
0.06573988 0.42784737 0.10459699
0.26995972 0.44398037 0.07021261
0.45136777 0.45579971 0.12287729
0.58282611 0.44420672 0.26695258
0.68811502 0.33350580 0.28432957
0.75077281 0.50595763 0.43990023
0.75180801 0.67974867 0.64739494
0.75182710 0.75158527 0.75136793
0.03918277 0.57672518 0.15557661
0.03721905 0.57797131 0.15461776
0.11968649 0.58281889 0.12756136
0.41742464 0.59102136 0.11293716
0.58149813 0.58760291 0.26984195
0.68574581 0.55825509 0.38732183
0.75099318 0.53666793 0.45651329
0.75180317 0.68146533 0.64940615
0.75182710 0.75156565 0.75134576
0.10126038 0.68974368 0.16063969
0.10258667 0.68997075 0.16234325
0.09894680 0.69083772 0.17165975
0.11447273 0.69429509 0.10752287
0.51647477 0.69623354 0.19850011
0.67273308 0.68022073 0.41393529
0.74538390 0.65571314 0.53551423
0.75182042 0.69014292 0.65876848
0.75182710 0.75148964 0.75124677
0.55583341 0.75182710 0.48119466
0.55600592 0.75182710 0.48144563
0.55655267 0.75182710 0.48238980
0.56328738 0.75182710 0.48874499
0.58301568 0.75182710 0.50533889
0.65072634 0.75058001 0.52786257
0.72705862 0.73638001 0.58380542
0.75182710 0.72925596 0.69364456
0.75182090 0.75104411 0.75080530
0.73056758 0.75181194 0.71616481
0.73057301 0.75181201 0.71617723
0.73061749 0.75181230 0.71622637
0.73077192 0.75181344 0.71640396
0.73131045 0.75181273 0.71711507
0.73292566 0.75179920 0.71993689
0.73890408 0.75182710 0.72452080
0.74946023 0.75151263 0.73018999
0.75182710 0.75159457 0.75140706
0.75147690 0.75182709 0.75119856
0.75147702 0.75182709 0.75119870
0.75147721 0.75182709 0.75119909
0.75147789 0.75182709 0.75120051
0.75147915 0.75182706 0.75120545
0.75147720 0.75182710 0.75119894
0.75146682 0.75182700 0.75120134
0.75149691 0.75182498 0.75118535
0.75175426 0.75182655 0.75106205
0.03070878 0.00691402 0.15666025
0.06498972 0.01027531 0.18253358
0.24562809 0.03030397 0.24409858
0.42459530 0.04756744 0.28688954
0.57438401 0.16463624 0.29201817
0.68528013 0.19935310 0.28892841
0.75054552 0.50046784 0.43905873
0.75180678 0.67921897 0.64696153
0.75182710 0.75159025 0.75137200
0.02598456 0.02068768 0.19311980
0.06524753 0.02034521 0.21440965
0.25697198 0.03377234 0.25626438
0.43001797 0.07268473 0.29033873
0.57546263 0.18262119 0.29297071
0.68548993 0.20934043 0.28937666
0.75056071 0.50082246 0.43929156
0.75180686 0.67924969 0.64699692
0.75182710 0.75159000 0.75137174
0.00327002 0.25927466 0.25244600
0.01007780 0.26811013 0.26319686
0.27731951 0.27731951 0.27731951
0.44379499 0.27637532 0.30121669
0.57931557 0.24420422 0.29809393
0.68627748 0.24448312 0.29126872
0.75061800 0.50223493 0.44019975
0.75180719 0.67936787 0.64713380
0.75182710 0.75158871 0.75137025
0.04532009 0.43254530 0.27863674
0.07607059 0.43702840 0.28222884
0.26989820 0.44841908 0.28801449
0.45166347 0.45566685 0.31846872
0.58198737 0.45226172 0.34473784
0.68871201 0.34119432 0.30523756
0.75082790 0.50744148 0.44349685
0.75180811 0.67983225 0.64766075
0.75182710 0.75158369 0.75136457
0.04432311 0.57987465 0.23212892
0.05927159 0.58100181 0.23243614
0.16940330 0.58522225 0.23120154
0.41937141 0.59181676 0.23523790
0.58159617 0.58787593 0.32354463
0.68562893 0.56002274 0.39962605
0.75105722 0.53778679 0.45982637
0.75180327 0.68154618 0.64966416
0.75182710 0.75156406 0.75134241
0.09828833 0.69030937 0.21409681
0.09938068 0.69053350 0.21459287
0.08854170 0.69138126 0.21635525
0.16288890 0.69469895 0.17931798
0.51788492 0.69636749 0.24064073
0.67278270 0.68026199 0.41868160
0.74534156 0.65600399 0.53743640
0.75182079 0.69020484 0.65898919
0.75182710 0.75148825 0.75124383
0.55682776 0.75182710 0.48296507
0.55720782 0.75182710 0.48319220
0.55848055 0.75182710 0.48404329
0.56417113 0.75182710 0.49021553
0.58380736 0.75182710 0.50639217
0.65090843 0.75057932 0.52882395
0.72705879 0.73636512 0.58444121
0.75182710 0.72927538 0.69378279
0.75182090 0.75104335 0.75080358
0.73059774 0.75181206 0.71621229
0.73060917 0.75181213 0.71622475
0.73065548 0.75181242 0.71627400
0.73079606 0.75181355 0.71645161
0.73132819 0.75181285 0.71715748
0.73294102 0.75179924 0.71997037
0.73891052 0.75182710 0.72453584
0.74946054 0.75151169 0.73020685
0.75182710 0.75159436 0.75140631
0.75147674 0.75182709 0.75119829
0.75147682 0.75182709 0.75119843
0.75147697 0.75182709 0.75119882
0.75147778 0.75182709 0.75120031
0.75147873 0.75182706 0.75120474
0.75147689 0.75182710 0.75119839
0.75146669 0.75182700 0.75120108
0.75149695 0.75182498 0.75118545
0.75175427 0.75182655 0.75106218
0.11742545 0.01410051 0.40469881
0.13245890 0.02395718 0.40996764
0.27535200 0.03827910 0.42612168
0.44154470 0.05236658 0.43985951
0.57784010 0.21967186 0.43471630
0.68433995 0.33362787 0.40956614
0.75050717 0.50623657 0.45526756
0.75180556 0.67955742 0.64800367
0.75182710 0.75158413 0.75135858
0.11975491 0.02241253 0.41227628
0.13453224 0.04796635 0.41623662
0.27736903 0.06632546 0.43046228
0.44333267 0.08152946 0.44173132
0.57863021 0.22733035 0.43561480
0.68454147 0.33576097 0.40987224
0.75052176 0.50661040 0.45546693
0.75180564 0.67958790 0.64803872
0.75182710 0.75158388 0.75135832
0.08569899 0.24614352 0.43297232
0.11214504 0.24854260 0.43628785
0.28303006 0.25391615 0.44279988
0.44904302 0.23610151 0.44710732
0.58149069 0.26216978 0.43927919
0.68529968 0.34433128 0.41113620
0.75057686 0.50805797 0.45624571
0.75180598 0.67970566 0.64817440
0.75182710 0.75158256 0.75135683
0.21624549 0.44423481 0.43827073
0.22375503 0.44565115 0.43994195
0.30251658 0.44920306 0.44462244
0.44940579 0.44940579 0.44940579
0.57971447 0.45845649 0.46783362
0.68760693 0.39089590 0.41914040
0.75078886 0.51330548 0.45914456
0.75180687 0.68016370 0.64869508
0.75182710 0.75157752 0.75135113
0.37791399 0.57609323 0.44298390
0.37983621 0.57682575 0.44395610
0.38787457 0.57948395 0.44766006
0.46841915 0.58246542 0.46138204
0.57929644 0.58439150 0.49071996
0.68118840 0.57374039 0.48736574
0.75046263 0.54285732 0.47472318
0.75180454 0.68185973 0.65066764
0.75182710 0.75155793 0.75132905
0.20035086 0.69149296 0.32763796
0.20259770 0.69167279 0.32818503
0.19630956 0.69235219 0.33036121
0.30863892 0.69466910 0.33887709
0.53431007 0.69413522 0.38127875
0.67208876 0.67995752 0.46861387
0.74493134 0.65734110 0.54594820
0.75182389 0.69044258 0.65985540
0.75182710 0.75148291 0.75123194
0.56063020 0.75182710 0.48934080
0.56068228 0.75182710 0.48953557
0.56136085 0.75182710 0.49026455
0.56632927 0.75182710 0.49545175
0.58616113 0.75182710 0.51081782
0.65161248 0.75058669 0.53210527
0.72705207 0.73629136 0.58701155
0.75182710 0.72935138 0.69433146
0.75182095 0.75104038 0.75079646
0.73074252 0.75181095 0.71642023
0.73075256 0.75181102 0.71643258
0.73078820 0.75181133 0.71648061
0.73091461 0.75181250 0.71665562
0.73141024 0.75181160 0.71734333
0.73300136 0.75179761 0.72012291
0.73893280 0.75182710 0.72459487
0.74946160 0.75150791 0.73027289
0.75182710 0.75159358 0.75140329
0.75147601 0.75182707 0.75119686
0.75147610 0.75182707 0.75119701
0.75147638 0.75182707 0.75119750
0.75147754 0.75182706 0.75119962
0.75147723 0.75182703 0.75120180
0.75147569 0.75182710 0.75119585
0.75146620 0.75182700 0.75119985
0.75149711 0.75182499 0.75118580
0.75175432 0.75182654 0.75106268
0.22380815 0.23987487 0.57022762
0.22960188 0.24243981 0.57094414
0.26025728 0.25669257 0.57342509
0.43498852 0.30702078 0.57573367
0.57630964 0.26116349 0.57249119
0.68318660 0.36653693 0.54317259
0.74931644 0.53060035 0.53668238
0.75180439 0.68092954 0.65261894
0.75182710 0.75156061 0.75131261
0.22451110 0.24484125 0.57093290
0.23026038 0.24680180 0.57172689
0.26064315 0.26029743 0.57417791
0.43544183 0.30931673 0.57632382
0.57663091 0.26431484 0.57281193
0.68333335 0.36795304 0.54339425
0.74933995 0.53082806 0.53678598
0.75180443 0.68095949 0.65265159
0.75182710 0.75156036 0.75131235
0.22723666 0.26551641 0.57362081
0.23269790 0.26628745 0.57468790
0.26214511 0.27648777 0.57709125
0.43720352 0.31888200 0.57854887
0.57784933 0.27744149 0.57399836
0.68388071 0.37375647 0.54428145
0.74938457 0.53192608 0.53723936
0.75180468 0.68107502 0.65277818
0.75182710 0.75155904 0.75131087
0.31607845 0.43881032 0.57450446
0.31872313 0.43923694 0.57501764
0.33157552 0.44090534 0.57685384
0.45538120 0.45117032 0.57746693
0.58067140 0.41939394 0.57571210
0.68560940 0.40315582 0.54814330
0.74955397 0.53618330 0.53913378
0.75180589 0.68151855 0.65326191
0.75182710 0.75155402 0.75130521
0.46624130 0.57479095 0.56958174
0.46694961 0.57505243 0.56989719
0.46950797 0.57600705 0.57106513
0.50305364 0.57775698 0.57398228
0.57735060 0.57735060 0.57735060
0.67415599 0.58339091 0.58857153
0.74892731 0.56005063 0.54939039
0.75180527 0.68317483 0.65509547
0.75182710 0.75153461 0.75128366
0.53269153 0.67515699 0.56573964
0.53301606 0.67527444 0.56594070
0.53438371 0.67571816 0.56671873
0.54014876 0.67720619 0.56969193
0.59294510 0.67609091 0.58237913
0.66847437 0.67378456 0.60866525
0.73889781 0.66672521 0.60816949
0.75182710 0.69142450 0.66354934
0.75182710 0.75146318 0.75119298
0.58605373 0.75026295 0.54104791
0.58625061 0.75027472 0.54120564
0.58699226 0.75031906 0.54181635
0.58973764 0.75047673 0.54399992
0.60215016 0.75081778 0.55257573
0.65782419 0.74800834 0.57128047
0.72634059 0.73507734 0.61290257
0.75182710 0.72967369 0.69646846
0.75181997 0.75102889 0.75077834
0.73116969 0.75179600 0.71695672
0.73117716 0.75179604 0.71696880
0.73120585 0.75179619 0.71701479
0.73131828 0.75179673 0.71719231
0.73175779 0.75179457 0.71786958
0.73323726 0.75179711 0.72048763
0.73900217 0.75182710 0.72448748
0.74946759 0.75149452 0.73050059
0.75182710 0.75159041 0.75139528
0.75146619 0.75182710 0.75118397
0.75146621 0.75182710 0.75118400
0.75146621 0.75182710 0.75118401
0.75146633 0.75182710 0.75118420
0.75146634 0.75182710 0.75118591
0.75146670 0.75182710 0.75118071
0.75146229 0.75182708 0.75119443
0.75149751 0.75182491 0.75118846
0.75175456 0.75182652 0.75106436
0.32198866 0.39029212 0.67747153
0.32371996 0.39094697 0.67762921
0.33071197 0.39373302 0.67810918
0.37042622 0.40971473 0.67967767
0.55073245 0.45609532 0.67736803
0.67070752 0.42899168 0.66361246
0.74573127 0.54404664 0.63402038
0.75181298 0.68568751 0.67743127
0.75182710 0.75144934 0.75094135
0.32233815 0.39130054 0.67761047
0.32404631 0.39188947 0.67779828
0.33102276 0.39464791 0.67827444
0.37059578 0.41046916 0.67983205
0.55082165 0.45681466 0.67738839
0.67078522 0.42937791 0.66369343
0.74582363 0.54398538 0.63410526
0.75181280 0.68571588 0.67745577
0.75182710 0.75144912 0.75094119
0.32384129 0.39537591 0.67812143
0.32545593 0.39572927 0.67842198
0.33234645 0.39836808 0.67889694
0.37133407 0.41360336 0.68040668
0.55127614 0.45917547 0.67769763
0.67110148 0.43089008 0.66401060
0.74574025 0.54523092 0.63427271
0.75181289 0.68582311 0.67755145
0.75182710 0.75144792 0.75094019
0.32926621 0.41325582 0.68017168
0.33071614 0.41340408 0.68054897
0.33724002 0.41515845 0.68124408
0.37460430 0.42759463 0.68244316
0.55308072 0.46812045 0.67884963
0.67233154 0.43678980 0.66523659
0.74586733 0.54848869 0.63511927
0.75181280 0.68623623 0.67791668
0.75182710 0.75144343 0.75093639
0.47061600 0.56854570 0.67273074
0.47107907 0.56863399 0.67283269
0.47305692 0.56901745 0.67315876
0.48356652 0.57075731 0.67414839
0.58115157 0.58287981 0.67109688
0.67272257 0.54978071 0.66578790
0.74617296 0.56323880 0.63890337
0.75180859 0.68781093 0.67931557
0.75182710 0.75142578 0.75092204
0.60410949 0.66597161 0.66212253
0.60422377 0.66601651 0.66217752
0.60467583 0.66618717 0.66238724
0.60629606 0.66679197 0.66315098
0.62766303 0.66752746 0.66491772
0.66725055 0.66725055 0.66725055
0.73081815 0.67329873 0.67529431
0.75182710 0.69522226 0.68565884
0.75182682 0.75136647 0.75086480
0.64818834 0.73354396 0.65818390
0.64825304 0.73355672 0.65822728
0.64849799 0.73360760 0.65839016
0.64943241 0.73379654 0.65899351
0.65309894 0.73440396 0.66118431
0.68140618 0.73156608 0.67093029
0.72341865 0.72766803 0.69100274
0.75182710 0.73172628 0.71361559
0.75181507 0.75095972 0.75055257
0.72911062 0.75182710 0.71663949
0.72912019 0.75182710 0.71665276
0.72915709 0.75182710 0.71670422
0.72929693 0.75182710 0.71689922
0.72981837 0.75182710 0.71762113
0.73148731 0.75182710 0.71998661
0.73774484 0.75182710 0.72293101
0.74931288 0.75117350 0.73344148
0.75182710 0.75157976 0.75131291
0.75144292 0.75182633 0.75114562
0.75144294 0.75182633 0.75114567
0.75144298 0.75182633 0.75114573
0.75144315 0.75182634 0.75114601
0.75144348 0.75182650 0.75114720
0.75145110 0.75182616 0.75115107
0.75147192 0.75182056 0.75123067
0.75150222 0.75182429 0.75120171
0.75175498 0.75182591 0.75107478
0.47204819 0.56566435 0.74323128
0.47238918 0.56577625 0.74327608
0.47376271 0.56622949 0.74337645
0.47913610 0.56795796 0.74351034
0.51108254 0.57753240 0.74347847
0.64706182 0.60107893 0.73615647
0.73067477 0.59854854 0.71871983
0.75182710 0.69232895 0.71194808
0.75182565 0.75109437 0.75063613
0.47220209 0.56581418 0.74324320
0.47254254 0.56592636 0.74328818
0.47391244 0.56637786 0.74339164
0.47927848 0.56810328 0.74352523
0.51117122 0.57765500 0.74349315
0.64709196 0.60117472 0.73616995
0.73068767 0.59860853 0.71873580
0.75182710 0.69235069 0.71196009
0.75182565 0.75109419 0.75063604
0.47280188 0.56639405 0.74328870
0.47314030 0.56650719 0.74333444
0.47449693 0.56695292 0.74344960
0.47983585 0.56866605 0.74358252
0.51152051 0.57813365 0.74354853
0.64721076 0.60154284 0.73622213
0.73074334 0.59882161 0.71879912
0.75182710 0.69243552 0.71200703
0.75182565 0.75109323 0.75063548
0.47523833 0.56868380 0.74343920
0.47556828 0.56879510 0.74348567
0.47687286 0.56922281 0.74363942
0.48207693 0.57088757 0.74378344
0.51293877 0.58006601 0.74373790
0.64767359 0.60302442 0.73641042
0.73092998 0.59971182 0.71902144
0.75182710 0.69275787 0.71218634
0.75182564 0.75108965 0.75063335
0.48447490 0.57781427 0.74413605
0.48477526 0.57791031 0.74417722
0.48596086 0.57828477 0.74433642
0.49074940 0.57974636 0.74468719
0.51900904 0.58758495 0.74457673
0.64942779 0.60814366 0.73706004
0.73149671 0.60304467 0.71970507
0.75182710 0.69402480 0.71288601
0.75182591 0.75107490 0.75062505
0.60522627 0.66705732 0.73125523
0.60530504 0.66707904 0.73126771
0.60561369 0.66716360 0.73131601
0.60686606 0.66748932 0.73149238
0.61337814 0.66889458 0.73187216
0.67285194 0.67671174 0.72750301
0.72891154 0.65984606 0.72120911
0.75182710 0.69906485 0.71586569
0.75182194 0.75103641 0.75059597
0.69188101 0.72238262 0.72012836
0.69189882 0.72238902 0.72013652
0.69196776 0.72241367 0.72016798
0.69223578 0.72250559 0.72028563
0.69317969 0.72283233 0.72071744
0.70459974 0.72307837 0.72166278
0.72312849 0.72312849 0.72312849
0.75019371 0.73405319 0.73417870
0.75182403 0.75066832 0.75037577
0.72766087 0.75107444 0.72844325
0.72766807 0.75107466 0.72844944
0.72769608 0.75107543 0.72847352
0.72780237 0.75107836 0.72856490
0.72820851 0.75108833 0.72890764
0.72969904 0.75111651 0.73016623
0.73759709 0.75018808 0.73421386
0.74883760 0.74955074 0.74368210
0.75182710 0.75143787 0.75105413
0.75158771 0.75182083 0.75124805
0.75158775 0.75182083 0.75124817
0.75158786 0.75182084 0.75124857
0.75158830 0.75182087 0.75125011
0.75158991 0.75182101 0.75125617
0.75160231 0.75182021 0.75128238
0.75154752 0.75182607 0.75129284
0.75152747 0.75182710 0.75121659
0.75176278 0.75182621 0.75115875
0.66688157 0.70162800 0.75182710
0.66691606 0.70164146 0.75182710
0.66704875 0.70169345 0.75182710
0.66756076 0.70189322 0.75182710
0.66939787 0.70261581 0.75182710
0.67963179 0.70614970 0.75182710
0.72537825 0.71471686 0.75182710
0.75097035 0.72828082 0.74670596
0.75182531 0.75046047 0.75081754
0.66690682 0.70164334 0.75182710
0.66694130 0.70165680 0.75182710
0.66707392 0.70170877 0.75182710
0.66758567 0.70190844 0.75182710
0.66942212 0.70263074 0.75182710
0.67964965 0.70616281 0.75182710
0.72538296 0.71472723 0.75182710
0.75097039 0.72828670 0.74670701
0.75182531 0.75046042 0.75081753
0.66700453 0.70170267 0.75182710
0.66703893 0.70171603 0.75182710
0.66717131 0.70176790 0.75182710
0.66768202 0.70196718 0.75182710
0.66951602 0.70268845 0.75182710
0.67971938 0.70621357 0.75182710
0.72540124 0.71476743 0.75182710
0.75097052 0.72830952 0.74671106
0.75182531 0.75046013 0.75081744
0.66737389 0.70192758 0.75182710
0.66740803 0.70194031 0.75182710
0.66753955 0.70199129 0.75182710
0.66804694 0.70218923 0.75182710
0.66987240 0.70290640 0.75182710
0.67998513 0.70640541 0.75182710
0.72547095 0.71491958 0.75182710
0.75097094 0.72839634 0.74672643
0.75182532 0.75045907 0.75081711
0.66883898 0.70282740 0.75182243
0.66887211 0.70283897 0.75182237
0.66899958 0.70288501 0.75182205
0.66949004 0.70307483 0.75182116
0.67126088 0.70377499 0.75182034
0.68102229 0.70717894 0.75182710
0.72573835 0.71552804 0.75182710
0.75097155 0.72873083 0.74678430
0.75182543 0.75045468 0.75081584
0.67355888 0.70578568 0.75182710
0.67358941 0.70579511 0.75182710
0.67370819 0.70583173 0.75182710
0.67416288 0.70597238 0.75182710
0.67588084 0.70657817 0.75182710
0.68486580 0.70960802 0.75182710
0.72673445 0.71726554 0.75182710
0.75098499 0.72979365 0.74698108
0.75182445 0.75045342 0.75081520
0.71522710 0.73284884 0.75043621
0.71523624 0.73285200 0.75043651
0.71527180 0.73286427 0.75043762
0.71540750 0.73291103 0.75044163
0.71594139 0.73308794 0.75045688
0.71824557 0.73371703 0.75036643
0.73498291 0.73650687 0.74901937
0.74998795 0.73976663 0.74806865
0.75182710 0.75035774 0.75079577
0.74244115 0.74837457 0.74785113
0.74244281 0.74837513 0.74785184
0.74244923 0.74837728 0.74785456
0.74247359 0.74838545 0.74786490
0.74256693 0.74841588 0.74790357
0.74287397 0.74852714 0.74804566
0.74512593 0.74870698 0.74840883
0.74894734 0.74894734 0.74894734
0.75182710 0.75112918 0.75112877
0.75161738 0.75182710 0.75155041
0.75161735 0.75182710 0.75155039
0.75161723 0.75182710 0.75155028
0.75161675 0.75182710 0.75154987
0.75161496 0.75182710 0.75154839
0.75161114 0.75182710 0.75154377
0.75158636 0.75182710 0.75153676
0.75160624 0.75182710 0.75151914
0.75179222 0.75182710 0.75150067
0.75081778 0.75125932 0.75182576
0.75081740 0.75125911 0.75182575
0.75081573 0.75125819 0.75182575
0.75080932 0.75125468 0.75182573
0.75078639 0.75124198 0.75182598
0.75071005 0.75119031 0.75182602
0.75012850 0.75099505 0.75181594
0.75095739 0.75069832 0.75182710
0.75182710 0.75078123 0.75169829
0.75081745 0.75125912 0.75182576
0.75081708 0.75125891 0.75182575
0.75081541 0.75125800 0.75182575
0.75080900 0.75125449 0.75182573
0.75078607 0.75124179 0.75182598
0.75070977 0.75119014 0.75182602
0.75012844 0.75099494 0.75181595
0.75095739 0.75069830 0.75182710
0.75182710 0.75078127 0.75169829
0.75081597 0.75125823 0.75182575
0.75081560 0.75125803 0.75182575
0.75081393 0.75125711 0.75182574
0.75080754 0.75125360 0.75182572
0.75078463 0.75124093 0.75182597
0.75070847 0.75118935 0.75182602
0.75012810 0.75099445 0.75181597
0.75095738 0.75069818 0.75182710
0.75182710 0.75078143 0.75169831
0.75081052 0.75125498 0.75182571
0.75081015 0.75125478 0.75182571
0.75080849 0.75125387 0.75182570
0.75080212 0.75125038 0.75182567
0.75077926 0.75123776 0.75182593
0.75070358 0.75118649 0.75182601
0.75012685 0.75099263 0.75181604
0.75095736 0.75069776 0.75182710
0.75182710 0.75078202 0.75169838
0.75078679 0.75124054 0.75182615
0.75078643 0.75124034 0.75182615
0.75078483 0.75123945 0.75182613
0.75077868 0.75123604 0.75182611
0.75075675 0.75122379 0.75182638
0.75068399 0.75117381 0.75182643
0.75012194 0.75098452 0.75181651
0.75095732 0.75069584 0.75182710
0.75182710 0.75078428 0.75169864
0.75075102 0.75122297 0.75182282
0.75075066 0.75122277 0.75182282
0.75074906 0.75122187 0.75182282
0.75074295 0.75121854 0.75182283
0.75072064 0.75120626 0.75182284
0.75063955 0.75115618 0.75182153
0.75011262 0.75098038 0.75181336
0.75095720 0.75070015 0.75182710
0.75182710 0.75079227 0.75169961
0.75020413 0.75086771 0.75182691
0.75020403 0.75086765 0.75182692
0.75020352 0.75086736 0.75182692
0.75020160 0.75086626 0.75182696
0.75019406 0.75086212 0.75182698
0.75017377 0.75084753 0.75182710
0.74998364 0.75078203 0.75182710
0.75096548 0.75063987 0.75182710
0.75182710 0.75082208 0.75170275
0.75033090 0.75112609 0.75182710
0.75033094 0.75112609 0.75182710
0.75033109 0.75112609 0.75182710
0.75033165 0.75112607 0.75182710
0.75033368 0.75112600 0.75182710
0.75034591 0.75112617 0.75182710
0.75036900 0.75112807 0.75182710
0.75100254 0.75109748 0.75182710
0.75182710 0.75109419 0.75175191
0.75125357 0.75181746 0.75178708
0.75125359 0.75181746 0.75178708
0.75125364 0.75181746 0.75178708
0.75125387 0.75181743 0.75178709
0.75125471 0.75181733 0.75178712
0.75125793 0.75181700 0.75178721
0.75126725 0.75181643 0.75178706
0.75141929 0.75181367 0.75179886
0.75182710 0.75182710 0.75182710
