ARRI/ARRI_LogC4-to-St2084_1K_Rec2100-D65_DW100_v1_33.cube
LUT_3D_SIZE 33
0.00000000 0.00000000 0.00000000
0.00000000 0.00023451 0.00027884
0.00013323 0.00131973 0.00135008
0.00452367 0.00113091 0.00165337
0.01604736 0.00073263 0.00288427
0.03706012 0.00139923 0.00647687
0.07133962 0.00254809 0.01203830
0.11995793 0.00488601 0.01939685
0.17880857 0.00797360 0.02851478
0.24029729 0.01125035 0.03968936
0.29968018 0.01543492 0.05384440
0.35537287 0.01701123 0.07120663
0.40678301 0.02711235 0.09173180
0.45369062 0.04919476 0.11448375
0.49627358 0.06597970 0.13751840
0.53496609 0.06154508 0.15909538
0.57011171 0.04628223 0.17956774
0.60210834 0.05913494 0.19974357
0.63194562 0.07730772 0.21672929
0.66005186 0.09397653 0.23102826
0.68491084 0.13495210 0.25551913
0.70650647 0.25287175 0.29129380
0.72542680 0.35821238 0.33359368
0.74120693 0.43367889 0.38008181
0.75053555 0.49924415 0.43471761
0.75182710 0.56030060 0.49591285
0.75182710 0.60780270 0.55127533
0.75182710 0.64599110 0.60110440
0.75180671 0.67910818 0.64662089
0.75182143 0.70851114 0.68797533
0.75182710 0.73264674 0.72297214
0.75182710 0.74721076 0.74470519
0.75182710 0.75159212 0.75137608
0.00027701 0.00000000 0.00021164
0.00014348 0.00003122 0.00079804
0.00068243 0.00113518 0.00194723
0.00536226 0.00075779 0.00203511
0.01726599 0.00004159 0.00314163
0.03860378 0.00046881 0.00675554
0.07357186 0.00149492 0.01232153
0.12318803 0.00378957 0.01961324
0.18223740 0.00665994 0.02850052
0.24309586 0.00982109 0.03940450
0.30169559 0.01495346 0.05342483
0.35675700 0.01749295 0.07075354
0.40771340 0.02855079 0.09132981
0.45430836 0.05110253 0.11417428
0.49668068 0.06842907 0.13730525
0.53523558 0.06562054 0.15895089
0.57028753 0.05336695 0.17949659
0.60222514 0.06455186 0.19970853
0.63202522 0.07913643 0.21670512
0.66009774 0.09423727 0.23106739
0.68493561 0.13724049 0.25558910
0.70652100 0.25410183 0.29135459
0.72543579 0.35852990 0.33363728
0.74121204 0.43374036 0.38011293
0.75053706 0.49927258 0.43474285
0.75182710 0.56032013 0.49592957
0.75182710 0.60781439 0.55128566
0.75182710 0.64599767 0.60111099
0.75180671 0.67911188 0.64662502
0.75182143 0.70851322 0.68797789
0.75182710 0.73264776 0.72297350
0.75182710 0.74721105 0.74470560
0.75182710 0.75159213 0.75137610
0.00119358 0.00019461 0.00129767
0.00107504 0.00080733 0.00197310
0.00171654 0.00201844 0.00307922
0.00717987 0.00158751 0.00252551
0.02032786 0.00017462 0.00315210
0.04284039 0.00000759 0.00659348
0.07949460 0.00086963 0.01191855
0.13058233 0.00263412 0.01879772
0.18915603 0.00467836 0.02717106
0.24842222 0.00718244 0.03774457
0.30545191 0.01299978 0.05186930
0.35931386 0.01687736 0.06952472
0.40942339 0.02957818 0.09043747
0.45544126 0.05319298 0.11354039
0.49742924 0.07140752 0.13685019
0.53573672 0.07023271 0.15859636
0.57062168 0.06070998 0.17925698
0.60245108 0.07061911 0.19954651
0.63218033 0.08122101 0.21658570
0.66018926 0.09456504 0.23107774
0.68498118 0.14074334 0.25570908
0.70654625 0.25622413 0.29147045
0.72545146 0.35909145 0.33371917
0.74122105 0.43383718 0.38017004
0.75053962 0.49931632 0.43478869
0.75182710 0.56035337 0.49595992
0.75182710 0.60783504 0.55130426
0.75182710 0.64600939 0.60112282
0.75180672 0.67911848 0.64663245
0.75182144 0.70851695 0.68798250
0.75182710 0.73264957 0.72297595
0.75182710 0.74721152 0.74470628
0.75182710 0.75159210 0.75137607
0.00078780 0.00594631 0.00237190
0.00043725 0.00699780 0.00291395
0.00100081 0.00919098 0.00351142
0.00855095 0.01073886 0.00232596
0.02634473 0.00987989 0.00183269
0.05303055 0.01035698 0.00418477
0.09266040 0.01190929 0.00801166
0.14379724 0.01221284 0.01319669
0.19979832 0.01193793 0.02048117
0.25614948 0.01072603 0.03068343
0.31085753 0.01197018 0.04589518
0.36300811 0.01481271 0.06540257
0.41189335 0.02860932 0.08800372
0.45706708 0.05365530 0.11218435
0.49849799 0.07310482 0.13599797
0.53645816 0.07273425 0.15790442
0.57111091 0.06507523 0.17872577
0.60278629 0.07452060 0.19915748
0.63241282 0.08242981 0.21629022
0.66032917 0.09482855 0.23099158
0.68504425 0.14479788 0.25586839
0.70657899 0.25891992 0.29164114
0.72547207 0.35985788 0.33383647
0.74123312 0.43397746 0.38024947
0.75054294 0.49937629 0.43485174
0.75182710 0.56039761 0.49600152
0.75182710 0.60786261 0.55132970
0.75182710 0.64602519 0.60113900
0.75180674 0.67912746 0.64664263
0.75182145 0.70852204 0.68798882
0.75182710 0.73265203 0.72297929
0.75182710 0.74721213 0.74470718
0.75182710 0.75159202 0.75137598
0.00058212 0.02015476 0.00523883
0.00000000 0.02167217 0.00572229
0.00000000 0.02511155 0.00599782
0.00864283 0.03067090 0.00394091
0.03518049 0.03771537 0.00117242
0.07149467 0.04620860 0.00132449
0.11436225 0.05332793 0.00257727
0.16248949 0.05598204 0.00440461
0.21371812 0.05312450 0.00789425
0.26619450 0.04257856 0.01456356
0.31815921 0.02928981 0.02998778
0.36827296 0.02054279 0.05283595
0.41554406 0.02906303 0.08032370
0.45948983 0.05315874 0.10835231
0.50007651 0.07353200 0.13403171
0.53751713 0.07334451 0.15652242
0.57183043 0.06712063 0.17768404
0.60328001 0.07657537 0.19840186
0.63275282 0.08272262 0.21574802
0.66052986 0.09456881 0.23081774
0.68512849 0.14899563 0.25610596
0.70662140 0.26218010 0.29189389
0.72549959 0.36091396 0.33400320
0.74124958 0.43421474 0.38035935
0.75054749 0.49947464 0.43493817
0.75182710 0.56046039 0.49605861
0.75182710 0.60789994 0.55136472
0.75182710 0.64604659 0.60116132
0.75180677 0.67913976 0.64665665
0.75182146 0.70852906 0.68799753
0.75182710 0.73265543 0.72298389
0.75182710 0.74721296 0.74470840
0.75182710 0.75159188 0.75137582
0.00137247 0.04483151 0.01083941
0.00059757 0.04663950 0.01133594
0.00026848 0.05116844 0.01140880
0.01004798 0.06084666 0.00807600
0.04548132 0.07749073 0.00272259
0.09317441 0.09597831 0.00163395
0.13878640 0.10950242 0.00218219
0.18298307 0.11759807 0.00245058
0.22882506 0.12008659 0.00268688
0.27700289 0.11322998 0.00332219
0.32632069 0.09274833 0.01086534
0.37483142 0.06133462 0.02910638
0.42058393 0.04912373 0.06285085
0.46300553 0.06119930 0.09956640
0.50238866 0.07776480 0.13001325
0.53906283 0.07574874 0.15404896
0.57288663 0.06943878 0.17583927
0.60401109 0.07758318 0.19703204
0.63324581 0.08130602 0.21485143
0.66079492 0.09150807 0.23068253
0.68523554 0.15198332 0.25651295
0.70667688 0.26572648 0.29227267
0.72553724 0.36226409 0.33424088
0.74127250 0.43458389 0.38051264
0.75055391 0.49963544 0.43505798
0.75182710 0.56055313 0.49613791
0.75182710 0.60795199 0.55141358
0.75182710 0.64607608 0.60119250
0.75180682 0.67915682 0.64667623
0.75182148 0.70853885 0.68800969
0.75182710 0.73266018 0.72299031
0.75182710 0.74721411 0.74471010
0.75182710 0.75159170 0.75137561
0.00336990 0.08327991 0.01878043
0.00252807 0.08569863 0.01925608
0.00180760 0.09182480 0.01907316
0.01132299 0.10459122 0.01434071
0.05295518 0.12490985 0.00613508
0.10997485 0.14643919 0.00386664
0.15955620 0.16269800 0.00420373
0.20248381 0.17324471 0.00451366
0.24450959 0.17982035 0.00431636
0.28853784 0.18114751 0.00239750
0.33462490 0.17196723 0.00388492
0.38129314 0.14729670 0.01288097
0.42605415 0.11714927 0.04327648
0.46713579 0.10414167 0.08979187
0.50522969 0.10449919 0.12640970
0.54100720 0.09543497 0.15200045
0.57429668 0.08184171 0.17369067
0.60506030 0.08039850 0.19487852
0.63396041 0.07749744 0.21338152
0.66114591 0.08345566 0.23062166
0.68537371 0.15282233 0.25716257
0.70675142 0.26934113 0.29282448
0.72558942 0.36381366 0.33457735
0.74130451 0.43507022 0.38072749
0.75056296 0.49987450 0.43522479
0.75182710 0.56068909 0.49624839
0.75182710 0.60802555 0.55148185
0.75182710 0.64611709 0.60123613
0.75180687 0.67918057 0.64670362
0.75182151 0.70855253 0.68802667
0.75182710 0.73266683 0.72299927
0.75182710 0.74721574 0.74471247
0.75182710 0.75159144 0.75137532
0.00638316 0.13558282 0.02812455
0.00540272 0.13888913 0.02847141
0.00458669 0.14627011 0.02789386
0.01285533 0.15890221 0.02201084
0.05622227 0.17641731 0.01068324
0.11993296 0.19493951 0.00629956
0.17407071 0.21070483 0.00655942
0.21857758 0.22218842 0.00679381
0.25950315 0.23013278 0.00646971
0.30074569 0.23511614 0.00401367
0.34365979 0.23501322 0.00354082
0.38778829 0.22546208 0.00670502
0.43088939 0.20668591 0.03634895
0.47066682 0.18734957 0.09159709
0.50779302 0.16961431 0.13094460
0.54288799 0.14855215 0.15510016
0.57583666 0.12036214 0.17385356
0.60640916 0.09465603 0.19270696
0.63494806 0.07649739 0.21135491
0.66162525 0.07769893 0.23058134
0.68556433 0.15822484 0.25807503
0.70685645 0.27462192 0.29358703
0.72566255 0.36565917 0.33504732
0.74134901 0.43565505 0.38103037
0.75057556 0.50020619 0.43545854
0.75182710 0.56088401 0.49640270
0.75182710 0.60812947 0.55157721
0.75182710 0.64617432 0.60129709
0.75180695 0.67921366 0.64674188
0.75182155 0.70857162 0.68805041
0.75182710 0.73267612 0.72301181
0.75182710 0.74721801 0.74471579
0.75182710 0.75159109 0.75137491
0.01109986 0.19637589 0.03764996
0.01101662 0.19971973 0.03766643
0.00986220 0.20633380 0.03621905
0.01505515 0.21615176 0.02881225
0.05453677 0.22886686 0.01466663
0.12305647 0.24271663 0.00840414
0.18255547 0.25607692 0.00848283
0.23002915 0.26743047 0.00894554
0.27193487 0.27598117 0.00865219
0.31229065 0.28188293 0.00628306
0.35304283 0.28493311 0.00560042
0.39466786 0.28351658 0.00855595
0.43566410 0.27683849 0.04198273
0.47392541 0.26605618 0.10309605
0.51010636 0.24743666 0.14399919
0.54466786 0.21883020 0.16513885
0.57733772 0.18155564 0.17915986
0.60782180 0.13722211 0.19336517
0.63608830 0.09856518 0.21031715
0.66219945 0.09834142 0.23119806
0.68582332 0.18204093 0.25937530
0.70700765 0.28391139 0.29460502
0.72576559 0.36805428 0.33569385
0.74141044 0.43638772 0.38145893
0.75059280 0.50066756 0.43578820
0.75182710 0.56116043 0.49661913
0.75182710 0.60827561 0.55171059
0.75182710 0.64625422 0.60138220
0.75180705 0.67925977 0.64679527
0.75182160 0.70859824 0.68808355
0.75182710 0.73268908 0.72302931
0.75182710 0.74722118 0.74472043
0.75182710 0.75159060 0.75137434
0.01447447 0.25755262 0.04649343
0.01519623 0.26015620 0.04603805
0.01503717 0.26501177 0.04376337
0.01815546 0.27179406 0.03535610
0.04919112 0.28048724 0.01912737
0.11854200 0.29033144 0.01060004
0.18478624 0.30071330 0.01022187
0.23659097 0.31080164 0.01016073
0.28055352 0.31941619 0.00964287
0.32152252 0.32576925 0.00723927
0.36154987 0.32962490 0.00525645
0.40152397 0.33078364 0.00708880
0.44068535 0.32949342 0.04662394
0.47743388 0.32604067 0.11648120
0.51249310 0.31589995 0.16147223
0.54637914 0.29284594 0.18218795
0.57875058 0.25461887 0.19176532
0.60907943 0.20703915 0.20032663
0.63712473 0.16439996 0.21342056
0.66281496 0.16135094 0.23358125
0.68617144 0.21695533 0.26128952
0.70722664 0.29567016 0.29593611
0.72591095 0.37105053 0.33656580
0.74149470 0.43741799 0.38206157
0.75061593 0.50133476 0.43625381
0.75182710 0.56155222 0.49692440
0.75182710 0.60848069 0.55189806
0.75182710 0.64636608 0.60150126
0.75180722 0.67932415 0.64686971
0.75182167 0.70863533 0.68812973
0.75182710 0.73270713 0.72305372
0.75182710 0.74722560 0.74472691
0.75182710 0.75158993 0.75137355
0.01636505 0.31492736 0.05561821
0.01813699 0.31672747 0.05483326
0.02061788 0.32000662 0.05230058
0.02358428 0.32451480 0.04434849
0.04455982 0.33040267 0.02810566
0.10604779 0.33736211 0.01635952
0.17869139 0.34503653 0.01552353
0.23745908 0.35318660 0.01740635
0.28486595 0.36104974 0.01758764
0.32732680 0.36758263 0.01393371
0.36779919 0.37198397 0.01021356
0.40724740 0.37401148 0.01036042
0.44537985 0.37428852 0.05233287
0.48111648 0.37371461 0.12832810
0.51515388 0.36993533 0.17869471
0.54814560 0.35739054 0.20289691
0.57999929 0.32940349 0.21216917
0.61015472 0.28539378 0.21570516
0.63805517 0.24136665 0.22273036
0.66351184 0.22491867 0.23878666
0.68664853 0.25165974 0.26423170
0.70754407 0.30856926 0.29770331
0.72611751 0.37501592 0.33771513
0.74161066 0.43900060 0.38288915
0.75064673 0.50230991 0.43690706
0.75182710 0.56210266 0.49735602
0.75182710 0.60876855 0.55216338
0.75182710 0.64652397 0.60166876
0.75180746 0.67941463 0.64697374
0.75182179 0.70868705 0.68819407
0.75182710 0.73273221 0.72308773
0.75182710 0.74723173 0.74473593
0.75182710 0.75158900 0.75137246
0.02411772 0.36777078 0.06687642
0.02635147 0.36896862 0.06598530
0.02937429 0.37113494 0.06357442
0.03106549 0.37411486 0.05688717
0.04180831 0.37811073 0.04195521
0.08723589 0.38306664 0.02585386
0.16124152 0.38866871 0.02168601
0.22988885 0.39483679 0.02451421
0.28389507 0.40134662 0.02659574
0.32919191 0.40746934 0.02426733
0.37089972 0.41223315 0.02228344
0.41079265 0.41495314 0.02382592
0.44889234 0.41578009 0.06062660
0.48444528 0.41568682 0.13679176
0.51791215 0.41433805 0.19251868
0.55007449 0.40879790 0.22247388
0.58116711 0.39324619 0.23612331
0.61093948 0.36163034 0.23958422
0.63880404 0.31794352 0.24063623
0.66424333 0.28584037 0.24923438
0.68725845 0.28771344 0.26952099
0.70799081 0.32443376 0.30036191
0.72641308 0.38086481 0.33925586
0.74177366 0.44143023 0.38398673
0.75068954 0.50367665 0.43779367
0.75182710 0.56285122 0.49795718
0.75182710 0.60916922 0.55253928
0.75182710 0.64674883 0.60190613
0.75180774 0.67954328 0.64711996
0.75182197 0.70875963 0.68828388
0.75182710 0.73276702 0.72313504
0.75182710 0.74724014 0.74474844
0.75182710 0.75158765 0.75137092
0.04016291 0.41639257 0.08152442
0.04225186 0.41718307 0.08069373
0.04497705 0.41860980 0.07869909
0.04575988 0.42057691 0.07382398
0.04910160 0.42327380 0.06234986
0.07309969 0.42679572 0.04486997
0.13432388 0.43093995 0.03466377
0.21037068 0.43551654 0.03443989
0.27500340 0.44054547 0.03601523
0.32621251 0.44575444 0.03489272
0.37037656 0.45041447 0.03303840
0.41144330 0.45366184 0.03331498
0.45038884 0.45502292 0.06481676
0.48668990 0.45490942 0.13890305
0.52031684 0.45388935 0.20016674
0.55201432 0.45119031 0.23744256
0.58237743 0.44358309 0.25805637
0.61153652 0.42535488 0.26652025
0.63918509 0.39248193 0.26713959
0.66476471 0.35330503 0.26838202
0.68788557 0.33278176 0.28003512
0.70855671 0.34722696 0.30528888
0.72682464 0.39016634 0.34162413
0.74200765 0.44515485 0.38545250
0.75075454 0.50552056 0.43894856
0.75182710 0.56382288 0.49876731
0.75182710 0.60971153 0.55306495
0.75182710 0.64706773 0.60224333
0.75180792 0.67972797 0.64732705
0.75182219 0.70886260 0.68840990
0.75182710 0.73281566 0.72320097
0.75182710 0.74725166 0.74476572
0.75182710 0.75158562 0.75136867
0.06422239 0.46117942 0.09964448
0.06516369 0.46170206 0.09888107
0.06603352 0.46264409 0.09725357
0.06541519 0.46394168 0.09393163
0.06417883 0.46574268 0.08620910
0.07120994 0.46820048 0.07108487
0.10756698 0.47128564 0.05337451
0.17785220 0.47476593 0.04611743
0.25352626 0.47854964 0.04634148
0.31563512 0.48265702 0.04754562
0.36539996 0.48675892 0.04889591
0.40874028 0.49016314 0.05024024
0.44911052 0.49207462 0.07554945
0.48692317 0.49220878 0.13770665
0.52166597 0.49102228 0.19976140
0.55362268 0.48886003 0.24462527
0.58357057 0.48468427 0.27390649
0.61209229 0.47511805 0.29033420
0.63927699 0.45522306 0.29616134
0.66480465 0.42349495 0.29624477
0.68820690 0.39109306 0.29947881
0.70907774 0.38199278 0.31548821
0.72731081 0.40597359 0.34624629
0.74231979 0.45138178 0.38774855
0.75085547 0.50814217 0.44048278
0.75182710 0.56505220 0.49982262
0.75182710 0.61041050 0.55377809
0.75182710 0.64750708 0.60271702
0.75180771 0.67999206 0.64762113
0.75182239 0.70901024 0.68858803
0.75182710 0.73288451 0.72329337
0.75182710 0.74726758 0.74478964
0.75182710 0.75158249 0.75136533
0.08075220 0.50247143 0.11992236
0.08131811 0.50281666 0.11930165
0.08183001 0.50343818 0.11806940
0.08140612 0.50429122 0.11595937
0.07958329 0.50547755 0.11153123
0.07907394 0.50714108 0.10189015
0.09140188 0.50937219 0.08547996
0.13555677 0.51207429 0.06878147
0.21170983 0.51502301 0.06043010
0.28995131 0.51817633 0.05938943
0.35222437 0.52151022 0.06305303
0.40134802 0.52468174 0.06579019
0.44424004 0.52695967 0.08218470
0.48408366 0.52762660 0.12950044
0.52084991 0.52657499 0.18987646
0.55413427 0.52426677 0.24178041
0.58442544 0.52090490 0.28059135
0.61259525 0.51529019 0.30673858
0.63923544 0.50423029 0.32121640
0.66442283 0.48399257 0.32640127
0.68788409 0.45546991 0.32780832
0.70915003 0.43157093 0.33472666
0.72763521 0.43302027 0.35618274
0.74263349 0.46287772 0.39228370
0.75099133 0.51249091 0.44281637
0.75182710 0.56670841 0.50120522
0.75182710 0.61127291 0.55470983
0.75182501 0.64808028 0.60336324
0.75180683 0.68035904 0.64803414
0.75182239 0.70922143 0.68884033
0.75182710 0.73298321 0.72342379
0.75182710 0.74729024 0.74482314
0.75182710 0.75157792 0.75136050
0.06368827 0.54060807 0.13619333
0.06380227 0.54083585 0.13573505
0.06359456 0.54124565 0.13483986
0.06238070 0.54180588 0.13344933
0.05948216 0.54258126 0.13096297
0.05596747 0.54367868 0.12553386
0.05822012 0.54521746 0.11356348
0.08063246 0.54724793 0.09176356
0.14460561 0.54963313 0.06646179
0.23898087 0.55214603 0.05493477
0.32293117 0.55476235 0.05626775
0.38560091 0.55744327 0.05949397
0.43455252 0.55976838 0.06799478
0.47728098 0.56099243 0.10046565
0.51662907 0.56049219 0.16490084
0.55231083 0.55829905 0.22758079
0.58411570 0.55486140 0.27657830
0.61272443 0.55031969 0.31298816
0.63908273 0.54348845 0.33791015
0.66379791 0.53162644 0.35216386
0.68700385 0.51236682 0.35832231
0.70842455 0.48878429 0.36267403
0.72734243 0.47425113 0.37495754
0.74270234 0.48385260 0.40178943
0.75109444 0.52075495 0.44712949
0.75182710 0.56942607 0.50322560
0.75182710 0.61238607 0.55591925
0.75182355 0.64878867 0.60421199
0.75180520 0.68084232 0.64859748
0.75182198 0.70951539 0.68919337
0.75182710 0.73312447 0.72360799
0.75182710 0.74732352 0.74487073
0.75182710 0.75157206 0.75135406
0.04003771 0.57579976 0.13820133
0.04006693 0.57594875 0.13807571
0.03983304 0.57621652 0.13780867
0.03863353 0.57658146 0.13733063
0.03584085 0.57708301 0.13651298
0.03265986 0.57778925 0.13475601
0.03553753 0.57879486 0.12979915
0.05423737 0.58020015 0.11679061
0.09426640 0.58203272 0.09193670
0.17307838 0.58412253 0.07005132
0.27134573 0.58624766 0.06607352
0.35499511 0.58840431 0.07002581
0.41719619 0.59050880 0.07052768
0.46566000 0.59210217 0.06874408
0.50809185 0.59235998 0.11839642
0.54683165 0.59077379 0.19895954
0.58134261 0.58748485 0.26234923
0.61161682 0.58296995 0.30870472
0.63849812 0.57739487 0.34394487
0.66298475 0.56973784 0.36915180
0.68575126 0.55786988 0.38447917
0.70697886 0.54084643 0.39290966
0.72623352 0.52321302 0.40146002
0.74209595 0.51712617 0.41926555
0.75097207 0.53637705 0.45567480
0.75182710 0.57478275 0.50675712
0.75182710 0.61417910 0.55764761
0.75182710 0.64969004 0.60532520
0.75180313 0.68144457 0.64933970
0.75182091 0.70990324 0.68967258
0.75182710 0.73332041 0.72386391
0.75182710 0.74737236 0.74493835
0.75182710 0.75156600 0.75134649
0.06835218 0.60816960 0.11137157
0.06858859 0.60826711 0.11144475
0.06892309 0.60844239 0.11159060
0.06903033 0.60868109 0.11182067
0.06858696 0.60900760 0.11222177
0.06787608 0.60946268 0.11290214
0.06879455 0.61010618 0.11345787
0.07372539 0.61102253 0.11182526
0.08672371 0.61229752 0.10423441
0.12196000 0.61393280 0.09054680
0.19818503 0.61575021 0.08080035
0.29683911 0.61755002 0.08041183
0.38200420 0.61933236 0.07363844
0.44503979 0.62094957 0.05466541
0.49398138 0.62180803 0.06933697
0.53656512 0.62110169 0.15355660
0.57469569 0.61848805 0.23906651
0.60793549 0.61419931 0.29715409
0.63659630 0.60875584 0.34035523
0.66168263 0.60241467 0.37559976
0.68426982 0.59440745 0.40185168
0.70510582 0.58331527 0.41883001
0.72426500 0.56946739 0.43037596
0.74054909 0.55838194 0.44412108
0.75042252 0.56180372 0.47065729
0.75182710 0.58540693 0.51349353
0.75182710 0.61786279 0.56068454
0.75182710 0.65111214 0.60695815
0.75180134 0.68220848 0.65032342
0.75181891 0.71038643 0.69030171
0.75182710 0.73357584 0.72420722
0.75182710 0.74743988 0.74503128
0.75182710 0.75156108 0.75133826
0.09588345 0.63789281 0.06618552
0.09601945 0.63795697 0.06629304
0.09626287 0.63807245 0.06661101
0.09651258 0.63823006 0.06721459
0.09661624 0.63844567 0.06798421
0.09641543 0.63874436 0.06901382
0.09580144 0.63916157 0.07049265
0.09445960 0.63975098 0.07217469
0.09285768 0.64058639 0.07295462
0.09693634 0.64173765 0.07168437
0.12598380 0.64319647 0.07009580
0.20407644 0.64479950 0.06840255
0.31135948 0.64634197 0.06084398
0.40269493 0.64776111 0.04704009
0.46884636 0.64882182 0.04791291
0.51939076 0.64886570 0.10753493
0.56275965 0.64717034 0.20942384
0.60023841 0.64363248 0.28419451
0.63202533 0.63851498 0.33317552
0.65898304 0.63237209 0.37412290
0.68225304 0.62558879 0.40947198
0.70297615 0.61771116 0.43641888
0.72186265 0.60806491 0.45520799
0.73835892 0.59813121 0.47056646
0.74943380 0.59411993 0.49147264
0.75182710 0.60370561 0.52557347
0.75182710 0.62563603 0.56671957
0.75182710 0.65399079 0.60985719
0.75180116 0.68337377 0.65177225
0.75181570 0.71099356 0.69113428
0.75182652 0.73388680 0.72465179
0.75182710 0.74752209 0.74515041
0.75182710 0.75155550 0.75132701
0.10480910 0.66506566 0.05610233
0.10493698 0.66510714 0.05636892
0.10516247 0.66518187 0.05738035
0.10545740 0.66528405 0.05961584
0.10581480 0.66542413 0.06196000
0.10614218 0.66561804 0.06415388
0.10610307 0.66588695 0.06637068
0.10490303 0.66626198 0.06854877
0.10130082 0.66679095 0.07023920
0.09561872 0.66754209 0.07165312
0.09558015 0.66858589 0.07605550
0.12374916 0.66992790 0.07937209
0.20707006 0.67137721 0.06380062
0.32248605 0.67265495 0.04982630
0.42053187 0.67366834 0.04932435
0.49008366 0.67405287 0.08885792
0.54357542 0.67308343 0.18652078
0.58731322 0.67049674 0.27534349
0.62346134 0.66623706 0.33030431
0.65357936 0.66050068 0.37204269
0.67879413 0.65391923 0.41083173
0.70026279 0.64703418 0.44533027
0.71911351 0.63975881 0.47270486
0.73562018 0.63220657 0.49378739
0.74775821 0.62676870 0.51459610
0.75182710 0.62837654 0.54313774
0.75182710 0.63956151 0.57763717
0.75182710 0.65997688 0.61535616
0.75180528 0.68561926 0.65425852
0.75181110 0.71189346 0.69234663
0.75182468 0.73426615 0.72523261
0.75182710 0.74760597 0.74529120
0.75182710 0.75153866 0.75130280
0.10937802 0.68962800 0.13039680
0.10966759 0.68965436 0.13074160
0.11015216 0.68970185 0.13189381
0.11071016 0.68976683 0.13433191
0.11130538 0.68985612 0.13694677
0.11171847 0.68998014 0.13946071
0.11128172 0.69015240 0.14202296
0.10933119 0.69039139 0.14470741
0.10568499 0.69072556 0.14755619
0.10041615 0.69120398 0.15060034
0.09455267 0.69190538 0.15171608
0.09642585 0.69291316 0.13884854
0.12753960 0.69418975 0.10207545
0.21773454 0.69544703 0.06780484
0.34573103 0.69639509 0.05964119
0.44525995 0.69681431 0.09833202
0.51604776 0.69619352 0.19108971
0.56872011 0.69437747 0.27953677
0.61027495 0.69116814 0.33516995
0.64443482 0.68635608 0.37600855
0.67271392 0.68020665 0.41295291
0.69610563 0.67346055 0.44916993
0.71571740 0.66682913 0.48278533
0.73241534 0.66063521 0.51076391
0.74539219 0.65564181 0.53504216
0.75163700 0.65413047 0.56193974
0.75182710 0.65852024 0.59244941
0.75182710 0.67051814 0.62440097
0.75182029 0.69012697 0.65871148
0.75180580 0.71355698 0.69436758
0.75182115 0.73481562 0.72606695
0.75182710 0.74768462 0.74545698
0.75182710 0.75148994 0.75124741
0.11731664 0.71190989 0.20432858
0.11827656 0.71192653 0.20437904
0.11981880 0.71195652 0.20458534
0.12161734 0.71199760 0.20501489
0.12354749 0.71205415 0.20546703
0.12509672 0.71213313 0.20583351
0.12475554 0.71224400 0.20605934
0.12226428 0.71239847 0.20610720
0.12127371 0.71261275 0.20600038
0.12567465 0.71291572 0.20550142
0.13029561 0.71336049 0.20236323
0.13301143 0.71402173 0.18927831
0.14161608 0.71493596 0.15916246
0.18282483 0.71597680 0.12496849
0.29028510 0.71682291 0.11969715
0.40419822 0.71712187 0.16331114
0.48777725 0.71660873 0.24023942
0.54753313 0.71529075 0.30561564
0.59373246 0.71296399 0.35153603
0.63174565 0.70925142 0.38852706
0.66339146 0.70403655 0.42203415
0.68949417 0.69770077 0.45467563
0.71090921 0.69105746 0.48892379
0.72851601 0.68500422 0.52149952
0.74241813 0.68019476 0.55005931
0.75058424 0.67754595 0.57744218
0.75182710 0.67852269 0.60680859
0.75182710 0.68483471 0.63598522
0.75182710 0.69792575 0.66593725
0.75180395 0.71675249 0.69788479
0.75181569 0.73580366 0.72742118
0.75182583 0.74779419 0.74569117
0.75182710 0.75139192 0.75114663
