ARRI/ARRI_LogC2Video_P3D65_33.cube
LUT_3D_SIZE 9
0.000000 0.000000 0.000000
0.011215 0.000000 0.000153
0.074022 0.000000 0.001022
0.169192 0.000000 0.003555
0.310338 0.000000 0.012039
0.483619 0.000000 0.033753
0.635599 0.000000 0.066117
0.764385 0.000000 0.096803
0.871702 0.000000 0.122377
0.000000 0.033066 0.001633
0.043915 0.049638 0.000000
0.142962 0.052445 0.000000
0.284077 0.036927 0.007492
0.461784 0.001343 0.028779
0.659266 0.000000 0.071473
0.838315 0.000000 0.114275
0.952636 0.000000 0.140658
1.000000 0.000000 0.160723
0.000000 0.143343 0.000000
0.019608 0.171878 0.000000
0.177630 0.189700 0.000000
0.366369 0.197910 0.000000
0.575418 0.197452 0.030686
0.782742 0.190707 0.086000
0.969650 0.185397 0.134295
1.000000 0.211246 0.161761
1.000000 0.267018 0.160937
0.000000 0.329015 0.000000
0.000000 0.375937 0.000000
0.151659 0.407828 0.000000
0.404562 0.426093 0.000000
0.633539 0.436057 0.000000
0.845228 0.443687 0.024414
1.000000 0.453269 0.099779
1.000000 0.476707 0.116533
1.000000 0.512947 0.121950
0.000000 0.574350 0.000000
0.000000 0.620890 0.000000
0.000000 0.651041 0.000000
0.391165 0.668132 0.000000
0.645670 0.677256 0.000000
0.863218 0.684352 0.000000
1.000000 0.692500 0.000000
1.000000 0.709377 0.000000
1.000000 0.734127 0.000000
0.000000 0.805676 0.000000
0.000000 0.850996 0.000000
0.000000 0.876249 0.000000
0.342336 0.889967 0.000000
0.637751 0.899565 0.000000
0.866423 0.907210 0.000000
1.000000 0.913634 0.000000
1.000000 0.920562 0.000000
1.000000 0.925216 0.000000
0.000000 0.994308 0.000000
0.000000 1.000000 0.000000
0.000000 1.000000 0.000000
0.326162 1.000000 0.000000
0.628870 1.000000 0.000000
0.844892 1.000000 0.000000
1.000000 1.000000 0.000000
1.000000 1.000000 0.000000
1.000000 1.000000 0.000000
0.000000 1.000000 0.000000
0.000000 1.000000 0.000000
0.000000 1.000000 0.000000
0.437385 1.000000 0.000000
0.645045 1.000000 0.000000
0.818448 1.000000 0.000000
0.965377 1.000000 0.000000
1.000000 1.000000 0.038285
1.000000 1.000000 0.349386
0.000000 1.000000 0.186831
0.000000 1.000000 0.000000
0.237949 1.000000 0.000000
0.479240 1.000000 0.000000
0.651514 1.000000 0.000000
0.800275 1.000000 0.000000
0.922698 1.000000 0.273564
1.000000 1.000000 0.443198
1.000000 1.000000 0.587945
0.000000 0.000000 0.004120
0.023575 0.000000 0.020966
0.103075 0.000000 0.040253
0.218570 0.000000 0.053742
0.377691 0.000000 0.065263
0.563790 0.000000 0.082139
0.721920 0.000000 0.103639
0.837705 0.000000 0.126482
0.929717 0.000000 0.150805
0.000000 0.034394 0.033295
0.041947 0.041947 0.041947
0.162722 0.036103 0.041184
0.328908 0.010651 0.034974
0.517540 0.000000 0.042084
0.718257 0.000000 0.085817
0.905333 0.000000 0.130388
1.000000 0.000000 0.164126
1.000000 0.000000 0.196658
0.000000 0.155764 0.038560
0.000000 0.180423 0.015991
0.182574 0.194675 0.000000
0.394385 0.197162 0.000961
0.613153 0.190875 0.040497
0.822095 0.180697 0.097398
1.000000 0.173144 0.144945
1.000000 0.194522 0.182467
1.000000 0.254017 0.210727
0.000000 0.354437 0.000000
0.000000 0.396826 0.000000
0.117723 0.422278 0.000000
0.411856 0.433692 0.000000
0.653071 0.438804 0.000000
0.868376 0.444099 0.034119
1.000000 0.451545 0.125917
1.000000 0.469444 0.158099
1.000000 0.502541 0.202319
0.000000 0.601419 0.000000
0.000000 0.641413 0.000000
0.000000 0.665614 0.000000
0.381918 0.677577 0.000000
0.651408 0.683238 0.000000
0.878050 0.687526 0.000000
1.000000 0.692973 0.001160
1.000000 0.705806 0.056764
1.000000 0.727001 0.159792
0.000000 0.835798 0.000000
0.000000 0.870649 0.000000
0.000000 0.888563 0.000000
0.312917 0.900221 0.000000
0.632380 0.908095 0.000000
0.872786 0.913512 0.000000
1.000000 0.916716 0.000000
1.000000 0.918318 0.000000
1.000000 0.918090 0.118044
0.000000 1.000000 0.000000
0.000000 1.000000 0.000000
0.000000 1.000000 0.000000
0.189319 1.000000 0.000000
0.595834 1.000000 0.000000
0.831235 1.000000 0.000000
1.000000 1.000000 0.000000
1.000000 1.000000 0.000000
1.000000 1.000000 0.242634
0.000000 1.000000 0.176959
0.000000 1.000000 0.000000
0.000000 1.000000 0.000000
0.325902 1.000000 0.000000
0.590356 1.000000 0.000000
0.790249 1.000000 0.000000
0.953857 1.000000 0.000000
1.000000 1.000000 0.280888
1.000000 1.000000 0.465202
0.000000 1.000000 0.336919
0.000000 1.000000 0.256199
0.000000 1.000000 0.149935
0.411902 1.000000 0.027131
0.618097 1.000000 0.098116
0.785183 1.000000 0.261372
0.914031 1.000000 0.407187
1.000000 1.000000 0.545785
1.000000 1.000000 0.675929
0.000000 0.000000 0.030579
0.034043 0.000000 0.077272
0.127337 0.000000 0.118151
0.262745 0.000000 0.152743
0.436057 0.000000 0.179477
0.628473 0.000000 0.200137
0.783871 0.000000 0.210605
0.887465 0.000000 0.217655
0.967575 0.000000 0.229511
0.000000 0.021500 0.101320
0.026169 0.006867 0.136599
0.174853 0.000000 0.165057
0.360113 0.000000 0.184100
0.558679 0.000000 0.195331
0.760098 0.000000 0.211231
0.945846 0.000000 0.234867
1.000000 0.000000 0.258900
1.000000 0.000000 0.282368
0.000000 0.153552 0.150698
0.000000 0.168856 0.165988
0.175006 0.175006 0.175006
0.405112 0.172137 0.183261
0.641001 0.157214 0.196658
0.847059 0.142550 0.222766
1.000000 0.130251 0.256306
1.000000 0.153414 0.283711
1.000000 0.218357 0.316655
0.000000 0.368017 0.171740
0.000000 0.404349 0.162524
0.070619 0.421622 0.156115
0.411582 0.429587 0.160540
0.665843 0.432456 0.177417
0.884718 0.434943 0.219944
1.000000 0.439826 0.265217
1.000000 0.456413 0.290852
1.000000 0.482536 0.326085
0.000000 0.617121 0.152102
0.000000 0.651331 0.114260
0.000000 0.671656 0.074128
0.365835 0.680781 0.068803
0.653758 0.683482 0.116350
0.890089 0.684596 0.183459
1.000000 0.687739 0.242771
1.000000 0.698756 0.275181
1.000000 0.715755 0.322469
0.000000 0.850919 0.089509
0.000000 0.877760 0.000000
0.000000 0.894591 0.000000
0.270146 0.905760 0.000000
0.623011 0.912139 0.000000
0.875883 0.914961 0.082887
1.000000 0.913939 0.186007
1.000000 0.911009 0.251728
1.000000 0.907393 0.332830
0.000000 1.000000 0.202258
0.000000 1.000000 0.003922
0.000000 1.000000 0.000000
0.000000 1.000000 0.000000
0.570199 1.000000 0.000000
0.819593 1.000000 0.000000
1.000000 1.000000 0.114168
1.000000 1.000000 0.272770
1.000000 1.000000 0.415213
0.000000 1.000000 0.381689
0.000000 1.000000 0.316197
0.000000 1.000000 0.203952
0.086732 1.000000 0.000000
0.540230 1.000000 0.000000
0.769268 1.000000 0.106096
0.942702 1.000000 0.291997
1.000000 1.000000 0.436652
1.000000 1.000000 0.571984
0.000000 1.000000 0.459586
0.000000 1.000000 0.399527
0.000000 1.000000 0.340017
0.335775 1.000000 0.304646
0.588632 1.000000 0.329915
0.770565 1.000000 0.412360
0.905241 1.000000 0.520409
0.993896 1.000000 0.639628
1.000000 1.000000 0.755932
0.000000 0.000000 0.086091
0.032822 0.000000 0.154116
0.141085 0.000000 0.222034
0.295125 0.000000 0.279484
0.479866 0.000000 0.321492
0.671717 0.000000 0.346426
0.814374 0.000000 0.345418
0.910948 0.000000 0.337621
0.983658 0.000000 0.336263
0.000000 0.000000 0.195743
0.000000 0.000000 0.265187
0.165805 0.000000 0.319005
0.370596 0.000000 0.352056
0.579843 0.000000 0.369741
0.781735 0.000000 0.381033
0.963241 0.000000 0.392401
1.000000 0.000000 0.397665
1.000000 0.000000 0.404303
0.000000 0.101747 0.288350
0.000000 0.075746 0.337591
0.132799 0.034012 0.366384
0.403738 0.000000 0.387472
0.647745 0.000000 0.401389
0.854994 0.000000 0.410681
1.000000 0.000000 0.426261
1.000000 0.000000 0.441337
1.000000 0.097200 0.459083
0.000000 0.357290 0.352239
0.000000 0.383246 0.377920
0.000000 0.394049 0.389685
0.398917 0.398917 0.398917
0.659709 0.400641 0.410452
0.895064 0.399344 0.425467
1.000000 0.404303 0.448768
1.000000 0.422660 0.464714
1.000000 0.447105 0.485267
0.000000 0.615946 0.382422
0.000000 0.644282 0.387961
0.000000 0.661799 0.387930
0.346227 0.666423 0.394766
0.647547 0.668467 0.406043
0.896757 0.668986 0.417578
1.000000 0.670542 0.444770
1.000000 0.681178 0.468757
1.000000 0.698848 0.503975
0.000000 0.850523 0.396017
0.000000 0.873548 0.392996
0.000000 0.890852 0.387030
0.187869 0.902876 0.379873
0.604868 0.909041 0.378103
0.874357 0.908522 0.394324
1.000000 0.902571 0.432090
1.000000 0.896254 0.470817
1.000000 0.892729 0.527306
0.000000 1.000000 0.442634
0.000000 1.000000 0.409277
0.000000 1.000000 0.395834
0.000000 1.000000 0.375799
0.539086 1.000000 0.359548
0.805325 1.000000 0.369955
1.000000 1.000000 0.423224
1.000000 1.000000 0.500008
1.000000 1.000000 0.589609
0.000000 1.000000 0.539239
0.000000 1.000000 0.490425
0.000000 1.000000 0.422904
0.000000 1.000000 0.381949
0.516075 1.000000 0.383047
0.761059 1.000000 0.429282
0.933501 1.000000 0.509422
1.000000 1.000000 0.602335
1.000000 1.000000 0.697871
0.000000 1.000000 0.580087
0.000000 1.000000 0.534417
0.000000 1.000000 0.491768
0.256016 1.000000 0.469566
0.569360 1.000000 0.492241
0.765820 1.000000 0.558663
0.902434 1.000000 0.646448
0.987121 1.000000 0.741253
1.000000 1.000000 0.833051
0.000000 0.000000 0.164096
0.002640 0.000000 0.260197
0.132403 0.000000 0.351720
0.309056 0.000000 0.427314
0.503655 0.000000 0.480018
0.685298 0.000000 0.499428
0.814160 0.000000 0.484047
0.908766 0.000000 0.464393
0.978531 0.000000 0.450736
0.000000 0.000000 0.317144
0.000000 0.000000 0.409094
0.097246 0.000000 0.482246
0.356573 0.000000 0.529335
0.578790 0.000000 0.552270
0.783169 0.000000 0.560784
0.957855 0.000000 0.560723
1.000000 0.000000 0.546319
1.000000 0.000000 0.537819
0.000000 0.000000 0.445884
0.000000 0.000000 0.517525
0.000000 0.000000 0.571206
0.377966 0.000000 0.597879
0.631464 0.000000 0.604639
0.844816 0.000000 0.604623
1.000000 0.000000 0.608560
1.000000 0.000000 0.613657
1.000000 0.000000 0.615045
0.000000 0.297658 0.537102
0.000000 0.304189 0.580896
0.000000 0.302922 0.609812
0.363943 0.305730 0.617685
0.646677 0.305074 0.627115
0.888853 0.301503 0.636240
1.000000 0.313100 0.643168
1.000000 0.342123 0.648722
1.000000 0.377981 0.658213
0.000000 0.590677 0.583124
0.000000 0.612192 0.604410
0.000000 0.625696 0.618372
0.298787 0.629847 0.624826
0.631846 0.631846 0.631846
0.886671 0.631861 0.640314
1.000000 0.631769 0.649851
1.000000 0.646784 0.663722
1.000000 0.670237 0.685512
0.000000 0.833585 0.604639
0.000000 0.855802 0.613825
0.000000 0.872801 0.618585
0.000000 0.885634 0.618585
0.585031 0.887892 0.623819
0.863493 0.885374 0.633616
1.000000 0.878386 0.642847
1.000000 0.871870 0.665232
1.000000 0.872236 0.702083
0.000000 1.000000 0.633692
0.000000 1.000000 0.628473
0.000000 1.000000 0.624598
0.000000 1.000000 0.611475
0.499931 1.000000 0.596826
0.787243 1.000000 0.596139
0.996384 1.000000 0.626276
1.000000 1.000000 0.677928
1.000000 0.985443 0.736538
0.000000 1.000000 0.688716
0.000000 1.000000 0.655802
0.000000 1.000000 0.616419
0.000000 1.000000 0.597086
0.501762 1.000000 0.598032
0.756344 1.000000 0.627222
0.924498 1.000000 0.676463
1.000000 1.000000 0.739666
1.000000 1.000000 0.808530
0.000000 1.000000 0.703075
0.000000 1.000000 0.669963
0.000000 1.000000 0.639582
0.215656 1.000000 0.627451
0.581048 1.000000 0.653391
0.778042 1.000000 0.704723
0.906920 1.000000 0.768734
0.982727 1.000000 0.838178
1.000000 1.000000 0.904814
0.000000 0.000000 0.268086
0.000000 0.000000 0.388937
0.061082 0.000000 0.498604
0.296696 0.000000 0.583627
0.496788 0.000000 0.631327
0.661921 0.000000 0.632197
0.789044 0.000000 0.609400
0.884855 0.000000 0.581689
0.958816 0.000000 0.560327
0.000000 0.000000 0.458564
0.000000 0.000000 0.567315
0.000000 0.000000 0.651606
0.310475 0.000000 0.702785
0.555734 0.000000 0.726314
0.764645 0.000000 0.730983
0.927993 0.000000 0.714549
1.000000 0.000000 0.685145
1.000000 0.000000 0.667521
0.000000 0.000000 0.612253
0.000000 0.000000 0.695293
0.000000 0.000000 0.751675
0.312444 0.000000 0.781353
0.597177 0.000000 0.788815
0.821592 0.000000 0.787076
1.000000 0.000000 0.785687
1.000000 0.000000 0.782696
1.000000 0.000000 0.768521
0.000000 0.008087 0.717403
0.000000 0.000000 0.770413
0.000000 0.000000 0.805051
0.285481 0.000000 0.826627
0.619348 0.000000 0.835019
0.866178 0.000000 0.834791
1.000000 0.000000 0.834150
1.000000 0.015198 0.831174
1.000000 0.216129 0.828565
0.000000 0.532555 0.769863
0.000000 0.546426 0.799298
0.000000 0.554284 0.822232
0.156374 0.556313 0.839979
0.602396 0.558450 0.843793
0.871565 0.557046 0.850828
1.000000 0.559808 0.854871
1.000000 0.588479 0.852354
1.000000 0.627649 0.855070
0.000000 0.799588 0.789792
0.000000 0.820783 0.810819
0.000000 0.835935 0.826307
0.000000 0.846662 0.838300
0.552956 0.847913 0.842710
0.845106 0.845106 0.845106
1.000000 0.838849 0.844877
1.000000 0.837095 0.843198
1.000000 0.847684 0.853315
0.000000 1.000000 0.808515
0.000000 1.000000 0.822675
0.000000 1.000000 0.826398
0.000000 1.000000 0.818799
0.453895 1.000000 0.805493
0.774792 1.000000 0.802914
0.977173 0.994400 0.812924
1.000000 0.975540 0.827939
1.000000 0.965408 0.857359
0.000000 1.000000 0.834058
0.000000 1.000000 0.819104
0.000000 1.000000 0.797284
0.000000 1.000000 0.782910
0.503365 1.000000 0.779568
0.754925 1.000000 0.789120
0.916320 1.000000 0.812406
1.000000 1.000000 0.849439
1.000000 1.000000 0.893996
0.000000 1.000000 0.825513
0.000000 1.000000 0.803494
0.000000 1.000000 0.783215
0.270466 1.000000 0.776532
0.613291 1.000000 0.793530
0.797299 1.000000 0.824338
0.915114 1.000000 0.865370
0.981125 1.000000 0.911360
1.000000 1.000000 0.955016
0.000000 0.000000 0.370871
0.000000 0.000000 0.510109
0.000000 0.000000 0.628733
0.239322 0.000000 0.708675
0.451728 0.000000 0.742245
0.617121 0.000000 0.738643
0.746777 0.000000 0.713802
0.845960 0.000000 0.682139
0.931304 0.000000 0.660487
0.000000 0.000000 0.599908
0.000000 0.000000 0.725917
0.000000 0.000000 0.813458
0.205371 0.000000 0.862928
0.511101 0.000000 0.880964
0.720775 0.000000 0.870466
0.874601 0.000000 0.836774
0.993881 0.000000 0.805844
1.000000 0.000000 0.785626
0.000000 0.000000 0.774044
0.000000 0.000000 0.862196
0.000000 0.000000 0.917205
0.174807 0.000000 0.945022
0.548684 0.000000 0.951293
0.787655 0.000000 0.951934
0.990890 0.000000 0.949783
1.000000 0.000000 0.936248
1.000000 0.000000 0.907012
0.000000 0.000000 0.884001
0.000000 0.000000 0.939590
0.000000 0.000000 0.974060
0.101793 0.000000 0.996765
0.571923 0.000000 1.000000
0.832975 0.000000 1.000000
1.000000 0.000000 1.000000
1.000000 0.000000 1.000000
1.000000 0.000000 0.983307
0.000000 0.424994 0.934249
0.000000 0.427970 0.972976
0.000000 0.425330 1.000000
0.000000 0.434089 1.000000
0.563256 0.440650 1.000000
0.850217 0.443473 1.000000
1.000000 0.459678 1.000000
1.000000 0.504860 1.000000
1.000000 0.577340 1.000000
0.000000 0.746365 0.952468
0.000000 0.765255 0.990921
0.000000 0.781109 1.000000
0.000000 0.794766 1.000000
0.512200 0.799222 1.000000
0.823514 0.795041 1.000000
1.000000 0.788296 1.000000
1.000000 0.797726 0.994736
1.000000 0.824262 0.974868
0.000000 0.977661 0.966003
0.000000 1.000000 0.993439
0.000000 1.000000 0.993713
0.000000 1.000000 0.994354
0.420996 0.999237 0.991180
0.764935 0.976211 0.972000
0.958053 0.958053 0.958053
1.000000 0.948623 0.950347
1.000000 0.948196 0.949920
0.000000 1.000000 0.971359
0.000000 1.000000 0.971954
0.000000 1.000000 0.960464
0.000000 1.000000 0.943297
0.522103 1.000000 0.929213
0.760876 1.000000 0.921294
0.914702 1.000000 0.924865
1.000000 1.000000 0.937346
1.000000 0.997086 0.954238
0.000000 1.000000 0.941115
0.000000 1.000000 0.926787
0.000000 1.000000 0.911452
0.365316 1.000000 0.901701
0.657588 1.000000 0.904341
0.823880 1.000000 0.916258
0.927474 1.000000 0.936019
0.982620 1.000000 0.960586
1.000000 1.000000 0.984466
0.000000 0.000000 0.468070
0.000000 0.000000 0.607645
0.000000 0.000000 0.722194
0.117357 0.000000 0.795972
0.390051 0.000000 0.825650
0.562234 0.000000 0.821134
0.694652 0.000000 0.795438
0.802640 0.000000 0.767529
0.898833 0.000000 0.749218
0.000000 0.000000 0.699886
0.000000 0.000000 0.830762
0.000000 0.000000 0.922454
0.000000 0.000000 0.969848
0.437491 0.000000 0.977066
0.652277 0.000000 0.956832
0.814878 0.000000 0.930800
0.947021 0.000000 0.906645
1.000000 0.000000 0.888396
0.000000 0.000000 0.882628
0.000000 0.000000 0.994873
0.000000 0.000000 1.000000
0.000000 0.000000 1.000000
0.514351 0.000000 1.000000
0.759060 0.000000 1.000000
0.956435 0.000000 1.000000
1.000000 0.000000 1.000000
1.000000 0.000000 1.000000
0.000000 0.000000 1.000000
0.000000 0.000000 1.000000
0.000000 0.000000 1.000000
0.079713 0.000000 1.000000
0.564828 0.000000 1.000000
0.820768 0.000000 1.000000
1.000000 0.000000 1.000000
1.000000 0.000000 1.000000
1.000000 0.000000 1.000000
0.000000 0.316182 1.000000
0.000000 0.384009 1.000000
0.000000 0.417975 1.000000
0.000000 0.438529 1.000000
0.568902 0.450080 1.000000
0.840208 0.461173 1.000000
1.000000 0.484962 1.000000
1.000000 0.536873 1.000000
1.000000 0.604334 1.000000
0.000000 0.714733 1.000000
0.000000 0.757366 1.000000
0.000000 0.779614 1.000000
0.000000 0.792844 1.000000
0.539162 0.797711 1.000000
0.823590 0.795132 1.000000
1.000000 0.792905 1.000000
1.000000 0.805325 1.000000
1.000000 0.829587 1.000000
0.000000 0.964691 0.995651
0.000000 1.000000 0.993484
0.000000 1.000000 0.993790
0.000000 1.000000 0.994553
0.494759 0.982681 0.996902
0.775738 0.959869 0.999741
0.949493 0.942550 1.000000
1.000000 0.936370 1.000000
1.000000 0.941131 1.000000
0.000000 1.000000 0.993530
0.000000 1.000000 0.993683
0.000000 1.000000 0.994018
0.000000 1.000000 0.994888
0.575494 1.000000 0.996155
0.783627 1.000000 0.997604
0.918639 1.000000 0.998978
0.992126 0.992126 0.992126
1.000000 0.989731 0.990066
0.000000 1.000000 0.993805
0.000000 1.000000 0.994186
0.000000 1.000000 0.994766
0.470375 1.000000 0.995697
0.711681 1.000000 0.984436
0.856901 1.000000 0.979309
0.943862 1.000000 0.981201
0.987427 1.000000 0.988830
0.999573 0.999847 0.997391
0.000000 0.000000 0.564248
0.000000 0.000000 0.698222
0.000000 0.000000 0.802106
0.000000 0.000000 0.864820
0.316243 0.000000 0.888624
0.502495 0.000000 0.882002
0.640848 0.000000 0.859159
0.759136 0.000000 0.839948
0.864179 0.000000 0.826703
0.000000 0.000000 0.785306
0.000000 0.000000 0.898512
0.000000 0.000000 0.975952
0.000000 0.000000 1.000000
0.356802 0.000000 1.000000
0.586542 0.000000 1.000000
0.757961 0.000000 1.000000
0.899107 0.000000 0.989349
1.000000 0.000000 0.975631
0.000000 0.000000 0.953079
0.000000 0.000000 1.000000
0.000000 0.000000 1.000000
0.000000 0.000000 1.000000
0.489906 0.000000 1.000000
0.723674 0.000000 1.000000
0.909224 0.000000 1.000000
1.000000 0.000000 1.000000
1.000000 0.000000 1.000000
0.000000 0.000000 1.000000
0.000000 0.000000 1.000000
0.000000 0.000000 1.000000
0.131167 0.000000 1.000000
0.562005 0.000000 1.000000
0.808957 0.000000 1.000000
1.000000 0.000000 1.000000
1.000000 0.000000 1.000000
1.000000 0.000000 1.000000
0.000000 0.302327 1.000000
0.000000 0.380117 1.000000
0.000000 0.422431 1.000000
0.014099 0.446159 1.000000
0.576883 0.463188 1.000000
0.832151 0.483101 1.000000
1.000000 0.517845 1.000000
1.000000 0.577157 1.000000
1.000000 0.644938 1.000000
0.000000 0.706188 1.000000
0.000000 0.750164 1.000000
0.000000 0.777935 1.000000
0.000000 0.791714 1.000000
0.572152 0.798169 1.000000
0.827466 0.799771 1.000000
0.998688 0.805142 1.000000
1.000000 0.822416 1.000000
1.000000 0.849912 1.000000
0.000000 0.957183 0.996094
0.000000 0.990143 0.994446
0.000000 1.000000 0.994156
0.000000 0.988342 0.995621
0.569100 0.969238 0.997925
0.802640 0.951980 1.000000
0.948363 0.941253 1.000000
1.000000 0.940795 1.000000
1.000000 0.950668 1.000000
0.000000 1.000000 0.993637
0.000000 1.000000 0.993881
0.000000 1.000000 0.994339
0.326772 1.000000 0.995270
0.650965 1.000000 0.996597
0.824903 1.000000 0.997986
0.932982 0.996521 0.999374
0.990036 0.988724 1.000000
1.000000 0.989410 1.000000
0.000000 1.000000 0.994049
0.000000 1.000000 0.994568
0.328557 1.000000 0.995285
0.594507 1.000000 0.996262
0.778027 1.000000 0.997559
0.895628 1.000000 0.998718
0.963119 1.000000 0.999512
0.993454 0.998947 0.998825
1.000000 1.000000 1.000000
