ARRI/ARRI_LogC2Video_709_33.cube
LUT_3D_SIZE 33
0.000000 0.000000 0.000000
0.000214 0.000031 0.000046
0.001465 0.000031 0.000092
0.004562 0.000000 0.000031
0.010178 0.000000 0.000000
0.018982 0.000000 0.000000
0.031540 0.000000 0.000000
0.048173 0.000000 0.000000
0.068177 0.000000 0.000000
0.087922 0.000000 0.000000
0.109270 0.000000 0.000000
0.133577 0.000000 0.000000
0.160403 0.000000 0.000000
0.189151 0.000000 0.000000
0.218936 0.000000 0.000000
0.248692 0.000000 0.000000
0.278218 0.000000 0.000000
0.307851 0.000000 0.000000
0.337377 0.000000 0.000000
0.366705 0.000000 0.000000
0.395804 0.000000 0.000000
0.424704 0.000000 0.000000
0.453529 0.000000 0.000000
0.482353 0.000000 0.000000
0.510918 0.000000 0.000000
0.539071 0.000000 0.000000
0.566690 0.000000 0.000000
0.593668 0.000000 0.000000
0.619867 0.000000 0.000000
0.645151 0.000000 0.000000
0.669474 0.000000 0.000000
0.692836 0.000000 0.000000
0.715297 0.000000 0.000000
0.000427 0.000992 0.000534
0.001480 0.001617 0.000549
0.004257 0.002182 0.000275
0.009491 0.002502 0.000000
0.017823 0.002228 0.000000
0.030076 0.001282 0.000000
0.046769 0.000000 0.000000
0.067491 0.000000 0.000000
0.087709 0.000000 0.000000
0.109560 0.000000 0.000000
0.134295 0.000000 0.000000
0.162051 0.000000 0.000000
0.192447 0.000000 0.000000
0.224857 0.000000 0.000000
0.258396 0.000000 0.000000
0.291966 0.000000 0.000000
0.324437 0.000000 0.000000
0.356313 0.000000 0.000000
0.387701 0.000000 0.000000
0.418433 0.000000 0.000000
0.448432 0.000000 0.000000
0.477775 0.000000 0.000000
0.506584 0.000000 0.000000
0.535088 0.000000 0.000000
0.563348 0.000000 0.000000
0.591028 0.000000 0.000000
0.618036 0.000000 0.000000
0.644221 0.000000 0.000000
0.669505 0.000000 0.000000
0.693858 0.000000 0.000000
0.717357 0.000000 0.000000
0.740032 0.000000 0.000000
0.761929 0.000000 0.000000
0.000504 0.004791 0.001328
0.002426 0.006332 0.000717
0.006699 0.007736 0.000000
0.013977 0.008698 0.000000
0.024811 0.008927 0.000000
0.039963 0.008469 0.000000
0.059922 0.007156 0.000000
0.081468 0.004944 0.000000
0.104295 0.001709 0.000000
0.130358 0.000000 0.000000
0.159228 0.000000 0.000000
0.190494 0.000000 0.000000
0.224262 0.000000 0.000000
0.260151 0.000000 0.000000
0.297261 0.000000 0.000000
0.334478 0.000000 0.000000
0.370443 0.000000 0.000000
0.404456 0.000000 0.000000
0.437507 0.000000 0.000000
0.469505 0.000000 0.000000
0.500420 0.000000 0.000000
0.530266 0.000000 0.000000
0.559213 0.000000 0.000000
0.587442 0.000000 0.000000
0.615244 0.000000 0.000000
0.642420 0.000000 0.000000
0.668757 0.000000 0.000000
0.694209 0.000000 0.000000
0.718761 0.000000 0.000000
0.742428 0.000000 0.000000
0.765362 0.000000 0.000000
0.787579 0.000000 0.000000
0.809140 0.000000 0.000000
0.000000 0.012604 0.001297
0.001480 0.015290 0.000000
0.007279 0.017731 0.000000
0.016480 0.019287 0.000000
0.029770 0.020218 0.000000
0.047761 0.020417 0.000000
0.069856 0.019730 0.000000
0.092775 0.018036 0.000000
0.119066 0.015076 0.000000
0.148760 0.010681 0.000000
0.181369 0.004807 0.000000
0.216342 0.000000 0.000000
0.253880 0.000000 0.000000
0.293370 0.000000 0.000000
0.333974 0.000000 0.000000
0.374624 0.000000 0.000000
0.414038 0.000000 0.000000
0.450858 0.000000 0.000000
0.485740 0.000000 0.000000
0.519219 0.000000 0.000000
0.551232 0.000000 0.000000
0.581781 0.000000 0.000000
0.610941 0.000000 0.000000
0.638987 0.000000 0.000000
0.666178 0.000000 0.000000
0.692760 0.000000 0.000000
0.718532 0.000000 0.000000
0.743526 0.000000 0.000000
0.767803 0.000000 0.000000
0.791333 0.000000 0.000000
0.813916 0.000000 0.000000
0.835554 0.000000 0.000000
0.856214 0.000000 0.000000
0.000000 0.025528 0.000000
0.000000 0.029572 0.000000
0.004501 0.032639 0.000000
0.015763 0.035096 0.000000
0.031510 0.036881 0.000000
0.052277 0.037873 0.000000
0.076234 0.037964 0.000000
0.102388 0.036866 0.000000
0.132250 0.034318 0.000000
0.165469 0.030060 0.000000
0.201556 0.023941 0.000000
0.239887 0.015976 0.000000
0.280491 0.005859 0.000000
0.323079 0.000000 0.000000
0.366857 0.000000 0.000000
0.410788 0.000000 0.000000
0.453620 0.000000 0.000000
0.493965 0.000000 0.000000
0.531090 0.000000 0.000000
0.566308 0.000000 0.000000
0.599649 0.000000 0.000000
0.631144 0.000000 0.000000
0.660899 0.000000 0.000000
0.689113 0.000000 0.000000
0.716197 0.000000 0.000000
0.742626 0.000000 0.000000
0.768353 0.000000 0.000000
0.793027 0.000000 0.000000
0.816678 0.000000 0.000000
0.839292 0.000000 0.000000
0.860914 0.000000 0.000000
0.881559 0.000000 0.000000
0.901198 0.000000 0.000000
0.000000 0.044480 0.000000
0.000000 0.049317 0.000000
0.000000 0.053422 0.000000
0.010666 0.056886 0.000000
0.028992 0.059556 0.000000
0.052567 0.061357 0.000000
0.079622 0.062135 0.000000
0.109621 0.061585 0.000000
0.142992 0.059449 0.000000
0.179599 0.055360 0.000000
0.219059 0.049165 0.000000
0.260761 0.040818 0.000000
0.304509 0.030137 0.000000
0.350225 0.016831 0.000000
0.397116 0.000946 0.000000
0.444205 0.000000 0.000000
0.490303 0.000000 0.000000
0.534051 0.000000 0.000000
0.574060 0.000000 0.000000
0.611292 0.000000 0.000000
0.646296 0.000000 0.000000
0.679042 0.000000 0.000000
0.709712 0.000000 0.000000
0.738399 0.000000 0.000000
0.765408 0.000000 0.000000
0.791196 0.000000 0.000000
0.816114 0.000000 0.000000
0.839994 0.000000 0.000000
0.862806 0.000000 0.000000
0.884565 0.000000 0.000000
0.905303 0.000000 0.000000
0.925017 0.000000 0.000000
0.943755 0.000000 0.000000
0.000000 0.068315 0.000000
0.000000 0.073594 0.000000
0.000000 0.078019 0.000000
0.000092 0.081804 0.000000
0.020661 0.084901 0.000000
0.046693 0.087282 0.000000
0.078416 0.088823 0.000000
0.113024 0.089220 0.000000
0.150439 0.088258 0.000000
0.190768 0.085679 0.000000
0.233753 0.081209 0.000000
0.278920 0.074464 0.000000
0.326024 0.064805 0.000000
0.374929 0.051102 0.000000
0.424949 0.034058 0.000000
0.475151 0.014450 0.000000
0.524392 0.000000 0.000000
0.571389 0.000000 0.000000
0.614664 0.000000 0.000000
0.654063 0.000000 0.000000
0.690578 0.000000 0.000000
0.724254 0.000000 0.000000
0.755306 0.000000 0.000000
0.784054 0.000000 0.000000
0.810834 0.000000 0.000000
0.836118 0.000000 0.000000
0.860380 0.000000 0.000000
0.883635 0.000000 0.000000
0.905776 0.000000 0.000000
0.926818 0.000000 0.000000
0.946777 0.000000 0.000000
0.965713 0.000000 0.000000
0.983627 0.000000 0.000000
0.000000 0.093843 0.000000
0.000000 0.100267 0.000000
0.000000 0.105821 0.000000
0.000000 0.110658 0.000000
0.002762 0.114809 0.000000
0.030884 0.118288 0.000000
0.068681 0.120943 0.000000
0.110277 0.122576 0.000000
0.153109 0.123033 0.000000
0.197971 0.122148 0.000000
0.245029 0.119722 0.000000
0.293980 0.115602 0.000000
0.344717 0.109483 0.000000
0.397040 0.100969 0.000000
0.450294 0.089525 0.000000
0.503609 0.074510 0.000000
0.555779 0.054719 0.000000
0.605371 0.032151 0.000000
0.650996 0.010803 0.000000
0.691890 0.000000 0.000000
0.729503 0.000000 0.000000
0.764065 0.000000 0.000000
0.795789 0.000000 0.000000
0.824933 0.000000 0.000000
0.851865 0.000000 0.000000
0.877012 0.000000 0.000000
0.900832 0.000000 0.000000
0.923659 0.000000 0.000000
0.945312 0.000000 0.000000
0.965774 0.000000 0.000000
0.985122 0.012039 0.000000
1.000000 0.036240 0.000000
1.000000 0.064424 0.000000
0.000000 0.123964 0.000000
0.000000 0.131716 0.000000
0.000000 0.138811 0.000000
0.000000 0.144976 0.000000
0.000000 0.150454 0.000000
0.002335 0.155245 0.000000
0.044450 0.159258 0.000000
0.098726 0.162341 0.000000
0.149737 0.164385 0.000000
0.200671 0.165301 0.000000
0.252674 0.164965 0.000000
0.306035 0.163348 0.000000
0.360830 0.160296 0.000000
0.416556 0.155459 0.000000
0.472572 0.148684 0.000000
0.528084 0.139940 0.000000
0.582071 0.129412 0.000000
0.633402 0.117556 0.000000
0.680873 0.105348 0.000000
0.723507 0.094392 0.000000
0.762509 0.084947 0.000000
0.798245 0.077821 0.000000
0.830930 0.074083 0.000000
0.860792 0.074495 0.000000
0.888197 0.079164 0.000000
0.913542 0.087572 0.000000
0.937255 0.098741 0.000000
0.959823 0.111666 0.000000
0.981155 0.123720 0.000000
1.000000 0.137255 0.000000
1.000000 0.152026 0.000000
1.000000 0.166964 0.000000
1.000000 0.181735 0.000000
0.000000 0.159442 0.000000
0.000000 0.168627 0.000000
0.000000 0.177310 0.000000
0.000000 0.185046 0.000000
0.000000 0.192126 0.000000
0.000000 0.198505 0.000000
0.002121 0.204120 0.000000
0.071916 0.208850 0.000000
0.138155 0.212665 0.000000
0.197910 0.215427 0.000000
0.256062 0.216861 0.000000
0.314092 0.216938 0.000000
0.372427 0.215610 0.000000
0.430976 0.212848 0.000000
0.489281 0.208713 0.000000
0.546685 0.203326 0.000000
0.602365 0.196979 0.000000
0.655344 0.190158 0.000000
0.704585 0.183627 0.000000
0.749050 0.178470 0.000000
0.789624 0.174853 0.000000
0.826780 0.173083 0.000000
0.860670 0.173495 0.000000
0.891524 0.176303 0.000000
0.919677 0.181476 0.000000
0.945510 0.188800 0.000000
0.969451 0.197971 0.000000
0.991928 0.207492 0.000000
1.000000 0.217655 0.000000
1.000000 0.228717 0.000000
1.000000 0.240192 0.000000
1.000000 0.251789 0.000000
1.000000 0.263478 0.000000
0.000000 0.200687 0.000000
0.000000 0.211582 0.000000
0.000000 0.221942 0.000000
0.000000 0.231434 0.000000
0.000000 0.240223 0.000000
0.000000 0.248386 0.000000
0.000000 0.255604 0.000000
0.014191 0.261692 0.000000
0.111879 0.266575 0.000000
0.185809 0.270237 0.000000
0.251957 0.272663 0.000000
0.315450 0.273838 0.000000
0.377813 0.273777 0.000000
0.439429 0.272541 0.000000
0.500160 0.270222 0.000000
0.559548 0.267002 0.000000
0.616968 0.263142 0.000000
0.671611 0.259052 0.000000
0.722515 0.255329 0.000000
0.768780 0.252705 0.000000
0.811063 0.251377 0.000000
0.849790 0.251499 0.000000
0.885084 0.253346 0.000000
0.917144 0.256992 0.000000
0.946288 0.262455 0.000000
0.972854 0.269612 0.000000
0.997223 0.277836 0.000000
1.000000 0.286168 0.000000
1.000000 0.295079 0.000000
1.000000 0.304524 0.000000
1.000000 0.314244 0.000000
1.000000 0.324208 0.000000
1.000000 0.334356 0.000000
0.000000 0.247898 0.000000
0.000000 0.260792 0.000000
0.000000 0.273060 0.000000
0.000000 0.284199 0.000000
0.000000 0.294285 0.000000
0.000000 0.303365 0.000000
0.000000 0.311330 0.000000
0.000000 0.318120 0.000000
0.047547 0.323720 0.000000
0.158801 0.328130 0.000000
0.238193 0.331319 0.000000
0.309239 0.333349 0.000000
0.376654 0.334279 0.000000
0.441932 0.334173 0.000000
0.505425 0.333165 0.000000
0.567025 0.331426 0.000000
0.626291 0.329213 0.000000
0.682582 0.326879 0.000000
0.735103 0.324849 0.000000
0.783108 0.323705 0.000000
0.827192 0.323598 0.000000
0.867582 0.324712 0.000000
0.904387 0.327230 0.000000
0.937728 0.331197 0.000000
0.967864 0.336568 0.000000
0.995285 0.343221 0.000000
1.000000 0.349813 0.000000
1.000000 0.357183 0.000000
1.000000 0.365103 0.000000
1.000000 0.373388 0.000000
1.000000 0.381994 0.000000
1.000000 0.390890 0.000000
1.000000 0.400031 0.000000
0.000000 0.300465 0.000000
0.000000 0.314885 0.000000
0.000000 0.328267 0.000000
0.000000 0.340352 0.000000
0.000000 0.351293 0.000000
0.000000 0.361105 0.000000
0.000000 0.369726 0.000000
0.000000 0.377111 0.000000
0.000000 0.383291 0.000000
0.103944 0.388251 0.000000
0.211810 0.392050 0.000000
0.294545 0.394751 0.000000
0.368780 0.396414 0.000000
0.438590 0.397177 0.000000
0.505379 0.397131 0.000000
0.569467 0.396475 0.000000
0.630732 0.395407 0.000000
0.688716 0.394247 0.000000
0.742809 0.393362 0.000000
0.792554 0.393133 0.000000
0.838331 0.393668 0.000000
0.880232 0.395132 0.000000
0.918334 0.397711 0.000000
0.952850 0.401495 0.000000
0.984573 0.406348 0.000000
1.000000 0.411597 0.000000
1.000000 0.417456 0.000000
1.000000 0.424063 0.000000
1.000000 0.431098 0.000000
1.000000 0.438499 0.000000
1.000000 0.446250 0.000000
1.000000 0.454322 0.000000
1.000000 0.462867 0.000000
0.000000 0.355047 0.000000
0.000000 0.370718 0.000000
0.000000 0.385153 0.000000
0.000000 0.398215 0.000000
0.000000 0.409995 0.000000
0.000000 0.420508 0.000000
0.000000 0.429725 0.000000
0.000000 0.437629 0.000000
0.000000 0.444266 0.000000
0.000000 0.449699 0.000000
0.166339 0.453986 0.000000
0.269963 0.457221 0.000000
0.353948 0.459495 0.000000
0.429648 0.460914 0.000000
0.500404 0.461601 0.000000
0.567346 0.461723 0.000000
0.630747 0.461448 0.000000
0.690379 0.460990 0.000000
0.745815 0.460655 0.000000
0.797086 0.460731 0.000000
0.844358 0.461448 0.000000
0.887694 0.462989 0.000000
0.927428 0.465431 0.000000
0.964141 0.468788 0.000000
0.998062 0.472770 0.000000
1.000000 0.477195 0.000000
1.000000 0.482460 0.000000
1.000000 0.488319 0.000000
1.000000 0.494606 0.000000
1.000000 0.501274 0.000000
1.000000 0.508309 0.000000
1.000000 0.517235 0.000000
1.000000 0.528603 0.000000
0.000000 0.410742 0.000000
0.000000 0.427146 0.000000
0.000000 0.442420 0.000000
0.000000 0.456489 0.000000
0.000000 0.469154 0.000000
0.000000 0.480369 0.000000
0.000000 0.490135 0.000000
0.000000 0.498543 0.000000
0.000000 0.505638 0.000000
0.000000 0.511513 0.000000
0.076478 0.516258 0.000000
0.233066 0.519966 0.000000
0.332006 0.522728 0.000000
0.415381 0.524605 0.000000
0.490791 0.525673 0.000000
0.560784 0.526146 0.000000
0.626307 0.526192 0.000000
0.687526 0.526055 0.000000
0.744472 0.526024 0.000000
0.797314 0.526329 0.000000
0.846204 0.527169 0.000000
0.891569 0.528634 0.000000
0.933623 0.530831 0.000000
0.972610 0.533700 0.000000
1.000000 0.536889 0.000000
1.000000 0.540887 0.000000
1.000000 0.545556 0.000000
1.000000 0.550759 0.000000
1.000000 0.556390 0.000000
1.000000 0.562432 0.000000
1.000000 0.570764 0.000000
1.000000 0.581018 0.000000
1.000000 0.591424 0.000000
0.000000 0.467277 0.000000
0.000000 0.484031 0.000000
0.000000 0.499718 0.000000
0.000000 0.514229 0.000000
0.000000 0.527474 0.000000
0.000000 0.539345 0.000000
0.000000 0.549783 0.000000
0.000000 0.558755 0.000000
0.000000 0.566384 0.000000
0.000000 0.572732 0.000000
0.000000 0.577829 0.000000
0.178134 0.581781 0.000000
0.302358 0.584710 0.000000
0.395819 0.586740 0.000000
0.476814 0.588037 0.000000
0.550317 0.588754 0.000000
0.618235 0.589075 0.000000
0.681315 0.589242 0.000000
0.739986 0.589471 0.000000
0.794675 0.589990 0.000000
0.845701 0.590906 0.000000
0.893248 0.592340 0.000000
0.937499 0.594324 0.000000
0.978637 0.596536 0.000000
1.000000 0.599451 0.000000
1.000000 0.603037 0.000000
1.000000 0.607172 0.000000
1.000000 0.611810 0.000000
1.000000 0.616892 0.000000
1.000000 0.623957 0.000000
1.000000 0.633173 0.000000
1.000000 0.642603 0.000000
1.000000 0.652232 0.000000
0.000000 0.523690 0.000000
0.000000 0.540948 0.000000
0.000000 0.556847 0.000000
0.000000 0.571527 0.000000
0.000000 0.584939 0.000000
0.000000 0.597055 0.000000
0.000000 0.607813 0.000000
0.000000 0.617121 0.000000
0.000000 0.625055 0.000000
0.000000 0.631662 0.000000
0.000000 0.637003 0.000000
0.083726 0.641199 0.000000
0.265309 0.644373 0.000000
0.372473 0.646662 0.000000
0.460090 0.648234 0.000000
0.537530 0.649271 0.000000
0.608087 0.649943 0.000000
0.673259 0.650477 0.000000
0.733944 0.651057 0.000000
0.790646 0.651835 0.000000
0.843656 0.652888 0.000000
0.893217 0.654261 0.000000
0.939483 0.655833 0.000000
0.982696 0.657969 0.000000
1.000000 0.660655 0.000000
1.000000 0.663859 0.000000
1.000000 0.667552 0.000000
1.000000 0.671717 0.000000
1.000000 0.677104 0.000000
1.000000 0.685328 0.000000
1.000000 0.693828 0.000000
1.000000 0.702586 0.000000
1.000000 0.711559 0.000000
0.000000 0.580041 0.000000
0.000000 0.597116 0.000000
0.000000 0.613153 0.000000
0.000000 0.627909 0.000000
0.000000 0.641184 0.000000
0.000000 0.653162 0.000000
0.000000 0.663813 0.000000
0.000000 0.673136 0.000000
0.000000 0.681163 0.000000
0.000000 0.687953 0.000000
0.000000 0.693553 0.000000
0.000000 0.698054 0.000000
0.221576 0.701579 0.000000
0.347372 0.704250 0.000000
0.442496 0.706233 0.000000
0.524086 0.707698 0.000000
0.597360 0.708873 0.000000
0.664698 0.709911 0.000000
0.727291 0.710903 0.000000
0.785794 0.711986 0.000000
0.840574 0.713054 0.000000
0.891920 0.714336 0.000000
0.940078 0.715999 0.000000
0.985214 0.718059 0.000000
1.000000 0.720546 0.000000
1.000000 0.723476 0.000000
1.000000 0.726833 0.000000
1.000000 0.730632 0.000000
1.000000 0.737621 0.000000
1.000000 0.745235 0.000000
1.000000 0.753170 0.000000
1.000000 0.761303 0.000000
1.000000 0.769604 0.000000
0.000000 0.635828 0.000000
0.000000 0.652277 0.000000
0.000000 0.667689 0.000000
0.000000 0.682002 0.000000
0.000000 0.695140 0.000000
0.000000 0.707073 0.000000
0.000000 0.717617 0.000000
0.000000 0.726940 0.000000
0.000000 0.735058 0.000000
0.000000 0.742016 0.000000
0.000000 0.747875 0.000000
0.000000 0.752697 0.000000
0.169787 0.756588 0.000000
0.322362 0.759686 0.000000
0.425513 0.762203 0.000000
0.511086 0.764309 0.000000
0.586954 0.766094 0.000000
0.656275 0.767651 0.000000
0.720516 0.768933 0.000000
0.780575 0.770184 0.000000
0.836957 0.771527 0.000000
0.889937 0.773053 0.000000
0.939773 0.774807 0.000000
0.986648 0.776852 0.000000
1.000000 0.779232 0.000000
1.000000 0.781964 0.000000
1.000000 0.785107 0.000000
1.000000 0.790021 0.000000
1.000000 0.796765 0.000000
1.000000 0.803677 0.000000
1.000000 0.810666 0.000000
1.000000 0.817685 0.000000
1.000000 0.824628 0.000000
0.000000 0.690013 0.000000
0.000000 0.705699 0.000000
0.000000 0.720455 0.000000
0.000000 0.734218 0.000000
0.000000 0.746914 0.000000
0.000000 0.758541 0.000000
0.000000 0.769055 0.000000
0.000000 0.778439 0.000000
0.000000 0.786709 0.000000
0.000000 0.793896 0.000000
0.000000 0.800015 0.000000
0.000000 0.805158 0.000000
0.106340 0.809491 0.000000
0.298466 0.813214 0.000000
0.409735 0.816373 0.000000
0.499138 0.819059 0.000000
0.577371 0.821347 0.000000
0.648402 0.823362 0.000000
0.714153 0.825177 0.000000
0.775601 0.826902 0.000000
0.833341 0.828595 0.000000
0.887724 0.830365 0.000000
0.939025 0.832273 0.000000
0.987442 0.834394 0.000000
1.000000 0.836728 0.000000
1.000000 0.839292 0.000000
1.000000 0.842008 0.000000
1.000000 0.847547 0.000000
1.000000 0.853147 0.000000
1.000000 0.858671 0.000000
1.000000 0.864042 0.000000
1.000000 0.869215 0.000000
1.000000 0.874098 0.000000
0.000000 0.742641 0.000000
0.000000 0.757549 0.000000
0.000000 0.771603 0.000000
0.000000 0.784771 0.000000
0.000000 0.797024 0.000000
0.000000 0.808316 0.000000
0.000000 0.818601 0.000000
0.000000 0.827878 0.000000
0.000000 0.836149 0.000000
0.000000 0.843427 0.000000
0.000000 0.849790 0.000000
0.000000 0.855467 0.000000
0.008896 0.860487 0.000000
0.276280 0.864897 0.000000
0.395972 0.868742 0.000000
0.488991 0.872099 0.000000
0.569314 0.875044 0.000000
0.641840 0.877653 0.000000
0.708782 0.879988 0.000000
0.771328 0.882170 0.000000
0.830182 0.884260 0.000000
0.885679 0.886275 0.000000
0.938064 0.888243 0.000000
0.987457 0.890166 0.000000
1.000000 0.892012 0.000000
1.000000 0.893782 0.000000
1.000000 0.896452 0.000000
1.000000 0.900481 0.000000
1.000000 0.904234 0.000000
1.000000 0.907668 0.000000
1.000000 0.910719 0.000000
1.000000 0.913390 0.000000
1.000000 0.915938 0.000000
0.000000 0.793698 0.000000
0.000000 0.807919 0.000000
0.000000 0.821317 0.000000
0.000000 0.833890 0.000000
0.000000 0.845624 0.000000
0.000000 0.856504 0.000000
0.000000 0.866514 0.000000
0.000000 0.875639 0.000000
0.000000 0.883879 0.000000
0.000000 0.891417 0.000000
0.000000 0.898314 0.000000
0.000000 0.904570 0.000000
0.000000 0.910216 0.000000
0.257923 0.915267 0.000000
0.385336 0.919753 0.000000
0.481346 0.923751 0.000000
0.563333 0.927321 0.000000
0.636957 0.930495 0.000000
0.704723 0.933303 0.000000
0.767895 0.935729 0.000000
0.827161 0.937819 0.000000
0.882948 0.939544 0.000000
0.935485 0.940932 0.000000
0.984939 0.941985 0.000000
1.000000 0.942702 0.000000
1.000000 0.943023 0.000000
1.000000 0.944503 0.000000
1.000000 0.946242 0.000000
1.000000 0.947585 0.000000
1.000000 0.948821 0.000000
1.000000 0.949966 0.000000
1.000000 0.951049 0.000000
1.000000 0.952087 0.000000
0.000000 0.843244 0.000000
0.000000 0.856779 0.000000
0.000000 0.869581 0.000000
0.000000 0.881621 0.000000
0.000000 0.892882 0.000000
0.000000 0.903349 0.000000
0.000000 0.913024 0.000000
0.000000 0.922026 0.000000
0.000000 0.930510 0.000000
0.000000 0.938445 0.000000
0.000000 0.945800 0.000000
0.000000 0.952575 0.000000
0.000000 0.958770 0.000000
0.244800 0.964416 0.000000
0.378424 0.969482 0.000000
0.476493 0.973968 0.000000
0.559319 0.977829 0.000000
0.633188 0.981079 0.000000
0.700816 0.983688 0.000000
0.763622 0.985687 0.000000
0.822370 0.987045 0.000000
0.877501 0.987808 0.000000
0.929274 0.987961 0.000000
0.977798 0.987442 0.000000
1.000000 0.986282 0.000000
1.000000 0.984726 0.000000
1.000000 0.984558 0.000000
1.000000 0.984604 0.000000
1.000000 0.984527 0.000000
1.000000 0.984329 0.000000
1.000000 0.984070 0.000000
1.000000 0.983764 0.000000
1.000000 0.983413 0.000000
0.000000 0.891310 0.000000
0.000000 0.904219 0.000000
0.000000 0.916442 0.000000
0.000000 0.927962 0.000000
0.000000 0.938766 0.000000
0.000000 0.948913 0.000000
0.000000 0.958602 0.000000
0.000000 0.967834 0.000000
0.000000 0.976577 0.000000
0.000000 0.984817 0.000000
0.000000 0.992538 0.000000
0.000000 0.999680 0.000000
0.000000 1.000000 0.000000
0.236728 1.000000 0.000000
0.373999 1.000000 0.000000
0.472663 1.000000 0.000000
0.555169 1.000000 0.000000
0.628244 1.000000 0.000000
0.694804 1.000000 0.000000
0.756329 1.000000 0.000000
0.813642 1.000000 0.000000
0.867262 1.000000 0.000000
0.917739 1.000000 0.000000
0.965194 1.000000 0.000000
1.000000 1.000000 0.000000
1.000000 1.000000 0.000000
1.000000 1.000000 0.000000
1.000000 1.000000 0.000000
1.000000 1.000000 0.000000
1.000000 1.000000 0.000000
1.000000 1.000000 0.000000
1.000000 1.000000 0.000000
1.000000 1.000000 0.000000
0.000000 0.937972 0.000000
0.000000 0.950286 0.000000
0.000000 0.961959 0.000000
0.000000 0.972992 0.000000
0.000000 0.983612 0.000000
0.000000 0.993851 0.000000
0.000000 1.000000 0.000000
0.000000 1.000000 0.000000
0.000000 1.000000 0.000000
0.000000 1.000000 0.000000
0.000000 1.000000 0.000000
0.000000 1.000000 0.000000
0.000000 1.000000 0.000000
0.228641 1.000000 0.000000
0.368307 1.000000 0.000000
0.466651 1.000000 0.000000
0.547997 1.000000 0.000000
0.619471 1.000000 0.000000
0.684291 1.000000 0.000000
0.744305 1.000000 0.000000
0.800519 1.000000 0.000000
0.853361 1.000000 0.000000
0.903090 1.000000 0.000000
0.949798 1.000000 0.000000
0.993545 1.000000 0.000000
1.000000 1.000000 0.000000
1.000000 1.000000 0.000000
1.000000 1.000000 0.000000
1.000000 1.000000 0.000000
1.000000 1.000000 0.000000
1.000000 1.000000 0.000000
1.000000 1.000000 0.000000
1.000000 1.000000 0.034394
0.000000 0.983307 0.000000
0.000000 0.995041 0.000000
0.000000 1.000000 0.000000
0.000000 1.000000 0.000000
0.000000 1.000000 0.000000
0.000000 1.000000 0.000000
0.000000 1.000000 0.000000
0.000000 1.000000 0.000000
0.000000 1.000000 0.000000
0.000000 1.000000 0.000000
0.000000 1.000000 0.000000
0.000000 1.000000 0.000000
0.000000 1.000000 0.000000
0.214374 1.000000 0.000000
0.357275 1.000000 0.000000
0.455344 1.000000 0.000000
0.535836 1.000000 0.000000
0.606424 1.000000 0.000000
0.670588 1.000000 0.000000
0.730022 1.000000 0.000000
0.785550 1.000000 0.000000
0.837675 1.000000 0.000000
0.886610 1.000000 0.000000
0.932509 1.000000 0.000000
0.975418 1.000000 0.000000
1.000000 1.000000 0.000000
1.000000 1.000000 0.000000
1.000000 1.000000 0.000000
1.000000 1.000000 0.000000
1.000000 1.000000 0.000000
1.000000 1.000000 0.000000
1.000000 1.000000 0.000000
1.000000 1.000000 0.170184
0.000000 1.000000 0.000000
0.000000 1.000000 0.000000
0.000000 1.000000 0.000000
0.000000 1.000000 0.000000
0.000000 1.000000 0.000000
0.000000 1.000000 0.000000
0.000000 1.000000 0.000000
0.000000 1.000000 0.000000
0.000000 1.000000 0.000000
0.000000 1.000000 0.000000
0.000000 1.000000 0.000000
0.000000 1.000000 0.000000
0.000000 1.000000 0.000000
0.256748 1.000000 0.000000
0.382559 1.000000 0.000000
0.473365 1.000000 0.000000
0.548760 1.000000 0.000000
0.615305 1.000000 0.000000
0.675761 1.000000 0.000000
0.731624 1.000000 0.000000
0.783703 1.000000 0.000000
0.832486 1.000000 0.000000
0.878233 1.000000 0.000000
0.921080 1.000000 0.000000
0.961059 1.000000 0.000000
0.998184 1.000000 0.000000
1.000000 1.000000 0.000000
1.000000 1.000000 0.000000
1.000000 1.000000 0.000000
1.000000 1.000000 0.000000
