ARRI/ARRI_LogC2Video_2100PQ-PW-1k-DW100_33.cube
LUT_3D_SIZE 33
0.006302 0.006302 0.006302
0.027924 0.006302 0.006302
0.053681 0.012146 0.006302
0.078996 0.019638 0.006302
0.104173 0.027924 0.006302
0.129335 0.036957 0.006302
0.154528 0.046708 0.008042
0.179812 0.057145 0.010330
0.205234 0.068299 0.012955
0.230869 0.080140 0.015900
0.256886 0.092790 0.019242
0.283513 0.106355 0.023041
0.310948 0.120958 0.027359
0.339422 0.136782 0.032288
0.369131 0.153994 0.037949
0.399496 0.172320 0.044297
0.429923 0.191394 0.051255
0.460410 0.211215 0.058854
0.490944 0.231769 0.067140
0.521553 0.253056 0.076112
0.552224 0.275074 0.085817
0.582956 0.297826 0.096284
0.613748 0.321279 0.107546
0.644602 0.345464 0.119646
0.675532 0.370352 0.132631
0.706523 0.395956 0.146502
0.737575 0.422263 0.161334
0.751827 0.449287 0.177127
0.751827 0.477012 0.193957
0.751827 0.505425 0.211841
0.751827 0.534356 0.230701
0.751827 0.563653 0.250462
0.751827 0.593225 0.271092
0.006302 0.011063 0.006302
0.006302 0.006302 0.006302
0.030030 0.006302 0.006302
0.056321 0.012894 0.006302
0.082307 0.020676 0.006302
0.108263 0.029328 0.006302
0.134356 0.038849 0.006409
0.160876 0.049271 0.008591
0.188022 0.060685 0.011139
0.216037 0.073213 0.014160
0.245121 0.087007 0.017700
0.275395 0.102159 0.021836
0.305928 0.118242 0.026535
0.336522 0.135149 0.031754
0.367147 0.152834 0.037552
0.397833 0.171298 0.043931
0.428565 0.190524 0.050935
0.459327 0.210498 0.058579
0.490150 0.231220 0.066911
0.521019 0.252689 0.075944
0.551949 0.274876 0.085725
0.582925 0.297795 0.096269
0.613947 0.321447 0.107622
0.645029 0.345800 0.119829
0.676173 0.370871 0.132906
0.707362 0.396658 0.146899
0.738613 0.423163 0.161837
0.751827 0.450355 0.177768
0.751827 0.478172 0.194675
0.751827 0.506401 0.212467
0.751827 0.534997 0.231128
0.751827 0.563867 0.250614
0.751827 0.592950 0.270893
0.006302 0.022156 0.006302
0.006302 0.015213 0.006302
0.007828 0.008423 0.006302
0.035248 0.007630 0.006302
0.063005 0.014801 0.006302
0.091142 0.023529 0.006302
0.120027 0.033524 0.006302
0.149966 0.044892 0.007660
0.180774 0.057557 0.010422
0.211597 0.071183 0.013657
0.242420 0.085695 0.017350
0.273274 0.101076 0.021530
0.304158 0.117281 0.026246
0.335058 0.134325 0.031495
0.366003 0.152148 0.037324
0.396979 0.170764 0.043748
0.427985 0.190158 0.050797
0.459022 0.210300 0.058503
0.490089 0.231189 0.066896
0.521218 0.252827 0.076005
0.552361 0.275181 0.085863
0.583566 0.298283 0.096498
0.614801 0.322103 0.107958
0.646082 0.346639 0.120256
0.677409 0.371893 0.133440
0.708782 0.397848 0.147555
0.740169 0.424491 0.162600
0.751827 0.451621 0.178531
0.751827 0.479179 0.195300
0.751827 0.507088 0.212894
0.751827 0.535256 0.231296
0.751827 0.563638 0.250446
0.751827 0.592126 0.270314
0.009796 0.035691 0.006302
0.008179 0.030549 0.006302
0.006851 0.026184 0.006302
0.021866 0.023331 0.006302
0.052689 0.024201 0.006302
0.084276 0.028931 0.006302
0.115740 0.036698 0.006302
0.147082 0.046738 0.006302
0.178332 0.058488 0.008896
0.209552 0.071580 0.012512
0.240757 0.085801 0.016464
0.271946 0.101045 0.020844
0.303136 0.117220 0.025696
0.334356 0.134279 0.031067
0.365576 0.152178 0.036988
0.396811 0.170886 0.043519
0.428077 0.190387 0.050660
0.459373 0.210651 0.058457
0.490684 0.231693 0.066941
0.522026 0.253483 0.076158
0.553384 0.276005 0.086107
0.584787 0.299260 0.096864
0.616205 0.323232 0.108431
0.647669 0.347936 0.120851
0.679164 0.373342 0.134157
0.710521 0.399329 0.148318
0.741665 0.425803 0.163317
0.751827 0.452674 0.179110
0.751827 0.479896 0.195712
0.751827 0.507393 0.213062
0.751827 0.535088 0.231144
0.751827 0.562875 0.249912
0.751827 0.590692 0.269276
0.017090 0.057206 0.006302
0.016663 0.056016 0.006302
0.016297 0.054994 0.006302
0.023209 0.054063 0.006302
0.050904 0.053880 0.006302
0.081941 0.055070 0.006302
0.113512 0.058198 0.006302
0.145144 0.063584 0.006302
0.176745 0.071336 0.006302
0.208301 0.081254 0.006302
0.239826 0.093095 0.008057
0.271336 0.106600 0.015152
0.302815 0.121508 0.021485
0.334310 0.137667 0.027848
0.365789 0.154925 0.034501
0.397284 0.173205 0.041581
0.428794 0.192416 0.049180
0.460304 0.212512 0.057359
0.491829 0.233448 0.066163
0.523354 0.255192 0.075654
0.554910 0.277729 0.085878
0.586481 0.301015 0.096849
0.618067 0.325063 0.108629
0.649607 0.349783 0.121218
0.680949 0.375051 0.134600
0.712047 0.400809 0.148745
0.742870 0.426993 0.163668
0.751827 0.453513 0.179339
0.751827 0.480323 0.195743
0.751827 0.507317 0.212818
0.751827 0.534432 0.230549
0.751827 0.561563 0.248859
0.751827 0.588602 0.267674
0.028794 0.087984 0.006302
0.028534 0.087327 0.006302
0.028275 0.086687 0.006302
0.031373 0.086076 0.006302
0.052857 0.085801 0.006302
0.081834 0.086183 0.006302
0.112795 0.087541 0.006302
0.144335 0.090288 0.006302
0.176074 0.094728 0.006302
0.207843 0.101122 0.006302
0.239628 0.109560 0.006302
0.271382 0.120012 0.006302
0.303120 0.132372 0.006302
0.334859 0.146456 0.015381
0.366583 0.162081 0.026108
0.398291 0.179095 0.035431
0.429999 0.197345 0.044541
0.461707 0.216709 0.053834
0.493416 0.237125 0.063508
0.525139 0.258473 0.073686
0.556847 0.280735 0.084474
0.588540 0.303838 0.095918
0.620081 0.327626 0.108049
0.651423 0.352026 0.120851
0.682490 0.376959 0.134356
0.713268 0.402350 0.148547
0.743694 0.428107 0.163439
0.751827 0.454170 0.179004
0.751827 0.480461 0.195209
0.751827 0.506859 0.212009
0.751827 0.533288 0.229358
0.751827 0.559655 0.247181
0.751827 0.585840 0.265415
0.042161 0.119646 0.006302
0.042008 0.119295 0.006302
0.041871 0.118975 0.006302
0.043503 0.118669 0.006302
0.059083 0.118563 0.006302
0.084581 0.118791 0.006302
0.114000 0.119570 0.006302
0.144930 0.121141 0.006302
0.176471 0.123812 0.006302
0.208255 0.127840 0.006302
0.240162 0.133486 0.006302
0.272084 0.140948 0.006302
0.304021 0.150317 0.006302
0.335943 0.161608 0.006302
0.367849 0.174777 0.006302
0.399756 0.189670 0.012833
0.431647 0.206180 0.031510
0.463523 0.224155 0.044785
0.495384 0.243442 0.056901
0.527245 0.263920 0.068772
0.558999 0.285451 0.080781
0.590555 0.307851 0.093111
0.621897 0.331014 0.105882
0.652964 0.354849 0.119158
0.683726 0.379232 0.132982
0.714107 0.404074 0.147372
0.744091 0.429267 0.162341
0.751827 0.454734 0.177859
0.751827 0.480354 0.193912
0.751827 0.506035 0.210437
0.751827 0.531685 0.227405
0.751827 0.557168 0.244739
0.751827 0.582391 0.262348
0.056992 0.151949 0.006302
0.056962 0.151888 0.006302
0.056931 0.151827 0.006302
0.058030 0.151797 0.006302
0.069230 0.151888 0.006302
0.090578 0.152163 0.006302
0.117556 0.152773 0.006302
0.147204 0.153872 0.006302
0.178134 0.155657 0.006302
0.209659 0.158343 0.006302
0.241474 0.162158 0.006302
0.273442 0.167376 0.006302
0.305470 0.174182 0.006302
0.337514 0.182757 0.006302
0.369574 0.193194 0.006302
0.401602 0.205509 0.006302
0.433631 0.219669 0.006302
0.465644 0.235584 0.008957
0.497597 0.253101 0.039689
0.529397 0.272053 0.057221
0.560998 0.292241 0.072404
0.592355 0.313497 0.086778
0.623438 0.335668 0.100969
0.654185 0.358602 0.115236
0.684565 0.382162 0.129763
0.714519 0.406226 0.144625
0.743984 0.430655 0.159869
0.751827 0.455329 0.175494
0.751827 0.480156 0.191485
0.751827 0.504982 0.207828
0.751827 0.529702 0.224460
0.751827 0.554192 0.241306
0.751827 0.578470 0.258396
0.073213 0.184863 0.006302
0.073304 0.185016 0.006302
0.073396 0.185199 0.006302
0.074296 0.185397 0.006302
0.082551 0.185672 0.006302
0.099825 0.186069 0.006302
0.123720 0.186679 0.006302
0.151461 0.187579 0.006302
0.181262 0.188922 0.006302
0.212161 0.190875 0.006302
0.243671 0.193591 0.006302
0.275486 0.197314 0.006302
0.307485 0.202243 0.006302
0.339559 0.208591 0.006302
0.371679 0.216571 0.006302
0.403799 0.226322 0.006302
0.435904 0.237903 0.006302
0.467903 0.251347 0.006302
0.499748 0.266545 0.006302
0.531395 0.283406 0.013336
0.562783 0.301732 0.051728
0.593896 0.321355 0.072908
0.624674 0.342092 0.090776
0.655055 0.363745 0.107378
0.684993 0.386145 0.123461
0.714458 0.409140 0.139361
0.743359 0.432547 0.155276
0.751827 0.456214 0.171298
0.751827 0.480034 0.187457
0.751827 0.503822 0.203738
0.751827 0.527520 0.220172
0.751827 0.551156 0.236820
0.751827 0.574670 0.253666
0.090761 0.218265 0.006302
0.090959 0.218631 0.006302
0.091157 0.218997 0.006302
0.092012 0.219394 0.006302
0.098299 0.219837 0.006302
0.112093 0.220356 0.006302
0.132631 0.221012 0.006302
0.157900 0.221866 0.006302
0.186069 0.222995 0.006302
0.215961 0.224537 0.006302
0.246830 0.226596 0.006302
0.278294 0.229358 0.006302
0.310094 0.232990 0.006302
0.342061 0.237720 0.006302
0.374151 0.243732 0.006302
0.406241 0.251240 0.006302
0.438239 0.260395 0.006302
0.470100 0.271290 0.006302
0.501778 0.283970 0.006302
0.533211 0.298390 0.006302
0.564355 0.314458 0.006302
0.595148 0.331991 0.026993
0.625559 0.350851 0.067323
0.655528 0.370809 0.091310
0.684993 0.391669 0.111360
0.713893 0.413230 0.129717
0.742184 0.435309 0.147204
0.751827 0.457725 0.164218
0.751827 0.480308 0.180957
0.751827 0.503014 0.197620
0.751827 0.525795 0.214298
0.751827 0.548516 0.231006
0.751827 0.571130 0.247761
0.109545 0.252110 0.006302
0.109850 0.252628 0.006302
0.110155 0.253162 0.006302
0.111025 0.253712 0.006302
0.115984 0.254292 0.006302
0.126955 0.254932 0.006302
0.144228 0.255650 0.006302
0.166659 0.256504 0.006302
0.192737 0.257542 0.006302
0.221180 0.258839 0.006302
0.251102 0.260502 0.006302
0.281926 0.262638 0.006302
0.313313 0.265415 0.006302
0.345037 0.268971 0.006302
0.376898 0.273518 0.006302
0.408774 0.279240 0.006302
0.440574 0.286320 0.006302
0.472236 0.294911 0.006302
0.503670 0.305150 0.006302
0.534844 0.317067 0.006302
0.565667 0.330648 0.006302
0.596109 0.345815 0.006302
0.626093 0.362432 0.006302
0.655589 0.380301 0.044053
0.684520 0.399237 0.085069
0.712810 0.419028 0.111086
0.740429 0.439445 0.132677
0.751827 0.460334 0.152224
0.751827 0.481605 0.170703
0.751827 0.503136 0.188525
0.751827 0.524788 0.205951
0.751827 0.546441 0.223102
0.751827 0.568002 0.240040
0.129519 0.286290 0.006302
0.129900 0.286946 0.006302
0.130312 0.287617 0.006302
0.131228 0.288289 0.006302
0.135256 0.288975 0.006302
0.144030 0.289708 0.006302
0.158312 0.290486 0.006302
0.177798 0.291341 0.006302
0.201419 0.292332 0.006302
0.228000 0.293477 0.006302
0.256596 0.294881 0.006302
0.286488 0.296620 0.006302
0.317220 0.298787 0.006302
0.348440 0.301518 0.006302
0.379904 0.304982 0.006302
0.411460 0.309346 0.006302
0.442969 0.314778 0.006302
0.474327 0.321462 0.006302
0.505470 0.329534 0.006302
0.536294 0.339117 0.006302
0.566751 0.350256 0.006302
0.596765 0.362951 0.006302
0.626291 0.377111 0.006302
0.655238 0.392630 0.006302
0.683543 0.409308 0.006302
0.711192 0.426978 0.060212
0.738231 0.445502 0.102770
0.751827 0.464714 0.130602
0.751827 0.484443 0.153643
0.751827 0.504540 0.174289
0.751827 0.524849 0.193545
0.751827 0.545235 0.211856
0.751827 0.565576 0.229526
0.150576 0.320729 0.006302
0.151064 0.321492 0.006302
0.151537 0.322255 0.006302
0.152483 0.323018 0.006302
0.155840 0.323796 0.006302
0.162905 0.324590 0.006302
0.174640 0.325399 0.006302
0.191241 0.326268 0.006302
0.212177 0.327214 0.006302
0.236545 0.328283 0.006302
0.263447 0.329488 0.006302
0.292088 0.330922 0.006302
0.321874 0.332647 0.006302
0.352377 0.334783 0.006302
0.383276 0.337453 0.006302
0.414374 0.340795 0.006302
0.445457 0.344961 0.006302
0.476432 0.350118 0.006302
0.507179 0.356390 0.006302
0.537591 0.363943 0.006302
0.567590 0.372839 0.006302
0.597101 0.383139 0.006302
0.626062 0.394842 0.006302
0.654398 0.407874 0.006302
0.682139 0.422171 0.006302
0.709300 0.437613 0.006302
0.735851 0.454047 0.006302
0.751827 0.471305 0.074952
0.751827 0.489235 0.119951
0.751827 0.507637 0.149432
0.751827 0.526375 0.173541
0.751827 0.545281 0.194888
0.751827 0.564202 0.214496
0.172671 0.355337 0.006302
0.173220 0.356176 0.006302
0.173754 0.357015 0.006302
0.174746 0.357839 0.006302
0.177584 0.358663 0.006302
0.183322 0.359487 0.006302
0.192905 0.360327 0.006302
0.206821 0.361196 0.006302
0.225025 0.362097 0.006302
0.246952 0.363043 0.006302
0.271824 0.364080 0.006302
0.298878 0.365255 0.006302
0.327428 0.366659 0.006302
0.356985 0.368338 0.006302
0.387137 0.370413 0.006302
0.417594 0.372976 0.006302
0.448127 0.376165 0.006302
0.478584 0.380102 0.006302
0.508812 0.384909 0.006302
0.538705 0.390738 0.006302
0.568154 0.397696 0.006302
0.597086 0.405859 0.006302
0.625483 0.415290 0.006302
0.653315 0.426001 0.006302
0.680583 0.437964 0.006302
0.707256 0.451087 0.006302
0.733272 0.465293 0.006302
0.751827 0.480415 0.006302
0.751827 0.496315 0.006302
0.751827 0.512810 0.086351
0.751827 0.529747 0.134874
0.751827 0.546960 0.166003
0.751827 0.564279 0.190951
0.195712 0.390036 0.006302
0.196307 0.390921 0.006302
0.196887 0.391791 0.006302
0.197894 0.392645 0.006302
0.200320 0.393484 0.006302
0.205020 0.394324 0.006302
0.212818 0.395163 0.006302
0.224369 0.395972 0.006302
0.239933 0.396765 0.006302
0.259281 0.397589 0.006302
0.281880 0.398459 0.006302
0.307042 0.399420 0.006302
0.334081 0.400534 0.006302
0.362402 0.401846 0.006302
0.391547 0.403418 0.006302
0.421180 0.405356 0.006302
0.450980 0.407736 0.006302
0.480781 0.410697 0.006302
0.510384 0.414343 0.006302
0.539666 0.418799 0.006302
0.568521 0.424170 0.006302
0.596933 0.430549 0.006302
0.624826 0.438025 0.006302
0.652171 0.446647 0.006302
0.678920 0.456413 0.006302
0.705058 0.467292 0.006302
0.730510 0.479255 0.006302
0.751827 0.492164 0.006302
0.751827 0.505913 0.006302
0.751827 0.520363 0.006302
0.751827 0.535332 0.006302
0.751827 0.550668 0.090227
0.751827 0.566201 0.145098
0.219608 0.424720 0.006302
0.220233 0.425620 0.006302
0.220844 0.426490 0.006302
0.221836 0.427359 0.006302
0.223926 0.428199 0.006302
0.227771 0.428992 0.006302
0.234104 0.429725 0.006302
0.243610 0.430426 0.006302
0.256718 0.431098 0.006302
0.273518 0.431769 0.006302
0.293675 0.432456 0.006302
0.316670 0.433173 0.006302
0.341878 0.433997 0.006302
0.368704 0.434943 0.006302
0.396612 0.436088 0.006302
0.425208 0.437491 0.006302
0.454139 0.439261 0.006302
0.483146 0.441459 0.006302
0.512032 0.444175 0.006302
0.540673 0.447547 0.006302
0.568963 0.451637 0.006302
0.596811 0.456565 0.006302
0.624170 0.462409 0.006302
0.650980 0.469215 0.006302
0.677180 0.477043 0.006302
0.702739 0.485878 0.006302
0.727611 0.495705 0.006302
0.751781 0.506462 0.006302
0.751827 0.518074 0.006302
0.751827 0.530404 0.006302
0.751827 0.543313 0.006302
0.751827 0.556664 0.006302
0.751827 0.570306 0.006302
0.244266 0.459327 0.006302
0.244907 0.460197 0.006302
0.245533 0.461051 0.006302
0.246464 0.461875 0.006302
0.248219 0.462608 0.006302
0.251347 0.463279 0.006302
0.256474 0.463874 0.006302
0.264225 0.464408 0.006302
0.275120 0.464897 0.006302
0.289433 0.465354 0.006302
0.307088 0.465797 0.006302
0.327764 0.466270 0.006302
0.350927 0.466804 0.006302
0.376013 0.467430 0.006302
0.402487 0.468193 0.006302
0.429847 0.469169 0.006302
0.457740 0.470405 0.006302
0.485847 0.471977 0.006302
0.513954 0.473991 0.006302
0.541894 0.476493 0.006302
0.569543 0.479576 0.006302
0.596796 0.483330 0.006302
0.623560 0.487831 0.006302
0.649775 0.493126 0.006302
0.675380 0.499275 0.006302
0.700343 0.506310 0.006302
0.724605 0.514229 0.006302
0.748119 0.523003 0.006302
0.751827 0.532570 0.006302
0.751827 0.542855 0.006302
0.751827 0.553735 0.006302
0.751827 0.565087 0.006302
0.751827 0.576761 0.006302
0.269612 0.493736 0.006302
0.270222 0.494575 0.006302
0.270787 0.495308 0.006302
0.271580 0.495964 0.006302
0.273014 0.496513 0.006302
0.275502 0.496986 0.006302
0.279576 0.497368 0.006302
0.285832 0.497688 0.006302
0.294789 0.497948 0.006302
0.306813 0.498177 0.006302
0.322057 0.498390 0.006302
0.340352 0.498604 0.006302
0.361349 0.498848 0.006302
0.384512 0.499153 0.006302
0.409323 0.499580 0.006302
0.435279 0.500160 0.006302
0.461967 0.500954 0.006302
0.489067 0.502037 0.006302
0.516274 0.503456 0.006302
0.543435 0.505257 0.006302
0.570352 0.507530 0.006302
0.596918 0.510338 0.006302
0.623026 0.513725 0.006302
0.648600 0.517784 0.006302
0.673579 0.522545 0.006302
0.697887 0.528054 0.006302
0.721492 0.534325 0.006302
0.744350 0.541329 0.006302
0.751827 0.549065 0.006302
0.751827 0.557443 0.006302
0.751827 0.566415 0.006302
0.751827 0.575906 0.006302
0.751827 0.585840 0.006302
0.295460 0.527825 0.006302
0.295949 0.528450 0.006302
0.296361 0.528969 0.006302
0.296956 0.529397 0.006302
0.298039 0.529717 0.006302
0.299962 0.529946 0.006302
0.303166 0.530083 0.006302
0.308156 0.530159 0.006302
0.315435 0.530175 0.006302
0.325429 0.530144 0.006302
0.338415 0.530083 0.006302
0.354376 0.530022 0.006302
0.373114 0.529976 0.006302
0.394232 0.529976 0.006302
0.417227 0.530083 0.006302
0.441611 0.530327 0.006302
0.466957 0.530755 0.006302
0.492866 0.531411 0.006302
0.519081 0.532326 0.006302
0.545327 0.533547 0.006302
0.571435 0.535149 0.006302
0.597238 0.537163 0.006302
0.622629 0.539666 0.006302
0.647517 0.542702 0.006302
0.671794 0.546319 0.006302
0.695430 0.550546 0.006302
0.718349 0.555413 0.006302
0.740505 0.560937 0.006302
0.751827 0.567102 0.006302
0.751827 0.573861 0.006302
0.751827 0.581201 0.006302
0.751827 0.589075 0.006302
0.751827 0.597406 0.006302
0.321538 0.561242 0.006302
0.321843 0.561624 0.006302
0.322057 0.561883 0.006302
0.322423 0.562036 0.006302
0.323171 0.562081 0.006302
0.324590 0.562051 0.006302
0.327031 0.561913 0.006302
0.330938 0.561715 0.006302
0.336767 0.561456 0.006302
0.344991 0.561135 0.006302
0.355901 0.560784 0.006302
0.369665 0.560433 0.006302
0.386191 0.560098 0.006302
0.405188 0.559823 0.006302
0.426230 0.559640 0.006302
0.448905 0.559579 0.006302
0.472740 0.559655 0.006302
0.497353 0.559915 0.006302
0.522423 0.560388 0.006302
0.547662 0.561120 0.006302
0.572854 0.562142 0.006302
0.597818 0.563516 0.006302
0.622431 0.565270 0.006302
0.646555 0.567468 0.006302
0.670146 0.570169 0.006302
0.693080 0.573373 0.006302
0.715328 0.577127 0.006302
0.736812 0.581445 0.006302
0.751827 0.586313 0.006302
0.751827 0.591730 0.006302
0.751827 0.597681 0.006302
0.751827 0.604120 0.006302
0.751827 0.611002 0.006302
0.347677 0.593881 0.006302
0.347753 0.593957 0.006302
0.347738 0.593927 0.006302
0.347845 0.593790 0.006302
0.348241 0.593545 0.006302
0.349172 0.593194 0.006302
0.350942 0.592767 0.006302
0.353918 0.592264 0.006302
0.358511 0.591684 0.006302
0.365179 0.591058 0.006302
0.374258 0.590387 0.006302
0.385992 0.589761 0.006302
0.400366 0.589166 0.006302
0.417243 0.588632 0.006302
0.436301 0.588159 0.006302
0.457145 0.587793 0.006302
0.479362 0.587549 0.006302
0.502556 0.587442 0.006302
0.526360 0.587503 0.006302
0.550484 0.587793 0.006302
0.574685 0.588327 0.006302
0.598764 0.589166 0.006302
0.622568 0.590341 0.006302
0.645945 0.591882 0.006302
0.668788 0.593851 0.006302
0.691020 0.596231 0.006302
0.712566 0.599084 0.006302
0.733471 0.602411 0.006302
0.751827 0.606226 0.006302
0.751827 0.610513 0.006302
0.751827 0.615259 0.006302
0.751827 0.620462 0.006302
0.751827 0.626062 0.006302
0.373739 0.625620 0.006302
0.373541 0.625376 0.006302
0.373266 0.625010 0.006302
0.373068 0.624537 0.006302
0.373098 0.623957 0.006302
0.373556 0.623285 0.006302
0.374701 0.622507 0.006302
0.376852 0.621653 0.006302
0.380392 0.620737 0.006302
0.385718 0.619806 0.006302
0.393194 0.618891 0.006302
0.403067 0.617990 0.006302
0.415442 0.617121 0.006302
0.430259 0.616312 0.006302
0.447318 0.615549 0.006302
0.466300 0.614862 0.006302
0.486824 0.614298 0.006302
0.508507 0.613855 0.006302
0.530999 0.613596 0.006302
0.553964 0.613519 0.006302
0.577142 0.613657 0.006302
0.600275 0.614054 0.006302
0.623209 0.614740 0.006302
0.645762 0.615732 0.006302
0.667842 0.617075 0.006302
0.689357 0.618799 0.006302
0.710307 0.620905 0.006302
0.730632 0.623423 0.006302
0.750317 0.626352 0.006302
0.751827 0.629694 0.006302
0.751827 0.633448 0.006302
0.751827 0.637583 0.006302
0.751827 0.642069 0.006302
0.399542 0.656352 0.006302
0.399039 0.655756 0.006302
0.398444 0.655024 0.006302
0.397925 0.654185 0.006302
0.397559 0.653239 0.006302
0.397559 0.652186 0.006302
0.398108 0.651041 0.006302
0.399542 0.649836 0.006302
0.402182 0.648631 0.006302
0.406363 0.647425 0.006302
0.412421 0.646235 0.006302
0.420630 0.645045 0.006302
0.431159 0.643900 0.006302
0.444053 0.642786 0.006302
0.459205 0.641749 0.006302
0.476356 0.640803 0.006302
0.495201 0.639963 0.006302
0.515358 0.639246 0.006302
0.536477 0.638666 0.006302
0.558206 0.638254 0.006302
0.580255 0.638041 0.006302
0.602396 0.638041 0.006302
0.624384 0.638285 0.006302
0.646098 0.638819 0.006302
0.667414 0.639643 0.006302
0.688243 0.640803 0.006302
0.708537 0.642298 0.006302
0.728252 0.644144 0.006302
0.747341 0.646342 0.006302
0.751827 0.648890 0.006302
0.751827 0.651774 0.006302
0.751827 0.655009 0.006302
0.751827 0.658549 0.006302
0.424949 0.685969 0.006302
0.424079 0.684977 0.006302
0.423148 0.683848 0.006302
0.422232 0.682597 0.006302
0.421469 0.681239 0.006302
0.420996 0.679805 0.006302
0.421042 0.678325 0.006302
0.421851 0.676829 0.006302
0.423697 0.675334 0.006302
0.426871 0.673838 0.006302
0.431708 0.672358 0.006302
0.438483 0.670909 0.006302
0.447395 0.669505 0.006302
0.458564 0.668147 0.006302
0.471916 0.666850 0.006302
0.487312 0.665629 0.006302
0.504463 0.664515 0.006302
0.523064 0.663508 0.006302
0.542748 0.662623 0.006302
0.563195 0.661891 0.006302
0.584085 0.661341 0.006302
0.605142 0.660975 0.006302
0.626169 0.660853 0.006302
0.647013 0.660990 0.006302
0.667521 0.661387 0.006302
0.687617 0.662074 0.006302
0.707225 0.663035 0.006302
0.726284 0.664302 0.006302
0.744747 0.665873 0.006302
0.751827 0.667735 0.006302
0.751827 0.669902 0.006302
0.751827 0.672343 0.006302
0.751827 0.675074 0.006302
0.449775 0.714351 0.006302
0.448508 0.712917 0.006302
0.447181 0.711360 0.006302
0.445853 0.709682 0.006302
0.444694 0.707942 0.006302
0.443824 0.706172 0.006302
0.443412 0.704387 0.006302
0.443671 0.702617 0.006302
0.444831 0.700832 0.006302
0.447166 0.699077 0.006302
0.450950 0.697337 0.006302
0.456489 0.695628 0.006302
0.463981 0.693950 0.006302
0.473564 0.692332 0.006302
0.485267 0.690776 0.006302
0.498970 0.689281 0.006302
0.514504 0.687877 0.006302
0.531548 0.686580 0.006302
0.549798 0.685389 0.006302
0.568902 0.684352 0.006302
0.588571 0.683482 0.006302
0.608530 0.682826 0.006302
0.628550 0.682383 0.006302
0.648463 0.682170 0.006302
0.668132 0.682185 0.006302
0.687449 0.682429 0.006302
0.706325 0.682933 0.006302
0.724681 0.683696 0.006302
0.742489 0.684703 0.006302
0.751827 0.685985 0.006302
0.751827 0.687510 0.006302
0.751827 0.689296 0.006302
0.751827 0.691310 0.006302
0.473854 0.741390 0.006302
0.472145 0.739467 0.006302
0.470390 0.737469 0.006302
0.468727 0.735454 0.006302
0.467247 0.733410 0.006302
0.466026 0.731365 0.006302
0.465217 0.729305 0.006302
0.464973 0.727245 0.006302
0.465537 0.725200 0.006302
0.467109 0.723156 0.006302
0.469993 0.721141 0.006302
0.474434 0.719158 0.006302
0.480659 0.717205 0.006302
0.488823 0.715297 0.006302
0.499001 0.713451 0.006302
0.511162 0.711666 0.006302
0.525124 0.709972 0.006302
0.540673 0.708370 0.006302
0.557473 0.706889 0.006302
0.575235 0.705608 0.006302
0.593652 0.704479 0.006302
0.612451 0.703548 0.006302
0.631418 0.702800 0.006302
0.650385 0.702235 0.006302
0.669169 0.701900 0.006302
0.687663 0.701762 0.006302
0.705760 0.701839 0.006302
0.723400 0.702144 0.006302
0.740505 0.702663 0.006302
0.751827 0.703410 0.006302
0.751827 0.704387 0.006302
0.751827 0.705577 0.006302
0.751827 0.706981 0.006302
0.497032 0.751827 0.006302
0.494957 0.751827 0.006302
0.492912 0.751827 0.006302
0.490944 0.751827 0.006302
0.489143 0.751827 0.006302
0.487572 0.751827 0.006302
0.486351 0.751827 0.006302
0.485649 0.750698 0.006302
0.485649 0.748348 0.006302
0.486549 0.746014 0.006302
0.488624 0.743694 0.006302
0.492103 0.741405 0.006302
0.497200 0.739162 0.006302
0.504112 0.736950 0.006302
0.512932 0.734798 0.006302
0.523644 0.732723 0.006302
0.536156 0.730724 0.006302
0.550225 0.728878 0.006302
0.565621 0.727184 0.006302
0.582025 0.725643 0.006302
0.599191 0.724269 0.006302
0.616831 0.723049 0.006302
0.634730 0.722011 0.006302
0.652705 0.721141 0.006302
0.670573 0.720455 0.006302
0.688212 0.719951 0.006302
0.705516 0.719631 0.006302
0.722377 0.719524 0.006302
0.738750 0.719600 0.006302
0.751827 0.719875 0.006302
