ARRI/ARRI_LogC2Video_Classic709_33.cube
LUT_3D_SIZE 5
0.000000 0.000000 0.000000
0.192752 0.000000 0.002319
0.718578 0.000000 0.038849
1.000000 0.000000 0.103014
1.000000 0.000000 0.111055
0.000000 0.177600 0.000000
0.161120 0.174929 0.000000
0.713725 0.124804 0.012634
1.000000 0.000000 0.085100
1.000000 0.000000 0.094469
0.000000 0.675944 0.000000
0.000000 0.675486 0.000000
0.629557 0.668421 0.000000
1.000000 0.653040 0.000000
1.000000 0.650370 0.000000
0.000000 1.000000 0.000000
0.000000 1.000000 0.000000
0.347860 1.000000 0.000000
0.989212 1.000000 0.000000
1.000000 1.000000 0.000000
0.000000 1.000000 0.000000
0.000000 1.000000 0.000000
0.253437 1.000000 0.000000
0.972244 1.000000 0.000000
1.000000 1.000000 0.000000
0.000000 0.000000 0.163500
0.186633 0.000000 0.164431
0.717571 0.000000 0.178317
1.000000 0.000000 0.204303
1.000000 0.000000 0.208362
0.000000 0.156680 0.152621
0.153613 0.153613 0.153613
0.712703 0.092638 0.168475
1.000000 0.000000 0.195941
1.000000 0.000000 0.200198
0.000000 0.672648 0.000000
0.000000 0.672190 0.000000
0.628321 0.665064 0.000000
1.000000 0.649577 0.000000
1.000000 0.646876 0.000000
0.000000 1.000000 0.000000
0.000000 1.000000 0.000000
0.344976 1.000000 0.000000
0.988586 1.000000 0.000000
1.000000 1.000000 0.000000
0.000000 1.000000 0.000000
0.000000 1.000000 0.000000
0.249058 1.000000 0.000000
0.971618 1.000000 0.000000
1.000000 1.000000 0.000000
0.000000 0.000000 0.636255
0.017014 0.000000 0.636408
0.701366 0.000000 0.638849
1.000000 0.000000 0.643992
1.000000 0.000000 0.644862
0.000000 0.000000 0.634485
0.000000 0.000000 0.634638
0.696345 0.000000 0.637095
1.000000 0.000000 0.642252
1.000000 0.000000 0.643122
0.000000 0.617044 0.605615
0.000000 0.616541 0.605783
0.608408 0.608408 0.608408
1.000000 0.590631 0.613931
1.000000 0.587533 0.614862
0.000000 1.000000 0.536553
0.000000 1.000000 0.536751
0.294453 1.000000 0.539895
0.978820 1.000000 0.546471
1.000000 1.000000 0.547570
0.000000 1.000000 0.523430
0.000000 1.000000 0.523629
0.161440 1.000000 0.526894
0.961563 1.000000 0.533700
1.000000 1.000000 0.534844
0.000000 0.000000 0.999222
0.000000 0.000000 0.999298
0.665064 0.000000 1.000000
1.000000 0.000000 1.000000
1.000000 0.000000 1.000000
0.000000 0.000000 0.998337
0.000000 0.000000 0.998413
0.659617 0.000000 0.999649
1.000000 0.000000 1.000000
1.000000 0.000000 1.000000
0.000000 0.464698 0.984283
0.000000 0.463920 0.984360
0.562692 0.451499 0.985611
1.000000 0.423423 0.988266
1.000000 0.418387 0.988708
0.000000 0.970520 0.953414
0.000000 0.970260 0.953506
0.107057 0.966232 0.954818
0.957595 0.957595 0.957595
1.000000 0.956115 0.958068
0.000000 1.000000 0.947997
0.000000 1.000000 0.948089
0.000000 1.000000 0.949416
0.939727 1.000000 0.952224
1.000000 1.000000 0.952697
0.000000 0.000000 1.000000
0.000000 0.000000 1.000000
0.658579 0.000000 1.000000
1.000000 0.000000 1.000000
1.000000 0.000000 1.000000
0.000000 0.000000 1.000000
0.000000 0.000000 1.000000
0.653056 0.000000 1.000000
1.000000 0.000000 1.000000
1.000000 0.000000 1.000000
0.000000 0.430518 1.000000
0.000000 0.429648 1.000000
0.554345 0.415747 1.000000
1.000000 0.383917 1.000000
1.000000 0.378119 1.000000
0.000000 0.959716 1.000000
0.000000 0.959457 1.000000
0.020249 0.955352 1.000000
0.953918 0.946563 1.000000
1.000000 0.945052 1.000000
0.000000 1.000000 0.995651
0.000000 1.000000 0.995727
0.000000 1.000000 0.996963
0.935927 1.000000 0.999557
1.000000 1.000000 1.000000
