ARRI/ARRI_LogC2Video_2020_33.cube
LUT_3D_SIZE 5
0.000000 0.000000 0.000000
0.042283 0.001999 0.000671
0.243214 0.023331 0.007813
0.590997 0.127398 0.053269
0.944945 0.242847 0.130495
0.010834 0.114748 0.000000
0.150240 0.162158 0.000000
0.490578 0.210056 0.023438
0.870130 0.294759 0.106188
0.997818 0.350500 0.132479
0.151736 0.532052 0.000000
0.279332 0.611231 0.000000
0.615671 0.650034 0.000000
0.980896 0.693523 0.000000
1.000000 0.725170 0.000000
0.342443 1.000000 0.000000
0.463508 1.000000 0.000000
0.726390 1.000000 0.000000
1.000000 1.000000 0.000000
1.000000 1.000000 0.000000
0.390326 1.000000 0.000000
0.492500 1.000000 0.000000
0.690257 1.000000 0.000000
0.921935 1.000000 0.000000
1.000000 1.000000 0.463325
0.000000 0.000000 0.022156
0.085054 0.000000 0.095094
0.356359 0.007980 0.151415
0.724620 0.151308 0.187289
0.995941 0.248508 0.215854
0.001389 0.124575 0.127214
0.149966 0.149966 0.149966
0.550683 0.197711 0.168353
0.921721 0.292714 0.222293
0.996643 0.335683 0.266178
0.159762 0.575265 0.155245
0.261311 0.631952 0.111284
0.624521 0.656870 0.135378
1.000000 0.692409 0.230091
1.000000 0.717678 0.299367
0.343114 1.000000 0.161837
0.444984 1.000000 0.120089
0.702754 1.000000 0.065293
1.000000 1.000000 0.198245
1.000000 1.000000 0.405203
0.362890 1.000000 0.290791
0.459876 1.000000 0.186725
0.685863 1.000000 0.260594
0.920760 1.000000 0.483513
1.000000 1.000000 0.722530
0.000000 0.000000 0.137789
0.088640 0.000000 0.318563
0.418524 0.000000 0.446921
0.779004 0.000000 0.489082
0.991165 0.112306 0.479454
0.000000 0.000000 0.412985
0.000000 0.000000 0.540154
0.541512 0.000000 0.574121
0.924987 0.104875 0.577249
0.988861 0.202090 0.590661
0.025742 0.549722 0.557397
0.183169 0.586633 0.594095
0.607630 0.607630 0.607630
0.997604 0.642649 0.625208
0.997772 0.677775 0.662852
0.298451 1.000000 0.613214
0.396735 1.000000 0.614221
0.667628 1.000000 0.586481
0.989578 1.000000 0.613016
1.000000 0.983963 0.723125
0.313787 1.000000 0.626337
0.440330 1.000000 0.590036
0.708003 1.000000 0.641871
0.926162 1.000000 0.758343
1.000000 1.000000 0.899428
0.000000 0.000000 0.366796
0.000000 0.000000 0.630991
0.401511 0.000000 0.783642
0.751904 0.000000 0.798672
0.979553 0.000000 0.760418
0.000000 0.000000 0.756085
0.000000 0.000000 0.902663
0.465217 0.000000 0.939269
0.885603 0.000000 0.937819
0.969619 0.000000 0.931548
0.000000 0.389380 0.928481
0.000000 0.395666 0.998352
0.555276 0.434470 1.000000
0.973526 0.503014 1.000000
0.977844 0.598230 0.994965
0.092958 0.971069 0.983749
0.298421 0.981918 0.994003
0.631403 0.982483 0.991012
0.954528 0.954528 0.954528
0.999542 0.947417 0.945617
0.203006 0.994202 0.933623
0.456596 1.000000 0.902052
0.752026 1.000000 0.899351
0.942000 1.000000 0.932341
1.000000 1.000000 0.983490
0.000000 0.000000 0.666835
0.000000 0.000000 0.952514
0.305211 0.000000 1.000000
0.670924 0.000000 1.000000
0.952743 0.000000 1.000000
0.000000 0.000000 1.000000
0.000000 0.000000 1.000000
0.428000 0.000000 1.000000
0.852598 0.000000 1.000000
0.962799 0.000000 1.000000
0.000000 0.312902 1.000000
0.000000 0.394736 1.000000
0.568399 0.455375 1.000000
0.958816 0.546410 1.000000
0.979110 0.657450 1.000000
0.088685 0.965057 0.994278
0.355550 0.979553 0.994293
0.688960 0.953506 0.997589
0.945449 0.937591 1.000000
0.996170 0.950240 1.000000
0.248875 0.981537 0.993881
0.564828 0.985626 0.995224
0.830884 0.992996 0.997665
0.970169 0.998627 0.999542
1.000000 1.000000 1.000000
