ARRI/ARRI_LogC2Video_Classic709_33.cube
LUT_3D_SIZE 33
0.000000 0.000000 0.000000
0.000000 0.000000 0.000000
0.000000 0.000000 0.000000
0.022461 0.000000 0.000168
0.048615 0.000000 0.000351
0.080049 0.000000 0.000610
0.113848 0.000000 0.000977
0.151064 0.000000 0.001511
0.192752 0.000000 0.002319
0.242039 0.000000 0.003555
0.301762 0.000000 0.005524
0.368627 0.000000 0.008438
0.439322 0.000000 0.012390
0.510643 0.000000 0.017426
0.580896 0.000000 0.023468
0.650156 0.000000 0.030594
0.718578 0.000000 0.038849
0.786252 0.000000 0.048280
0.853315 0.000000 0.058885
0.919646 0.000000 0.069764
0.981018 0.000000 0.079835
1.000000 0.000000 0.087938
1.000000 0.000000 0.094224
1.000000 0.000000 0.099184
1.000000 0.000000 0.103014
1.000000 0.000000 0.105852
1.000000 0.000000 0.107851
1.000000 0.000000 0.109209
1.000000 0.000000 0.110048
1.000000 0.000000 0.110567
1.000000 0.000000 0.110887
1.000000 0.000000 0.111055
1.000000 0.000000 0.111055
0.000000 0.000000 0.000000
0.000000 0.000000 0.000000
0.000000 0.000000 0.000000
0.022461 0.000000 0.000168
0.048615 0.000000 0.000351
0.080049 0.000000 0.000610
0.113848 0.000000 0.000977
0.151064 0.000000 0.001511
0.192752 0.000000 0.002319
0.242039 0.000000 0.003555
0.301762 0.000000 0.005524
0.368627 0.000000 0.008438
0.439322 0.000000 0.012390
0.510643 0.000000 0.017426
0.580896 0.000000 0.023468
0.650156 0.000000 0.030594
0.718578 0.000000 0.038849
0.786252 0.000000 0.048280
0.853315 0.000000 0.058885
0.919646 0.000000 0.069764
0.981018 0.000000 0.079835
1.000000 0.000000 0.087938
1.000000 0.000000 0.094224
1.000000 0.000000 0.099184
1.000000 0.000000 0.103014
1.000000 0.000000 0.105852
1.000000 0.000000 0.107851
1.000000 0.000000 0.109209
1.000000 0.000000 0.110048
1.000000 0.000000 0.110567
1.000000 0.000000 0.110887
1.000000 0.000000 0.111055
1.000000 0.000000 0.111055
0.000000 0.000000 0.000000
0.000000 0.000000 0.000000
0.000000 0.000000 0.000000
0.022461 0.000000 0.000168
0.048615 0.000000 0.000351
0.080049 0.000000 0.000610
0.113848 0.000000 0.000977
0.151064 0.000000 0.001511
0.192752 0.000000 0.002319
0.242039 0.000000 0.003555
0.301762 0.000000 0.005524
0.368627 0.000000 0.008438
0.439322 0.000000 0.012390
0.510643 0.000000 0.017426
0.580896 0.000000 0.023468
0.650156 0.000000 0.030594
0.718578 0.000000 0.038849
0.786252 0.000000 0.048280
0.853315 0.000000 0.058885
0.919646 0.000000 0.069764
0.981018 0.000000 0.079835
1.000000 0.000000 0.087938
1.000000 0.000000 0.094224
1.000000 0.000000 0.099184
1.000000 0.000000 0.103014
1.000000 0.000000 0.105852
1.000000 0.000000 0.107851
1.000000 0.000000 0.109209
1.000000 0.000000 0.110048
1.000000 0.000000 0.110567
1.000000 0.000000 0.110887
1.000000 0.000000 0.111055
1.000000 0.000000 0.111055
0.000000 0.019394 0.000000
0.000000 0.019394 0.000000
0.000000 0.019394 0.000000
0.016388 0.018891 0.000000
0.042542 0.018296 0.000000
0.075212 0.017502 0.000000
0.110307 0.016358 0.000000
0.148394 0.014649 0.000000
0.190707 0.012146 0.000473
0.240497 0.008286 0.001709
0.300603 0.002090 0.003677
0.367727 0.000000 0.006592
0.438621 0.000000 0.010559
0.510079 0.000000 0.015579
0.580423 0.000000 0.021622
0.649760 0.000000 0.028748
0.718227 0.000000 0.037003
0.785962 0.000000 0.046433
0.853056 0.000000 0.057084
0.919402 0.000000 0.068162
0.980804 0.000000 0.078386
1.000000 0.000000 0.086595
1.000000 0.000000 0.092958
1.000000 0.000000 0.097978
1.000000 0.000000 0.101839
1.000000 0.000000 0.104707
1.000000 0.000000 0.106737
1.000000 0.000000 0.108095
1.000000 0.000000 0.108949
1.000000 0.000000 0.109468
1.000000 0.000000 0.109804
1.000000 0.000000 0.109957
1.000000 0.000000 0.109957
0.000000 0.041993 0.000000
0.000000 0.041993 0.000000
0.000000 0.041993 0.000000
0.009323 0.041489 0.000000
0.035477 0.040894 0.000000
0.069261 0.040101 0.000000
0.106035 0.038956 0.000000
0.145220 0.037247 0.000000
0.188312 0.034745 0.000000
0.238682 0.030884 0.000000
0.299229 0.024689 0.001541
0.366690 0.015595 0.004440
0.437812 0.003189 0.008408
0.509422 0.000000 0.013428
0.579889 0.000000 0.019471
0.649302 0.000000 0.026596
0.717830 0.000000 0.034852
0.785611 0.000000 0.044282
0.852750 0.000000 0.054932
0.919142 0.000000 0.066255
0.980560 0.000000 0.076661
1.000000 0.000000 0.085008
1.000000 0.000000 0.091463
1.000000 0.000000 0.096544
1.000000 0.000000 0.100465
1.000000 0.000000 0.103349
1.000000 0.000000 0.105409
1.000000 0.000000 0.106783
1.000000 0.000000 0.107652
1.000000 0.000000 0.108171
1.000000 0.000000 0.108507
1.000000 0.000000 0.108675
1.000000 0.000000 0.108675
0.000000 0.070802 0.000000
0.000000 0.070802 0.000000
0.000000 0.070802 0.000000
0.000000 0.070359 0.000000
0.026093 0.069841 0.000000
0.060731 0.069169 0.000000
0.100099 0.068162 0.000000
0.140887 0.066651 0.000000
0.185061 0.064393 0.000000
0.236240 0.060777 0.000000
0.297398 0.054719 0.000000
0.365286 0.045624 0.001587
0.436713 0.033219 0.005554
0.508537 0.017487 0.010575
0.579156 0.000000 0.016617
0.648692 0.000000 0.023743
0.717311 0.000000 0.031998
0.785153 0.000000 0.041428
0.852338 0.000000 0.052079
0.918776 0.000000 0.063661
0.980240 0.000000 0.074342
1.000000 0.000000 0.082872
1.000000 0.000000 0.089448
1.000000 0.000000 0.094621
1.000000 0.000000 0.098604
1.000000 0.000000 0.101549
1.000000 0.000000 0.103624
1.000000 0.000000 0.105028
1.000000 0.000000 0.105898
1.000000 0.000000 0.106432
1.000000 0.000000 0.106783
1.000000 0.000000 0.106935
1.000000 0.000000 0.106935
0.000000 0.102831 0.000000
0.000000 0.102831 0.000000
0.000000 0.102831 0.000000
0.000000 0.102510 0.000000
0.012360 0.102129 0.000000
0.047105 0.101625 0.000000
0.090837 0.100893 0.000000
0.134310 0.099794 0.000000
0.180194 0.098146 0.000000
0.232609 0.095567 0.000000
0.294697 0.091325 0.000000
0.363241 0.084749 0.000000
0.435111 0.075074 0.001373
0.507256 0.061250 0.006394
0.578103 0.042466 0.012451
0.647791 0.020157 0.019577
0.716533 0.000000 0.027817
0.784482 0.000000 0.037247
0.851759 0.000000 0.047898
0.918257 0.000000 0.059724
0.979767 0.000000 0.070832
1.000000 0.000000 0.079652
1.000000 0.000000 0.086427
1.000000 0.000000 0.091752
1.000000 0.000000 0.095827
1.000000 0.000000 0.098848
1.000000 0.000000 0.100969
1.000000 0.000000 0.102403
1.000000 0.000000 0.103304
1.000000 0.000000 0.103838
1.000000 0.000000 0.104189
1.000000 0.000000 0.104356
1.000000 0.000000 0.104356
0.000000 0.138094 0.000000
0.000000 0.138094 0.000000
0.000000 0.138094 0.000000
0.000000 0.137850 0.000000
0.000000 0.137560 0.000000
0.026902 0.137179 0.000000
0.075578 0.136629 0.000000
0.123980 0.135805 0.000000
0.172763 0.134585 0.000000
0.227131 0.132677 0.000000
0.290654 0.129564 0.000000
0.360189 0.124834 0.000000
0.432746 0.118105 0.000000
0.505364 0.109026 0.000244
0.576532 0.097063 0.006302
0.646479 0.081117 0.013428
0.715404 0.058885 0.021683
0.783490 0.029404 0.031098
0.850889 0.000000 0.041764
0.917479 0.000000 0.053651
0.979065 0.000000 0.065431
1.000000 0.000000 0.074723
1.000000 0.000000 0.081819
1.000000 0.000000 0.087373
1.000000 0.000000 0.091615
1.000000 0.000000 0.094743
1.000000 0.000000 0.096956
1.000000 0.000000 0.098436
1.000000 0.000000 0.099367
1.000000 0.000000 0.099916
1.000000 0.000000 0.100282
1.000000 0.000000 0.100465
1.000000 0.000000 0.100465
0.000000 0.177600 0.000000
0.000000 0.177600 0.000000
0.000000 0.177600 0.000000
0.000000 0.177417 0.000000
0.000000 0.177188 0.000000
0.000000 0.176913 0.000000
0.047990 0.176486 0.000000
0.107073 0.175860 0.000000
0.161120 0.174929 0.000000
0.218784 0.173480 0.000000
0.284581 0.171145 0.000000
0.355642 0.167636 0.000000
0.429221 0.162722 0.000000
0.502541 0.156268 0.000000
0.574212 0.148074 0.000000
0.644511 0.137789 0.004379
0.713725 0.124804 0.012634
0.782040 0.108156 0.022049
0.849592 0.085985 0.032715
0.916335 0.053956 0.044602
0.978027 0.015564 0.056870
1.000000 0.000000 0.067002
1.000000 0.000000 0.074647
1.000000 0.000000 0.080583
1.000000 0.000000 0.085100
1.000000 0.000000 0.088426
1.000000 0.000000 0.090761
1.000000 0.000000 0.092332
1.000000 0.000000 0.093309
1.000000 0.000000 0.093889
1.000000 0.000000 0.094285
1.000000 0.000000 0.094469
1.000000 0.000000 0.094469
0.000000 0.224323 0.000000
0.000000 0.224323 0.000000
0.000000 0.224323 0.000000
0.000000 0.224186 0.000000
0.000000 0.224018 0.000000
0.000000 0.223789 0.000000
0.001923 0.223468 0.000000
0.074708 0.222995 0.000000
0.141054 0.222293 0.000000
0.205035 0.221195 0.000000
0.274815 0.219425 0.000000
0.348425 0.216815 0.000000
0.423697 0.213169 0.000000
0.498131 0.208453 0.000000
0.570581 0.202594 0.000000
0.641474 0.195422 0.000000
0.711116 0.186740 0.000000
0.779767 0.176211 0.008042
0.847608 0.163394 0.018692
0.914565 0.147677 0.030594
0.976425 0.129381 0.042863
1.000000 0.110887 0.053651
1.000000 0.093050 0.062379
1.000000 0.075624 0.069093
1.000000 0.059129 0.074128
1.000000 0.044953 0.077821
1.000000 0.034653 0.080400
1.000000 0.027665 0.082124
1.000000 0.023209 0.083207
1.000000 0.020523 0.083848
1.000000 0.018769 0.084276
1.000000 0.017914 0.084474
1.000000 0.017914 0.084474
0.000000 0.280919 0.000000
0.000000 0.280919 0.000000
0.000000 0.280919 0.000000
0.000000 0.280812 0.000000
0.000000 0.280690 0.000000
0.000000 0.280522 0.000000
0.000000 0.280278 0.000000
0.003128 0.279927 0.000000
0.101122 0.279393 0.000000
0.180545 0.278569 0.000000
0.258244 0.277241 0.000000
0.336477 0.275288 0.000000
0.414633 0.272587 0.000000
0.490974 0.269108 0.000000
0.564736 0.264851 0.000000
0.636561 0.259724 0.000000
0.706920 0.253620 0.000000
0.776120 0.246418 0.000000
0.844404 0.237949 0.000000
0.911711 0.228046 0.008225
0.973861 0.217243 0.020493
1.000000 0.207187 0.031281
1.000000 0.198383 0.040223
1.000000 0.190707 0.047669
1.000000 0.184298 0.053620
1.000000 0.179232 0.058137
1.000000 0.175463 0.061311
1.000000 0.172839 0.063401
1.000000 0.171160 0.064698
1.000000 0.170138 0.065476
1.000000 0.169451 0.065980
1.000000 0.169131 0.066224
1.000000 0.169131 0.066224
0.000000 0.344289 0.000000
0.000000 0.344289 0.000000
0.000000 0.344289 0.000000
0.000000 0.344198 0.000000
0.000000 0.344106 0.000000
0.000000 0.343984 0.000000
0.000000 0.343786 0.000000
0.000000 0.343511 0.000000
0.005066 0.343114 0.000000
0.135714 0.342489 0.000000
0.231128 0.341482 0.000000
0.317800 0.339986 0.000000
0.400793 0.337942 0.000000
0.480171 0.335332 0.000000
0.555962 0.332143 0.000000
0.629236 0.328344 0.000000
0.700679 0.323857 0.000000
0.770718 0.318639 0.000000
0.839658 0.312612 0.000000
0.907515 0.305669 0.000000
0.970077 0.298314 0.000000
1.000000 0.291630 0.000000
1.000000 0.285924 0.007324
1.000000 0.281071 0.014771
1.000000 0.277119 0.020722
1.000000 0.274052 0.025269
1.000000 0.271794 0.028550
1.000000 0.270253 0.030793
1.000000 0.269261 0.032212
1.000000 0.268666 0.033066
1.000000 0.268269 0.033631
1.000000 0.268086 0.033906
1.000000 0.268086 0.033906
0.000000 0.411292 0.000000
0.000000 0.411292 0.000000
0.000000 0.411292 0.000000
0.000000 0.411215 0.000000
0.000000 0.411139 0.000000
0.000000 0.411048 0.000000
0.000000 0.410895 0.000000
0.000000 0.410681 0.000000
0.000000 0.410361 0.000000
0.028046 0.409873 0.000000
0.186358 0.409094 0.000000
0.289708 0.407935 0.000000
0.380789 0.406332 0.000000
0.464851 0.404318 0.000000
0.543664 0.401846 0.000000
0.619043 0.398917 0.000000
0.692027 0.395499 0.000000
0.763256 0.391531 0.000000
0.833127 0.386984 0.000000
0.901717 0.381811 0.000000
0.964858 0.376379 0.000000
1.000000 0.371511 0.000000
1.000000 0.367407 0.000000
1.000000 0.363943 0.000000
1.000000 0.361151 0.000000
1.000000 0.358984 0.000000
1.000000 0.357412 0.000000
1.000000 0.356329 0.000000
1.000000 0.355657 0.000000
1.000000 0.355230 0.000000
1.000000 0.354955 0.000000
1.000000 0.354833 0.000000
1.000000 0.354833 0.000000
0.000000 0.478874 0.000000
0.000000 0.478874 0.000000
0.000000 0.478874 0.000000
0.000000 0.478828 0.000000
0.000000 0.478767 0.000000
0.000000 0.478691 0.000000
0.000000 0.478569 0.000000
0.000000 0.478386 0.000000
0.000000 0.478141 0.000000
0.000000 0.477745 0.000000
0.101106 0.477104 0.000000
0.248051 0.476173 0.000000
0.353109 0.474907 0.000000
0.444312 0.473274 0.000000
0.527443 0.471305 0.000000
0.605737 0.468971 0.000000
0.680812 0.466255 0.000000
0.753613 0.463111 0.000000
0.824720 0.459525 0.000000
0.894301 0.455482 0.000000
0.958190 0.451240 0.000000
1.000000 0.447471 0.000000
1.000000 0.444312 0.000000
1.000000 0.441657 0.000000
1.000000 0.439521 0.000000
1.000000 0.437888 0.000000
1.000000 0.436698 0.000000
1.000000 0.435874 0.000000
1.000000 0.435355 0.000000
1.000000 0.435050 0.000000
1.000000 0.434836 0.000000
1.000000 0.434745 0.000000
1.000000 0.434745 0.000000
0.000000 0.545464 0.000000
0.000000 0.545464 0.000000
0.000000 0.545464 0.000000
0.000000 0.545418 0.000000
0.000000 0.545373 0.000000
0.000000 0.545296 0.000000
0.000000 0.545205 0.000000
0.000000 0.545052 0.000000
0.000000 0.544854 0.000000
0.000000 0.544518 0.000000
0.000000 0.543999 0.000000
0.182162 0.543221 0.000000
0.315312 0.542168 0.000000
0.417655 0.540826 0.000000
0.506905 0.539208 0.000000
0.589120 0.537285 0.000000
0.666941 0.535058 0.000000
0.741756 0.532479 0.000000
0.814420 0.529564 0.000000
0.885237 0.526268 0.000000
0.950057 0.522835 0.000000
1.000000 0.519783 0.000000
1.000000 0.517250 0.000000
1.000000 0.515114 0.000000
1.000000 0.513405 0.000000
1.000000 0.512093 0.000000
1.000000 0.511131 0.000000
1.000000 0.510491 0.000000
1.000000 0.510079 0.000000
1.000000 0.509819 0.000000
1.000000 0.509651 0.000000
1.000000 0.509575 0.000000
1.000000 0.509575 0.000000
0.000000 0.611109 0.000000
0.000000 0.611109 0.000000
0.000000 0.611109 0.000000
0.000000 0.611063 0.000000
0.000000 0.611017 0.000000
0.000000 0.610971 0.000000
0.000000 0.610880 0.000000
0.000000 0.610758 0.000000
0.000000 0.610590 0.000000
0.000000 0.610315 0.000000
0.000000 0.609873 0.000000
0.023026 0.609216 0.000000
0.261311 0.608331 0.000000
0.382834 0.607187 0.000000
0.481056 0.605829 0.000000
0.568612 0.604211 0.000000
0.650019 0.602335 0.000000
0.727428 0.600183 0.000000
0.802029 0.597726 0.000000
0.874372 0.594965 0.000000
0.940352 0.592111 0.000000
0.992905 0.589578 0.000000
1.000000 0.587472 0.000000
1.000000 0.585702 0.000000
1.000000 0.584283 0.000000
1.000000 0.583200 0.000000
1.000000 0.582406 0.000000
1.000000 0.581872 0.000000
1.000000 0.581537 0.000000
1.000000 0.581323 0.000000
1.000000 0.581186 0.000000
1.000000 0.581125 0.000000
1.000000 0.581125 0.000000
0.000000 0.675944 0.000000
0.000000 0.675944 0.000000
0.000000 0.675944 0.000000
0.000000 0.675914 0.000000
0.000000 0.675868 0.000000
0.000000 0.675822 0.000000
0.000000 0.675746 0.000000
0.000000 0.675639 0.000000
0.000000 0.675486 0.000000
0.000000 0.675257 0.000000
0.000000 0.674876 0.000000
0.000000 0.674311 0.000000
0.172534 0.673548 0.000000
0.336141 0.672587 0.000000
0.448386 0.671412 0.000000
0.543404 0.670024 0.000000
0.629557 0.668421 0.000000
0.710262 0.666575 0.000000
0.787304 0.664485 0.000000
0.861524 0.662135 0.000000
0.928893 0.659693 0.000000
0.982406 0.657542 0.000000
1.000000 0.655741 0.000000
1.000000 0.654246 0.000000
1.000000 0.653040 0.000000
1.000000 0.652125 0.000000
1.000000 0.651453 0.000000
1.000000 0.651011 0.000000
1.000000 0.650721 0.000000
1.000000 0.650538 0.000000
1.000000 0.650431 0.000000
1.000000 0.650370 0.000000
1.000000 0.650370 0.000000
0.000000 0.740078 0.000000
0.000000 0.740078 0.000000
0.000000 0.740078 0.000000
0.000000 0.740047 0.000000
0.000000 0.740017 0.000000
0.000000 0.739986 0.000000
0.000000 0.739910 0.000000
0.000000 0.739834 0.000000
0.000000 0.739696 0.000000
0.000000 0.739483 0.000000
0.000000 0.739147 0.000000
0.000000 0.738674 0.000000
0.000000 0.738003 0.000000
0.269062 0.737163 0.000000
0.406363 0.736141 0.000000
0.512352 0.734936 0.000000
0.604883 0.733532 0.000000
0.689845 0.731930 0.000000
0.769955 0.730114 0.000000
0.846464 0.728084 0.000000
0.915541 0.725978 0.000000
0.970199 0.724117 0.000000
1.000000 0.722560 0.000000
1.000000 0.721263 0.000000
1.000000 0.720226 0.000000
1.000000 0.719432 0.000000
1.000000 0.718868 0.000000
1.000000 0.718471 0.000000
1.000000 0.718227 0.000000
1.000000 0.718074 0.000000
1.000000 0.717967 0.000000
1.000000 0.717922 0.000000
1.000000 0.717922 0.000000
0.000000 0.803632 0.000000
0.000000 0.803632 0.000000
0.000000 0.803632 0.000000
0.000000 0.803616 0.000000
0.000000 0.803586 0.000000
0.000000 0.803540 0.000000
0.000000 0.803494 0.000000
0.000000 0.803418 0.000000
0.000000 0.803296 0.000000
0.000000 0.803113 0.000000
0.000000 0.802823 0.000000
0.000000 0.802396 0.000000
0.000000 0.801801 0.000000
0.150072 0.801053 0.000000
0.350118 0.800168 0.000000
0.473594 0.799100 0.000000
0.575082 0.797879 0.000000
0.665614 0.796460 0.000000
0.749584 0.794873 0.000000
0.828946 0.793088 0.000000
0.900069 0.791241 0.000000
0.956085 0.789609 0.000000
0.998917 0.788251 0.000000
1.000000 0.787106 0.000000
1.000000 0.786206 0.000000
1.000000 0.785519 0.000000
1.000000 0.785016 0.000000
1.000000 0.784665 0.000000
1.000000 0.784451 0.000000
1.000000 0.784314 0.000000
1.000000 0.784237 0.000000
1.000000 0.784192 0.000000
1.000000 0.784192 0.000000
0.000000 0.866499 0.000000
0.000000 0.866499 0.000000
0.000000 0.866499 0.000000
0.000000 0.866468 0.000000
0.000000 0.866453 0.000000
0.000000 0.866423 0.000000
0.000000 0.866361 0.000000
0.000000 0.866300 0.000000
0.000000 0.866194 0.000000
0.000000 0.866026 0.000000
0.000000 0.865766 0.000000
0.000000 0.865385 0.000000
0.000000 0.864866 0.000000
0.000000 0.864210 0.000000
0.267811 0.863401 0.000000
0.424125 0.862470 0.000000
0.538842 0.861372 0.000000
0.636896 0.860121 0.000000
0.725795 0.858701 0.000000
0.808667 0.857115 0.000000
0.882292 0.855482 0.000000
0.939940 0.854032 0.000000
0.983871 0.852827 0.000000
1.000000 0.851835 0.000000
1.000000 0.851026 0.000000
1.000000 0.850416 0.000000
1.000000 0.849973 0.000000
1.000000 0.849668 0.000000
1.000000 0.849470 0.000000
1.000000 0.849363 0.000000
1.000000 0.849287 0.000000
1.000000 0.849241 0.000000
1.000000 0.849241 0.000000
0.000000 0.924666 0.000000
0.000000 0.924666 0.000000
0.000000 0.924666 0.000000
0.000000 0.924651 0.000000
0.000000 0.924620 0.000000
0.000000 0.924590 0.000000
0.000000 0.924544 0.000000
0.000000 0.924483 0.000000
0.000000 0.924392 0.000000
0.000000 0.924239 0.000000
0.000000 0.924010 0.000000
0.000000 0.923659 0.000000
0.000000 0.923186 0.000000
0.000000 0.922591 0.000000
0.117739 0.921874 0.000000
0.362783 0.921019 0.000000
0.497307 0.920043 0.000000
0.605081 0.918914 0.000000
0.699962 0.917632 0.000000
0.786908 0.916197 0.000000
0.863355 0.914717 0.000000
0.922820 0.913420 0.000000
0.967956 0.912337 0.000000
1.000000 0.911437 0.000000
1.000000 0.910719 0.000000
1.000000 0.910155 0.000000
1.000000 0.909758 0.000000
1.000000 0.909483 0.000000
1.000000 0.909316 0.000000
1.000000 0.909209 0.000000
1.000000 0.909148 0.000000
1.000000 0.909102 0.000000
1.000000 0.909102 0.000000
0.000000 0.971481 0.000000
0.000000 0.971481 0.000000
0.000000 0.971481 0.000000
0.000000 0.971450 0.000000
0.000000 0.971435 0.000000
0.000000 0.971405 0.000000
0.000000 0.971374 0.000000
0.000000 0.971313 0.000000
0.000000 0.971221 0.000000
0.000000 0.971084 0.000000
0.000000 0.970871 0.000000
0.000000 0.970550 0.000000
0.000000 0.970108 0.000000
0.000000 0.969558 0.000000
0.000000 0.968887 0.000000
0.293843 0.968109 0.000000
0.456123 0.967193 0.000000
0.574899 0.966155 0.000000
0.675975 0.964965 0.000000
0.766979 0.963653 0.000000
0.846143 0.962280 0.000000
0.907347 0.961074 0.000000
0.953613 0.960082 0.000000
0.989609 0.959243 0.000000
1.000000 0.958572 0.000000
1.000000 0.958068 0.000000
1.000000 0.957702 0.000000
1.000000 0.957443 0.000000
1.000000 0.957290 0.000000
1.000000 0.957198 0.000000
1.000000 0.957122 0.000000
1.000000 0.957092 0.000000
1.000000 0.957092 0.000000
0.000000 1.000000 0.000000
0.000000 1.000000 0.000000
0.000000 1.000000 0.000000
0.000000 1.000000 0.000000
0.000000 1.000000 0.000000
0.000000 1.000000 0.000000
0.000000 1.000000 0.000000
0.000000 1.000000 0.000000
0.000000 1.000000 0.000000
0.000000 1.000000 0.000000
0.000000 1.000000 0.000000
0.000000 1.000000 0.000000
0.000000 1.000000 0.000000
0.000000 1.000000 0.000000
0.000000 1.000000 0.000000
0.214374 1.000000 0.000000
0.417456 1.000000 0.000000
0.547967 1.000000 0.000000
0.655055 1.000000 0.000000
0.749828 1.000000 0.000000
0.831464 0.999100 0.000000
0.894209 0.997955 0.000000
0.941466 0.997009 0.000000
0.978149 0.996231 0.000000
1.000000 0.995605 0.000000
1.000000 0.995117 0.000000
1.000000 0.994766 0.000000
1.000000 0.994537 0.000000
1.000000 0.994385 0.000000
1.000000 0.994293 0.000000
1.000000 0.994232 0.000000
1.000000 0.994202 0.000000
1.000000 0.994202 0.000000
0.000000 1.000000 0.000000
0.000000 1.000000 0.000000
0.000000 1.000000 0.000000
0.000000 1.000000 0.000000
0.000000 1.000000 0.000000
0.000000 1.000000 0.000000
0.000000 1.000000 0.000000
0.000000 1.000000 0.000000
0.000000 1.000000 0.000000
0.000000 1.000000 0.000000
0.000000 1.000000 0.000000
0.000000 1.000000 0.000000
0.000000 1.000000 0.000000
0.000000 1.000000 0.000000
0.000000 1.000000 0.000000
0.099657 1.000000 0.000000
0.380941 1.000000 0.000000
0.523964 1.000000 0.000000
0.636851 1.000000 0.000000
0.735088 1.000000 0.000000
0.818921 1.000000 0.000000
0.883024 1.000000 0.000000
0.931167 1.000000 0.000000
0.968460 1.000000 0.000000
0.996719 1.000000 0.000000
1.000000 1.000000 0.000000
1.000000 1.000000 0.000000
1.000000 1.000000 0.000000
1.000000 1.000000 0.000000
1.000000 1.000000 0.000000
1.000000 1.000000 0.000000
1.000000 1.000000 0.000000
1.000000 1.000000 0.000000
0.000000 1.000000 0.000000
0.000000 1.000000 0.000000
0.000000 1.000000 0.000000
0.000000 1.000000 0.000000
0.000000 1.000000 0.000000
0.000000 1.000000 0.000000
0.000000 1.000000 0.000000
0.000000 1.000000 0.000000
0.000000 1.000000 0.000000
0.000000 1.000000 0.000000
0.000000 1.000000 0.000000
0.000000 1.000000 0.000000
0.000000 1.000000 0.000000
0.000000 1.000000 0.000000
0.000000 1.000000 0.000000
0.000000 1.000000 0.000000
0.347860 1.000000 0.000000
0.503578 1.000000 0.000000
0.621729 1.000000 0.000000
0.722972 1.000000 0.000000
0.808682 1.000000 0.000000
0.873930 1.000000 0.000000
0.922789 1.000000 0.000000
0.960601 1.000000 0.000000
0.989212 1.000000 0.000000
1.000000 1.000000 0.000000
1.000000 1.000000 0.000000
1.000000 1.000000 0.000000
1.000000 1.000000 0.000000
1.000000 1.000000 0.000000
1.000000 1.000000 0.000000
1.000000 1.000000 0.000000
1.000000 1.000000 0.000000
0.000000 1.000000 0.000000
0.000000 1.000000 0.000000
0.000000 1.000000 0.000000
0.000000 1.000000 0.000000
0.000000 1.000000 0.000000
0.000000 1.000000 0.000000
0.000000 1.000000 0.000000
0.000000 1.000000 0.000000
0.000000 1.000000 0.000000
0.000000 1.000000 0.000000
0.000000 1.000000 0.000000
0.000000 1.000000 0.000000
0.000000 1.000000 0.000000
0.000000 1.000000 0.000000
0.000000 1.000000 0.000000
0.000000 1.000000 0.000000
0.319417 1.000000 0.000000
0.487160 1.000000 0.000000
0.609796 1.000000 0.000000
0.713512 1.000000 0.000000
0.800732 1.000000 0.000000
0.866880 1.000000 0.000000
0.916335 1.000000 0.000000
0.954528 1.000000 0.000000
0.983413 1.000000 0.000000
1.000000 1.000000 0.000000
1.000000 1.000000 0.000000
1.000000 1.000000 0.000000
1.000000 1.000000 0.000000
1.000000 1.000000 0.000000
1.000000 1.000000 0.000000
1.000000 1.000000 0.000000
1.000000 1.000000 0.000000
0.000000 1.000000 0.000000
0.000000 1.000000 0.000000
0.000000 1.000000 0.000000
0.000000 1.000000 0.000000
0.000000 1.000000 0.000000
0.000000 1.000000 0.000000
0.000000 1.000000 0.000000
0.000000 1.000000 0.000000
0.000000 1.000000 0.000000
0.000000 1.000000 0.000000
0.000000 1.000000 0.000000
0.000000 1.000000 0.000000
0.000000 1.000000 0.000000
0.000000 1.000000 0.000000
0.000000 1.000000 0.000000
0.000000 1.000000 0.000000
0.296513 1.000000 0.000000
0.474769 1.000000 0.000000
0.600946 1.000000 0.000000
0.706538 1.000000 0.000000
0.794903 1.000000 0.000000
0.861738 1.000000 0.000000
0.911604 1.000000 0.000000
0.950088 1.000000 0.000000
0.979187 1.000000 0.000000
1.000000 1.000000 0.000000
1.000000 1.000000 0.000000
1.000000 1.000000 0.000000
1.000000 1.000000 0.000000
1.000000 1.000000 0.000000
