ARRI/ARRI_LogC2Video_2100PQ-PW-1k-DW100_33.cube
LUT_3D_SIZE 9
0.006302 0.006302 0.006302
0.104173 0.027924 0.006302
0.205234 0.068299 0.012955
0.310948 0.120958 0.027359
0.429923 0.191394 0.051255
0.552224 0.275074 0.085817
0.675532 0.370352 0.132631
0.751827 0.477012 0.193957
0.751827 0.593225 0.271092
0.017090 0.057206 0.006302
0.050904 0.053880 0.006302
0.176745 0.071336 0.006302
0.302815 0.121508 0.021485
0.428794 0.192416 0.049180
0.554910 0.277729 0.085878
0.680949 0.375051 0.134600
0.751827 0.480323 0.195743
0.751827 0.588602 0.267674
0.073213 0.184863 0.006302
0.082551 0.185672 0.006302
0.181262 0.188922 0.006302
0.307485 0.202243 0.006302
0.435904 0.237903 0.006302
0.562783 0.301732 0.051728
0.684993 0.386145 0.123461
0.751827 0.480034 0.187457
0.751827 0.574670 0.253666
0.150576 0.320729 0.006302
0.155840 0.323796 0.006302
0.212177 0.327214 0.006302
0.321874 0.332647 0.006302
0.445457 0.344961 0.006302
0.567590 0.372839 0.006302
0.682139 0.422171 0.006302
0.751827 0.489235 0.119951
0.751827 0.564202 0.214496
0.244266 0.459327 0.006302
0.248219 0.462608 0.006302
0.275120 0.464897 0.006302
0.350927 0.466804 0.006302
0.457740 0.470405 0.006302
0.569543 0.479576 0.006302
0.675380 0.499275 0.006302
0.751827 0.532570 0.006302
0.751827 0.576761 0.006302
0.347677 0.593881 0.006302
0.348241 0.593545 0.006302
0.358511 0.591684 0.006302
0.400366 0.589166 0.006302
0.479362 0.587549 0.006302
0.574685 0.588327 0.006302
0.668788 0.593851 0.006302
0.751827 0.606226 0.006302
0.751827 0.626062 0.006302
0.449775 0.714351 0.006302
0.444694 0.707942 0.006302
0.444831 0.700832 0.006302
0.463981 0.693950 0.006302
0.514504 0.687877 0.006302
0.588571 0.683482 0.006302
0.668132 0.682185 0.006302
0.742489 0.684703 0.006302
0.751827 0.691310 0.006302
0.541115 0.751827 0.006302
0.530526 0.751827 0.006302
0.523568 0.751827 0.006302
0.529046 0.751827 0.006302
0.558480 0.751827 0.006302
0.611154 0.751827 0.006302
0.674159 0.751827 0.006302
0.735821 0.749966 0.006302
0.751827 0.748989 0.006302
0.617548 0.751827 0.006302
0.600504 0.751827 0.006302
0.586862 0.751827 0.006302
0.583917 0.751827 0.006302
0.599542 0.751827 0.006302
0.635645 0.751827 0.006302
0.683803 0.751827 0.006302
0.733120 0.751827 0.006302
0.751827 0.751827 0.006302
0.006302 0.006302 0.109255
0.091737 0.006302 0.086351
0.197101 0.058579 0.065126
0.307713 0.118090 0.056275
0.429541 0.190784 0.067887
0.552346 0.275044 0.094057
0.676036 0.370718 0.136538
0.751827 0.477256 0.195758
0.751827 0.589990 0.269551
0.006302 0.050797 0.050874
0.048051 0.048051 0.048051
0.177844 0.068559 0.046662
0.304051 0.121126 0.051453
0.430182 0.192966 0.066300
0.556466 0.278737 0.095216
0.680766 0.374868 0.139101
0.751827 0.476860 0.196109
0.751827 0.579492 0.262791
0.072602 0.184924 0.006302
0.081788 0.186252 0.006302
0.181872 0.189364 0.006302
0.309621 0.202686 0.006302
0.437827 0.238773 0.006302
0.562875 0.301991 0.075578
0.681727 0.383886 0.131197
0.751827 0.473060 0.188434
0.751827 0.562676 0.249165
0.151095 0.321889 0.006302
0.156405 0.325170 0.006302
0.212512 0.328573 0.006302
0.322911 0.333639 0.006302
0.446113 0.345846 0.006302
0.565835 0.373251 0.006302
0.676951 0.420478 0.006302
0.751827 0.483589 0.140612
0.751827 0.553033 0.218372
0.245167 0.460685 0.006302
0.248844 0.463569 0.006302
0.275792 0.465370 0.006302
0.351934 0.466972 0.006302
0.457954 0.470573 0.006302
0.567681 0.479911 0.006302
0.670268 0.499092 0.006302
0.751827 0.530175 0.006302
0.751827 0.570306 0.006302
0.347280 0.593439 0.006302
0.347280 0.592264 0.006302
0.358068 0.589853 0.006302
0.401373 0.587457 0.006302
0.480369 0.586145 0.006302
0.573846 0.587396 0.006302
0.664744 0.593378 0.006302
0.746334 0.605676 0.006302
0.751827 0.624338 0.006302
0.446342 0.710506 0.006302
0.441016 0.703593 0.006302
0.442206 0.696574 0.006302
0.463722 0.689967 0.006302
0.516136 0.684337 0.006302
0.589456 0.680873 0.006302
0.666529 0.680461 0.006302
0.737728 0.683574 0.006302
0.751827 0.690257 0.006302
0.534463 0.751827 0.006302
0.524010 0.751827 0.006302
0.518196 0.751827 0.006302
0.526696 0.751827 0.006302
0.559335 0.751827 0.006302
0.612787 0.751827 0.006302
0.674266 0.750179 0.006302
0.733227 0.747189 0.006302
0.751827 0.746853 0.006302
0.607156 0.751827 0.006302
0.590433 0.751827 0.006302
0.579019 0.751827 0.006302
0.579492 0.751827 0.006302
0.599039 0.751827 0.006302
0.637400 0.751827 0.006302
0.685267 0.751827 0.006302
0.732418 0.751827 0.006302
0.751827 0.751827 0.006302
0.006302 0.006302 0.181643
0.060594 0.006302 0.166018
0.185733 0.006302 0.152575
0.304265 0.095247 0.151278
0.427741 0.182879 0.158282
0.551507 0.271824 0.169619
0.675883 0.369558 0.190188
0.751827 0.474937 0.226566
0.751827 0.583551 0.281849
0.006302 0.006302 0.161089
0.006302 0.006302 0.167025
0.172488 0.006302 0.170672
0.303166 0.086534 0.174166
0.430625 0.183246 0.179431
0.556680 0.275273 0.188037
0.678538 0.371664 0.204196
0.751827 0.470512 0.233829
0.751827 0.567178 0.278660
0.031144 0.173617 0.172580
0.050813 0.174517 0.176104
0.177722 0.177722 0.177722
0.310964 0.193149 0.179522
0.438605 0.233051 0.184558
0.561440 0.298268 0.194141
0.676432 0.378698 0.211658
0.751827 0.464378 0.239658
0.751827 0.549264 0.278004
0.144335 0.320455 0.142702
0.150088 0.323949 0.143832
0.209369 0.327489 0.144152
0.323003 0.332296 0.148821
0.446433 0.344488 0.163760
0.563470 0.371801 0.183780
0.671199 0.417441 0.209186
0.751827 0.476936 0.240894
0.751827 0.541009 0.277745
0.243412 0.460929 0.006302
0.246845 0.463310 0.006302
0.274769 0.464820 0.006302
0.352224 0.466331 0.006302
0.458045 0.470085 0.006302
0.565835 0.479576 0.006302
0.664988 0.498360 0.126970
0.751690 0.527474 0.212741
0.751827 0.564416 0.267475
0.345373 0.592035 0.006302
0.344915 0.590112 0.006302
0.356832 0.587625 0.006302
0.402090 0.585504 0.006302
0.481392 0.584558 0.006302
0.573159 0.586343 0.006302
0.661189 0.592859 0.006302
0.739574 0.605097 0.006302
0.751827 0.622766 0.212299
0.441962 0.705928 0.006302
0.436759 0.698955 0.006302
0.439307 0.692119 0.006302
0.463645 0.685878 0.006302
0.518059 0.680964 0.006302
0.590570 0.678477 0.006302
0.665278 0.678859 0.006302
0.733394 0.682475 0.006302
0.751827 0.689235 0.006302
0.527337 0.751827 0.006302
0.517144 0.751827 0.006302
0.512886 0.751827 0.006302
0.524971 0.751827 0.006302
0.560662 0.751827 0.006302
0.614725 0.751354 0.006302
0.674647 0.746746 0.006302
0.730983 0.744533 0.006302
0.751827 0.744732 0.006302
0.596353 0.751827 0.006302
0.580819 0.751827 0.006302
0.571847 0.751827 0.006302
0.575967 0.751827 0.006302
0.599405 0.751827 0.006302
0.639750 0.751827 0.006302
0.687144 0.751827 0.006302
0.732219 0.751827 0.006302
0.751827 0.751827 0.540505
0.006302 0.006302 0.227924
0.006302 0.006302 0.218006
0.171374 0.006302 0.212848
0.298878 0.006302 0.220920
0.424292 0.157610 0.232181
0.549248 0.261997 0.245182
0.673289 0.364080 0.261631
0.751827 0.468467 0.284749
0.751827 0.572656 0.319280
0.006302 0.006302 0.237110
0.006302 0.006302 0.248173
0.155123 0.006302 0.258656
0.297978 0.006302 0.268482
0.428458 0.122972 0.278355
0.554055 0.257221 0.288518
0.673381 0.361135 0.300145
0.751827 0.459068 0.315618
0.751827 0.552041 0.338155
0.006302 0.104280 0.278248
0.006302 0.073106 0.288899
0.152102 0.006302 0.299077
0.305257 0.096544 0.305882
0.436225 0.188754 0.311391
0.557671 0.277272 0.317586
0.669261 0.365240 0.325551
0.751827 0.451545 0.337057
0.751827 0.533165 0.353948
0.078599 0.308034 0.303761
0.085435 0.310246 0.310292
0.188220 0.313085 0.315297
0.318196 0.318196 0.318196
0.445304 0.332387 0.321736
0.560204 0.362325 0.328588
0.664546 0.409033 0.338537
0.751827 0.466880 0.352407
0.751827 0.526909 0.370565
0.229358 0.457328 0.291066
0.232807 0.459220 0.294621
0.265766 0.460578 0.298894
0.348974 0.462593 0.303914
0.457115 0.466621 0.312276
0.563821 0.476371 0.327382
0.659358 0.495201 0.345525
0.742290 0.523156 0.366033
0.751827 0.557778 0.388418
0.338811 0.588815 0.006302
0.338109 0.586435 0.006302
0.352178 0.584131 0.150652
0.400931 0.582406 0.215717
0.481621 0.581964 0.260929
0.572396 0.584344 0.301900
0.658015 0.591363 0.338689
0.733257 0.603647 0.372503
0.751827 0.620569 0.404776
0.435599 0.700664 0.006302
0.430594 0.693690 0.006302
0.434913 0.687083 0.006302
0.462867 0.681331 0.006302
0.519524 0.677440 0.006302
0.591531 0.675837 0.006302
0.664164 0.676890 0.301259
0.729335 0.680934 0.372152
0.751827 0.687770 0.423865
0.519097 0.751827 0.006302
0.509239 0.751827 0.006302
0.507317 0.751827 0.006302
0.523201 0.751827 0.006302
0.561975 0.751827 0.006302
0.616678 0.747097 0.006302
0.675196 0.743221 0.199908
0.728985 0.741695 0.387366
0.751827 0.742046 0.471382
0.585214 0.751827 0.006302
0.571283 0.751827 0.006302
0.564874 0.751827 0.006302
0.572961 0.751827 0.006302
0.600320 0.751827 0.006302
0.642512 0.751827 0.006302
0.689311 0.751827 0.284291
0.733623 0.751827 0.531090
0.751827 0.751827 0.665156
0.006302 0.006302 0.261021
0.006302 0.006302 0.253544
0.154772 0.006302 0.254871
0.292058 0.006302 0.268101
0.419669 0.084154 0.282826
0.545541 0.244358 0.299168
0.667781 0.353521 0.317266
0.751827 0.457496 0.338048
0.751827 0.556939 0.363668
0.006302 0.006302 0.288075
0.006302 0.006302 0.303243
0.117388 0.006302 0.318822
0.289113 0.006302 0.334173
0.423255 0.006302 0.348898
0.548363 0.205432 0.362875
0.664805 0.338613 0.376410
0.751827 0.440833 0.390387
0.751827 0.532753 0.406516
0.006302 0.006302 0.351019
0.006302 0.006302 0.366537
0.006302 0.006302 0.381277
0.290394 0.006302 0.393881
0.428977 0.006302 0.404196
0.550393 0.187396 0.413153
0.659983 0.331044 0.421897
0.751827 0.428748 0.431235
0.751827 0.511238 0.441810
0.006302 0.270436 0.404135
0.006302 0.262989 0.416251
0.006302 0.256275 0.426780
0.300038 0.256123 0.435554
0.437934 0.278050 0.440787
0.554269 0.323705 0.445167
0.656260 0.383124 0.450553
0.744366 0.446723 0.457343
0.751827 0.507881 0.466087
0.146899 0.444114 0.435126
0.145968 0.444175 0.441215
0.220447 0.444694 0.445731
0.334447 0.447028 0.449485
0.452201 0.452201 0.452201
0.560616 0.464073 0.456275
0.653117 0.484962 0.463722
0.732967 0.513756 0.473548
0.751827 0.547829 0.485756
0.316167 0.581384 0.427985
0.315892 0.578943 0.431235
0.335607 0.576867 0.435538
0.393713 0.575692 0.441108
0.479149 0.576226 0.448096
0.570840 0.579492 0.458045
0.654902 0.587091 0.472740
0.727077 0.599786 0.489082
0.751827 0.616510 0.506905
0.423438 0.693812 0.345403
0.418662 0.686870 0.370336
0.425742 0.680507 0.394186
0.459159 0.675624 0.416556
0.519387 0.672801 0.437369
0.591699 0.672068 0.458289
0.662882 0.673732 0.481010
0.725383 0.678218 0.505470
0.751827 0.685283 0.530892
0.508049 0.751827 0.006302
0.498878 0.751827 0.006302
0.499886 0.751827 0.006302
0.520211 0.751827 0.341253
0.562615 0.747280 0.409201
0.618265 0.742290 0.455146
0.675669 0.739147 0.493736
0.727047 0.738247 0.529915
0.751827 0.737301 0.595789
0.573220 0.751827 0.006302
0.560784 0.751827 0.006302
0.557214 0.751827 0.006302
0.569802 0.751827 0.006302
0.601404 0.751827 0.377218
0.645472 0.751827 0.469078
0.694911 0.751827 0.550164
0.736400 0.751827 0.653025
0.750393 0.751827 0.720394
0.006302 0.006302 0.289509
0.006302 0.006302 0.284840
0.131991 0.006302 0.292653
0.284199 0.006302 0.307515
0.414481 0.006302 0.323552
0.539940 0.213703 0.340444
0.659648 0.337789 0.358328
0.751827 0.442130 0.377966
0.751827 0.537514 0.400519
0.006302 0.006302 0.328603
0.006302 0.006302 0.345068
0.006302 0.006302 0.362188
0.277287 0.006302 0.379553
0.415808 0.006302 0.396612
0.540093 0.006302 0.413428
0.653300 0.298375 0.430076
0.751827 0.415030 0.446265
0.751827 0.508476 0.462348
0.006302 0.006302 0.400137
0.006302 0.006302 0.418769
0.006302 0.006302 0.436851
0.266255 0.006302 0.453605
0.417914 0.006302 0.468177
0.540566 0.006302 0.480858
0.648569 0.230610 0.492256
0.743221 0.387289 0.502632
0.751827 0.479438 0.512230
0.006302 0.110735 0.472450
0.006302 0.006302 0.488396
0.006302 0.006302 0.502266
0.258122 0.006302 0.513802
0.424018 0.006302 0.522881
0.544533 0.006302 0.529702
0.645472 0.306737 0.535393
0.730709 0.404120 0.540856
0.751827 0.477241 0.547021
0.006302 0.415930 0.527153
0.006302 0.410010 0.536477
0.006302 0.405875 0.543969
0.291875 0.405280 0.550195
0.439292 0.410849 0.555215
0.552529 0.428458 0.557534
0.645212 0.456947 0.560037
0.723049 0.491890 0.564172
0.751827 0.529610 0.569970
0.223667 0.566674 0.553628
0.218814 0.562997 0.557122
0.272145 0.560433 0.559579
0.369055 0.559579 0.561547
0.470512 0.561486 0.563897
0.566567 0.566567 0.566567
0.651057 0.576287 0.571038
0.720500 0.590860 0.578347
0.751827 0.608667 0.587747
0.392782 0.683162 0.547387
0.388891 0.676280 0.549065
0.402899 0.670512 0.552102
0.447761 0.666758 0.556664
0.515633 0.665080 0.562585
0.589975 0.665599 0.569619
0.660975 0.668147 0.579065
0.721309 0.673320 0.592355
0.751827 0.681056 0.607385
0.489815 0.751827 0.504494
0.482048 0.751827 0.519219
0.487114 0.751827 0.533120
0.513863 0.746120 0.546883
0.561532 0.740368 0.560983
0.619013 0.736187 0.575906
0.675792 0.733959 0.592645
0.724239 0.732509 0.621164
0.746471 0.731640 0.674067
0.558221 0.751827 0.378180
0.547326 0.751827 0.458015
0.547341 0.751827 0.502449
0.565591 0.751827 0.535592
0.602228 0.751827 0.564034
0.649882 0.751827 0.594308
0.706035 0.751827 0.655695
0.739956 0.751827 0.714458
0.749432 0.750637 0.739467
0.006302 0.006302 0.314031
0.006302 0.006302 0.313191
0.086076 0.006302 0.326162
0.275013 0.006302 0.342351
0.408286 0.006302 0.359365
0.532692 0.137011 0.376669
0.649256 0.313893 0.394385
0.751827 0.421744 0.412787
0.751827 0.515496 0.432898
0.006302 0.006302 0.364462
0.006302 0.006302 0.382086
0.006302 0.006302 0.400320
0.260685 0.006302 0.418326
0.406485 0.006302 0.435798
0.529824 0.006302 0.452674
0.640375 0.213184 0.469291
0.739574 0.379522 0.486183
0.751827 0.478416 0.503456
0.006302 0.006302 0.440894
0.006302 0.006302 0.460044
0.006302 0.006302 0.478355
0.228412 0.006302 0.495552
0.404578 0.006302 0.511635
0.529213 0.006302 0.527214
0.635554 0.006302 0.541863
0.726757 0.297536 0.554437
0.751827 0.431907 0.565133
0.006302 0.006302 0.518654
0.006302 0.006302 0.536339
0.006302 0.006302 0.552667
0.110246 0.006302 0.567468
0.404791 0.006302 0.579751
0.532097 0.006302 0.589349
0.632670 0.006302 0.596612
0.716442 0.286625 0.602792
0.751827 0.422629 0.608499
0.006302 0.362402 0.588739
0.006302 0.332937 0.601068
0.006302 0.300908 0.611200
0.006302 0.276707 0.619135
0.417197 0.285420 0.624765
0.540566 0.332113 0.628382
0.635050 0.390829 0.630915
0.711955 0.447089 0.633463
0.751827 0.497368 0.636545
0.006302 0.542672 0.634638
0.006302 0.535454 0.639796
0.006302 0.530648 0.643030
0.298894 0.529290 0.644999
0.452918 0.532219 0.647013
0.558236 0.539773 0.649180
0.644053 0.553811 0.650080
0.712566 0.573022 0.651606
0.751827 0.594553 0.654765
0.295460 0.667231 0.652247
0.290776 0.659525 0.652201
0.336278 0.654200 0.652155
0.417945 0.651347 0.652522
0.505028 0.650965 0.653483
0.585519 0.653101 0.655222
0.657511 0.657511 0.657511
0.716716 0.664759 0.661540
0.751827 0.675319 0.669642
0.452186 0.751827 0.644923
0.447089 0.749935 0.645106
0.461006 0.741924 0.645975
0.500420 0.735561 0.648081
0.557412 0.730800 0.651591
0.618555 0.727779 0.656565
0.675883 0.726528 0.664317
0.721324 0.725109 0.686244
0.736614 0.728618 0.714870
0.535454 0.751827 0.617533
0.526772 0.751827 0.625010
0.532540 0.751827 0.633021
0.559136 0.751827 0.642176
0.602548 0.751827 0.652628
0.663996 0.751827 0.677211
0.720195 0.751827 0.713603
0.743038 0.748409 0.737026
0.749706 0.750042 0.747036
0.006302 0.006302 0.335317
0.006302 0.006302 0.339696
0.006302 0.006302 0.355795
0.263905 0.006302 0.373068
0.400702 0.006302 0.390661
0.523796 0.006302 0.408286
0.636606 0.275257 0.425879
0.738659 0.395987 0.443809
0.751827 0.490181 0.462623
0.006302 0.006302 0.396216
0.006302 0.006302 0.414893
0.006302 0.006302 0.433707
0.236286 0.006302 0.452079
0.395102 0.006302 0.469718
0.518242 0.006302 0.486625
0.626627 0.006302 0.503288
0.722255 0.321294 0.519738
0.751827 0.439689 0.535988
0.006302 0.006302 0.476707
0.006302 0.006302 0.496010
0.006302 0.006302 0.514290
0.127810 0.006302 0.531304
0.388479 0.006302 0.547463
0.516808 0.006302 0.562890
0.621500 0.006302 0.577569
0.709194 0.006302 0.591424
0.751827 0.347356 0.604425
0.006302 0.006302 0.557244
0.006302 0.006302 0.574487
0.006302 0.006302 0.590433
0.006302 0.006302 0.605356
0.380667 0.006302 0.618997
0.517998 0.006302 0.631128
0.619242 0.006302 0.640833
0.701854 0.006302 0.648676
0.751827 0.264256 0.654978
0.006302 0.225986 0.630365
0.006302 0.006302 0.644373
0.006302 0.006302 0.657008
0.006302 0.006302 0.667002
0.382376 0.006302 0.674189
0.526085 0.006302 0.679408
0.623514 0.006302 0.682872
0.699916 0.331106 0.685222
0.751827 0.438880 0.686915
0.006302 0.506233 0.689433
0.006302 0.489418 0.696513
0.006302 0.477607 0.700908
0.006302 0.473655 0.703777
0.421637 0.478889 0.705791
0.546685 0.493507 0.706935
0.635050 0.516701 0.706966
0.703197 0.545113 0.706249
0.751827 0.574380 0.705653
0.006302 0.644862 0.721233
0.006302 0.635843 0.721401
0.006302 0.630320 0.720989
0.346777 0.628199 0.720211
0.486076 0.629374 0.719265
0.579156 0.633799 0.718379
0.652644 0.641291 0.717632
0.709743 0.653010 0.715343
0.733761 0.673655 0.708873
0.354162 0.743267 0.729183
0.356664 0.733639 0.726574
0.402426 0.726146 0.723949
0.474311 0.720699 0.721553
0.549203 0.717250 0.719600
0.617121 0.716030 0.718517
0.680751 0.715892 0.717250
0.720684 0.720684 0.720684
0.733959 0.729732 0.729519
0.493507 0.751827 0.718959
0.489830 0.751827 0.716289
0.508049 0.751827 0.714534
0.549416 0.751827 0.714092
0.611078 0.751827 0.716121
0.687831 0.751278 0.725032
0.732128 0.745266 0.737240
0.745617 0.747631 0.745281
0.750378 0.750454 0.749813
0.006302 0.006302 0.354314
0.006302 0.006302 0.364752
0.006302 0.006302 0.382055
0.249714 0.006302 0.399954
0.391608 0.006302 0.417960
0.513176 0.006302 0.435798
0.622446 0.194095 0.453437
0.721004 0.361898 0.471305
0.751827 0.460273 0.489418
0.006302 0.006302 0.424384
0.006302 0.006302 0.443748
0.006302 0.006302 0.462867
0.196155 0.006302 0.481392
0.381415 0.006302 0.499046
0.505867 0.006302 0.516182
0.612131 0.006302 0.532876
0.704005 0.006302 0.548974
0.751827 0.382559 0.564401
0.006302 0.006302 0.507942
0.006302 0.006302 0.527214
0.006302 0.006302 0.545296
0.006302 0.006302 0.562280
0.368231 0.006302 0.578439
0.503212 0.006302 0.593622
0.606592 0.006302 0.607660
0.692027 0.006302 0.620966
0.751827 0.006302 0.634043
0.006302 0.006302 0.590433
0.006302 0.006302 0.607218
0.006302 0.006302 0.622950
0.006302 0.006302 0.637354
0.347463 0.006302 0.650263
0.503014 0.006302 0.661875
0.605798 0.006302 0.673060
0.687266 0.006302 0.682856
0.751827 0.006302 0.690181
0.006302 0.006302 0.664912
0.006302 0.006302 0.678264
0.006302 0.006302 0.690089
0.006302 0.006302 0.700404
0.326406 0.006302 0.709758
0.509377 0.006302 0.716793
0.611231 0.006302 0.721431
0.687373 0.006302 0.724056
0.745998 0.262104 0.724987
0.006302 0.453086 0.726528
0.006302 0.406134 0.735302
0.006302 0.355627 0.741695
0.006302 0.322667 0.746090
0.366644 0.338674 0.748730
0.531930 0.391485 0.749645
0.625406 0.450370 0.748867
0.693278 0.503746 0.746532
0.740673 0.552377 0.741344
0.006302 0.614755 0.751827
0.006302 0.602335 0.751827
0.006302 0.595392 0.751827
0.006302 0.594186 0.751827
0.457527 0.598642 0.751827
0.571054 0.608194 0.751827
0.647761 0.622080 0.751827
0.700237 0.648844 0.742931
0.716075 0.681529 0.720348
0.006302 0.722621 0.751827
0.006302 0.712856 0.751827
0.006302 0.705989 0.751827
0.431128 0.701915 0.751827
0.539117 0.700603 0.751827
0.623987 0.702251 0.751827
0.692332 0.710002 0.739574
0.723140 0.722103 0.730892
0.734585 0.732555 0.734920
0.400214 0.751827 0.751827
0.416236 0.751827 0.751827
0.469413 0.751827 0.751827
0.541375 0.751827 0.751827
0.640131 0.748730 0.751278
0.713359 0.741482 0.742611
0.738842 0.744228 0.744488
0.747646 0.748333 0.748363
0.751003 0.751003 0.751003
