ARRI/ARRI_LogC4-to-Gamma24_Rec2020-D65_v1-33.cube
LUT_3D_SIZE 33
0.00000000 0.00000000 0.00000000
0.00002352 0.00071538 0.00072350
0.00119964 0.00250397 0.00253696
0.00616554 0.00254267 0.00324100
0.01655001 0.00230384 0.00487883
0.03441179 0.00315097 0.00869142
0.06474784 0.00442767 0.01318619
0.11147725 0.00511345 0.01604185
0.17580490 0.00481220 0.01456264
0.25578651 0.00641908 0.00815634
0.34726022 0.02097103 0.00736093
0.44495773 0.04693825 0.02179995
0.54284255 0.07655324 0.04317956
0.63718225 0.10006378 0.06163674
0.72763639 0.10265935 0.07004303
0.81466828 0.07047893 0.06590145
0.89679427 0.02388596 0.05679012
0.96539118 0.03885713 0.06876881
0.99922067 0.17482130 0.13733358
1.00000000 0.32893659 0.22658863
1.00000000 0.42891803 0.30235623
0.99993427 0.50606266 0.37411390
0.99992047 0.58180567 0.45239230
0.99998901 0.66005500 0.54027097
1.00000000 0.73854409 0.63560138
0.99997386 0.81317439 0.73262469
0.99991854 0.87884080 0.82276006
0.99997166 0.93077817 0.89656539
1.00000000 0.96643067 0.94877754
1.00000000 0.98659255 0.97918453
1.00000000 0.99528348 0.99259719
0.99999992 0.99810117 0.99701316
0.99999990 0.99892858 0.99831675
0.00076461 0.00000000 0.00065153
0.00090437 0.00081781 0.00159710
0.00198164 0.00253505 0.00333888
0.00706968 0.00235818 0.00368026
0.01772832 0.00179308 0.00507788
0.03578833 0.00242648 0.00874812
0.06627525 0.00364425 0.01284529
0.11314073 0.00462915 0.01481859
0.17758051 0.00586782 0.01213309
0.25757489 0.01131275 0.00561275
0.34897096 0.02789768 0.00671345
0.44660038 0.05168066 0.02129894
0.54431891 0.07900867 0.04234032
0.63819633 0.10251030 0.06154381
0.72825623 0.10576918 0.07043840
0.81508515 0.07389454 0.06633442
0.89707730 0.02496320 0.05720043
0.96553448 0.03821776 0.06915831
0.99924309 0.17476875 0.13765342
1.00000000 0.32930705 0.22679814
1.00000000 0.42922849 0.30249437
0.99993414 0.50625845 0.37422016
0.99992061 0.58192640 0.45247771
0.99998906 0.66013124 0.54033753
1.00000000 0.73859200 0.63564928
0.99997373 0.81320335 0.73265651
0.99991817 0.87885701 0.82277937
0.99997153 0.93078620 0.89657544
1.00000000 0.96643403 0.94878194
1.00000000 0.98659365 0.97918604
1.00000000 0.99528373 0.99259754
0.99999992 0.99810121 0.99701322
0.99999990 0.99892860 0.99831677
0.00238473 0.00140207 0.00256312
0.00245275 0.00222503 0.00344838
0.00341825 0.00379091 0.00481959
0.00889288 0.00345089 0.00422500
0.02036747 0.00207583 0.00489647
0.03886889 0.00190733 0.00804510
0.06950699 0.00280326 0.01114471
0.11649185 0.00488559 0.01145524
0.18104643 0.01042306 0.00741492
0.26100195 0.02230828 0.00247412
0.35233550 0.03917552 0.00557228
0.44989422 0.05876125 0.01925308
0.54723072 0.08252223 0.03983769
0.64003633 0.10701752 0.06142015
0.72939522 0.11128109 0.07115742
0.81584139 0.08009309 0.06715569
0.89756423 0.02745964 0.05808103
0.96576907 0.03703261 0.06999145
0.99927249 0.17432711 0.13827069
1.00000000 0.32977838 0.22717486
1.00000000 0.42972327 0.30273986
0.99993405 0.50660164 0.37441231
0.99992096 0.58214672 0.45263358
0.99998914 0.66027076 0.54045903
1.00000000 0.73867889 0.63573650
0.99997348 0.81325544 0.73271421
0.99991748 0.87888600 0.82281420
0.99997129 0.93080042 0.89659339
1.00000000 0.96643987 0.94878965
1.00000000 0.98659549 0.97918858
1.00000000 0.99528410 0.99259807
0.99999992 0.99810126 0.99701328
0.99999989 0.99892861 0.99831679
0.00220549 0.00770850 0.00437242
0.00199487 0.00876538 0.00498578
0.00276687 0.01083418 0.00557618
0.00980945 0.01185647 0.00411259
0.02456843 0.01010142 0.00345517
0.04502962 0.00919627 0.00531340
0.07621421 0.01010568 0.00687180
0.12311858 0.01414011 0.00596404
0.18736604 0.02422866 0.00318220
0.26694377 0.03803719 0.00070369
0.35783687 0.05261165 0.00434855
0.45481681 0.06796623 0.01676446
0.55103163 0.08954349 0.03853578
0.64254255 0.11367649 0.06184680
0.73102765 0.11853731 0.07210697
0.81689507 0.08946484 0.06831350
0.89820223 0.03545030 0.05945871
0.96605377 0.03717183 0.07131831
0.99929648 0.17381998 0.13916738
1.00000000 0.33013449 0.22767773
1.00000000 0.43021152 0.30306556
0.99993438 0.50701636 0.37467480
0.99992158 0.58244431 0.45284929
0.99998926 0.66046494 0.54062721
1.00000000 0.73879925 0.63585692
0.99997313 0.81332693 0.73279366
0.99991652 0.87892550 0.82286197
0.99997096 0.93081966 0.89661782
1.00000000 0.96644766 0.94879999
1.00000000 0.98659786 0.97919188
1.00000000 0.99528454 0.99259869
0.99999992 0.99810129 0.99701333
0.99999989 0.99892863 0.99831681
0.00216890 0.02030258 0.00775894
0.00155572 0.02167731 0.00819685
0.00159222 0.02452146 0.00827120
0.00895600 0.02826229 0.00594608
0.02977441 0.03182655 0.00318325
0.05701453 0.03621261 0.00298657
0.09161921 0.04084561 0.00329290
0.13857373 0.04617376 0.00301111
0.20117251 0.05373311 0.00212586
0.27856610 0.06262446 0.00048726
0.36729578 0.07186121 0.00416606
0.46216546 0.08290638 0.01689716
0.55628373 0.10143433 0.03952616
0.64612475 0.12303008 0.06305775
0.73342143 0.12775676 0.07331191
0.81840139 0.10226458 0.06985632
0.89907286 0.05102405 0.06142443
0.96642289 0.04363853 0.07322465
0.99931980 0.17626816 0.14041234
1.00000000 0.33104930 0.22834949
1.00000000 0.43071841 0.30349981
0.99993541 0.50749812 0.37503403
0.99992259 0.58283781 0.45314728
0.99998943 0.66073321 0.54085900
1.00000000 0.73896636 0.63602290
0.99997265 0.81342577 0.73290325
0.99991518 0.87897989 0.82292783
0.99997051 0.93084607 0.89665141
1.00000000 0.96645832 0.94881417
1.00000000 0.98660109 0.97919638
1.00000000 0.99528512 0.99259953
0.99999991 0.99810134 0.99701338
0.99999989 0.99892866 0.99831683
0.00345565 0.04130797 0.01316003
0.00251172 0.04283635 0.01339075
0.00167694 0.04600936 0.01284012
0.00896171 0.05167514 0.00917273
0.03591889 0.06225101 0.00441854
0.07653221 0.07902142 0.00348387
0.12092830 0.09301920 0.00319068
0.16921057 0.10065821 0.00254209
0.22768608 0.10481404 0.00197359
0.29941118 0.10623628 0.00077335
0.38300604 0.10624318 0.00481919
0.47354137 0.10903027 0.01899467
0.56410460 0.12068095 0.04254941
0.65145330 0.13669088 0.06529747
0.73698593 0.13979213 0.07500661
0.82062392 0.11829845 0.07190407
0.90032664 0.07530966 0.06411298
0.96693855 0.06741586 0.07592416
0.99934727 0.18825477 0.14221739
1.00000000 0.33398551 0.22930465
1.00000000 0.43149731 0.30410494
0.99993710 0.50811612 0.37553612
0.99992416 0.58336938 0.45356329
0.99998971 0.66110462 0.54117974
1.00000000 0.73919975 0.63625350
0.99997197 0.81356401 0.73305615
0.99991330 0.87905591 0.82301980
0.99996988 0.93088295 0.89669830
1.00000000 0.96647320 0.94883396
1.00000000 0.98660560 0.97920267
1.00000000 0.99528593 0.99260070
0.99999991 0.99810141 0.99701347
0.99999989 0.99892870 0.99831687
0.00432459 0.07598711 0.01886152
0.00349978 0.07754416 0.01858530
0.00264077 0.08069308 0.01684378
0.00979490 0.08708654 0.01145303
0.04131865 0.10202819 0.00557239
0.09383644 0.12940245 0.00471888
0.15209831 0.15609724 0.00448018
0.20744412 0.16976821 0.00338718
0.26419856 0.17332047 0.00243135
0.32948175 0.17101931 0.00079215
0.40579447 0.16410737 0.00509157
0.48984049 0.15606502 0.02288496
0.57523657 0.15496651 0.04877559
0.65914698 0.15961104 0.06981702
0.74219360 0.15730341 0.07805390
0.82392672 0.13772034 0.07483462
0.90220418 0.10363725 0.06772318
0.96770141 0.10111812 0.07980617
0.99938582 0.20637028 0.14498136
1.00000000 0.33861810 0.23071857
1.00000000 0.43273388 0.30497332
0.99993868 0.50900524 0.37624776
0.99992645 0.58411041 0.45414770
0.99999023 0.66162031 0.54162610
1.00000000 0.73952528 0.63657513
0.99997099 0.81375742 0.73326995
0.99991064 0.87916229 0.82314848
0.99996898 0.93093454 0.89676391
1.00000000 0.96649402 0.94886163
1.00000000 0.98661192 0.97921146
1.00000000 0.99528708 0.99260235
0.99999991 0.99810151 0.99701359
0.99999988 0.99892875 0.99831692
0.00526923 0.12749933 0.02168333
0.00495894 0.12903472 0.02038593
0.00531435 0.13212282 0.01685016
0.01398054 0.13865902 0.01036788
0.04729652 0.15454831 0.00556267
0.10362668 0.18448020 0.00521833
0.17041264 0.21898196 0.00476924
0.23645396 0.24224537 0.00315692
0.29894637 0.25049835 0.00256150
0.36299999 0.24833168 0.00115505
0.43368600 0.23939904 0.00579320
0.51075414 0.22611032 0.02704397
0.58974919 0.21289351 0.05886015
0.66933474 0.20098580 0.07911407
0.74933001 0.18660856 0.08463720
0.82868079 0.16317766 0.07985912
0.90504095 0.13286518 0.07271096
0.96888481 0.13273882 0.08517110
0.99946540 0.22444937 0.14897238
1.00000000 0.34408064 0.23274559
1.00000000 0.43462891 0.30622010
0.99993872 0.51035812 0.37726613
0.99992943 0.58516533 0.45497389
0.99999113 0.66234049 0.54225268
1.00000000 0.73997972 0.63702562
0.99996955 0.81402787 0.73356917
0.99990680 0.87931104 0.82332848
0.99996763 0.93100664 0.89685565
1.00000000 0.96652310 0.94890033
1.00000000 0.98662075 0.97922376
1.00000000 0.99528868 0.99260465
0.99999991 0.99810166 0.99701376
0.99999988 0.99892883 0.99831700
0.00859513 0.19537762 0.01699314
0.01016793 0.19692245 0.01451829
0.01493503 0.20010058 0.00997169
0.02777359 0.20659754 0.00564595
0.05713245 0.22117547 0.00421950
0.10872748 0.24772560 0.00511024
0.17627405 0.28177289 0.00537373
0.24922483 0.31153903 0.00449458
0.32088272 0.32817073 0.00628562
0.39032148 0.33081971 0.00545066
0.46056893 0.32318050 0.01245107
0.53308782 0.30936357 0.03939224
0.60623652 0.29203639 0.07546963
0.68111258 0.26856051 0.09643747
0.75798569 0.23776189 0.09863382
0.83490918 0.20225076 0.08996480
0.90906412 0.16768107 0.08069106
0.97070323 0.16473796 0.09249454
0.99966497 0.24324788 0.15432018
1.00000000 0.35089784 0.23556340
1.00000000 0.43756963 0.30801344
0.99993584 0.51240522 0.37872617
0.99993282 0.58667059 0.45614529
0.99999249 0.66335102 0.54313638
1.00000000 0.74061652 0.63765876
0.99996751 0.81440663 0.73398849
0.99990151 0.87951897 0.82358012
0.99996566 0.93110727 0.89698381
1.00000000 0.96656369 0.94895444
1.00000000 0.98663308 0.97924096
1.00000000 0.99529093 0.99260787
0.99999991 0.99810186 0.99701400
0.99999988 0.99892894 0.99831710
0.02381110 0.27587584 0.00731514
0.02796788 0.27747903 0.00579925
0.03622613 0.28078925 0.00376083
0.04874989 0.28696102 0.00296603
0.07063481 0.29914456 0.00386387
0.11171973 0.32023349 0.00580744
0.17443252 0.34901490 0.00692345
0.24880017 0.37919027 0.00666427
0.32690331 0.40225102 0.01213116
0.40416381 0.41251421 0.01612457
0.47914353 0.40969876 0.02536352
0.55194012 0.39772606 0.05579261
0.62252002 0.38038739 0.09494814
0.69360169 0.35506752 0.11946313
0.76710615 0.31624848 0.12243951
0.84182863 0.26554547 0.10971211
0.91400679 0.21745211 0.09535273
0.97320672 0.20365196 0.10367870
1.00000000 0.26592099 0.16188568
1.00000000 0.36026524 0.23964898
1.00000000 0.44204569 0.31064142
0.99992948 0.51539006 0.38080471
0.99993547 0.58879754 0.45780391
0.99999399 0.66477346 0.54438679
1.00000000 0.74151423 0.63855229
0.99996554 0.81493939 0.73457739
0.99989615 0.87981010 0.82393143
0.99996369 0.93124765 0.89716240
1.00000000 0.96662022 0.94902993
1.00000000 0.98665026 0.97926501
1.00000000 0.99529408 0.99261238
0.99999992 0.99810215 0.99701433
0.99999987 0.99892910 0.99831725
0.05138174 0.36462517 0.01067067
0.05556860 0.36624545 0.01116926
0.06284942 0.36949409 0.01193734
0.07230583 0.37496089 0.01255934
0.08700252 0.38457292 0.01249610
0.11585047 0.40045048 0.01254080
0.16826177 0.42284741 0.01310840
0.23957924 0.44912891 0.01393303
0.31977703 0.47379840 0.02094463
0.40284422 0.49030675 0.03089978
0.48468307 0.49445559 0.03827282
0.56264485 0.48662710 0.06560998
0.63555404 0.47054425 0.10695567
0.70561421 0.44690500 0.13944988
0.77613645 0.41051258 0.15051315
0.84819393 0.35600592 0.14050378
0.91878441 0.29270141 0.12137874
0.97593688 0.25881277 0.12261768
1.00000000 0.29745837 0.17378501
1.00000000 0.37408461 0.24593206
1.00000000 0.44870695 0.31451452
0.99991788 0.51961244 0.38374749
0.99993285 0.59175690 0.46013873
0.99999419 0.66676931 0.54615476
1.00000000 0.74278402 0.63981701
0.99996575 0.81569283 0.73540697
0.99989677 0.88021938 0.82442080
0.99996380 0.93144386 0.89741076
0.99999988 0.96669889 0.94913508
1.00000000 0.98667409 0.97929853
1.00000000 0.99529844 0.99261867
0.99999992 0.99810257 0.99701481
0.99999988 0.99892934 0.99831747
0.07701852 0.45825445 0.02232341
0.08062272 0.45972749 0.02388300
0.08671888 0.46258303 0.02611394
0.09400137 0.46704940 0.02724750
0.10377207 0.47430214 0.02588898
0.12257368 0.48583298 0.02411970
0.16114700 0.50245171 0.02481873
0.22387944 0.52333464 0.02645604
0.30240834 0.54576516 0.03110289
0.38806245 0.56490938 0.03872838
0.47571602 0.57529825 0.04424780
0.56130039 0.57347768 0.05987437
0.64117219 0.56021823 0.09943501
0.71449410 0.53824750 0.14415494
0.78424053 0.50639038 0.17127674
0.85360949 0.45857054 0.17403109
0.92194336 0.39393274 0.15904568
0.97765067 0.33963921 0.15365469
1.00000000 0.34527104 0.19330988
1.00000000 0.39613237 0.25622920
1.00000000 0.45905771 0.32049395
0.99989654 0.52562758 0.38796379
0.99991803 0.59581819 0.46339673
0.99999187 0.66953168 0.54863252
1.00000000 0.74456989 0.64160297
0.99996882 0.81676024 0.73657921
0.99990525 0.88079814 0.82510721
0.99996666 0.93171976 0.89775805
0.99999987 0.96680877 0.94928190
1.00000000 0.98670712 0.97934520
1.00000000 0.99530439 0.99262736
0.99999993 0.99810313 0.99701545
0.99999989 0.99892968 0.99831777
0.09069136 0.55369763 0.02302220
0.09387784 0.55490984 0.02435821
0.09920653 0.55720719 0.02619818
0.10540236 0.56063671 0.02714900
0.11377308 0.56585644 0.02758113
0.12805634 0.57388283 0.02915274
0.15498842 0.58573615 0.03114203
0.20318858 0.60158819 0.03045522
0.27529323 0.62007349 0.03189523
0.36103420 0.63857017 0.03509065
0.45246345 0.65256432 0.03723731
0.54500344 0.65693544 0.04197422
0.63415816 0.64865943 0.06933085
0.71556672 0.62881937 0.12201485
0.78887794 0.59958738 0.17080125
0.85753723 0.55902464 0.19647486
0.92339308 0.50344171 0.19775235
0.97744475 0.44405867 0.19561307
1.00000000 0.41725402 0.22416555
1.00000000 0.43358957 0.27425201
1.00000000 0.47685216 0.33073177
0.99988536 0.53488116 0.39441007
0.99991244 0.60148157 0.46799139
0.99999145 0.67330270 0.55207393
1.00000000 0.74704113 0.64410256
0.99997402 0.81826052 0.73823194
0.99991881 0.88161763 0.82607614
0.99997133 0.93211038 0.89824749
0.99999981 0.96696357 0.94948818
1.00000000 0.98675323 0.97941042
1.00000000 0.99531252 0.99263935
0.99999995 0.99810382 0.99701627
0.99999991 0.99893012 0.99831818
0.09411778 0.64821827 0.01243676
0.09711446 0.64914654 0.01274501
0.10236327 0.65086998 0.01374141
0.10915143 0.65333929 0.01644211
0.11814535 0.65694282 0.01981784
0.13079780 0.66236735 0.02488109
0.15025823 0.67052339 0.02925942
0.18379473 0.68207020 0.03008088
0.24177199 0.69654484 0.03122449
0.32275895 0.71248843 0.03251648
0.41552052 0.72721911 0.03056974
0.51286929 0.73612752 0.02700763
0.61028930 0.73415852 0.03880584
0.70238109 0.71881140 0.07461680
0.78469454 0.69154849 0.13678553
0.85729597 0.65466394 0.19294148
0.92272843 0.60766260 0.22274700
0.97584314 0.55397320 0.23706079
1.00000000 0.51156015 0.26519528
1.00000000 0.49456621 0.30457094
1.00000000 0.50908446 0.34946930
0.99987550 0.55093612 0.40548292
0.99990656 0.61009756 0.47497970
0.99998891 0.67855323 0.55694798
1.00000000 0.75041084 0.64757463
0.99998169 0.82032958 0.74053632
0.99993800 0.88276564 0.82743660
0.99997801 0.93266330 0.89893790
0.99999979 0.96718352 0.94977959
1.00000000 0.98681860 0.97950243
1.00000000 0.99532387 0.99265614
0.99999995 0.99810466 0.99701731
0.99999993 0.99893065 0.99831865
0.11745486 0.73905992 0.00805059
0.11974594 0.73974469 0.00795208
0.12380505 0.74100125 0.00799669
0.12916832 0.74276437 0.00853387
0.13612421 0.74527443 0.00955798
0.14513868 0.74897024 0.01221325
0.15747151 0.75450449 0.01566713
0.17750622 0.76259753 0.02035958
0.21495340 0.77351394 0.02582081
0.27871882 0.78654897 0.02840978
0.36545536 0.80005616 0.02457385
0.46419261 0.81101375 0.01600486
0.56737651 0.81460749 0.01569268
0.66910318 0.80605638 0.02682059
0.76366758 0.78325219 0.07253684
0.84657078 0.74839880 0.15232178
0.91703699 0.70525831 0.21927291
0.97242054 0.65728262 0.26231773
0.99960668 0.61253842 0.30478069
1.00000000 0.57811087 0.34648233
1.00000000 0.56362049 0.38192805
0.99989881 0.58033301 0.42579693
0.99987848 0.62495723 0.48693844
0.99997318 0.68650855 0.56435619
1.00000000 0.75508548 0.65247035
0.99999194 0.82313403 0.74371351
0.99996381 0.88433755 0.82931813
0.99998724 0.93343422 0.89990188
1.00000000 0.96749524 0.95019028
1.00000000 0.98691257 0.97963320
1.00000000 0.99534050 0.99268032
0.99999995 0.99810585 0.99701883
0.99999995 0.99893124 0.99831919
0.19124484 0.82395095 0.00119484
0.19197945 0.82445307 0.00126937
0.19325839 0.82537197 0.00137903
0.19492782 0.82665284 0.00152441
0.19708729 0.82845204 0.00175075
0.19976422 0.83104822 0.00230172
0.20306636 0.83487794 0.00312710
0.20845841 0.84055059 0.00476641
0.22118028 0.84865984 0.00788238
0.25109858 0.85929163 0.00970058
0.31170820 0.87120435 0.00630878
0.40114067 0.88219747 0.00000000
0.50591955 0.88901521 0.00000000
0.61440577 0.88706581 0.00000000
0.71989830 0.87171862 0.01822991
0.81671708 0.84146639 0.08663205
0.89925844 0.80007888 0.18286033
0.96295919 0.75393084 0.26009095
0.99741087 0.70958325 0.32795881
1.00000000 0.67029593 0.38834890
1.00000000 0.63977055 0.42755569
1.00000000 0.63023744 0.46080615
0.99985595 0.65198278 0.50865117
0.99994078 0.70006346 0.57680735
0.99999459 0.76211920 0.65982209
1.00000000 0.82700210 0.74815639
0.99999065 0.88644881 0.83188879
0.99999699 0.93447852 0.90122114
1.00000000 0.96792682 0.95075928
1.00000000 0.98704654 0.97981767
1.00000000 0.99536565 0.99271576
0.99999994 0.99810808 0.99702156
0.99999997 0.99893207 0.99832004
0.26000622 0.90306700 0.00000000
0.26017266 0.90340881 0.00000000
0.26042162 0.90403399 0.00000000
0.26072416 0.90490374 0.00000624
0.26113565 0.90611696 0.00018467
0.26162840 0.90784177 0.00039319
0.26201249 0.91034088 0.00062139
0.26213326 0.91403660 0.00100166
0.26270221 0.91953210 0.00164642
0.26774418 0.92738114 0.00214959
0.28991730 0.93724197 0.00361549
0.34967127 0.94689533 0.01067650
0.44582346 0.95382315 0.01989427
0.55451077 0.95573957 0.02591391
0.66368104 0.94834834 0.03276476
0.76849429 0.92724360 0.06331866
0.86357741 0.89159615 0.14670341
0.94070682 0.84696424 0.23809746
0.98902781 0.80144953 0.32553825
1.00000000 0.76018263 0.41340177
1.00000000 0.72437248 0.47380759
1.00000000 0.69973306 0.50965777
0.99992148 0.69724555 0.54512567
0.99990708 0.72427450 0.59878040
0.99997120 0.77395866 0.67193696
0.99999757 0.83279867 0.75479708
1.00000000 0.88934349 0.83547088
1.00000000 0.93586204 0.90300310
1.00000000 0.96850088 0.95152592
1.00000000 0.98722965 0.98006979
0.99999996 0.99540258 0.99276636
0.99999993 0.99811257 0.99702668
0.99999997 0.99893379 0.99832189
0.32796459 0.96873379 0.06602312
0.32827111 0.96890602 0.06645905
0.32881587 0.96921632 0.06724803
0.32956438 0.96964337 0.06830726
0.33061469 0.97023492 0.06971036
0.33207570 0.97106673 0.07157169
0.33397879 0.97225219 0.07401604
0.33616758 0.97398790 0.07719293
0.33831615 0.97661344 0.08128503
0.34103775 0.98056092 0.08714312
0.35037226 0.98583120 0.09994576
0.38449879 0.99087014 0.13336851
0.45595795 0.99418035 0.17013721
0.54734901 0.99590049 0.19334127
0.64174542 0.99452726 0.20095792
0.73332205 0.98637760 0.19120624
0.82309103 0.96565002 0.20590615
0.90573080 0.93110359 0.25039499
0.96867997 0.88820989 0.31739186
0.99807824 0.84510567 0.41522054
1.00000000 0.80669033 0.50454067
1.00000000 0.77624057 0.55936122
1.00000000 0.75917872 0.59477823
0.99993185 0.76396060 0.63465270
0.99994053 0.79465064 0.69271164
0.99997187 0.84245610 0.76566706
0.99998976 0.89366990 0.84082657
1.00000000 0.93774223 0.90547011
1.00000000 0.96924338 0.95254340
1.00000000 0.98746396 0.98039925
1.00000000 0.99545144 0.99283298
0.99999994 0.99812024 0.99703488
0.99999996 0.99893755 0.99832586
0.47039980 0.99968936 0.26999606
0.47086998 0.99971551 0.27062770
0.47173599 0.99975602 0.27178863
0.47294876 0.99980357 0.27339199
0.47463969 0.99986507 0.27557432
0.47701551 0.99994730 0.27855207
0.48032506 1.00000000 0.28259696
0.48479083 1.00000000 0.28804218
0.49047300 1.00000000 0.29532627
0.49736571 1.00000000 0.30541061
0.50712745 1.00000000 0.32157934
0.52609516 1.00000000 0.34896623
0.56199198 1.00000000 0.38194000
0.61723929 1.00000000 0.41208784
0.68265331 1.00000000 0.43503433
0.74893248 1.00000000 0.44113647
0.81351069 0.99982789 0.42629897
0.87788229 0.98657326 0.39244569
0.93984709 0.95967985 0.37450713
0.98411516 0.92218277 0.42380323
1.00000000 0.88293195 0.51776274
1.00000000 0.84949108 0.59610071
1.00000000 0.82603967 0.64520836
1.00000000 0.81680859 0.68198045
0.99994469 0.82752280 0.72544697
0.99992385 0.85889835 0.78380945
0.99995638 0.90079027 0.84943548
0.99999351 0.94054726 0.90913864
1.00000000 0.97023854 0.95394002
1.00000000 0.98775130 0.98082139
1.00000000 0.99550674 0.99291164
0.99999999 0.99813000 0.99704459
0.99999996 0.99894429 0.99833265
0.63557994 1.00000000 0.48414615
0.63585932 1.00000000 0.48450880
0.63637445 1.00000000 0.48517643
0.63709026 1.00000000 0.48610144
0.63808489 1.00000000 0.48737945
0.63949195 1.00000000 0.48916657
0.64149944 1.00000000 0.49167137
0.64434027 1.00000000 0.49516525
0.64819768 1.00000000 0.49998791
0.65307250 1.00000000 0.50667802
0.65917086 1.00000000 0.51649866
0.66821478 1.00000000 0.53133001
0.68427801 1.00000000 0.55162135
0.71252888 1.00000000 0.57699294
0.75212714 1.00000000 0.60640665
0.79653165 1.00000000 0.63326459
0.83958626 1.00000000 0.64403461
0.88007771 1.00000000 0.62174404
0.92143472 0.99655588 0.56499888
0.96322260 0.97836795 0.52020298
0.99161994 0.94808454 0.54765490
1.00000000 0.91493323 0.62167011
1.00000000 0.88825183 0.68561586
1.00000000 0.87217553 0.72996899
1.00000000 0.86977287 0.76738274
0.99992214 0.88401079 0.81097841
0.99994796 0.91254837 0.86312662
0.99998622 0.94512245 0.91494035
0.99999928 0.97173035 0.95602254
1.00000000 0.98812634 0.98139425
1.00000000 0.99556238 0.99300041
1.00000000 0.99813773 0.99705147
1.00000000 0.99895344 0.99834123
0.76148973 1.00000000 0.65084248
0.76164400 1.00000000 0.65103711
0.76192137 1.00000000 0.65138732
0.76230085 1.00000000 0.65186820
0.76282472 1.00000000 0.65253593
0.76356428 1.00000000 0.65348078
0.76462585 1.00000000 0.65482693
0.76616413 1.00000000 0.65674376
0.76835356 1.00000000 0.65944088
0.77129061 1.00000000 0.66315844
0.77499578 1.00000000 0.66824020
0.77981051 1.00000000 0.67519145
0.78728980 1.00000000 0.68520069
0.80004140 0.99997986 0.70010901
0.81968670 1.00000000 0.72120982
0.84472537 1.00000000 0.74617658
0.87055724 1.00000000 0.76681500
0.89567703 1.00000000 0.77344304
0.92115472 1.00000000 0.75465803
0.94847227 1.00000000 0.70700309
0.97627947 0.98919076 0.66095851
0.99492589 0.96670897 0.66813283
1.00000000 0.94106585 0.71945474
1.00000000 0.92163062 0.76923673
1.00000000 0.91226906 0.80794934
1.00000000 0.91484822 0.84339605
0.99997643 0.92973378 0.88249356
0.99998042 0.95245830 0.92391047
0.99999340 0.97416439 0.95930285
0.99999908 0.98870438 0.98226571
1.00000000 0.99562915 0.99311910
1.00000000 0.99813937 0.99705286
1.00000000 0.99896228 0.99834880
0.83584940 0.99993033 0.75165491
0.83591511 0.99993016 0.75173189
0.83603063 0.99992992 0.75186648
0.83618523 0.99992985 0.75204650
0.83639642 0.99993016 0.75229430
0.83669197 0.99993097 0.75264446
0.83711335 0.99993206 0.75314447
0.83772792 0.99993240 0.75386266
0.83862894 0.99993011 0.75488683
0.83989027 0.99992395 0.75629477
0.84146246 0.99991447 0.75806602
0.84316593 0.99990169 0.76004578
0.84531487 0.99988162 0.76268535
0.84887511 0.99984928 0.76708374
0.85511834 0.99981640 0.77446262
0.86521741 0.99984547 0.78556826
0.87951004 1.00000000 0.79987129
0.89716042 1.00000000 0.81498927
0.91711920 1.00000000 0.82519118
0.93885073 1.00000000 0.82174538
0.96160354 1.00000000 0.79963259
0.98252557 0.99484573 0.76923066
0.99577677 0.97923734 0.77032818
1.00000000 0.96120596 0.80323105
1.00000000 0.94852566 0.84061609
1.00000000 0.94452448 0.87363198
1.00000000 0.94983543 0.90475966
0.99999107 0.96267804 0.93608364
0.99998775 0.97796339 0.96421246
0.99999514 0.98967820 0.98365108
0.99999906 0.99575389 0.99332626
1.00000000 0.99813895 0.99705708
1.00000000 0.99896783 0.99835397
