ARRI/ARRI_LogC2Video_P3D65_33.cube
LUT_3D_SIZE 33
0.000000 0.000000 0.000000
0.000259 0.000061 0.000061
0.001648 0.000122 0.000153
0.005035 0.000000 0.000122
0.011215 0.000000 0.000153
0.020920 0.000000 0.000290
0.034745 0.000000 0.000473
0.053086 0.000000 0.000717
0.074022 0.000000 0.001022
0.094118 0.000000 0.001404
0.115846 0.000000 0.001892
0.140902 0.000000 0.002579
0.169192 0.000000 0.003555
0.200519 0.000000 0.004883
0.234653 0.000000 0.006653
0.271214 0.000000 0.008988
0.310338 0.000000 0.012039
0.351980 0.000000 0.015961
0.395392 0.000000 0.020859
0.439643 0.000000 0.026810
0.483619 0.000000 0.033753
0.526024 0.000000 0.041489
0.565393 0.000000 0.049653
0.600992 0.000000 0.057877
0.635599 0.000000 0.066117
0.669398 0.000000 0.074174
0.702235 0.000000 0.082002
0.733944 0.000000 0.089555
0.764385 0.000000 0.096803
0.793423 0.000000 0.103731
0.820935 0.000000 0.110277
0.847013 0.000000 0.116487
0.871702 0.000000 0.122377
0.000717 0.001312 0.000763
0.002045 0.002182 0.000870
0.005249 0.003037 0.000641
0.011154 0.003693 0.000000
0.020356 0.003708 0.000061
0.033753 0.003021 0.000275
0.051911 0.001511 0.000595
0.073320 0.000000 0.001022
0.093904 0.000000 0.001389
0.115908 0.000000 0.001892
0.140612 0.000000 0.002579
0.168536 0.000000 0.003525
0.199664 0.000000 0.004837
0.233814 0.000000 0.006607
0.270680 0.000000 0.008957
0.309911 0.000000 0.011994
0.351110 0.000000 0.015869
0.394690 0.000000 0.020783
0.440177 0.000000 0.026886
0.486564 0.000000 0.034257
0.532753 0.000000 0.042817
0.577493 0.000000 0.052354
0.619364 0.000000 0.062257
0.656840 0.000000 0.071183
0.690730 0.000000 0.079255
0.723598 0.000000 0.087083
0.755291 0.000000 0.094636
0.785657 0.000000 0.101869
0.814557 0.000000 0.108766
0.841993 0.000000 0.115297
0.868040 0.000000 0.121508
0.892760 0.000000 0.127398
0.916228 0.000000 0.132982
0.001709 0.006287 0.002121
0.004211 0.008392 0.001556
0.009308 0.010422 0.000397
0.017624 0.011994 0.000000
0.029740 0.012787 0.000000
0.046494 0.012863 0.000000
0.067628 0.012055 0.000229
0.089036 0.010285 0.000687
0.111543 0.007538 0.001297
0.137148 0.003799 0.002152
0.165301 0.000000 0.003296
0.195987 0.000000 0.004669
0.229725 0.000000 0.006378
0.266423 0.000000 0.008652
0.305776 0.000000 0.011643
0.347372 0.000000 0.015488
0.390692 0.000000 0.020294
0.435615 0.000000 0.026230
0.482460 0.000000 0.033555
0.530388 0.000000 0.042344
0.578302 0.000000 0.052537
0.624979 0.000000 0.063584
0.669017 0.000000 0.074083
0.708934 0.000000 0.083589
0.743374 0.000000 0.091798
0.775235 0.000000 0.099397
0.805707 0.000000 0.106645
0.834730 0.000000 0.113573
0.862364 0.000000 0.120150
0.888655 0.000000 0.126421
0.913680 0.000000 0.132372
0.937484 0.000000 0.138048
0.960143 0.000000 0.143450
0.001450 0.016419 0.002792
0.005310 0.020066 0.001038
0.012345 0.023499 0.000000
0.022965 0.025956 0.000000
0.037980 0.027771 0.000000
0.058000 0.028824 0.000000
0.080034 0.028977 0.000000
0.102373 0.028107 0.000000
0.127947 0.026154 0.000702
0.156725 0.023117 0.001709
0.188144 0.019120 0.003098
0.221744 0.014282 0.004898
0.258167 0.008194 0.007309
0.297322 0.000702 0.010437
0.338933 0.000000 0.014450
0.382544 0.000000 0.019318
0.427726 0.000000 0.025116
0.474037 0.000000 0.032151
0.521950 0.000000 0.040696
0.571069 0.000000 0.050904
0.620371 0.000000 0.062486
0.668605 0.000000 0.073991
0.714443 0.000000 0.084916
0.756435 0.000000 0.094911
0.793011 0.000000 0.103624
0.824155 0.000000 0.111040
0.853635 0.000000 0.118074
0.881758 0.000000 0.124773
0.908614 0.000000 0.131167
0.934188 0.000000 0.137255
0.958297 0.000000 0.142977
0.980957 0.000000 0.148089
1.000000 0.000000 0.152865
0.000000 0.033066 0.001633
0.003983 0.038544 0.000000
0.012833 0.042878 0.000000
0.025956 0.046601 0.000000
0.043915 0.049638 0.000000
0.066560 0.051865 0.000000
0.089403 0.053162 0.000000
0.114397 0.053391 0.000000
0.142962 0.052445 0.000000
0.174685 0.050233 0.000885
0.209064 0.046845 0.002518
0.245380 0.042481 0.004669
0.284077 0.036927 0.007492
0.325399 0.030030 0.011154
0.369055 0.021775 0.015824
0.414679 0.012177 0.021653
0.461784 0.001343 0.028779
0.509865 0.000000 0.037293
0.558755 0.000000 0.047349
0.608865 0.000000 0.059190
0.659266 0.000000 0.071473
0.708736 0.000000 0.083436
0.755993 0.000000 0.094774
0.799634 0.000000 0.105165
0.838315 0.000000 0.114275
0.870756 0.000000 0.121828
0.899611 0.000000 0.128481
0.926894 0.000000 0.134752
0.952636 0.000000 0.140658
0.976883 0.000000 0.146197
0.999664 0.000000 0.151385
1.000000 0.000000 0.156222
1.000000 0.000000 0.160723
0.000000 0.057389 0.000000
0.000000 0.063600 0.000000
0.009720 0.068742 0.000000
0.025528 0.073075 0.000000
0.046555 0.076631 0.000000
0.071717 0.079377 0.000000
0.096513 0.081239 0.000000
0.124422 0.082155 0.000000
0.155749 0.082109 0.000000
0.190219 0.081071 0.000000
0.227359 0.079103 0.001511
0.266468 0.076280 0.004013
0.307607 0.072465 0.007279
0.351171 0.067384 0.011490
0.396918 0.060746 0.016831
0.444465 0.052293 0.023484
0.493370 0.042481 0.031586
0.543099 0.031632 0.041215
0.593133 0.019898 0.052461
0.644007 0.006943 0.065095
0.695201 0.000000 0.077760
0.745586 0.000000 0.090074
0.793973 0.000000 0.101808
0.838956 0.000000 0.112642
0.879255 0.000000 0.122271
0.913558 0.000000 0.130358
0.941802 0.000000 0.136934
0.968017 0.000000 0.143008
0.992676 0.000000 0.148684
1.000000 0.000000 0.153964
1.000000 0.000000 0.158846
1.000000 0.000000 0.163333
1.000000 0.000000 0.167453
0.000000 0.084184 0.000000
0.000000 0.089998 0.000000
0.002350 0.095125 0.000000
0.020661 0.099641 0.000000
0.044526 0.103548 0.000000
0.072572 0.106783 0.000000
0.100435 0.109300 0.000000
0.131563 0.111040 0.000000
0.165911 0.111940 0.000000
0.203281 0.112016 0.000000
0.243244 0.111299 0.000000
0.285176 0.109880 0.002594
0.328954 0.107774 0.006317
0.374929 0.104845 0.011124
0.422843 0.101015 0.017197
0.472358 0.096239 0.024704
0.523049 0.090455 0.033814
0.574380 0.083619 0.044602
0.625757 0.075761 0.057084
0.677241 0.066453 0.070207
0.728740 0.054704 0.083162
0.779294 0.041550 0.095735
0.827863 0.028534 0.107698
0.873350 0.016800 0.118791
0.914580 0.007874 0.128740
0.950347 0.003601 0.137255
0.979492 0.006165 0.144030
1.000000 0.013718 0.149828
1.000000 0.024552 0.155184
1.000000 0.039063 0.160128
1.000000 0.057679 0.164645
1.000000 0.077867 0.168765
1.000000 0.098711 0.171817
0.000000 0.111513 0.000000
0.000000 0.118334 0.000000
0.000000 0.124498 0.000000
0.009216 0.130022 0.000000
0.035706 0.134905 0.000000
0.067628 0.139147 0.000000
0.100069 0.142702 0.000000
0.135225 0.145525 0.000000
0.173159 0.147631 0.000000
0.213794 0.148989 0.000000
0.256809 0.149676 0.000000
0.301671 0.149767 0.000000
0.348348 0.149355 0.003494
0.396918 0.148394 0.008850
0.447150 0.146914 0.015610
0.498726 0.144930 0.023957
0.551080 0.142367 0.034012
0.603510 0.139117 0.045823
0.655467 0.135332 0.059312
0.706767 0.131060 0.072892
0.757931 0.126009 0.086183
0.808270 0.120409 0.099031
0.856840 0.114763 0.111254
0.902632 0.109850 0.122621
0.944549 0.106783 0.132876
0.981460 0.106996 0.141741
1.000000 0.111879 0.148928
1.000000 0.121324 0.154559
1.000000 0.132387 0.159655
1.000000 0.144671 0.164294
1.000000 0.157977 0.168475
1.000000 0.175174 0.168444
1.000000 0.192798 0.167346
0.000000 0.143343 0.000000
0.000000 0.151461 0.000000
0.000000 0.158968 0.000000
0.000000 0.165759 0.000000
0.019608 0.171878 0.000000
0.055116 0.177340 0.000000
0.094667 0.182132 0.000000
0.135241 0.186252 0.000000
0.177630 0.189700 0.000000
0.222080 0.192523 0.000000
0.268498 0.194766 0.000000
0.316594 0.196536 0.000000
0.366369 0.197910 0.000000
0.417456 0.198688 0.003525
0.469566 0.198840 0.010864
0.522362 0.198398 0.019898
0.575418 0.197452 0.030686
0.628275 0.196109 0.043275
0.680507 0.194507 0.057618
0.731807 0.192752 0.072084
0.782742 0.190707 0.086000
0.832868 0.188525 0.099336
0.881346 0.186557 0.111971
0.927276 0.185306 0.123690
0.969650 0.185397 0.134295
1.000000 0.187594 0.143526
1.000000 0.192630 0.151125
1.000000 0.201083 0.156878
1.000000 0.211246 0.161761
1.000000 0.223011 0.165103
1.000000 0.237705 0.163836
1.000000 0.252384 0.162448
1.000000 0.267018 0.160937
0.000000 0.180591 0.000000
0.000000 0.189929 0.000000
0.000000 0.198779 0.000000
0.000000 0.207019 0.000000
0.000000 0.214633 0.000000
0.033585 0.221561 0.000000
0.082902 0.227817 0.000000
0.131426 0.233433 0.000000
0.179583 0.238422 0.000000
0.228565 0.242756 0.000000
0.278538 0.246311 0.000000
0.329580 0.249149 0.000000
0.381613 0.251316 0.000000
0.434470 0.252903 0.000000
0.487938 0.253956 0.001694
0.541680 0.254536 0.011215
0.595392 0.254765 0.022568
0.648722 0.254704 0.035752
0.701274 0.254520 0.050706
0.752697 0.254322 0.066651
0.803525 0.254032 0.081727
0.853452 0.253742 0.095933
0.901793 0.253712 0.109239
0.947738 0.254307 0.121492
0.990372 0.255940 0.132570
1.000000 0.259129 0.142229
1.000000 0.264393 0.150256
1.000000 0.272236 0.156374
1.000000 0.282826 0.159136
1.000000 0.295415 0.157580
1.000000 0.308110 0.155886
1.000000 0.320867 0.154070
1.000000 0.333669 0.152087
0.000000 0.223835 0.000000
0.000000 0.234531 0.000000
0.000000 0.244770 0.000000
0.000000 0.254414 0.000000
0.000000 0.263508 0.000000
0.002564 0.271992 0.000000
0.061189 0.279698 0.000000
0.122728 0.286458 0.000000
0.177859 0.292287 0.000000
0.231418 0.297246 0.000000
0.284855 0.301396 0.000000
0.338659 0.304814 0.000000
0.392889 0.307591 0.000000
0.447501 0.309804 0.000000
0.502266 0.311543 0.000000
0.557015 0.312902 0.000000
0.611444 0.313939 0.008484
0.665278 0.314794 0.022080
0.718181 0.315572 0.037476
0.769818 0.316396 0.054536
0.820645 0.317205 0.071855
0.870436 0.318105 0.087663
0.918593 0.319280 0.102129
0.964446 0.320989 0.115282
1.000000 0.323552 0.127047
1.000000 0.327337 0.137285
1.000000 0.332723 0.145815
1.000000 0.340307 0.151003
1.000000 0.350958 0.149187
1.000000 0.361929 0.147189
1.000000 0.373098 0.145022
1.000000 0.384451 0.142672
1.000000 0.395911 0.141253
0.000000 0.273411 0.000000
0.000000 0.285634 0.000000
0.000000 0.297337 0.000000
0.000000 0.308217 0.000000
0.000000 0.318212 0.000000
0.000000 0.327306 0.000000
0.018799 0.335470 0.000000
0.102937 0.342672 0.000000
0.169375 0.348974 0.000000
0.229252 0.354391 0.000000
0.286931 0.358984 0.000000
0.343832 0.362844 0.000000
0.400443 0.366064 0.000000
0.456840 0.368750 0.000000
0.513024 0.371008 0.000000
0.568811 0.372900 0.000000
0.624018 0.374548 0.000000
0.678401 0.376028 0.001205
0.731655 0.377462 0.016846
0.783551 0.378958 0.034134
0.834455 0.380499 0.053208
0.884138 0.382177 0.072282
0.932113 0.384131 0.088975
0.977737 0.386481 0.103716
1.000000 0.389456 0.116655
1.000000 0.393317 0.127840
1.000000 0.398184 0.137438
1.000000 0.405814 0.137835
1.000000 0.415076 0.135546
1.000000 0.424826 0.132982
1.000000 0.434867 0.130205
1.000000 0.445151 0.127169
1.000000 0.455238 0.133593
0.000000 0.329015 0.000000
0.000000 0.342092 0.000000
0.000000 0.354314 0.000000
0.000000 0.365606 0.000000
0.000000 0.375937 0.000000
0.000000 0.385336 0.000000
0.000000 0.393774 0.000000
0.060197 0.401266 0.000000
0.151659 0.407828 0.000000
0.221286 0.413519 0.000000
0.284611 0.418387 0.000000
0.345281 0.422553 0.000000
0.404562 0.426093 0.000000
0.462959 0.429114 0.000000
0.520623 0.431724 0.000000
0.577523 0.434012 0.000000
0.633539 0.436057 0.000000
0.688472 0.437980 0.000000
0.742107 0.439857 0.000000
0.794293 0.441779 0.005280
0.845228 0.443687 0.024414
0.894636 0.445655 0.045075
0.942168 0.447822 0.066255
0.987335 0.450324 0.084337
1.000000 0.453269 0.099779
1.000000 0.456809 0.113115
1.000000 0.461509 0.121920
1.000000 0.468574 0.119478
1.000000 0.476707 0.116533
1.000000 0.485466 0.113176
1.000000 0.494545 0.109468
1.000000 0.503838 0.108553
1.000000 0.512947 0.121950
0.000000 0.387671 0.000000
0.000000 0.401175 0.000000
0.000000 0.413733 0.000000
0.000000 0.425284 0.000000
0.000000 0.435828 0.000000
0.000000 0.445365 0.000000
0.000000 0.453925 0.000000
0.000000 0.461509 0.000000
0.119463 0.468177 0.000000
0.206455 0.473960 0.000000
0.277714 0.478981 0.000000
0.343114 0.483330 0.000000
0.405570 0.487068 0.000000
0.466209 0.490318 0.000000
0.525505 0.493156 0.000000
0.583581 0.495689 0.000000
0.640406 0.497948 0.000000
0.695781 0.499992 0.000000
0.749569 0.501930 0.000000
0.801846 0.503822 0.000000
0.852659 0.505745 0.000000
0.901762 0.507774 0.007141
0.949157 0.509972 0.028885
0.994812 0.512383 0.051667
1.000000 0.515145 0.073167
1.000000 0.518395 0.090593
1.000000 0.523140 0.096056
1.000000 0.529397 0.092699
1.000000 0.536614 0.088594
1.000000 0.544503 0.083787
1.000000 0.552773 0.078370
1.000000 0.561028 0.089082
1.000000 0.569467 0.104921
0.000000 0.448646 0.000000
0.000000 0.462165 0.000000
0.000000 0.474784 0.000000
0.000000 0.486458 0.000000
0.000000 0.497047 0.000000
0.000000 0.506600 0.000000
0.000000 0.515129 0.000000
0.000000 0.522667 0.000000
0.053239 0.529305 0.000000
0.182696 0.535119 0.000000
0.265904 0.540185 0.000000
0.337484 0.544594 0.000000
0.403754 0.548425 0.000000
0.466896 0.551705 0.000000
0.527825 0.554498 0.000000
0.586938 0.556909 0.000000
0.644358 0.559030 0.000000
0.700084 0.560952 0.000000
0.754116 0.562799 0.000000
0.806531 0.564645 0.000000
0.857359 0.566537 0.000000
0.906798 0.568505 0.000000
0.954757 0.570611 0.000000
1.000000 0.572900 0.005463
1.000000 0.575494 0.029206
1.000000 0.578500 0.053010
1.000000 0.583154 0.053529
1.000000 0.588754 0.048096
1.000000 0.595209 0.041733
1.000000 0.602335 0.034577
1.000000 0.609796 0.032700
1.000000 0.617258 0.058244
1.000000 0.625071 0.079316
0.000000 0.511238 0.000000
0.000000 0.524681 0.000000
0.000000 0.537102 0.000000
0.000000 0.548470 0.000000
0.000000 0.558831 0.000000
0.000000 0.568200 0.000000
0.000000 0.576608 0.000000
0.000000 0.584039 0.000000
0.000000 0.590600 0.000000
0.145434 0.596323 0.000000
0.248569 0.601251 0.000000
0.328206 0.605447 0.000000
0.398886 0.609018 0.000000
0.464729 0.612039 0.000000
0.527413 0.614618 0.000000
0.587671 0.616846 0.000000
0.645838 0.618814 0.000000
0.702068 0.620645 0.000000
0.756481 0.622416 0.000000
0.809323 0.624201 0.000000
0.860761 0.626032 0.000000
0.910765 0.627924 0.000000
0.959243 0.629938 0.000000
1.000000 0.632120 0.000000
1.000000 0.634546 0.000000
1.000000 0.637415 0.000000
1.000000 0.641871 0.000000
1.000000 0.646937 0.000000
1.000000 0.652750 0.000000
1.000000 0.659205 0.000000
1.000000 0.665797 0.000000
1.000000 0.672679 0.013352
1.000000 0.679927 0.038087
0.000000 0.574350 0.000000
0.000000 0.587747 0.000000
0.000000 0.599939 0.000000
0.000000 0.610956 0.000000
0.000000 0.620890 0.000000
0.000000 0.629847 0.000000
0.000000 0.637842 0.000000
0.000000 0.644877 0.000000
0.000000 0.651041 0.000000
0.077440 0.656367 0.000000
0.224048 0.660945 0.000000
0.314946 0.664836 0.000000
0.391165 0.668132 0.000000
0.460258 0.670924 0.000000
0.525002 0.673304 0.000000
0.586603 0.675395 0.000000
0.645670 0.677256 0.000000
0.702586 0.679042 0.000000
0.757702 0.680797 0.000000
0.811215 0.682551 0.000000
0.863218 0.684352 0.000000
0.913756 0.686183 0.000000
0.962737 0.688121 0.000000
1.000000 0.690196 0.000000
1.000000 0.692500 0.000000
1.000000 0.695399 0.000000
1.000000 0.699474 0.000000
1.000000 0.704097 0.000000
1.000000 0.709377 0.000000
1.000000 0.715129 0.000000
1.000000 0.721065 0.000000
1.000000 0.727428 0.000000
1.000000 0.734127 0.000000
0.000000 0.636759 0.000000
0.000000 0.650141 0.000000
0.000000 0.662150 0.000000
0.000000 0.672816 0.000000
0.000000 0.682277 0.000000
0.000000 0.690654 0.000000
0.000000 0.698009 0.000000
0.000000 0.704463 0.000000
0.000000 0.710079 0.000000
0.000000 0.714946 0.000000
0.189487 0.719142 0.000000
0.297795 0.722713 0.000000
0.381140 0.725765 0.000000
0.454139 0.728359 0.000000
0.521279 0.730602 0.000000
0.584421 0.732586 0.000000
0.644541 0.734463 0.000000
0.702327 0.736278 0.000000
0.758175 0.738048 0.000000
0.812314 0.739818 0.000000
0.864881 0.741573 0.000000
0.915908 0.743374 0.000000
0.965347 0.745251 0.000000
1.000000 0.747250 0.000000
1.000000 0.749447 0.000000
1.000000 0.752331 0.000000
1.000000 0.756100 0.000000
1.000000 0.760342 0.000000
1.000000 0.765179 0.000000
1.000000 0.770230 0.000000
1.000000 0.775708 0.000000
1.000000 0.781552 0.000000
1.000000 0.787671 0.000000
0.000000 0.697032 0.000000
0.000000 0.710338 0.000000
0.000000 0.722103 0.000000
0.000000 0.732433 0.000000
0.000000 0.741512 0.000000
0.000000 0.749447 0.000000
0.000000 0.756374 0.000000
0.000000 0.762387 0.000000
0.000000 0.767590 0.000000
0.000000 0.772061 0.000000
0.137407 0.775906 0.000000
0.276417 0.779187 0.000000
0.369162 0.781979 0.000000
0.446891 0.784375 0.000000
0.516655 0.786572 0.000000
0.581415 0.788632 0.000000
0.642710 0.790585 0.000000
0.701411 0.792462 0.000000
0.757992 0.794263 0.000000
0.812741 0.796033 0.000000
0.865843 0.797787 0.000000
0.917342 0.799557 0.000000
0.967208 0.801404 0.000000
1.000000 0.803342 0.000000
1.000000 0.805432 0.000000
1.000000 0.808316 0.000000
1.000000 0.811826 0.000000
1.000000 0.815763 0.000000
1.000000 0.819959 0.000000
1.000000 0.824384 0.000000
1.000000 0.829084 0.000000
1.000000 0.833936 0.000000
1.000000 0.838880 0.000000
0.000000 0.753353 0.000000
0.000000 0.766827 0.000000
0.000000 0.778653 0.000000
0.000000 0.788968 0.000000
0.000000 0.797940 0.000000
0.000000 0.805722 0.000000
0.000000 0.812421 0.000000
0.000000 0.818189 0.000000
0.000000 0.823117 0.000000
0.000000 0.827329 0.000000
0.038636 0.830915 0.000000
0.251865 0.833951 0.000000
0.356191 0.836652 0.000000
0.438743 0.839124 0.000000
0.511223 0.841444 0.000000
0.577768 0.843610 0.000000
0.640345 0.845640 0.000000
0.699992 0.847578 0.000000
0.757305 0.849424 0.000000
0.812680 0.851225 0.000000
0.866285 0.852995 0.000000
0.918212 0.854780 0.000000
0.968475 0.856580 0.000000
1.000000 0.858503 0.000000
1.000000 0.860517 0.000000
1.000000 0.863264 0.000000
1.000000 0.866300 0.000000
1.000000 0.869383 0.000000
1.000000 0.872526 0.000000
1.000000 0.875761 0.000000
1.000000 0.879042 0.000000
1.000000 0.882277 0.000000
1.000000 0.885389 0.000000
0.000000 0.805676 0.000000
0.000000 0.818997 0.000000
0.000000 0.831174 0.000000
0.000000 0.841810 0.000000
0.000000 0.850996 0.000000
0.000000 0.858900 0.000000
0.000000 0.865644 0.000000
0.000000 0.871382 0.000000
0.000000 0.876249 0.000000
0.000000 0.880354 0.000000
0.000000 0.883864 0.000000
0.224826 0.887053 0.000000
0.342336 0.889967 0.000000
0.430121 0.892638 0.000000
0.505486 0.895109 0.000000
0.573892 0.897414 0.000000
0.637751 0.899565 0.000000
0.698329 0.901595 0.000000
0.756390 0.903532 0.000000
0.812329 0.905394 0.000000
0.866423 0.907210 0.000000
0.918715 0.908965 0.000000
0.969192 0.910643 0.000000
1.000000 0.912200 0.000000
1.000000 0.913634 0.000000
1.000000 0.915602 0.000000
1.000000 0.917403 0.000000
1.000000 0.919020 0.000000
1.000000 0.920562 0.000000
1.000000 0.921965 0.000000
1.000000 0.923186 0.000000
1.000000 0.924193 0.000000
1.000000 0.925216 0.000000
0.000000 0.855726 0.000000
0.000000 0.868345 0.000000
0.000000 0.879896 0.000000
0.000000 0.890501 0.000000
0.000000 0.900114 0.000000
0.000000 0.908431 0.000000
0.000000 0.915496 0.000000
0.000000 0.921477 0.000000
0.000000 0.926513 0.000000
0.000000 0.930938 0.000000
0.000000 0.934920 0.000000
0.196445 0.938506 0.000000
0.329274 0.941756 0.000000
0.422232 0.944717 0.000000
0.500343 0.947433 0.000000
0.570459 0.949935 0.000000
0.635492 0.952270 0.000000
0.696925 0.954452 0.000000
0.755550 0.956420 0.000000
0.811795 0.958175 0.000000
0.865888 0.959655 0.000000
0.917922 0.960861 0.000000
0.967895 0.961746 0.000000
1.000000 0.962280 0.000000
1.000000 0.962509 0.000000
1.000000 0.962814 0.000000
1.000000 0.962737 0.000000
1.000000 0.962356 0.000000
1.000000 0.961791 0.000000
1.000000 0.961242 0.000000
1.000000 0.960769 0.000000
1.000000 0.960357 0.000000
1.000000 0.960067 0.000000
0.000000 0.903700 0.000000
0.000000 0.915572 0.000000
0.000000 0.926558 0.000000
0.000000 0.936675 0.000000
0.000000 0.945846 0.000000
0.000000 0.954116 0.000000
0.000000 0.961532 0.000000
0.000000 0.968154 0.000000
0.000000 0.974029 0.000000
0.000000 0.979232 0.000000
0.000000 0.983871 0.000000
0.173388 0.988022 0.000000
0.320058 0.991745 0.000000
0.417044 0.995132 0.000000
0.497154 0.998184 0.000000
0.568383 1.000000 0.000000
0.633982 1.000000 0.000000
0.695537 1.000000 0.000000
0.753933 1.000000 0.000000
0.809659 1.000000 0.000000
0.862959 1.000000 0.000000
0.913985 1.000000 0.000000
0.962722 1.000000 0.000000
1.000000 1.000000 0.000000
1.000000 1.000000 0.000000
1.000000 1.000000 0.000000
1.000000 1.000000 0.000000
1.000000 0.999145 0.000000
1.000000 0.997314 0.000000
1.000000 0.995514 0.000000
1.000000 0.993774 0.000000
1.000000 0.992142 0.000000
1.000000 0.990631 0.000000
0.000000 0.949889 0.000000
0.000000 0.961044 0.000000
0.000000 0.971374 0.000000
0.000000 0.980911 0.000000
0.000000 0.989654 0.000000
0.000000 0.997665 0.000000
0.000000 1.000000 0.000000
0.000000 1.000000 0.000000
0.000000 1.000000 0.000000
0.000000 1.000000 0.000000
0.000000 1.000000 0.000000
0.168719 1.000000 0.000000
0.318837 1.000000 0.000000
0.416449 1.000000 0.000000
0.496513 1.000000 0.000000
0.567315 1.000000 0.000000
0.632181 1.000000 0.000000
0.692775 1.000000 0.000000
0.749966 1.000000 0.000000
0.804273 1.000000 0.000000
0.855955 1.000000 0.000000
0.905165 1.000000 0.000000
0.952178 1.000000 0.000000
0.996918 1.000000 0.000000
1.000000 1.000000 0.000000
1.000000 1.000000 0.000000
1.000000 1.000000 0.000000
1.000000 1.000000 0.000000
1.000000 1.000000 0.000000
1.000000 1.000000 0.000000
1.000000 1.000000 0.000000
1.000000 1.000000 0.000000
1.000000 1.000000 0.000000
0.000000 0.994308 0.000000
0.000000 1.000000 0.000000
0.000000 1.000000 0.000000
0.000000 1.000000 0.000000
0.000000 1.000000 0.000000
0.000000 1.000000 0.000000
0.000000 1.000000 0.000000
0.000000 1.000000 0.000000
0.000000 1.000000 0.000000
0.000000 1.000000 0.000000
0.000000 1.000000 0.000000
0.185290 1.000000 0.000000
0.326162 1.000000 0.000000
0.420264 1.000000 0.000000
0.497719 1.000000 0.000000
0.566217 1.000000 0.000000
0.628870 1.000000 0.000000
0.687236 1.000000 0.000000
0.742275 1.000000 0.000000
0.794705 1.000000 0.000000
0.844892 1.000000 0.000000
0.892897 1.000000 0.000000
0.938735 1.000000 0.000000
0.982300 1.000000 0.000000
1.000000 1.000000 0.000000
1.000000 1.000000 0.000000
1.000000 1.000000 0.000000
1.000000 1.000000 0.000000
1.000000 1.000000 0.000000
1.000000 1.000000 0.000000
1.000000 1.000000 0.000000
1.000000 1.000000 0.000000
1.000000 1.000000 0.000000
0.000000 1.000000 0.000000
0.000000 1.000000 0.000000
0.000000 1.000000 0.000000
0.000000 1.000000 0.000000
0.000000 1.000000 0.000000
0.000000 1.000000 0.000000
0.000000 1.000000 0.000000
0.000000 1.000000 0.000000
0.000000 1.000000 0.000000
0.000000 1.000000 0.000000
0.000000 1.000000 0.000000
0.254337 1.000000 0.000000
0.365087 1.000000 0.000000
0.447349 1.000000 0.000000
0.516762 1.000000 0.000000
0.578973 1.000000 0.000000
0.636500 1.000000 0.000000
0.690608 1.000000 0.000000
0.742123 1.000000 0.000000
0.791485 1.000000 0.000000
0.838819 1.000000 0.000000
0.884184 1.000000 0.000000
0.927520 1.000000 0.000000
0.968780 1.000000 0.000000
1.000000 1.000000 0.000000
1.000000 1.000000 0.000000
1.000000 1.000000 0.000000
1.000000 1.000000 0.000000
1.000000 1.000000 0.000000
1.000000 1.000000 0.000000
1.000000 1.000000 0.000000
1.000000 1.000000 0.000000
1.000000 1.000000 0.089281
0.000000 1.000000 0.000000
0.000000 1.000000 0.000000
0.000000 1.000000 0.000000
0.000000 1.000000 0.000000
0.000000 1.000000 0.000000
0.000000 1.000000 0.000000
0.000000 1.000000 0.000000
0.000000 1.000000 0.000000
0.000000 1.000000 0.000000
0.000000 1.000000 0.000000
0.180209 1.000000 0.000000
0.310933 1.000000 0.000000
0.397635 1.000000 0.000000
0.468437 1.000000 0.000000
0.530755 1.000000 0.000000
0.587747 1.000000 0.000000
0.641138 1.000000 0.000000
0.691997 1.000000 0.000000
0.740749 1.000000 0.000000
0.787610 1.000000 0.000000
0.832670 1.000000 0.000000
0.875929 1.000000 0.000000
0.917296 1.000000 0.000000
0.956695 1.000000 0.000000
0.993988 1.000000 0.000000
1.000000 1.000000 0.000000
1.000000 1.000000 0.000000
1.000000 1.000000 0.000000
1.000000 1.000000 0.000000
1.000000 1.000000 0.000000
