ARRI/ARRI_LogC2Video_709_33.cube
LUT_3D_SIZE 9
0.000000 0.000000 0.000000
0.010178 0.000000 0.000000
0.068177 0.000000 0.000000
0.160403 0.000000 0.000000
0.278218 0.000000 0.000000
0.395804 0.000000 0.000000
0.510918 0.000000 0.000000
0.619867 0.000000 0.000000
0.715297 0.000000 0.000000
0.000000 0.025528 0.000000
0.031510 0.036881 0.000000
0.132250 0.034318 0.000000
0.280491 0.005859 0.000000
0.453620 0.000000 0.000000
0.599649 0.000000 0.000000
0.716197 0.000000 0.000000
0.816678 0.000000 0.000000
0.901198 0.000000 0.000000
0.000000 0.123964 0.000000
0.000000 0.150454 0.000000
0.149737 0.164385 0.000000
0.360830 0.160296 0.000000
0.582071 0.129412 0.000000
0.762509 0.084947 0.000000
0.888197 0.079164 0.000000
0.981155 0.123720 0.000000
1.000000 0.181735 0.000000
0.000000 0.300465 0.000000
0.000000 0.351293 0.000000
0.000000 0.383291 0.000000
0.368780 0.396414 0.000000
0.630732 0.395407 0.000000
0.838331 0.393668 0.000000
0.984573 0.406348 0.000000
1.000000 0.431098 0.000000
1.000000 0.462867 0.000000
0.000000 0.523690 0.000000
0.000000 0.584939 0.000000
0.000000 0.625055 0.000000
0.265309 0.644373 0.000000
0.608087 0.649943 0.000000
0.843656 0.652888 0.000000
1.000000 0.660655 0.000000
1.000000 0.677104 0.000000
1.000000 0.711559 0.000000
0.000000 0.742641 0.000000
0.000000 0.797024 0.000000
0.000000 0.836149 0.000000
0.008896 0.860487 0.000000
0.569314 0.875044 0.000000
0.830182 0.884260 0.000000
1.000000 0.892012 0.000000
1.000000 0.904234 0.000000
1.000000 0.915938 0.000000
0.000000 0.937972 0.000000
0.000000 0.983612 0.000000
0.000000 1.000000 0.000000
0.000000 1.000000 0.000000
0.547997 1.000000 0.000000
0.800519 1.000000 0.000000
0.993545 1.000000 0.000000
1.000000 1.000000 0.000000
1.000000 1.000000 0.034394
0.000000 1.000000 0.000000
0.000000 1.000000 0.000000
0.000000 1.000000 0.000000
0.252506 1.000000 0.000000
0.578515 1.000000 0.000000
0.782528 1.000000 0.000000
0.940963 1.000000 0.000000
1.000000 1.000000 0.134813
1.000000 1.000000 0.403494
0.000000 1.000000 0.294057
0.000000 1.000000 0.222812
0.000000 1.000000 0.095140
0.392676 1.000000 0.000000
0.612650 1.000000 0.000000
0.778042 1.000000 0.164675
0.906447 1.000000 0.349432
0.994842 1.000000 0.498222
1.000000 1.000000 0.631205
0.000000 0.000000 0.003403
0.022248 0.000000 0.016999
0.097841 0.000000 0.031601
0.212055 0.000000 0.038102
0.350439 0.000000 0.034745
0.475227 0.000000 0.028031
0.586206 0.000000 0.023957
0.684657 0.000000 0.025727
0.767788 0.000000 0.036835
0.000000 0.026841 0.025193
0.031022 0.031022 0.031022
0.153994 0.020203 0.027787
0.329519 0.000000 0.013092
0.526055 0.000000 0.000000
0.688365 0.000000 0.000000
0.796109 0.000000 0.007691
0.879866 0.000000 0.037339
0.949630 0.000000 0.084092
0.000000 0.135958 0.018769
0.000000 0.159091 0.000000
0.154421 0.169131 0.000000
0.392370 0.156298 0.000000
0.636515 0.101564 0.000000
0.845899 0.000000 0.000000
0.970809 0.000000 0.000000
1.000000 0.022370 0.036713
1.000000 0.129168 0.135195
0.000000 0.329213 0.000000
0.000000 0.374945 0.000000
0.000000 0.399359 0.000000
0.376776 0.404898 0.000000
0.665309 0.395834 0.000000
0.903578 0.381750 0.000000
1.000000 0.382696 0.000000
1.000000 0.406363 0.000000
1.000000 0.454292 0.151614
0.000000 0.560403 0.000000
0.000000 0.619440 0.000000
0.000000 0.651621 0.000000
0.201373 0.662959 0.000000
0.619303 0.661707 0.000000
0.891463 0.655604 0.000000
1.000000 0.654017 0.000000
1.000000 0.673472 0.000000
1.000000 0.707240 0.124880
0.000000 0.773327 0.000000
0.000000 0.828840 0.000000
0.000000 0.867430 0.000000
0.000000 0.890166 0.000000
0.529854 0.899428 0.000000
0.845716 0.900313 0.000000
1.000000 0.897810 0.000000
1.000000 0.904326 0.000000
1.000000 0.910597 0.128588
0.000000 0.960128 0.000000
0.000000 1.000000 0.000000
0.000000 1.000000 0.000000
0.000000 1.000000 0.000000
0.446860 1.000000 0.000000
0.773404 1.000000 0.000000
0.999847 1.000000 0.000000
1.000000 1.000000 0.000000
1.000000 1.000000 0.286961
0.000000 1.000000 0.218540
0.000000 1.000000 0.137179
0.000000 1.000000 0.000000
0.000000 1.000000 0.000000
0.508064 1.000000 0.000000
0.751232 1.000000 0.000000
0.929793 1.000000 0.000000
1.000000 1.000000 0.322972
1.000000 1.000000 0.508721
0.000000 1.000000 0.410819
0.000000 1.000000 0.353368
0.000000 1.000000 0.286702
0.287724 1.000000 0.235370
0.572732 1.000000 0.248096
0.761257 1.000000 0.343511
0.897673 1.000000 0.465278
0.988113 1.000000 0.590158
1.000000 1.000000 0.709346
0.000000 0.000000 0.025315
0.034150 0.000000 0.065232
0.124071 0.000000 0.103273
0.256764 0.000000 0.131533
0.406104 0.000000 0.141497
0.534997 0.000000 0.138094
0.641276 0.000000 0.132845
0.730022 0.000000 0.132631
0.803754 0.000000 0.141360
0.000000 0.017212 0.086687
0.022568 0.004471 0.120790
0.170596 0.000000 0.147768
0.365103 0.000000 0.162158
0.575357 0.000000 0.160616
0.747799 0.000000 0.155734
0.851591 0.000000 0.162112
0.923445 0.000000 0.182238
0.982452 0.000000 0.212680
0.000000 0.134234 0.128939
0.000000 0.148745 0.143359
0.149966 0.149966 0.149966
0.405951 0.126864 0.150393
0.670024 0.020737 0.145037
0.893309 0.000000 0.149340
1.000000 0.000000 0.178744
1.000000 0.000000 0.228519
1.000000 0.000000 0.281468
0.000000 0.344198 0.122728
0.000000 0.382986 0.097978
0.000000 0.398978 0.076967
0.377447 0.400610 0.060365
0.681559 0.387594 0.040970
0.937743 0.363516 0.069764
1.000000 0.345190 0.133883
1.000000 0.378393 0.229969
1.000000 0.434882 0.317617
0.000000 0.583536 0.026017
0.000000 0.636545 0.000000
0.000000 0.661509 0.000000
0.141787 0.667842 0.000000
0.623178 0.662928 0.000000
0.919509 0.651087 0.000000
1.000000 0.638956 0.000000
1.000000 0.660624 0.151308
1.000000 0.695216 0.319539
0.000000 0.794247 0.035874
0.000000 0.850660 0.000000
0.000000 0.890211 0.000000
0.000000 0.908812 0.000000
0.489509 0.913176 0.000000
0.855116 0.908400 0.000000
1.000000 0.897612 0.000000
1.000000 0.896895 0.000000
1.000000 0.899428 0.324727
0.000000 0.975860 0.232273
0.000000 1.000000 0.079561
0.000000 1.000000 0.000000
0.000000 1.000000 0.000000
0.258793 1.000000 0.000000
0.734035 1.000000 0.000000
1.000000 1.000000 0.000000
1.000000 1.000000 0.097566
1.000000 1.000000 0.425025
0.000000 1.000000 0.407584
0.000000 1.000000 0.360403
0.000000 1.000000 0.272618
0.000000 1.000000 0.117830
0.400809 1.000000 0.000000
0.709102 1.000000 0.000000
0.914900 1.000000 0.246921
1.000000 1.000000 0.440589
1.000000 1.000000 0.600549
0.000000 1.000000 0.517754
0.000000 1.000000 0.470802
0.000000 1.000000 0.422309
0.103944 1.000000 0.390356
0.535149 1.000000 0.404273
0.744137 1.000000 0.469535
0.888579 1.000000 0.563958
0.981552 1.000000 0.672313
1.000000 1.000000 0.779294
0.000000 0.000000 0.072908
0.038575 0.000000 0.137972
0.140856 0.000000 0.202090
0.284428 0.000000 0.248554
0.435248 0.000000 0.265034
0.565774 0.000000 0.261112
0.669337 0.000000 0.250507
0.753185 0.000000 0.243870
0.821561 0.000000 0.245930
0.000000 0.000000 0.179599
0.000000 0.000000 0.249958
0.173495 0.000000 0.304585
0.381430 0.000000 0.336416
0.597208 0.000000 0.344076
0.768490 0.000000 0.332341
0.873365 0.000000 0.320348
0.941726 0.000000 0.321111
1.000000 0.000000 0.335744
0.000000 0.087404 0.270222
0.000000 0.065141 0.321599
0.123323 0.020813 0.350881
0.410712 0.000000 0.370184
0.680858 0.000000 0.378058
0.908919 0.000000 0.376196
1.000000 0.000000 0.378637
1.000000 0.000000 0.394644
1.000000 0.000000 0.422248
0.000000 0.333486 0.323644
0.000000 0.362234 0.351736
0.000000 0.371496 0.362829
0.368978 0.368978 0.368978
0.677562 0.352712 0.373602
0.953201 0.316609 0.377295
1.000000 0.281468 0.391257
1.000000 0.329519 0.425727
1.000000 0.398459 0.473960
0.000000 0.584741 0.335866
0.000000 0.631357 0.331853
0.000000 0.651530 0.325216
0.094118 0.652781 0.328267
0.618936 0.646799 0.332357
0.930449 0.633005 0.330571
1.000000 0.617746 0.350027
1.000000 0.635599 0.401785
1.000000 0.673182 0.490181
0.000000 0.799634 0.363897
0.000000 0.856275 0.322210
0.000000 0.894011 0.266209
0.000000 0.909651 0.223575
0.455207 0.911635 0.197925
0.855741 0.902556 0.202930
1.000000 0.886259 0.259174
1.000000 0.879805 0.356283
1.000000 0.881117 0.490837
0.000000 0.983536 0.443809
0.000000 1.000000 0.398138
0.000000 1.000000 0.305196
0.000000 1.000000 0.157122
0.000000 1.000000 0.000000
0.699046 1.000000 0.000000
0.999985 1.000000 0.168597
1.000000 1.000000 0.377127
1.000000 1.000000 0.551583
0.000000 1.000000 0.555825
0.000000 1.000000 0.520043
0.000000 1.000000 0.457877
0.000000 1.000000 0.375341
0.222721 1.000000 0.304509
0.661784 1.000000 0.315068
0.896590 1.000000 0.416495
1.000000 1.000000 0.549676
1.000000 1.000000 0.685817
0.000000 1.000000 0.624781
0.000000 1.000000 0.588418
0.000000 1.000000 0.551614
0.000000 1.000000 0.528893
0.502861 1.000000 0.538155
0.726467 1.000000 0.579751
0.879179 1.000000 0.653285
0.975341 1.000000 0.746334
1.000000 1.000000 0.840818
0.000000 0.000000 0.134127
0.028107 0.000000 0.225422
0.138689 0.000000 0.308537
0.284962 0.000000 0.364126
0.435996 0.000000 0.385855
0.566491 0.000000 0.380835
0.671305 0.000000 0.365682
0.754803 0.000000 0.352346
0.821775 0.000000 0.347158
0.000000 0.000000 0.289876
0.000000 0.000000 0.392599
0.145602 0.000000 0.471290
0.372854 0.000000 0.515740
0.586328 0.000000 0.522042
0.751049 0.000000 0.497688
0.860807 0.000000 0.469535
0.937072 0.000000 0.453986
1.000000 0.000000 0.455741
0.000000 0.000000 0.424399
0.000000 0.000000 0.511650
0.010758 0.000000 0.569879
0.398306 0.000000 0.597253
0.669368 0.000000 0.600900
0.896590 0.000000 0.588861
1.000000 0.000000 0.569940
1.000000 0.000000 0.558801
1.000000 0.000000 0.563439
0.000000 0.277745 0.511696
0.000000 0.285344 0.573724
0.000000 0.281971 0.605447
0.345251 0.273548 0.612177
0.670008 0.244633 0.618540
0.950408 0.177417 0.621988
1.000000 0.092515 0.619760
1.000000 0.220005 0.623133
1.000000 0.335607 0.637354
0.000000 0.558648 0.543664
0.000000 0.597910 0.582025
0.000000 0.614099 0.599023
0.000000 0.614450 0.604028
0.607630 0.607630 0.607630
0.922942 0.591897 0.610224
1.000000 0.572641 0.613107
1.000000 0.593851 0.631205
1.000000 0.639200 0.670466
0.000000 0.786343 0.566247
0.000000 0.841306 0.575463
0.000000 0.877073 0.573037
0.000000 0.891478 0.567254
0.433570 0.888762 0.568551
0.847272 0.877150 0.573159
1.000000 0.859190 0.577173
1.000000 0.851911 0.607233
1.000000 0.855879 0.667231
0.000000 0.980636 0.618097
0.000000 1.000000 0.607691
0.000000 1.000000 0.571832
0.000000 1.000000 0.530922
0.000000 1.000000 0.496956
0.676814 1.000000 0.489860
0.988128 1.000000 0.529458
1.000000 1.000000 0.603037
1.000000 0.981857 0.691203
0.000000 1.000000 0.694072
0.000000 1.000000 0.672053
0.000000 1.000000 0.629587
0.000000 1.000000 0.573449
0.000000 1.000000 0.531029
0.632731 1.000000 0.544259
0.882078 1.000000 0.599680
1.000000 1.000000 0.680888
1.000000 1.000000 0.776349
0.000000 1.000000 0.734020
0.000000 1.000000 0.708019
0.000000 1.000000 0.681468
0.000000 1.000000 0.665126
0.481605 1.000000 0.664393
0.714931 1.000000 0.689448
0.873167 1.000000 0.744045
0.970489 1.000000 0.818799
1.000000 1.000000 0.896132
0.000000 0.000000 0.198901
0.004440 0.000000 0.304295
0.116716 0.000000 0.398398
0.265843 0.000000 0.462181
0.415061 0.000000 0.488640
0.545892 0.000000 0.485420
0.653178 0.000000 0.468788
0.738705 0.000000 0.451026
0.810224 0.000000 0.441413
0.000000 0.000000 0.384497
0.000000 0.000000 0.511971
0.071138 0.000000 0.609216
0.334966 0.000000 0.656580
0.541176 0.000000 0.657176
0.705364 0.000000 0.630091
0.823056 0.000000 0.595483
0.916579 0.000000 0.574411
0.998581 0.000000 0.568673
0.000000 0.000000 0.553246
0.000000 0.000000 0.678187
0.000000 0.000000 0.756985
0.358968 0.000000 0.792889
0.636332 0.000000 0.794400
0.859709 0.000000 0.773007
1.000000 0.000000 0.737911
1.000000 0.000000 0.710353
1.000000 0.000000 0.698680
0.000000 0.137911 0.666255
0.000000 0.000000 0.767620
0.000000 0.000000 0.821668
0.296574 0.000000 0.845609
0.652445 0.000000 0.852522
0.931197 0.000000 0.847944
1.000000 0.000000 0.835096
1.000000 0.000000 0.814649
1.000000 0.225711 0.797757
0.000000 0.506920 0.714809
0.000000 0.531991 0.789120
0.000000 0.540688 0.831434
0.000000 0.538201 0.850980
0.586526 0.529442 0.852628
0.913130 0.508324 0.856367
1.000000 0.487709 0.855924
1.000000 0.526528 0.850767
1.000000 0.594614 0.850111
0.000000 0.757015 0.737697
0.000000 0.804746 0.784573
0.000000 0.837522 0.817411
0.000000 0.849821 0.832105
0.402533 0.845548 0.834409
0.833005 0.833005 0.833005
1.000000 0.814984 0.828199
1.000000 0.812970 0.826352
1.000000 0.827222 0.839429
0.000000 0.966369 0.777142
0.000000 1.000000 0.797436
0.000000 1.000000 0.801312
0.000000 1.000000 0.789975
0.000000 1.000000 0.770001
0.674556 1.000000 0.765057
0.970947 0.994690 0.775647
1.000000 0.971084 0.794781
1.000000 0.959731 0.832029
0.000000 1.000000 0.826612
0.000000 1.000000 0.820966
0.000000 1.000000 0.799420
0.000000 1.000000 0.766125
0.000000 1.000000 0.742901
0.632471 1.000000 0.745647
0.875349 1.000000 0.771069
1.000000 1.000000 0.814710
1.000000 1.000000 0.871656
0.000000 1.000000 0.842390
0.000000 1.000000 0.825986
0.000000 1.000000 0.808682
0.000000 1.000000 0.794385
0.492744 1.000000 0.788098
0.721630 1.000000 0.801297
0.879164 1.000000 0.840620
0.969955 1.000000 0.893477
1.000000 1.000000 0.946120
0.000000 0.000000 0.267002
0.000000 0.000000 0.377951
0.079240 0.000000 0.475227
0.236790 0.000000 0.542138
0.383902 0.000000 0.571405
0.513863 0.000000 0.570901
0.622492 0.000000 0.554818
0.711192 0.000000 0.535683
0.792798 0.000000 0.527108
0.000000 0.000000 0.462928
0.000000 0.000000 0.589837
0.000000 0.000000 0.685924
0.281758 0.000000 0.736049
0.484276 0.000000 0.743633
0.647654 0.000000 0.723018
0.777508 0.000000 0.696239
0.886290 0.000000 0.678233
0.980591 0.000000 0.670802
0.000000 0.000000 0.643671
0.000000 0.000000 0.773968
0.000000 0.000000 0.871855
0.305501 0.000000 0.921202
0.583459 0.000000 0.924422
0.798489 0.000000 0.902083
0.964096 0.000000 0.868971
1.000000 0.000000 0.838727
1.000000 0.000000 0.819623
0.000000 0.000000 0.775677
0.000000 0.000000 0.894148
0.000000 0.000000 0.981659
0.230610 0.000000 1.000000
0.617060 0.000000 1.000000
0.896300 0.000000 1.000000
1.000000 0.000000 1.000000
1.000000 0.000000 0.977874
1.000000 0.000000 0.937560
0.000000 0.439460 0.843381
0.000000 0.441032 0.940673
0.000000 0.422034 1.000000
0.000000 0.413306 1.000000
0.559350 0.404517 1.000000
0.897566 0.378744 1.000000
1.000000 0.363226 1.000000
1.000000 0.430961 1.000000
1.000000 0.552605 1.000000
0.000000 0.716976 0.879606
0.000000 0.752209 0.954253
0.000000 0.775143 1.000000
0.000000 0.794110 1.000000
0.361624 0.793194 1.000000
0.816526 0.778271 1.000000
1.000000 0.758465 1.000000
1.000000 0.769116 1.000000
1.000000 0.801236 0.981872
0.000000 0.942351 0.919722
0.000000 0.988708 0.965408
0.000000 1.000000 1.000000
0.000000 1.000000 1.000000
0.000000 1.000000 0.996658
0.679469 0.982025 0.972869
0.954528 0.954528 0.954528
1.000000 0.941115 0.944869
1.000000 0.940612 0.944411
0.000000 1.000000 0.950607
0.000000 1.000000 0.959274
0.000000 1.000000 0.956130
0.000000 1.000000 0.941207
0.004044 1.000000 0.921508
0.653712 1.000000 0.908598
0.879545 1.000000 0.910246
0.999161 1.000000 0.924224
1.000000 0.996384 0.945418
0.000000 1.000000 0.944396
0.000000 1.000000 0.934813
0.000000 1.000000 0.922591
0.173526 1.000000 0.909453
0.546075 1.000000 0.899931
0.755642 1.000000 0.903655
0.897963 1.000000 0.923644
0.974411 1.000000 0.952422
1.000000 1.000000 0.981155
0.000000 0.000000 0.339117
0.000000 0.000000 0.450980
0.019593 0.000000 0.545693
0.202930 0.000000 0.608896
0.349355 0.000000 0.636820
0.477272 0.000000 0.637644
0.585916 0.000000 0.622797
0.681498 0.000000 0.608270
0.771588 0.000000 0.603189
0.000000 0.000000 0.535271
0.000000 0.000000 0.649744
0.000000 0.000000 0.734325
0.231830 0.000000 0.782635
0.432410 0.000000 0.797162
0.595041 0.000000 0.788647
0.733181 0.000000 0.775616
0.852277 0.000000 0.765057
0.956741 0.000000 0.760372
0.000000 0.000000 0.710964
0.000000 0.000000 0.825742
0.000000 0.000000 0.915175
0.262593 0.000000 0.966110
0.528252 0.000000 0.985718
0.735653 0.000000 0.981170
0.905089 0.000000 0.962524
1.000000 0.000000 0.941070
1.000000 0.000000 0.919326
0.000000 0.000000 0.850278
0.000000 0.000000 0.958480
0.000000 0.000000 1.000000
0.234119 0.000000 1.000000
0.595819 0.000000 1.000000
0.855863 0.000000 1.000000
1.000000 0.000000 1.000000
1.000000 0.000000 1.000000
1.000000 0.000000 1.000000
0.000000 0.367041 0.935729
0.000000 0.343587 1.000000
0.000000 0.390631 1.000000
0.000000 0.416693 1.000000
0.565667 0.416129 1.000000
0.882200 0.403845 1.000000
1.000000 0.403418 1.000000
1.000000 0.480812 1.000000
1.000000 0.582483 1.000000
0.000000 0.672953 0.993423
0.000000 0.714382 1.000000
0.000000 0.762570 1.000000
0.000000 0.788739 1.000000
0.412345 0.790906 1.000000
0.816602 0.778378 1.000000
1.000000 0.764218 1.000000
1.000000 0.778012 1.000000
1.000000 0.808423 1.000000
0.000000 0.919448 1.000000
0.000000 0.970703 1.000000
0.000000 1.000000 1.000000
0.000000 1.000000 1.000000
0.000000 0.994644 1.000000
0.702144 0.963470 1.000000
0.946960 0.937453 1.000000
1.000000 0.927520 1.000000
1.000000 0.932952 1.000000
0.000000 1.000000 1.000000
0.000000 1.000000 1.000000
0.000000 1.000000 1.000000
0.000000 1.000000 1.000000
0.330755 1.000000 1.000000
0.696605 1.000000 1.000000
0.889998 1.000000 1.000000
0.991455 0.991455 0.991455
1.000000 0.988235 0.988952
0.000000 1.000000 1.000000
0.000000 1.000000 1.000000
0.000000 1.000000 1.000000
0.395819 1.000000 0.999557
0.630350 1.000000 0.986282
0.805173 1.000000 0.977783
0.923278 1.000000 0.978302
0.982528 1.000000 0.986694
0.999466 0.999847 0.996918
0.000000 0.000000 0.412314
0.000000 0.000000 0.520714
0.000000 0.000000 0.607614
0.164645 0.000000 0.662821
0.314488 0.000000 0.687236
0.440497 0.000000 0.687892
0.550240 0.000000 0.676875
0.653117 0.000000 0.670665
0.749264 0.000000 0.670207
0.000000 0.000000 0.601587
0.000000 0.000000 0.701122
0.000000 0.000000 0.773571
0.189685 0.000000 0.816999
0.391516 0.000000 0.834409
0.552758 0.000000 0.839170
0.693843 0.000000 0.838590
0.818952 0.000000 0.836973
0.930129 0.000000 0.837110
0.000000 0.000000 0.766567
0.000000 0.000000 0.863371
0.000000 0.000000 0.936263
0.237781 0.000000 0.986725
0.487388 0.000000 1.000000
0.684688 0.000000 1.000000
0.853727 0.000000 1.000000
0.992874 0.000000 1.000000
1.000000 0.000000 0.994705
0.000000 0.000000 0.905196
0.000000 0.000000 0.996933
0.000000 0.000000 1.000000
0.266545 0.000000 1.000000
0.575158 0.000000 1.000000
0.809003 0.000000 1.000000
0.998276 0.000000 1.000000
1.000000 0.000000 1.000000
1.000000 0.073228 1.000000
0.000000 0.291661 1.000000
0.000000 0.325261 1.000000
0.000000 0.391379 1.000000
0.102235 0.427161 1.000000
0.579416 0.440589 1.000000
0.859159 0.446983 1.000000
1.000000 0.471763 1.000000
1.000000 0.547585 1.000000
1.000000 0.638041 1.000000
0.000000 0.651881 1.000000
0.000000 0.708110 1.000000
0.000000 0.753063 1.000000
0.000000 0.781811 1.000000
0.488563 0.790265 1.000000
0.821286 0.784253 1.000000
1.000000 0.780728 1.000000
1.000000 0.799741 1.000000
1.000000 0.834745 1.000000
0.000000 0.917632 1.000000
0.000000 0.960037 1.000000
0.000000 0.984344 1.000000
0.000000 0.990188 1.000000
0.367620 0.976608 1.000000
0.744381 0.953780 1.000000
0.945769 0.936034 1.000000
1.000000 0.932555 1.000000
1.000000 0.943832 1.000000
0.000000 1.000000 1.000000
0.000000 1.000000 1.000000
0.000000 1.000000 1.000000
0.000000 1.000000 1.000000
0.512917 1.000000 1.000000
0.758404 1.000000 1.000000
0.910826 0.998947 1.000000
0.989502 0.987701 1.000000
1.000000 0.987930 1.000000
0.000000 1.000000 1.000000
0.000000 1.000000 1.000000
0.302312 1.000000 1.000000
0.565423 1.000000 1.000000
0.729671 1.000000 1.000000
0.861326 1.000000 1.000000
0.950561 1.000000 1.000000
0.991531 0.999115 0.998825
1.000000 1.000000 1.000000
