ARRI/ARRI_LogC4-to-Gamma26_P3-D65_v1-33.cube
LUT_3D_SIZE 9
0.00000000 0.00000000 0.00000000
0.02381407 0.00341686 0.00893033
0.21071221 0.01182804 0.05118150
0.60218906 0.03878117 0.12937430
0.94568641 0.02595515 0.20744469
1.00000000 0.46374574 0.39676593
1.00000000 0.74821983 0.68494989
0.99999995 0.96705345 0.95605292
1.00000000 0.99897114 0.99859595
0.00288231 0.02677841 0.01526255
0.03757908 0.04096516 0.00624661
0.24823252 0.02749319 0.03166818
0.62155447 0.02977047 0.12482019
0.95091827 0.02994502 0.20593678
1.00000000 0.46558800 0.39772547
1.00000000 0.74861177 0.68532278
0.99999996 0.96708015 0.95608468
1.00000000 0.99897122 0.99859603
0.01041661 0.21653250 0.09135015
0.00881018 0.24571152 0.08512050
0.35677406 0.36079714 0.00546215
0.69552779 0.27290626 0.08889712
0.97660533 0.05747800 0.19426514
0.99990577 0.47260437 0.40165648
1.00000000 0.75014049 0.68678459
0.99999999 0.96718210 0.95620621
1.00000000 0.99897152 0.99859631
0.01404411 0.56854408 0.21916146
0.01142174 0.58105330 0.22084798
0.09376430 0.64784191 0.11879371
0.67124208 0.67439427 0.05549996
0.99210504 0.50730597 0.25359430
0.99979236 0.50342758 0.41870850
1.00000000 0.75617437 0.69258134
0.99999998 0.96756896 0.95666816
1.00000000 0.99897274 0.99859747
0.00000000 0.90144233 0.29371412
0.00000000 0.90433599 0.29432298
0.00000000 0.91631403 0.30294026
0.17885971 0.96568817 0.13723115
0.88591017 0.90310266 0.11426070
1.00000000 0.73048360 0.55543421
0.99997642 0.78131439 0.71711336
1.00000000 0.96905800 0.95843825
0.99999999 0.99897661 0.99860143
0.74693469 1.00000000 0.70137505
0.74836129 1.00000000 0.70291331
0.75341202 1.00000000 0.70872652
0.77355338 1.00000000 0.73304139
0.86133509 1.00000000 0.80306948
0.97819137 0.98800204 0.72467213
1.00000000 0.91352147 0.84254138
0.99999396 0.97454337 0.96512962
1.00000000 0.99900502 0.99862849
0.90358438 1.00000000 0.87727266
0.90368014 1.00000000 0.87736390
0.90406747 1.00000000 0.87772578
0.90557419 1.00000000 0.87916072
0.91149876 0.99999069 0.88480698
0.94423046 1.00000000 0.91241700
0.99397072 0.99903114 0.94419097
1.00000000 0.99257109 0.98520783
0.99999894 0.99907292 0.99871937
0.98715259 0.99999995 0.98229985
0.98716183 0.99999995 0.98231172
0.98719717 0.99999997 0.98235738
0.98733173 0.99999998 0.98253142
0.98785643 0.99999997 0.98320757
0.98971897 1.00000000 0.98569045
0.99530010 1.00000000 0.99232263
0.99948401 0.99994307 0.99609848
1.00000000 0.99981460 0.99966619
0.99959717 1.00000000 0.99943341
0.99959717 1.00000000 0.99943341
0.99959717 1.00000000 0.99943337
0.99959715 1.00000000 0.99943324
0.99959755 1.00000000 0.99943356
0.99960725 0.99999996 0.99944405
0.99962579 1.00000000 0.99947182
0.99973286 0.99999910 0.99954820
0.99996840 0.99999926 0.99972093
0.00204462 0.00134245 0.01305977
0.03305904 0.00573915 0.02880930
0.22955840 0.01583797 0.09076947
0.61290144 0.04856937 0.15995026
0.94963489 0.02914031 0.21742352
1.00000000 0.46530345 0.39990042
1.00000000 0.74851528 0.68558658
0.99999996 0.96707015 0.95608701
1.00000000 0.99897102 0.99859588
0.00284464 0.03609616 0.03345521
0.06385230 0.06385230 0.06385230
0.29573992 0.02492198 0.09567073
0.63346981 0.06091439 0.15826195
0.95461322 0.04971810 0.21640687
1.00000000 0.46702653 0.40085697
1.00000000 0.74890709 0.68595939
0.99999996 0.96709686 0.95611876
1.00000000 0.99897111 0.99859596
0.01100449 0.23577116 0.11724268
0.00662968 0.28804677 0.12850161
0.36738476 0.36911614 0.05686499
0.70657195 0.28151216 0.14266710
0.97803951 0.11169123 0.20887329
0.99989181 0.47383222 0.40477923
1.00000000 0.75043646 0.68742092
0.99999999 0.96719881 0.95624026
1.00000000 0.99897140 0.99859625
0.01284838 0.57850286 0.22892784
0.01267101 0.59306889 0.23127959
0.09823827 0.65963112 0.13988557
0.67261097 0.67604312 0.10536600
0.99136605 0.51218192 0.26898487
0.99979764 0.50498570 0.42185598
1.00000000 0.75647102 0.69321584
0.99999998 0.96758564 0.95670207
1.00000000 0.99897263 0.99859741
0.00000000 0.90360665 0.29896605
0.00000000 0.90657292 0.29963993
0.00000000 0.91874028 0.30819569
0.19125580 0.96749678 0.15188280
0.88585806 0.90334287 0.12726839
1.00000000 0.73136114 0.55802297
0.99997541 0.78160353 0.71772440
1.00000000 0.96907449 0.95847160
0.99999999 0.99897650 0.99860138
0.74783361 1.00000000 0.70290417
0.74890138 1.00000000 0.70441996
0.75415631 1.00000000 0.71027348
0.77448893 0.99999020 0.73444547
0.86169443 1.00000000 0.80369770
0.97819943 0.98799462 0.72505955
1.00000000 0.91362591 0.84288057
0.99999397 0.97455891 0.96516037
1.00000000 0.99900491 0.99862844
0.90368755 1.00000000 0.87742739
0.90378781 1.00000000 0.87751915
0.90417397 1.00000000 0.87788240
0.90567806 1.00000000 0.87931700
0.91160642 0.99999063 0.88497029
0.94429710 1.00000000 0.91254660
0.99397767 0.99902890 0.94421211
1.00000000 0.99257393 0.98521851
0.99999894 0.99907291 0.99871943
0.98716189 0.99999995 0.98231391
0.98717111 0.99999996 0.98232578
0.98720644 0.99999997 0.98237143
0.98734101 0.99999998 0.98254548
0.98786558 0.99999997 0.98322147
0.98972743 1.00000000 0.98570319
0.99530183 1.00000000 0.99232620
0.99948414 0.99994303 0.99609917
1.00000000 0.99981457 0.99966617
0.99959716 1.00000000 0.99943341
0.99959717 1.00000000 0.99943341
0.99959716 1.00000000 0.99943337
0.99959715 1.00000000 0.99943324
0.99959757 1.00000000 0.99943360
0.99960729 0.99999996 0.99944412
0.99962581 1.00000000 0.99947186
0.99973287 0.99999910 0.99954823
0.99996840 0.99999926 0.99972094
0.00267794 0.05077113 0.14107832
0.05156326 0.01320268 0.20504433
0.32025692 0.02714043 0.28910686
0.65150147 0.04711625 0.33878155
0.96920919 0.06077442 0.31195538
0.99991371 0.47189171 0.41419824
1.00000000 0.74967643 0.68812316
0.99999998 0.96713378 0.95621677
1.00000000 0.99897057 0.99859564
0.00406869 0.08073622 0.17386818
0.04074672 0.04933230 0.25755014
0.35437802 0.02865405 0.32161506
0.67259487 0.06771996 0.34677925
0.97332427 0.09861780 0.31277293
0.99988898 0.47350394 0.41512775
1.00000000 0.75006845 0.68849591
0.99999999 0.96716048 0.95624849
1.00000000 0.99897065 0.99859573
0.00838075 0.31112774 0.29805845
0.00312048 0.33767498 0.32333149
0.35939108 0.35939108 0.35939108
0.71875100 0.30411531 0.37744275
0.98757570 0.19544352 0.31829268
0.99987709 0.48031442 0.41888749
1.00000000 0.75159843 0.68995715
1.00000000 0.96726241 0.95636984
1.00000000 0.99897095 0.99859601
0.03007160 0.60908547 0.36496326
0.04047482 0.62399620 0.37216480
0.16996362 0.67245629 0.36720411
0.66380627 0.67086665 0.40861011
0.97713320 0.55167661 0.39938113
0.99987834 0.51177741 0.43566767
1.00000000 0.75763842 0.69574820
0.99999997 0.96764909 0.95683107
1.00000000 0.99897218 0.99859717
0.00510038 0.90976796 0.35132410
0.00538600 0.91296229 0.35235607
0.00112256 0.92620591 0.35694953
0.22252109 0.97165225 0.24286563
0.88186718 0.90397585 0.26822996
1.00000000 0.73521487 0.56831608
0.99997501 0.78274491 0.72017393
1.00000000 0.96913717 0.95859826
0.99999999 0.99897608 0.99860118
0.75090425 1.00000000 0.70801528
0.75208328 1.00000000 0.70956341
0.75794402 1.00000000 0.71568485
0.77848554 0.99992645 0.73929524
0.86313186 1.00000000 0.80444425
0.97823181 0.98794111 0.72639286
1.00000000 0.91404186 0.84424742
0.99999402 0.97461861 0.96527804
1.00000000 0.99900449 0.99862823
0.90409713 1.00000000 0.87805805
0.90419801 1.00000000 0.87815050
0.90457535 1.00000000 0.87851179
0.90607924 1.00000000 0.87993763
0.91202498 0.99999062 0.88562006
0.94455979 1.00000000 0.91306580
0.99400532 0.99901948 0.94429179
1.00000000 0.99258485 0.98525982
0.99999893 0.99907284 0.99871964
0.98719734 0.99999996 0.98236757
0.98720654 0.99999996 0.98237943
0.98724191 0.99999997 0.98242509
0.98737647 0.99999997 0.98259923
0.98790030 0.99999996 0.98327429
0.98975987 1.00000000 0.98575191
0.99530837 1.00000000 0.99233973
0.99948463 0.99994288 0.99610185
1.00000000 0.99981447 0.99966605
0.99959715 1.00000000 0.99943343
0.99959716 1.00000000 0.99943342
0.99959715 1.00000000 0.99943339
0.99959713 1.00000000 0.99943325
0.99959766 1.00000000 0.99943376
0.99960746 0.99999996 0.99944440
0.99962587 1.00000000 0.99947196
0.99973291 0.99999910 0.99954833
0.99996841 0.99999926 0.99972098
0.00554698 0.20924187 0.51079530
0.00679998 0.17591995 0.57259425
0.32398417 0.12949433 0.63686579
0.67983960 0.03220736 0.61698017
0.98265922 0.09759374 0.53693055
0.99985251 0.50727437 0.51386560
1.00000000 0.75466590 0.69948023
1.00000000 0.96737292 0.95671168
1.00000000 0.99896874 0.99859426
0.00885495 0.22338112 0.52332195
0.01897032 0.20233474 0.57836283
0.32709950 0.16326830 0.64756827
0.68769238 0.06742537 0.62454123
0.98602037 0.11735895 0.53948811
0.99984421 0.50911725 0.51485834
1.00000000 0.75505707 0.69984445
1.00000000 0.96739961 0.95674331
1.00000000 0.99896882 0.99859434
0.02640592 0.33643986 0.56873338
0.04560732 0.33894994 0.59449587
0.31671961 0.33324127 0.66179581
0.70853347 0.24749402 0.64660470
0.99197865 0.23839895 0.55072341
0.99985366 0.51643746 0.51888884
1.00000000 0.75658220 0.70127190
1.00000000 0.96750152 0.95686428
1.00000000 0.99896913 0.99859463
0.05792860 0.64293828 0.61767339
0.09192989 0.64814250 0.62309334
0.27855448 0.65976744 0.63783917
0.64560049 0.64560049 0.64560049
0.95490284 0.59082323 0.63270860
1.00000000 0.54872986 0.53650621
1.00000000 0.76259154 0.70690717
0.99999996 0.96788818 0.95732424
1.00000000 0.99897038 0.99859583
0.14045292 0.90925302 0.56463538
0.15196793 0.91163741 0.56642964
0.20295470 0.92011256 0.57328678
0.48660681 0.92510846 0.59759605
0.86158391 0.88238321 0.66422954
1.00000000 0.76652377 0.66467535
0.99995876 0.78744358 0.73061776
1.00000000 0.96937468 0.95908460
0.99999999 0.99897439 0.99860001
0.75625873 1.00000000 0.73353594
0.75783493 1.00000000 0.73493004
0.76417353 1.00000000 0.74046052
0.78479738 1.00000000 0.76009511
0.86085874 1.00000000 0.80469099
0.97764105 0.98747873 0.73963983
1.00000000 0.91571606 0.84982117
0.99999438 0.97484527 0.96573227
1.00000000 0.99900278 0.99862714
0.90556698 1.00000000 0.88036622
0.90566551 1.00000000 0.88045690
0.90604404 1.00000000 0.88081232
0.90755420 1.00000000 0.88222963
0.91357368 0.99997570 0.88807588
0.94558596 1.00000000 0.91516305
0.99410777 0.99898331 0.94451576
1.00000000 0.99262614 0.98542120
0.99999893 0.99907255 0.99872029
0.98734158 0.99999988 0.98258390
0.98735077 0.99999988 0.98259577
0.98738603 0.99999989 0.98264143
0.98752042 0.99999987 0.98281583
0.98803860 1.00000000 0.98348411
0.98988680 1.00000000 0.98594211
0.99533313 1.00000000 0.99239139
0.99948653 0.99994227 0.99611187
1.00000000 0.99981408 0.99966561
0.99959686 1.00000000 0.99943314
0.99959686 1.00000000 0.99943314
0.99959686 1.00000000 0.99943310
0.99959682 1.00000000 0.99943292
0.99959798 1.00000000 0.99943428
0.99960798 0.99999996 0.99944526
0.99962609 1.00000000 0.99947236
0.99973306 0.99999909 0.99954874
0.99996844 0.99999926 0.99972113
0.01246263 0.33991812 0.84406306
0.01193590 0.33042484 0.86688653
0.15081790 0.31767925 0.91234738
0.54210217 0.36124360 0.90868098
0.93782321 0.11117780 0.84870944
1.00000000 0.53556673 0.67734283
1.00000000 0.77532411 0.76180709
0.99999984 0.96827937 0.95865186
1.00000000 0.99896333 0.99859736
0.01264021 0.34609148 0.84691069
0.01050496 0.33811914 0.86777382
0.15001144 0.32500198 0.91469851
0.54326165 0.36825257 0.91019300
0.93913464 0.11464658 0.84997210
1.00000000 0.53739900 0.67814786
1.00000000 0.77572669 0.76214507
0.99999984 0.96830581 0.95868261
1.00000000 0.99896342 0.99859744
0.00699466 0.36945775 0.86040135
0.03335990 0.36585264 0.87505130
0.15268085 0.35618704 0.92082783
0.54770446 0.39563135 0.91460798
0.94361569 0.16533785 0.85387008
1.00000000 0.54438127 0.68141243
1.00000000 0.77729284 0.76346633
0.99999982 0.96840677 0.95880039
1.00000000 0.99896374 0.99859774
0.23452887 0.58651265 0.89414250
0.25250451 0.58801419 0.89583421
0.30993606 0.59401145 0.89993722
0.58424189 0.61360214 0.89332629
0.93348899 0.48492823 0.85500279
1.00000000 0.57237346 0.69491774
1.00000000 0.78343882 0.76864844
0.99999978 0.96878955 0.95924822
1.00000000 0.99896507 0.99859894
0.59510709 0.86063419 0.83736155
0.59762571 0.86124688 0.83817253
0.60691287 0.86332747 0.84106466
0.67548831 0.86489238 0.84784063
0.85144700 0.85144700 0.85144700
0.99874420 0.79903769 0.81440978
0.99995688 0.80791428 0.78975306
1.00000000 0.97026202 0.96096411
0.99999999 0.99896941 0.99860320
0.72615595 1.00000000 0.80926699
0.72754363 1.00000000 0.80994456
0.73279102 1.00000000 0.81252671
0.75092936 1.00000000 0.82166793
0.82979503 0.99623121 0.84268879
0.96226473 0.97477384 0.85959512
1.00000000 0.92641860 0.88906967
0.99999211 0.97566669 0.96743784
1.00000000 0.99899748 0.99862859
0.92058462 0.99994934 0.90311741
0.92067006 0.99994952 0.90320449
0.92100061 0.99995031 0.90354261
0.92232400 0.99994776 0.90486227
0.92762388 0.99995507 0.91038701
0.95435963 1.00000000 0.93238459
0.99449713 0.99859289 0.94476575
1.00000000 0.99276685 0.98598531
0.99999895 0.99907161 0.99872549
0.98774326 1.00000000 0.98319633
0.98775230 1.00000000 0.98320792
0.98778697 1.00000000 0.98325245
0.98791813 1.00000000 0.98342160
0.98841688 1.00000000 0.98406041
0.99026815 0.99999804 0.98649437
0.99540973 1.00000000 0.99256395
0.99949422 0.99994060 0.99614883
1.00000000 0.99981239 0.99966405
0.99959969 0.99999998 0.99943803
0.99959972 0.99999998 0.99943806
0.99959984 0.99999998 0.99943819
0.99960037 0.99999998 0.99943880
0.99960302 0.99999997 0.99944212
0.99961169 0.99999996 0.99945157
0.99962716 1.00000000 0.99947421
0.99973360 0.99999907 0.99955024
0.99996855 0.99999927 0.99972167
0.30610802 0.55160059 1.00000000
0.31140916 0.55291894 1.00000000
0.32916298 0.55730454 1.00000000
0.39343774 0.57190784 1.00000000
0.72136486 0.60981344 1.00000000
1.00000000 0.58014591 0.91285879
0.99991001 0.80162020 0.85075332
1.00000000 0.97172111 0.96892204
0.99999995 0.99892715 0.99854491
0.30844335 0.55357408 1.00000000
0.31369964 0.55484828 1.00000000
0.33107492 0.55920601 1.00000000
0.39478917 0.57370112 1.00000000
0.72176500 0.61144416 1.00000000
1.00000000 0.58127930 0.91295517
0.99990988 0.80198231 0.85098862
1.00000000 0.97174697 0.96894808
0.99999995 0.99892727 0.99854504
0.31692383 0.56130989 1.00000000
0.32205588 0.56249689 1.00000000
0.33812484 0.56661074 1.00000000
0.40017801 0.58074576 1.00000000
0.72333613 0.61765530 1.00000000
1.00000000 0.58572708 0.91336021
0.99991013 0.80339119 0.85190784
1.00000000 0.97184562 0.96904790
0.99999995 0.99892770 0.99854552
0.34312717 0.58893722 1.00000000
0.34729415 0.58991893 1.00000000
0.36324056 0.59353564 1.00000000
0.42090113 0.60631119 1.00000000
0.72958928 0.64070544 1.00000000
1.00000000 0.60281617 0.91506226
0.99991256 0.80884010 0.85544933
1.00000000 0.97221904 0.96942666
0.99999995 0.99892942 0.99854739
0.57646012 0.79518494 0.99440620
0.57826705 0.79548149 0.99446747
0.58543357 0.79659685 0.99473512
0.61354256 0.80071910 0.99289238
0.79177812 0.81934357 0.98340995
0.99491983 0.74436770 0.93379571
0.99996757 0.82894609 0.86891990
1.00000000 0.97365389 0.97086899
0.99999992 0.99893513 0.99855408
0.83481698 0.96450696 0.94944775
0.83519470 0.96455046 0.94953442
0.83665891 0.96470871 0.94985909
0.84209456 0.96518917 0.95100747
0.87978705 0.96350138 0.95337901
0.95524661 0.95524661 0.95524661
1.00000000 0.93907328 0.94262860
0.99998805 0.97860291 0.97594666
1.00000000 0.99896655 0.99858724
0.93724452 1.00000000 0.95144363
0.93732608 1.00000000 0.95149760
0.93763957 1.00000000 0.95170594
0.93882454 1.00000000 0.95248149
0.94272993 1.00000000 0.95515704
0.95942537 0.99998275 0.96023727
0.99126509 0.99447721 0.96757412
1.00000000 0.99312981 0.98914062
0.99999865 0.99906438 0.99872602
0.99094960 0.99999031 0.98819151
0.99095676 0.99999032 0.98820030
0.99098439 0.99999033 0.98823431
0.99108932 0.99999043 0.98836387
0.99148271 0.99998956 0.98884108
0.99276745 0.99998935 0.99048948
0.99509369 1.00000000 0.99230228
0.99952969 0.99991235 0.99632149
1.00000000 0.99980636 0.99965442
0.99961486 1.00000000 0.99945826
0.99961489 1.00000000 0.99945830
0.99961500 1.00000000 0.99945843
0.99961541 1.00000000 0.99945890
0.99961693 1.00000000 0.99946080
0.99962331 1.00000000 0.99946731
0.99963342 0.99999970 0.99948363
0.99973547 0.99999862 0.99955684
0.99996896 0.99999916 0.99972343
0.72972674 0.84195910 0.99999446
0.73023969 0.84214876 0.99999839
0.73222201 0.84288476 1.00000000
0.73964610 0.84561880 1.00000000
0.76707046 0.85551421 0.99989385
0.90765012 0.87647826 1.00000000
1.00000000 0.88847862 0.96478331
0.99998701 0.98120867 0.98557973
1.00000000 0.99868403 0.99853159
0.73010717 0.84222456 0.99999509
0.73062017 0.84241422 0.99999840
0.73259907 0.84314879 1.00000000
0.74001142 0.84587761 1.00000000
0.76738641 0.85575318 0.99989394
0.90774319 0.87668277 1.00000000
1.00000000 0.88860604 0.96482283
0.99998702 0.98122562 0.98559207
1.00000000 0.99868423 0.99853179
0.73157888 0.84324316 0.99999794
0.73209188 0.84343251 0.99999929
0.73405421 0.84416270 1.00000000
0.74141947 0.84687060 1.00000000
0.76861205 0.85667167 0.99989437
0.90810483 0.87746964 1.00000000
1.00000000 0.88910013 0.96497588
0.99998707 0.98129066 0.98563956
1.00000000 0.99868498 0.99853255
0.73723581 0.84715882 0.99999274
0.73772842 0.84734364 0.99999260
0.73961781 0.84805371 0.99999266
0.74678077 0.85067947 0.99999412
0.77324016 0.86019629 0.99989206
0.90946230 0.88048042 1.00000000
1.00000000 0.89097722 0.96555845
0.99998729 0.98153560 0.98581856
1.00000000 0.99868787 0.99853547
0.75561292 0.85982635 0.99999222
0.75606271 0.85999201 0.99999241
0.75780379 0.86063213 0.99999220
0.76441643 0.86301330 1.00000000
0.78914806 0.87159025 1.00000000
0.91429015 0.89030458 1.00000000
1.00000000 0.89771493 0.96774550
0.99998746 0.98245244 0.98648210
1.00000000 0.99869839 0.99854640
0.86926148 0.94052763 1.00000000
0.86945128 0.94057915 1.00000000
0.87018741 0.94077814 0.99998789
0.87299934 0.94151807 0.99993136
0.88344346 0.94412538 0.99960530
0.94246214 0.95238139 0.99742886
0.99952431 0.94077168 0.98152305
0.99999340 0.98521692 0.98854605
1.00000000 0.99874723 0.99859375
0.95971135 0.99186547 0.98795124
0.95974370 0.99186767 0.98795818
0.95986819 0.99187596 0.98798481
0.96033855 0.99190557 0.98808371
0.96199445 0.99199902 0.98843123
0.97117823 0.99154237 0.98920394
0.98977052 0.98977052 0.98977052
1.00000000 0.99369870 0.99396894
0.99999792 0.99890865 0.99876708
0.99020585 1.00000000 0.99192761
0.99021153 1.00000000 0.99193192
0.99023355 1.00000000 0.99194870
0.99031681 1.00000000 0.99201219
0.99063002 1.00000000 0.99224844
0.99166873 1.00000000 0.99306727
0.99498069 0.99999302 0.99492712
0.99953558 0.99972072 0.99729228
1.00000000 0.99970941 0.99955644
0.99966677 0.99999798 0.99952189
0.99966675 0.99999798 0.99952189
0.99966662 0.99999798 0.99952182
0.99966615 0.99999799 0.99952159
0.99966419 0.99999803 0.99952059
0.99965671 0.99999798 0.99951501
0.99964844 0.99999701 0.99952142
0.99974494 0.99999821 0.99960156
0.99997214 1.00000000 0.99974430
0.97764132 0.98778929 0.99999638
0.97765840 0.98779653 0.99999634
0.97772248 0.98782371 0.99999616
0.97796279 0.98792616 0.99999551
0.97888421 0.98829563 0.99999645
0.98136759 0.98953270 0.99995004
0.99317551 0.99132434 1.00000000
1.00000000 0.99484194 0.99830045
0.99999839 0.99880858 0.99909754
0.97765606 0.98779780 0.99999635
0.97767313 0.98780504 0.99999631
0.97773717 0.98783219 0.99999613
0.97797729 0.98793455 0.99999548
0.97889790 0.98830370 0.99999642
0.98137936 0.98953944 0.99995008
0.99317794 0.99132880 1.00000000
1.00000000 0.99484315 0.99830091
0.99999839 0.99880875 0.99909766
0.97771149 0.98782975 0.99999624
0.97772849 0.98783696 0.99999620
0.97779237 0.98786402 0.99999602
0.97803178 0.98796605 0.99999536
0.97894927 0.98833399 0.99999630
0.98142420 0.98956476 0.99995024
0.99318725 0.99134545 1.00000000
1.00000000 0.99484772 0.99830264
0.99999839 0.99880942 0.99909812
0.97791746 0.98794776 0.99999582
0.97793431 0.98795489 0.99999577
0.97799757 0.98798165 0.99999561
0.97823460 0.98808256 0.99999500
0.97914158 0.98844603 0.99999609
0.98159253 0.98965875 0.99995098
0.99322220 0.99140775 1.00000000
1.00000000 0.99486502 0.99830916
0.99999839 0.99881197 0.99909988
0.97872440 0.98842301 0.99999529
0.97874041 0.98842969 0.99999524
0.97880041 0.98845471 0.99999506
0.97902572 0.98854933 0.99999428
0.97987876 0.98889184 0.99999327
0.98221353 0.99003338 0.99995213
0.99334814 0.99164916 1.00000000
1.00000000 0.99492978 0.99833387
0.99999839 0.99882161 0.99910652
0.98062589 0.98945535 0.99999223
0.98064044 0.98946130 0.99999222
0.98069560 0.98948391 0.99999223
0.98090271 0.98956886 0.99999224
0.98167203 0.98987658 0.99999406
0.98394507 0.99086651 0.99999545
0.99373863 0.99218105 0.99995444
1.00000000 0.99513539 0.99841423
0.99999843 0.99885837 0.99913157
0.98826061 0.99474565 0.99972576
0.98826596 0.99474731 0.99972580
0.98828645 0.99475370 0.99972592
0.98836372 0.99477769 0.99972640
0.98865410 0.99486453 0.99972856
0.98956309 0.99513112 0.99974148
0.99425441 0.99531965 0.99967730
1.00000000 0.99610050 0.99881037
0.99999713 0.99896936 0.99920833
0.99516602 0.99952118 0.99904948
0.99516715 0.99952139 0.99904983
0.99517150 0.99952220 0.99905117
0.99518797 0.99952526 0.99905623
0.99524977 0.99953605 0.99907497
0.99546558 0.99957218 0.99913951
0.99647013 0.99960095 0.99929528
0.99941240 0.99941240 0.99941240
1.00000000 0.99953954 0.99956026
0.99978052 1.00000000 0.99976482
0.99978053 1.00000000 0.99976483
0.99978053 1.00000000 0.99976487
0.99978056 1.00000000 0.99976503
0.99978067 1.00000000 0.99976562
0.99978173 1.00000000 0.99976790
0.99978586 0.99999960 0.99977983
0.99983132 1.00000000 0.99981643
0.99998339 1.00000000 0.99987266
0.99833028 0.99910734 1.00000000
0.99833052 0.99910742 1.00000000
0.99833144 0.99910773 1.00000000
0.99833505 0.99910891 1.00000000
0.99834667 0.99911316 1.00000000
0.99840589 0.99912857 1.00000000
0.99851041 0.99917740 0.99999801
0.99943420 0.99918800 1.00000000
1.00000000 0.99944264 0.99981963
0.99833047 0.99910745 1.00000000
0.99833070 0.99910753 1.00000000
0.99833162 0.99910784 1.00000000
0.99833523 0.99910902 1.00000000
0.99834685 0.99911327 1.00000000
0.99840605 0.99912867 1.00000000
0.99851055 0.99917749 0.99999801
0.99943423 0.99918808 1.00000000
1.00000000 0.99944267 0.99981965
0.99833118 0.99910788 1.00000000
0.99833141 0.99910796 1.00000000
0.99833233 0.99910827 1.00000000
0.99833594 0.99910945 1.00000000
0.99834756 0.99911369 1.00000000
0.99840666 0.99912908 1.00000000
0.99851110 0.99917786 0.99999801
0.99943434 0.99918841 1.00000000
1.00000000 0.99944280 0.99981969
0.99833399 0.99910960 1.00000000
0.99833422 0.99910968 1.00000000
0.99833514 0.99910999 1.00000000
0.99833872 0.99911116 1.00000000
0.99835031 0.99911537 1.00000000
0.99840898 0.99913066 1.00000000
0.99851318 0.99917930 0.99999800
0.99943478 0.99918968 1.00000000
1.00000000 0.99944326 0.99981986
0.99834288 0.99911479 1.00000000
0.99834311 0.99911487 1.00000000
0.99834403 0.99911518 1.00000000
0.99834757 0.99911635 1.00000000
0.99835929 0.99912060 1.00000000
0.99841716 0.99913571 1.00000000
0.99852104 0.99918423 0.99999795
0.99943637 0.99919432 1.00000000
1.00000000 0.99944502 0.99982053
0.99838609 0.99914253 1.00000000
0.99838630 0.99914259 1.00000000
0.99838713 0.99914286 1.00000000
0.99839030 0.99914386 1.00000000
0.99840136 0.99914752 1.00000000
0.99845269 0.99916065 1.00000000
0.99855012 0.99920636 0.99999760
0.99944168 0.99921170 1.00000000
1.00000000 0.99945154 0.99982300
0.99849795 0.99919683 0.99999830
0.99849813 0.99919689 0.99999830
0.99849882 0.99919711 0.99999830
0.99850145 0.99919795 0.99999830
0.99851117 0.99920112 0.99999830
0.99855128 0.99921257 0.99999808
0.99864914 0.99925480 0.99999686
0.99946078 0.99926056 1.00000000
1.00000000 0.99947473 0.99983157
0.99886491 0.99952639 1.00000000
0.99886503 0.99952642 1.00000000
0.99886546 0.99952652 1.00000000
0.99886723 0.99952697 1.00000000
0.99887365 0.99952855 1.00000000
0.99889766 0.99953403 1.00000000
0.99896987 0.99955353 1.00000000
0.99946061 0.99955765 1.00000000
1.00000000 0.99959488 0.99988624
0.99961370 1.00000000 0.99996710
0.99961372 1.00000000 0.99996711
0.99961381 1.00000000 0.99996712
0.99961416 1.00000000 0.99996715
0.99961549 1.00000000 0.99996727
0.99962049 1.00000000 0.99996770
0.99963671 1.00000000 0.99996924
0.99973523 0.99999879 0.99997899
1.00000000 1.00000000 1.00000000
