ARRI/ARRI_LogC4-to-Gamma24_Rec2020-D65_v1-33.cube
LUT_3D_SIZE 9
0.00000000 0.00000000 0.00000000
0.01655001 0.00230384 0.00487883
0.17580490 0.00481220 0.01456264
0.54284255 0.07655324 0.04317956
0.89679427 0.02388596 0.05679012
1.00000000 0.42891803 0.30235623
1.00000000 0.73854409 0.63560138
1.00000000 0.96643067 0.94877754
0.99999990 0.99892858 0.99831675
0.00216890 0.02030258 0.00775894
0.02977441 0.03182655 0.00318325
0.20117251 0.05373311 0.00212586
0.55628373 0.10143433 0.03952616
0.89907286 0.05102405 0.06142443
1.00000000 0.43071841 0.30349981
1.00000000 0.73896636 0.63602290
1.00000000 0.96645832 0.94881417
0.99999989 0.99892866 0.99831683
0.00859513 0.19537762 0.01699314
0.05713245 0.22117547 0.00421950
0.32088272 0.32817073 0.00628562
0.60623652 0.29203639 0.07546963
0.90906412 0.16768107 0.08069106
1.00000000 0.43756963 0.30801344
1.00000000 0.74061652 0.63765876
1.00000000 0.96656369 0.94895444
0.99999988 0.99892894 0.99831710
0.09069136 0.55369763 0.02302220
0.11377308 0.56585644 0.02758113
0.27529323 0.62007349 0.03189523
0.63415816 0.64865943 0.06933085
0.92339308 0.50344171 0.19775235
1.00000000 0.47685216 0.33073177
1.00000000 0.74704113 0.64410256
0.99999981 0.96696357 0.94948818
0.99999991 0.99893012 0.99831818
0.26000622 0.90306700 0.00000000
0.26113565 0.90611696 0.00018467
0.26270221 0.91953210 0.00164642
0.44582346 0.95382315 0.01989427
0.86357741 0.89159615 0.14670341
1.00000000 0.72437248 0.47380759
0.99997120 0.77395866 0.67193696
1.00000000 0.96850088 0.95152592
0.99999997 0.99893379 0.99832189
0.76148973 1.00000000 0.65084248
0.76282472 1.00000000 0.65253593
0.76835356 1.00000000 0.65944088
0.78728980 1.00000000 0.68520069
0.87055724 1.00000000 0.76681500
0.97627947 0.98919076 0.66095851
1.00000000 0.91226906 0.80794934
0.99999340 0.97416439 0.95930285
1.00000000 0.99896228 0.99834880
0.90888107 1.00000000 0.85455971
0.90896953 1.00000000 0.85466941
0.90931065 1.00000000 0.85509609
0.91071603 1.00000000 0.85683168
0.91634629 0.99999025 0.86372877
0.94717647 1.00000000 0.89740979
0.99316394 0.99948727 0.93223245
1.00000000 0.99280622 0.98216786
0.99999852 0.99902845 0.99845026
0.98787524 0.99999996 0.97917626
0.98788389 0.99999996 0.97919017
0.98791712 0.99999997 0.97924374
0.98804344 0.99999998 0.97944772
0.98853617 0.99999994 0.98024055
0.99029322 1.00000000 0.98315863
0.99556700 0.99999993 0.99101027
0.99940006 0.99993548 0.99562249
1.00000000 0.99980177 0.99954169
0.99961809 1.00000000 0.99933075
0.99961809 1.00000000 0.99933074
0.99961808 1.00000000 0.99933069
0.99961804 1.00000000 0.99933049
0.99961831 1.00000000 0.99933069
0.99962694 0.99999996 0.99934210
0.99964353 1.00000000 0.99937366
0.99974518 0.99999894 0.99946694
0.99996262 1.00000000 0.99966887
0.00276946 0.00160400 0.00882250
0.02352420 0.00391199 0.02193538
0.19339192 0.00704849 0.06377489
0.55287213 0.08326844 0.09465649
0.89835743 0.04552013 0.09029299
1.00000000 0.43042223 0.30600758
1.00000000 0.73883728 0.63635995
1.00000000 0.96644822 0.94882094
0.99999989 0.99892845 0.99831669
0.00167343 0.02786892 0.02586668
0.05077009 0.05077009 0.05077009
0.25032501 0.03053857 0.06363076
0.56825716 0.10964138 0.09541886
0.90120469 0.08256481 0.09218234
1.00000000 0.43200144 0.30718348
1.00000000 0.73926454 0.63677987
1.00000000 0.96647583 0.94885756
0.99999989 0.99892853 0.99831677
0.00293208 0.21448588 0.06029046
0.02822261 0.26518220 0.05355432
0.33287286 0.33713163 0.05489590
0.61710931 0.29916477 0.12222644
0.91194898 0.17660066 0.10496589
1.00000000 0.43925106 0.31182447
1.00000000 0.74091448 0.63841614
1.00000000 0.96658117 0.94899779
0.99999987 0.99892881 0.99831704
0.04679843 0.56563652 0.03602019
0.08620344 0.58007835 0.04186817
0.27416839 0.63294625 0.05828808
0.63593332 0.65044744 0.11478833
0.92473044 0.50743127 0.21209648
1.00000000 0.47839815 0.33440789
1.00000000 0.74733916 0.64485776
0.99999982 0.96698103 0.94953134
0.99999991 0.99893000 0.99831811
0.25177368 0.90633843 0.00000000
0.25301195 0.90946727 0.00000000
0.25449024 0.92317404 0.00000000
0.44558596 0.95608475 0.03503587
0.86376942 0.89179242 0.16009836
1.00000000 0.72535315 0.47719580
0.99997127 0.77424726 0.67266218
1.00000000 0.96851817 0.95156832
0.99999997 0.99893367 0.99832184
0.76225485 1.00000000 0.65257433
0.76360839 1.00000000 0.65429513
0.76922643 1.00000000 0.66126436
0.78822277 1.00000000 0.68677280
0.87088471 1.00000000 0.76751706
0.97628872 0.98918500 0.66151707
1.00000000 0.91237836 0.80839143
0.99999343 0.97418057 0.95934159
1.00000000 0.99896217 0.99834876
0.90897972 1.00000000 0.85474219
0.90906815 1.00000000 0.85485190
0.90940836 1.00000000 0.85527909
0.91081552 1.00000000 0.85702053
0.91644855 0.99999020 0.86392396
0.94724070 1.00000000 0.89756466
0.99317130 0.99948463 0.93226105
1.00000000 0.99280901 0.98218200
0.99999852 0.99902844 0.99845035
0.98788396 0.99999996 0.97919274
0.98789261 0.99999996 0.97920666
0.98792585 0.99999998 0.97926023
0.98805217 0.99999998 0.97946419
0.98854482 0.99999994 0.98025688
0.99030125 1.00000000 0.98317362
0.99556874 0.99999996 0.99101451
0.99940020 0.99993545 0.99562320
1.00000000 0.99980175 0.99954167
0.99961808 1.00000000 0.99933075
0.99961808 1.00000000 0.99933074
0.99961807 1.00000000 0.99933069
0.99961804 1.00000000 0.99933049
0.99961833 1.00000000 0.99933072
0.99962697 0.99999996 0.99934218
0.99964355 1.00000000 0.99937370
0.99974519 0.99999894 0.99946698
0.99996262 1.00000000 0.99966889
0.03385217 0.00540205 0.14506717
0.06177311 0.00671130 0.18598476
0.27659852 0.00918095 0.27514924
0.58656700 0.11409686 0.29986418
0.89824991 0.18952329 0.24298933
1.00000000 0.43651494 0.32381681
1.00000000 0.73998686 0.63935753
1.00000000 0.96651512 0.94898648
0.99999988 0.99892797 0.99831648
0.03384572 0.00921620 0.20587293
0.07166290 0.02059646 0.25441697
0.30681270 0.02729413 0.30702084
0.60098801 0.14314264 0.30892295
0.90146397 0.20073665 0.24463828
1.00000000 0.43852687 0.32494774
1.00000000 0.74041060 0.63977611
1.00000000 0.96654269 0.94902304
0.99999988 0.99892804 0.99831656
0.00000000 0.29062067 0.28158243
0.01639344 0.31575102 0.30915028
0.33001314 0.33001314 0.33001314
0.63198701 0.31963359 0.34623765
0.91314949 0.25072778 0.25407604
1.00000000 0.44698810 0.32953171
1.00000000 0.74205864 0.64141673
1.00000000 0.96664792 0.94916310
0.99999987 0.99892833 0.99831683
0.12803610 0.59615296 0.28527964
0.16380186 0.60996636 0.29554467
0.32270821 0.64294577 0.32806633
0.63252267 0.64525862 0.38825037
0.91358742 0.54772985 0.35336143
1.00000000 0.48511081 0.35053163
1.00000000 0.74850480 0.64787293
0.99999976 0.96704748 0.94969560
0.99999992 0.99892952 0.99831790
0.09733073 0.92247065 0.07277665
0.09880669 0.92589715 0.07317473
0.11662219 0.94011057 0.07429551
0.44172636 0.96148920 0.14803776
0.86165210 0.89210920 0.26829044
1.00000000 0.72968064 0.49102504
0.99996586 0.77538736 0.67558135
1.00000000 0.96858382 0.95172941
0.99999998 0.99893322 0.99832167
0.76791939 1.00000000 0.65814307
0.76930172 1.00000000 0.65992779
0.77431106 1.00000000 0.66673951
0.79217959 0.99992273 0.69179534
0.87216819 1.00000000 0.76875518
0.97632626 0.98913289 0.66363203
1.00000000 0.91281419 0.81018152
0.99999350 0.97424271 0.95948953
1.00000000 0.99896171 0.99834859
0.90933690 1.00000000 0.85547517
0.90942547 1.00000000 0.85558497
0.90977140 1.00000000 0.85601659
0.91119927 1.00000000 0.85777171
0.91684702 0.99999012 0.86470089
0.94749358 1.00000000 0.89819105
0.99320175 0.99947366 0.93236657
1.00000000 0.99281978 0.98223648
0.99999852 0.99902836 0.99845071
0.98791743 0.99999996 0.97925578
0.98792608 0.99999997 0.97926969
0.98795932 0.99999998 0.97932324
0.98808557 0.99999997 0.97952712
0.98857764 0.99999993 0.98031892
0.99033203 1.00000000 0.98323083
0.99557530 1.00000000 0.99103041
0.99940076 0.99993532 0.99562588
1.00000000 0.99980164 0.99954158
0.99961806 1.00000000 0.99933075
0.99961807 1.00000000 0.99933074
0.99961805 1.00000000 0.99933069
0.99961801 1.00000000 0.99933049
0.99961841 1.00000000 0.99933089
0.99962712 0.99999996 0.99934249
0.99964361 1.00000000 0.99937383
0.99974523 0.99999894 0.99946711
0.99996263 1.00000000 0.99966893
0.14411102 0.11003316 0.57794973
0.16077866 0.12336782 0.59010929
0.30231847 0.15870964 0.61012363
0.61119648 0.14703786 0.60438666
0.90549252 0.24328395 0.49988086
1.00000000 0.47859610 0.45025222
1.00000000 0.74500422 0.65304422
0.99999971 0.96676843 0.94962069
0.99999989 0.99892593 0.99831499
0.14857946 0.13787052 0.59011164
0.16513316 0.14799461 0.60224562
0.30765714 0.17802183 0.62020386
0.61670110 0.16346525 0.60962169
0.90829674 0.25273208 0.50258031
1.00000000 0.48090176 0.45142759
1.00000000 0.74541983 0.65344543
0.99999975 0.96679599 0.94965710
0.99999990 0.99892601 0.99831506
0.17120914 0.28965835 0.61116343
0.18875751 0.29601449 0.62056649
0.32564993 0.31204141 0.63511470
0.63039183 0.28345434 0.62086929
0.91660588 0.29565665 0.51433741
1.00000000 0.48993336 0.45613913
1.00000000 0.74704103 0.65501925
0.99999975 0.96690116 0.94979648
0.99999991 0.99892630 0.99831534
0.32973471 0.61065867 0.59704117
0.33937401 0.61531243 0.60228124
0.39956587 0.62592088 0.61569664
0.62248301 0.62248301 0.62248301
0.89145428 0.58907927 0.60684493
1.00000000 0.52722343 0.47633797
0.99999561 0.75342623 0.66125947
0.99999969 0.96730034 0.95032677
0.99999995 0.99892752 0.99831645
0.43583557 0.89051037 0.52622240
0.44124368 0.89273368 0.52888599
0.46199760 0.90058402 0.53888395
0.60055233 0.90339063 0.57819867
0.84637018 0.86973643 0.64874312
0.99977002 0.76402628 0.61541846
0.99994830 0.78000099 0.68798115
1.00000000 0.96883447 0.95235088
0.99999998 0.99893136 0.99832045
0.77133720 1.00000000 0.68483163
0.77289451 1.00000000 0.68647668
0.77868732 1.00000000 0.69286369
0.79833108 1.00000000 0.71530814
0.87059950 1.00000000 0.77050464
0.97442110 0.98816781 0.69181337
1.00000000 0.91458279 0.81735161
0.99999377 0.97447896 0.96006451
1.00000000 0.99895987 0.99834754
0.91076993 0.99999800 0.85826887
0.91086020 0.99999816 0.85838040
0.91121376 0.99999881 0.85881775
0.91263811 0.99999914 0.86055845
0.91833089 0.99996979 0.86765283
0.94848922 1.00000000 0.90062402
0.99329782 0.99942857 0.93268866
1.00000000 0.99286055 0.98245086
0.99999851 0.99902805 0.99845185
0.98805283 0.99999988 0.97950908
0.98806146 0.99999988 0.97952299
0.98809459 0.99999988 0.97957648
0.98822083 0.99999986 0.97978083
0.98870824 1.00000000 0.98056532
0.99045246 1.00000000 0.98345492
0.99560019 1.00000000 0.99109252
0.99940290 0.99993483 0.99563588
1.00000000 0.99980124 0.99954122
0.99961777 1.00000000 0.99933036
0.99961777 1.00000000 0.99933036
0.99961775 1.00000000 0.99933030
0.99961769 1.00000000 0.99933006
0.99961867 1.00000000 0.99933144
0.99962757 0.99999996 0.99934344
0.99964381 1.00000000 0.99937429
0.99974539 0.99999893 0.99946761
0.99996266 1.00000000 0.99966911
0.25771789 0.28623097 0.88987030
0.26445174 0.28974737 0.89195771
0.29358240 0.30518319 0.89860830
0.51702281 0.35837629 0.89514882
0.85142715 0.26974536 0.83531630
1.00000000 0.50562032 0.66468670
0.99990570 0.76745550 0.73264998
1.00000000 0.96771100 0.95210331
0.99999998 0.99892011 0.99832072
0.25970308 0.29333564 0.89212060
0.26639809 0.29657590 0.89459752
0.29547335 0.31176231 0.90104821
0.51893942 0.36435537 0.89689433
0.85280731 0.27516827 0.83657330
1.00000000 0.50791175 0.66552371
0.99990710 0.76787850 0.73301838
1.00000000 0.96773833 0.95213855
0.99999999 0.99892019 0.99832080
0.26764867 0.32261229 0.89880223
0.27421240 0.32519018 0.90227668
0.30322297 0.33891678 0.90872536
0.52639777 0.38875643 0.90195213
0.85781724 0.29820599 0.84082854
1.00000000 0.51698660 0.66886907
0.99991977 0.76952267 0.73445545
1.00000000 0.96784265 0.95227369
0.99999999 0.99892051 0.99832107
0.39581604 0.55783895 0.88158392
0.40063144 0.55957246 0.88339608
0.42095024 0.56629304 0.88790911
0.58806501 0.59314697 0.88145212
0.86317048 0.50114511 0.84245255
1.00000000 0.55174523 0.68291928
0.99994656 0.77596801 0.74007016
1.00000000 0.96823821 0.95278786
1.00000000 0.99892180 0.99832218
0.65236196 0.83912748 0.82617222
0.65428664 0.83983581 0.82702677
0.66154997 0.84228329 0.83007583
0.70967439 0.84615974 0.83711040
0.84011246 0.84011246 0.84011246
0.98813273 0.79743951 0.80344129
1.00000000 0.80164763 0.76299223
1.00000000 0.96976024 0.95475595
0.99999997 0.99892598 0.99832619
0.76454643 0.99815107 0.78501755
0.76558167 0.99818389 0.78575490
0.76967457 0.99829785 0.78862619
0.78486129 0.99867789 0.79921629
0.85057270 0.99318313 0.82506849
0.95684498 0.97152341 0.84940221
1.00000000 0.92617405 0.86967358
0.99998808 0.97533207 0.96222544
1.00000000 0.99895424 0.99835117
0.92498904 0.99994902 0.88558434
0.92507176 0.99994927 0.88569043
0.92539108 0.99995030 0.88610254
0.92665959 0.99994827 0.88770886
0.93171078 0.99997238 0.89433235
0.95689184 1.00000000 0.92036251
0.99363936 0.99901216 0.93450964
1.00000000 0.99300072 0.98318861
0.99999847 0.99902701 0.99846025
0.98843477 1.00000000 0.98023023
0.98844328 1.00000000 0.98024385
0.98847592 1.00000000 0.98029622
0.98859949 1.00000000 0.98049511
0.98906981 1.00000000 0.98124687
0.99081570 0.99999760 0.98411511
0.99567809 1.00000000 0.99129477
0.99941177 0.99993402 0.99567099
1.00000000 0.99979948 0.99954009
0.99962026 0.99999997 0.99933579
0.99962029 0.99999997 0.99933583
0.99962039 0.99999997 0.99933597
0.99962086 0.99999997 0.99933662
0.99962320 0.99999996 0.99934028
0.99963089 0.99999997 0.99935050
0.99964484 1.00000000 0.99937646
0.99974594 0.99999890 0.99946947
0.99996278 1.00000000 0.99966976
0.41600191 0.52137959 1.00000000
0.41828331 0.52266102 1.00000000
0.42733103 0.52756228 1.00000000
0.46471667 0.54687636 1.00000000
0.70186935 0.59919482 1.00000000
0.97687707 0.56880716 0.94168054
1.00000000 0.79584615 0.84825628
0.99999977 0.97141724 0.96558690
0.99999997 0.99888077 0.99825790
0.41727434 0.52329893 1.00000000
0.41954973 0.52457258 1.00000000
0.42857140 0.52943554 1.00000000
0.46581691 0.54861814 1.00000000
0.70242643 0.60079512 1.00000000
0.97694590 0.57000464 0.94174391
1.00000000 0.79622664 0.84849499
0.99999976 0.97144381 0.96561555
0.99999997 0.99888089 0.99825804
0.42236246 0.53080998 1.00000000
0.42462923 0.53205710 1.00000000
0.43353582 0.53677385 1.00000000
0.47021402 0.55546039 1.00000000
0.70461479 0.60707916 1.00000000
0.97720748 0.57470429 0.94199607
1.00000000 0.79770673 0.84942902
0.99999973 0.97154512 0.96572545
0.99999997 0.99888132 0.99825854
0.44067489 0.55815464 1.00000000
0.44289648 0.55923651 1.00000000
0.45160866 0.56341333 1.00000000
0.48697711 0.58029495 1.00000000
0.71323496 0.62976768 1.00000000
0.97812801 0.59281571 0.94285473
1.00000000 0.80342833 0.85302147
0.99999986 0.97192859 0.96614264
0.99999997 0.99888305 0.99826053
0.63408030 0.77432817 0.99306084
0.63527730 0.77466653 0.99312668
0.64003589 0.77591302 0.99342008
0.65918833 0.78078876 0.99124924
0.79439308 0.80752246 0.98076465
0.97256540 0.74111225 0.94654711
1.00000000 0.82456388 0.86682770
0.99999761 0.97340173 0.96772760
0.99999997 0.99888875 0.99826773
0.85886514 0.95550671 0.94596584
0.85916840 0.95556820 0.94605802
0.86033992 0.95579588 0.94640217
0.86466126 0.95653150 0.94761593
0.89340401 0.95639585 0.95003549
0.95160883 0.95160883 0.95160883
0.99904632 0.93930973 0.93993612
0.99999572 0.97847300 0.97333819
1.00000000 0.99892077 0.99830343
0.94345139 1.00000000 0.94497541
0.94352586 1.00000000 0.94503729
0.94381283 1.00000000 0.94527638
0.94489672 1.00000000 0.94616689
0.94853553 1.00000000 0.94924370
0.96369534 0.99956805 0.95537404
0.98996112 0.99367745 0.96513819
1.00000000 0.99334708 0.98759860
0.99999767 0.99901890 0.99846469
0.99144521 0.99998959 0.98608676
0.99145198 0.99998961 0.98609714
0.99147807 0.99998965 0.98613730
0.99157723 0.99998986 0.98629031
0.99194840 0.99998935 0.98685443
0.99316583 0.99999388 0.98880399
0.99545463 1.00000000 0.99108621
0.99945006 0.99990683 0.99585151
1.00000000 0.99979315 0.99953014
0.99963395 1.00000000 0.99935843
0.99963398 1.00000000 0.99935847
0.99963408 1.00000000 0.99935861
0.99963443 1.00000000 0.99935911
0.99963576 1.00000000 0.99936115
0.99964150 1.00000000 0.99936819
0.99965067 0.99999939 0.99938773
0.99974788 0.99999836 0.99947768
0.99996321 1.00000000 0.99967188
0.75178690 0.82697825 0.99999993
0.75222217 0.82720058 0.99999999
0.75390177 0.82805591 1.00000000
0.76028507 0.83121510 1.00000000
0.78404925 0.84297575 0.99992194
0.89893220 0.87102055 1.00000000
0.99819566 0.88798046 0.97751145
1.00000000 0.98129409 0.98580141
0.99999984 0.99863114 0.99832302
0.75213557 0.82726436 1.00000000
0.75257011 0.82748630 1.00000000
0.75424698 0.82834003 1.00000000
0.76062001 0.83149339 1.00000000
0.78434191 0.84322922 0.99992216
0.89904845 0.87122941 1.00000000
0.99819370 0.88811097 0.97753400
1.00000000 0.98131122 0.98581352
0.99999984 0.99863134 0.99832323
0.75347931 0.82836278 1.00000000
0.75391104 0.82858333 1.00000000
0.75557765 0.82943112 1.00000000
0.76191212 0.83256217 0.99999852
0.78547589 0.84420384 0.99992276
0.89950009 0.87203353 1.00000000
0.99818517 0.88861689 0.97762046
1.00000000 0.98137689 0.98586015
0.99999984 0.99863210 0.99832405
0.75862374 0.83257927 0.99998966
0.75904446 0.83279396 0.99998938
0.76066899 0.83361799 0.99998935
0.76683905 0.83666022 0.99999162
0.78976577 0.84794167 0.99992002
0.90120016 0.87510849 1.00000000
0.99815074 0.89053853 0.97794615
1.00000000 0.98162420 0.98603597
0.99999984 0.99863505 0.99832719
0.77547872 0.84620558 0.99999931
0.77586522 0.84639817 0.99999960
0.77736220 0.84714209 0.99999983
0.78304437 0.84991428 1.00000000
0.80440108 0.86008457 1.00000000
0.90730275 0.88512669 1.00000000
0.99799072 0.89742801 0.97911192
1.00000000 0.98254960 0.98668565
0.99999986 0.99864580 0.99833905
0.88204488 0.93340514 0.99990978
0.88220581 0.93346612 0.99990586
0.88283005 0.93370179 0.99988992
0.88521106 0.93458129 0.99982239
0.89404635 0.93770454 0.99943428
0.94284797 0.94883245 0.99677902
0.99517516 0.94082548 0.98553791
1.00000000 0.98534064 0.98874055
0.99999957 0.99869563 0.99838948
0.96497860 0.98954613 0.98710735
0.96500543 0.98954997 0.98711469
0.96510859 0.98956462 0.98714280
0.96549792 0.98961822 0.98724719
0.96686649 0.98979715 0.98761390
0.97420798 0.98978109 0.98841143
0.98892280 0.98892280 0.98892280
0.99995495 0.99382136 0.99374099
0.99999655 0.99886003 0.99858078
0.99141345 0.99998197 0.99114935
0.99141850 0.99998191 0.99115415
0.99143805 0.99998166 0.99117284
0.99151199 0.99998076 0.99124351
0.99178964 0.99997752 0.99150625
0.99271322 0.99997951 0.99241379
0.99559038 0.99987853 0.99446699
0.99946693 0.99969761 0.99698744
1.00000000 0.99969182 0.99943329
0.99967649 0.99999739 0.99942546
0.99967647 0.99999739 0.99942546
0.99967638 0.99999739 0.99942542
0.99967602 0.99999739 0.99942523
0.99967450 0.99999743 0.99942443
0.99966858 0.99999732 0.99941935
0.99966373 0.99999658 0.99943105
0.99975755 0.99999796 0.99953069
0.99996669 1.00000000 0.99969580
0.97916708 0.98653215 0.99999254
0.97918263 0.98654032 0.99999248
0.97924096 0.98657096 0.99999225
0.97945958 0.98668673 0.99999153
0.98028641 0.98710342 0.99999122
0.98261591 0.98847972 0.99996410
0.99236147 0.99081811 0.99983969
0.99973450 0.99489150 0.99865647
0.99999856 0.99877135 0.99908764
0.97918095 0.98654150 0.99999251
0.97919649 0.98654967 0.99999245
0.97925477 0.98658028 0.99999222
0.97947321 0.98669595 0.99999149
0.98029934 0.98711229 0.99999119
0.98262689 0.98848713 0.99996410
0.99236465 0.99082278 0.99983947
0.99973458 0.99489270 0.99865688
0.99999856 0.99877153 0.99908775
0.97923309 0.98657662 0.99999238
0.97924857 0.98658476 0.99999232
0.97930668 0.98661526 0.99999209
0.97952443 0.98673053 0.99999137
0.98034788 0.98714557 0.99999107
0.98266860 0.98851499 0.99996411
0.99237689 0.99084023 0.99983863
0.99973490 0.99489720 0.99865842
0.99999856 0.99877221 0.99908820
0.97942685 0.98670635 0.99999190
0.97944216 0.98671440 0.99999185
0.97949961 0.98674457 0.99999165
0.97971504 0.98685852 0.99999099
0.98052939 0.98726883 0.99999089
0.98282511 0.98861850 0.99996431
0.99242287 0.99090550 0.99983547
0.99973612 0.99491422 0.99866429
0.99999856 0.99877483 0.99908988
0.98018598 0.98722815 0.99999119
0.98020048 0.98723568 0.99999113
0.98025483 0.98726387 0.99999092
0.98045923 0.98737058 0.99999004
0.98122692 0.98775720 0.99998794
0.98340512 0.98902846 0.99996115
0.99259055 0.99115789 0.99982503
0.99974058 0.99497798 0.99868627
0.99999856 0.99878470 0.99909628
0.98196594 0.98836734 0.99998922
0.98197906 0.98837406 0.99998922
0.98202879 0.98839957 0.99998922
0.98221560 0.98849540 0.99998926
0.98290729 0.98884351 0.99999081
0.98498462 0.98995884 0.99999611
0.99311100 0.99172664 0.99980557
0.99975894 0.99518051 0.99876018
0.99999842 0.99882234 0.99912020
0.98928897 0.99408464 0.99967224
0.98929368 0.99408659 0.99967229
0.98931177 0.99409408 0.99967245
0.98937994 0.99412222 0.99967309
0.98963538 0.99422457 0.99967597
0.99043494 0.99453968 0.99969183
0.99428794 0.99495108 0.99960303
0.99969833 0.99611897 0.99903783
0.99999788 0.99893639 0.99919588
0.99590016 0.99927645 0.99898571
0.99590115 0.99927673 0.99898608
0.99590494 0.99927780 0.99898750
0.99591934 0.99928185 0.99899286
0.99597326 0.99929671 0.99901273
0.99616064 0.99934713 0.99908130
0.99699015 0.99942926 0.99924795
0.99936345 0.99936345 0.99936345
1.00000000 0.99952133 0.99951661
0.99978357 1.00000000 0.99972378
0.99978358 1.00000000 0.99972380
0.99978360 1.00000000 0.99972385
0.99978366 1.00000000 0.99972407
0.99978395 1.00000000 0.99972488
0.99978562 1.00000000 0.99972794
0.99979215 1.00000000 0.99974256
0.99984068 1.00000000 0.99978452
0.99998140 1.00000000 0.99984275
0.99844631 0.99901266 1.00000000
0.99844652 0.99901275 1.00000000
0.99844734 0.99901311 1.00000000
0.99845053 0.99901448 1.00000000
0.99846104 0.99901936 1.00000000
0.99851197 0.99903778 1.00000000
0.99861115 0.99909309 1.00000000
0.99935443 0.99914510 1.00000000
1.00000000 0.99944521 0.99991991
0.99844648 0.99901278 1.00000000
0.99844669 0.99901287 1.00000000
0.99844751 0.99901323 1.00000000
0.99845070 0.99901460 1.00000000
0.99846121 0.99901947 1.00000000
0.99851212 0.99903790 1.00000000
0.99861128 0.99909319 1.00000000
0.99935447 0.99914519 1.00000000
1.00000000 0.99944525 0.99991992
0.99844715 0.99901325 1.00000000
0.99844736 0.99901334 1.00000000
0.99844818 0.99901370 1.00000000
0.99845137 0.99901507 1.00000000
0.99846187 0.99901994 1.00000000
0.99851270 0.99903834 1.00000000
0.99861179 0.99909359 1.00000000
0.99935462 0.99914552 1.00000000
1.00000000 0.99944537 0.99991994
0.99844981 0.99901513 1.00000000
0.99845002 0.99901522 1.00000000
0.99845083 0.99901558 1.00000000
0.99845400 0.99901694 1.00000000
0.99846446 0.99902178 1.00000000
0.99851494 0.99904006 1.00000000
0.99861375 0.99909513 1.00000000
0.99935524 0.99914684 1.00000000
1.00000000 0.99944583 0.99992002
0.99845817 0.99902082 1.00000000
0.99845838 0.99902091 1.00000000
0.99845920 0.99902127 1.00000000
0.99846234 0.99902264 1.00000000
0.99847288 0.99902752 1.00000000
0.99852275 0.99904559 1.00000000
0.99862109 0.99910049 1.00000000
0.99935750 0.99915163 1.00000000
1.00000000 0.99944759 0.99992031
0.99849924 0.99905107 1.00000000
0.99849943 0.99905115 1.00000000
0.99850016 0.99905146 1.00000000
0.99850296 0.99905263 1.00000000
0.99851280 0.99905688 1.00000000
0.99855722 0.99907262 1.00000000
0.99864881 0.99912421 0.99999928
0.99936537 0.99916957 1.00000000
1.00000000 0.99945411 0.99992141
0.99860188 0.99911159 0.99999842
0.99860204 0.99911166 0.99999842
0.99860265 0.99911191 0.99999842
0.99860497 0.99911289 0.99999842
0.99861359 0.99911657 0.99999841
0.99864879 0.99913010 0.99999811
0.99873854 0.99917788 0.99999748
0.99939319 0.99922051 1.00000000
1.00000000 0.99947726 0.99992536
0.99897204 0.99946340 1.00000000
0.99897214 0.99946344 1.00000000
0.99897252 0.99946357 1.00000000
0.99897403 0.99946410 1.00000000
0.99897957 0.99946599 1.00000000
0.99900027 0.99947268 1.00000000
0.99906376 0.99949583 1.00000000
0.99946124 0.99952330 1.00000000
1.00000000 0.99959696 0.99995213
0.99966500 0.99999621 0.99997690
0.99966502 0.99999621 0.99997691
0.99966509 0.99999620 0.99997691
0.99966536 0.99999618 0.99997694
0.99966644 0.99999610 0.99997702
0.99967056 0.99999582 0.99997731
0.99968579 0.99999530 0.99997805
0.99977181 0.99999369 0.99998439
1.00000000 1.00000000 1.00000000
