ARRI/ARRI_LogC2Video_P3D65_33.cube
LUT_3D_SIZE 5
0.000000 0.000000 0.000000
0.074022 0.000000 0.001022
0.310338 0.000000 0.012039
0.635599 0.000000 0.066117
0.871702 0.000000 0.122377
0.000000 0.143343 0.000000
0.177630 0.189700 0.000000
0.575418 0.197452 0.030686
0.969650 0.185397 0.134295
1.000000 0.267018 0.160937
0.000000 0.574350 0.000000
0.000000 0.651041 0.000000
0.645670 0.677256 0.000000
1.000000 0.692500 0.000000
1.000000 0.734127 0.000000
0.000000 0.994308 0.000000
0.000000 1.000000 0.000000
0.628870 1.000000 0.000000
1.000000 1.000000 0.000000
1.000000 1.000000 0.000000
0.000000 1.000000 0.186831
0.237949 1.000000 0.000000
0.651514 1.000000 0.000000
0.922698 1.000000 0.273564
1.000000 1.000000 0.587945
0.000000 0.000000 0.030579
0.127337 0.000000 0.118151
0.436057 0.000000 0.179477
0.783871 0.000000 0.210605
0.967575 0.000000 0.229511
0.000000 0.153552 0.150698
0.175006 0.175006 0.175006
0.641001 0.157214 0.196658
1.000000 0.130251 0.256306
1.000000 0.218357 0.316655
0.000000 0.617121 0.152102
0.000000 0.671656 0.074128
0.653758 0.683482 0.116350
1.000000 0.687739 0.242771
1.000000 0.715755 0.322469
0.000000 1.000000 0.202258
0.000000 1.000000 0.000000
0.570199 1.000000 0.000000
1.000000 1.000000 0.114168
1.000000 1.000000 0.415213
0.000000 1.000000 0.459586
0.000000 1.000000 0.340017
0.588632 1.000000 0.329915
0.905241 1.000000 0.520409
1.000000 1.000000 0.755932
0.000000 0.000000 0.164096
0.132403 0.000000 0.351720
0.503655 0.000000 0.480018
0.814160 0.000000 0.484047
0.978531 0.000000 0.450736
0.000000 0.000000 0.445884
0.000000 0.000000 0.571206
0.631464 0.000000 0.604639
1.000000 0.000000 0.608560
1.000000 0.000000 0.615045
0.000000 0.590677 0.583124
0.000000 0.625696 0.618372
0.631846 0.631846 0.631846
1.000000 0.631769 0.649851
1.000000 0.670237 0.685512
0.000000 1.000000 0.633692
0.000000 1.000000 0.624598
0.499931 1.000000 0.596826
0.996384 1.000000 0.626276
1.000000 0.985443 0.736538
0.000000 1.000000 0.703075
0.000000 1.000000 0.639582
0.581048 1.000000 0.653391
0.906920 1.000000 0.768734
1.000000 1.000000 0.904814
0.000000 0.000000 0.370871
0.000000 0.000000 0.628733
0.451728 0.000000 0.742245
0.746777 0.000000 0.713802
0.931304 0.000000 0.660487
0.000000 0.000000 0.774044
0.000000 0.000000 0.917205
0.548684 0.000000 0.951293
0.990890 0.000000 0.949783
1.000000 0.000000 0.907012
0.000000 0.424994 0.934249
0.000000 0.425330 1.000000
0.563256 0.440650 1.000000
1.000000 0.459678 1.000000
1.000000 0.577340 1.000000
0.000000 0.977661 0.966003
0.000000 1.000000 0.993713
0.420996 0.999237 0.991180
0.958053 0.958053 0.958053
1.000000 0.948196 0.949920
0.000000 1.000000 0.941115
0.000000 1.000000 0.911452
0.657588 1.000000 0.904341
0.927474 1.000000 0.936019
1.000000 1.000000 0.984466
0.000000 0.000000 0.564248
0.000000 0.000000 0.802106
0.316243 0.000000 0.888624
0.640848 0.000000 0.859159
0.864179 0.000000 0.826703
0.000000 0.000000 0.953079
0.000000 0.000000 1.000000
0.489906 0.000000 1.000000
0.909224 0.000000 1.000000
1.000000 0.000000 1.000000
0.000000 0.302327 1.000000
0.000000 0.422431 1.000000
0.576883 0.463188 1.000000
1.000000 0.517845 1.000000
1.000000 0.644938 1.000000
0.000000 0.957183 0.996094
0.000000 1.000000 0.994156
0.569100 0.969238 0.997925
0.948363 0.941253 1.000000
1.000000 0.950668 1.000000
0.000000 1.000000 0.994049
0.328557 1.000000 0.995285
0.778027 1.000000 0.997559
0.963119 1.000000 0.999512
1.000000 1.000000 1.000000
