TCAMv3/oetf_filmlight_tloge_to_linear.spi1d
Version 1
From -0.15 1.2
Length 8192
Components 1
{
-0.013722662
-0.01371261
-0.013702558
-0.013692506
-0.013682454
-0.013672402
-0.01366235
-0.013652298
-0.013642246
-0.013632194
-0.013622142
-0.01361209
-0.013602038
-0.013591986
-0.013581934
-0.013571882
-0.01356183
-0.013551778
-0.013541726
-0.013531674
-0.013521622
-0.01351157
-0.013501518
-0.013491466
-0.013481414
-0.013471362
-0.01346131
-0.013451258
-0.013441206
-0.013431154
-0.013421102
-0.01341105
-0.013400998
-0.013390946
-0.013380894
-0.013370842
-0.01336079
-0.013350738
-0.013340686
-0.013330634
-0.013320582
-0.01331053
-0.013300478
-0.013290426
-0.013280374
-0.013270322
-0.01326027
-0.013250218
-0.013240166
-0.013230114
-0.013220062
-0.01321001
-0.013199958
-0.013189906
-0.013179854
-0.013169802
-0.01315975
-0.013149698
-0.013139646
-0.013129594
-0.013119542
-0.01310949
-0.013099438
-0.013089386
-0.013079334
-0.013069282
-0.01305923
-0.013049178
-0.013039126
-0.013029074
-0.013019022
-0.01300897
-0.012998918
-0.012988866
-0.012978814
-0.012968762
-0.01295871
-0.012948658
-0.012938606
-0.012928554
-0.012918502
-0.01290845
-0.012898398
-0.012888346
-0.012878294
-0.012868242
-0.01285819
-0.012848138
-0.012838086
-0.012828034
-0.012817982
-0.01280793
-0.012797878
-0.012787826
-0.012777774
-0.012767722
-0.01275767
-0.012747618
-0.012737566
-0.012727514
-0.012717462
-0.01270741
-0.012697358
-0.012687306
-0.012677254
-0.012667202
-0.01265715
-0.012647098
-0.012637046
-0.012626994
-0.012616942
-0.01260689
-0.012596838
-0.012586786
-0.012576734
-0.012566682
-0.01255663
-0.012546578
-0.012536526
-0.012526474
-0.012516422
-0.01250637
-0.012496318
-0.012486266
-0.012476214
-0.012466162
-0.01245611
-0.012446058
-0.012436006
-0.012425954
-0.012415902
-0.01240585
-0.012395798
-0.012385746
-0.012375694
-0.012365642
-0.01235559
-0.012345538
-0.012335486
-0.012325434
-0.012315382
-0.01230533
-0.012295278
-0.012285226
-0.012275173
-0.012265121
-0.012255069
-0.012245017
-0.012234965
-0.012224913
-0.012214861
-0.012204809
-0.012194757
-0.012184705
-0.012174653
-0.012164601
-0.012154549
-0.012144497
-0.012134445
-0.012124393
-0.012114341
-0.012104289
-0.012094237
-0.012084185
-0.012074133
-0.012064081
-0.012054029
-0.012043977
-0.012033925
-0.012023873
-0.012013821
-0.012003769
-0.011993717
-0.011983665
-0.011973613
-0.011963561
-0.011953509
-0.011943457
-0.011933405
-0.011923353
-0.011913301
-0.011903249
-0.011893197
-0.011883145
-0.011873093
-0.011863041
-0.011852989
-0.011842937
-0.011832885
-0.011822833
-0.011812781
-0.011802729
-0.011792677
-0.011782625
-0.011772573
-0.011762521
-0.011752469
-0.011742417
-0.011732365
-0.011722313
-0.011712261
-0.011702209
-0.011692157
-0.011682105
-0.011672053
-0.011662001
-0.011651949
-0.011641897
-0.011631845
-0.011621793
-0.011611741
-0.011601689
-0.011591637
-0.011581585
-0.011571533
-0.011561481
-0.011551429
-0.011541377
-0.011531325
-0.011521273
-0.011511221
-0.011501169
-0.011491117
-0.011481065
-0.011471013
-0.011460961
-0.011450909
-0.011440857
-0.011430805
-0.011420753
-0.011410701
-0.011400649
-0.011390597
-0.011380545
-0.011370493
-0.011360441
-0.011350389
-0.011340337
-0.011330285
-0.011320233
-0.011310181
-0.011300129
-0.011290077
-0.011280025
-0.011269973
-0.011259921
-0.011249869
-0.011239817
-0.011229765
-0.011219713
-0.011209661
-0.011199609
-0.011189557
-0.011179505
-0.011169453
-0.011159401
-0.011149349
-0.011139297
-0.011129245
-0.011119193
-0.011109141
-0.011099089
-0.011089037
-0.011078985
-0.011068933
-0.011058881
-0.011048829
-0.011038777
-0.011028725
-0.011018673
-0.011008621
-0.010998569
-0.010988517
-0.010978465
-0.010968413
-0.010958361
-0.010948309
-0.010938257
-0.010928205
-0.010918153
-0.010908101
-0.010898049
-0.010887997
-0.010877945
-0.010867893
-0.010857841
-0.010847789
-0.010837737
-0.010827685
-0.010817633
-0.010807581
-0.010797529
-0.010787477
-0.010777425
-0.010767373
-0.010757321
-0.010747269
-0.010737217
-0.010727165
-0.010717113
-0.010707061
-0.010697009
-0.010686957
-0.010676905
-0.010666853
-0.010656801
-0.010646749
-0.010636697
-0.010626645
-0.010616593
-0.010606541
-0.010596489
-0.010586437
-0.010576385
-0.010566333
-0.010556281
-0.010546229
-0.010536177
-0.010526125
-0.010516073
-0.010506021
-0.010495969
-0.010485917
-0.010475865
-0.010465813
-0.010455761
-0.010445709
-0.010435657
-0.010425605
-0.010415553
-0.010405501
-0.010395449
-0.010385397
-0.010375345
-0.010365293
-0.010355241
-0.010345189
-0.010335137
-0.010325085
-0.010315033
-0.010304981
-0.010294929
-0.010284876
-0.010274824
-0.010264772
-0.01025472
-0.010244668
-0.010234616
-0.010224564
-0.010214512
-0.01020446
-0.010194408
-0.010184356
-0.010174304
-0.010164252
-0.0101542
-0.010144148
-0.010134096
-0.010124044
-0.010113992
-0.01010394
-0.010093888
-0.010083836
-0.010073784
-0.010063732
-0.01005368
-0.010043628
-0.010033576
-0.010023524
-0.010013472
-0.01000342
-0.009993368
-0.009983316
-0.009973264
-0.009963212
-0.00995316
-0.009943108
-0.009933056
-0.009923004
-0.009912952
-0.0099029
-0.009892848
-0.009882796
-0.009872744
-0.009862692
-0.00985264
-0.009842588
-0.009832536
-0.009822484
-0.009812432
-0.00980238
-0.009792328
-0.009782276
-0.009772224
-0.009762172
-0.00975212
-0.009742068
-0.009732016
-0.009721964
-0.009711912
-0.00970186
-0.009691808
-0.009681756
-0.009671704
-0.009661652
-0.0096516
-0.009641548
-0.009631496
-0.009621444
-0.009611392
-0.00960134
-0.009591288
-0.009581236
-0.009571184
-0.009561132
-0.00955108
-0.009541028
-0.009530976
-0.009520924
-0.009510872
-0.00950082
-0.009490768
-0.009480716
-0.009470664
-0.009460612
-0.00945056
-0.009440508
-0.009430456
-0.009420404
-0.009410352
-0.0094003
-0.009390248
-0.009380196
-0.009370144
-0.009360092
-0.00935004
-0.009339988
-0.009329936
-0.009319884
-0.009309832
-0.00929978
-0.009289728
-0.009279676
-0.009269624
-0.009259572
-0.00924952
-0.009239468
-0.009229416
-0.009219364
-0.009209312
-0.00919926
-0.009189208
-0.009179156
-0.009169104
-0.009159052
-0.009149
-0.009138948
-0.009128896
-0.009118844
-0.009108792
-0.00909874
-0.009088688
-0.009078636
-0.009068584
-0.009058532
-0.00904848
-0.009038428
-0.009028376
-0.009018324
-0.009008272
-0.00899822
-0.008988168
-0.008978116
-0.008968064
-0.008958012
-0.00894796
-0.008937908
-0.008927856
-0.008917804
-0.008907752
-0.0088977
-0.008887648
-0.008877596
-0.008867544
-0.008857492
-0.00884744
-0.008837388
-0.008827336
-0.008817284
-0.008807232
-0.00879718
-0.008787128
-0.008777076
-0.008767024
-0.008756972
-0.00874692
-0.008736868
-0.008726816
-0.008716764
-0.008706712
-0.00869666
-0.008686608
-0.008676556
-0.008666504
-0.008656452
-0.0086464
-0.008636348
-0.008626296
-0.008616244
-0.008606192
-0.00859614
-0.008586088
-0.008576036
-0.008565984
-0.008555932
-0.00854588
-0.008535828
-0.008525776
-0.008515724
-0.008505672
-0.00849562
-0.008485568
-0.008475516
-0.008465464
-0.008455412
-0.00844536
-0.008435308
-0.008425256
-0.008415204
-0.008405152
-0.0083951
-0.008385048
-0.008374996
-0.008364944
-0.008354892
-0.00834484
-0.008334788
-0.008324736
-0.008314684
-0.008304632
-0.008294579
-0.008284527
-0.008274475
-0.008264423
-0.008254371
-0.008244319
-0.008234267
-0.008224215
-0.008214163
-0.008204111
-0.008194059
-0.008184007
-0.008173955
-0.008163903
-0.008153851
-0.008143799
-0.008133747
-0.008123695
-0.008113643
-0.008103591
-0.008093539
-0.008083487
-0.008073435
-0.008063383
-0.008053331
-0.008043279
-0.008033227
-0.008023175
-0.008013123
-0.008003071
-0.007993019
-0.007982967
-0.007972915
-0.007962863
-0.007952811
-0.007942759
-0.007932707
-0.007922655
-0.007912603
-0.007902551
-0.007892499
-0.007882447
-0.007872395
-0.007862343
-0.007852291
-0.007842239
-0.007832187
-0.007822135
-0.007812083
-0.007802031
-0.007791979
-0.007781927
-0.007771875
-0.007761823
-0.007751771
-0.007741719
-0.007731667
-0.007721615
-0.007711563
-0.007701511
-0.007691459
-0.007681407
-0.007671355
-0.007661303
-0.007651251
-0.007641199
-0.007631147
-0.007621095
-0.007611043
-0.007600991
-0.007590939
-0.007580887
-0.007570835
-0.007560783
-0.007550731
-0.007540679
-0.007530627
-0.007520575
-0.007510523
-0.007500471
-0.007490419
-0.007480367
-0.007470315
-0.007460263
-0.007450211
-0.007440159
-0.007430107
-0.007420055
-0.007410003
-0.007399951
-0.007389899
-0.007379847
-0.007369795
-0.007359743
-0.007349691
-0.007339639
-0.007329587
-0.007319535
-0.007309483
-0.007299431
-0.007289379
-0.007279327
-0.007269275
-0.007259223
-0.007249171
-0.007239119
-0.007229067
-0.007219015
-0.007208963
-0.007198911
-0.007188859
-0.007178807
-0.007168755
-0.007158703
-0.007148651
-0.007138599
-0.007128547
-0.007118495
-0.007108443
-0.007098391
-0.007088339
-0.007078287
-0.007068235
-0.007058183
-0.007048131
-0.007038079
-0.007028027
-0.007017975
-0.007007923
-0.006997871
-0.006987819
-0.006977767
-0.006967715
-0.006957663
-0.006947611
-0.006937559
-0.006927507
-0.006917455
-0.006907403
-0.006897351
-0.006887299
-0.006877247
-0.006867195
-0.006857143
-0.006847091
-0.006837039
-0.006826987
-0.006816935
-0.006806883
-0.006796831
-0.006786779
-0.006776727
-0.006766675
-0.006756623
-0.006746571
-0.006736519
-0.006726467
-0.006716415
-0.006706363
-0.006696311
-0.006686259
-0.006676207
-0.006666155
-0.006656103
-0.006646051
-0.006635999
-0.006625947
-0.006615895
-0.006605843
-0.006595791
-0.006585739
-0.006575687
-0.006565635
-0.006555583
-0.006545531
-0.006535479
-0.006525427
-0.006515375
-0.006505323
-0.006495271
-0.006485219
-0.006475167
-0.006465115
-0.006455063
-0.006445011
-0.006434959
-0.006424907
-0.006414855
-0.006404803
-0.006394751
-0.006384699
-0.006374647
-0.006364595
-0.006354543
-0.006344491
-0.006334439
-0.006324387
-0.006314335
-0.006304282
-0.00629423
-0.006284178
-0.006274126
-0.006264074
-0.006254022
-0.00624397
-0.006233918
-0.006223866
-0.006213814
-0.006203762
-0.00619371
-0.006183658
-0.006173606
-0.006163554
-0.006153502
-0.00614345
-0.006133398
-0.006123346
-0.006113294
-0.006103242
-0.00609319
-0.006083138
-0.006073086
-0.006063034
-0.006052982
-0.00604293
-0.006032878
-0.006022826
-0.006012774
-0.006002722
-0.00599267
-0.005982618
-0.005972566
-0.005962514
-0.005952462
-0.00594241
-0.005932358
-0.005922306
-0.005912254
-0.005902202
-0.00589215
-0.005882098
-0.005872046
-0.005861994
-0.005851942
-0.00584189
-0.005831838
-0.005821786
-0.005811734
-0.005801682
-0.00579163
-0.005781578
-0.005771526
-0.005761474
-0.005751422
-0.00574137
-0.005731318
-0.005721266
-0.005711214
-0.005701162
-0.00569111
-0.005681058
-0.005671006
-0.005660954
-0.005650902
-0.00564085
-0.005630798
-0.005620746
-0.005610694
-0.005600642
-0.00559059
-0.005580538
-0.005570486
-0.005560434
-0.005550382
-0.00554033
-0.005530278
-0.005520226
-0.005510174
-0.005500122
-0.00549007
-0.005480018
-0.005469966
-0.005459914
-0.005449862
-0.00543981
-0.005429758
-0.005419706
-0.005409654
-0.005399602
-0.00538955
-0.005379498
-0.005369446
-0.005359394
-0.005349342
-0.00533929
-0.005329238
-0.005319186
-0.005309134
-0.005299082
-0.00528903
-0.005278978
-0.005268926
-0.005258874
-0.005248822
-0.00523877
-0.005228718
-0.005218666
-0.005208614
-0.005198562
-0.00518851
-0.005178458
-0.005168406
-0.005158354
-0.005148302
-0.00513825
-0.005128198
-0.005118146
-0.005108094
-0.005098042
-0.00508799
-0.005077938
-0.005067886
-0.005057834
-0.005047782
-0.00503773
-0.005027678
-0.005017626
-0.005007574
-0.004997522
-0.00498747
-0.004977418
-0.004967366
-0.004957314
-0.004947262
-0.00493721
-0.004927158
-0.004917106
-0.004907054
-0.004897002
-0.00488695
-0.004876898
-0.004866846
-0.004856794
-0.004846742
-0.00483669
-0.004826638
-0.004816586
-0.004806534
-0.004796482
-0.00478643
-0.004776378
-0.004766326
-0.004756274
-0.004746222
-0.00473617
-0.004726118
-0.004716066
-0.004706014
-0.004695962
-0.00468591
-0.004675858
-0.004665806
-0.004655754
-0.004645702
-0.00463565
-0.004625598
-0.004615546
-0.004605494
-0.004595442
-0.00458539
-0.004575338
-0.004565286
-0.004555234
-0.004545182
-0.00453513
-0.004525078
-0.004515026
-0.004504974
-0.004494922
-0.00448487
-0.004474818
-0.004464766
-0.004454714
-0.004444662
-0.00443461
-0.004424558
-0.004414506
-0.004404454
-0.004394402
-0.00438435
-0.004374298
-0.004364246
-0.004354194
-0.004344142
-0.00433409
-0.004324038
-0.004313985
-0.004303933
-0.004293881
-0.004283829
-0.004273777
-0.004263725
-0.004253673
-0.004243621
-0.004233569
-0.004223517
-0.004213465
-0.004203413
-0.004193361
-0.004183309
-0.004173257
-0.004163205
-0.004153153
-0.004143101
-0.004133049
-0.004122997
-0.004112945
-0.004102893
-0.004092841
-0.004082789
-0.004072737
-0.004062685
-0.004052633
-0.004042581
-0.004032529
-0.004022477
-0.004012425
-0.004002373
-0.003992321
-0.003982269
-0.003972217
-0.003962165
-0.003952113
-0.003942061
-0.003932009
-0.003921957
-0.003911905
-0.003901853
-0.003891801
-0.003881749
-0.003871697
-0.003861645
-0.003851593
-0.003841541
-0.003831489
-0.003821437
-0.003811385
-0.003801333
-0.003791281
-0.003781229
-0.003771177
-0.003761125
-0.003751073
-0.003741021
-0.003730969
-0.003720917
-0.003710865
-0.003700813
-0.003690761
-0.003680709
-0.003670657
-0.003660605
-0.003650553
-0.003640501
-0.003630449
-0.003620397
-0.003610345
-0.003600293
-0.003590241
-0.003580189
-0.003570137
-0.003560085
-0.003550033
-0.003539981
-0.003529929
-0.003519877
-0.003509825
-0.003499773
-0.003489721
-0.003479669
-0.003469617
-0.003459565
-0.003449513
-0.003439461
-0.003429409
-0.003419357
-0.003409305
-0.003399253
-0.003389201
-0.003379149
-0.003369097
-0.003359045
-0.003348993
-0.003338941
-0.003328889
-0.003318837
-0.003308785
-0.003298733
-0.003288681
-0.003278629
-0.003268577
-0.003258525
-0.003248473
-0.003238421
-0.003228369
-0.003218317
-0.003208265
-0.003198213
-0.003188161
-0.003178109
-0.003168057
-0.003158005
-0.003147953
-0.003137901
-0.003127849
-0.003117797
-0.003107745
-0.003097693
-0.003087641
-0.003077589
-0.003067537
-0.003057485
-0.003047433
-0.003037381
-0.003027329
-0.003017277
-0.003007225
-0.002997173
-0.002987121
-0.002977069
-0.002967017
-0.002956965
-0.002946913
-0.002936861
-0.002926809
-0.002916757
-0.002906705
-0.002896653
-0.002886601
-0.002876549
-0.002866497
-0.002856445
-0.002846393
-0.002836341
-0.002826289
-0.002816237
-0.002806185
-0.002796133
-0.002786081
-0.002776029
-0.002765977
-0.002755925
-0.002745873
-0.002735821
-0.002725769
-0.002715717
-0.002705665
-0.002695613
-0.002685561
-0.002675509
-0.002665457
-0.002655405
-0.002645353
-0.002635301
-0.002625249
-0.002615197
-0.002605145
-0.002595093
-0.002585041
-0.002574989
-0.002564937
-0.002554885
-0.002544833
-0.002534781
-0.002524729
-0.002514677
-0.002504625
-0.002494573
-0.002484521
-0.002474469
-0.002464417
-0.002454365
-0.002444313
-0.002434261
-0.002424209
-0.002414157
-0.002404105
-0.002394053
-0.002384001
-0.002373949
-0.002363897
-0.002353845
-0.002343793
-0.002333741
-0.002323689
-0.002313636
-0.002303584
-0.002293532
-0.00228348
-0.002273428
-0.002263376
-0.002253324
-0.002243272
-0.00223322
-0.002223168
-0.002213116
-0.002203064
-0.002193012
-0.00218296
-0.002172908
-0.002162856
-0.002152804
-0.002142752
-0.0021327
-0.002122648
-0.002112596
-0.002102544
-0.002092492
-0.00208244
-0.002072388
-0.002062336
-0.002052284
-0.002042232
-0.00203218
-0.002022128
-0.002012076
-0.002002024
-0.001991972
-0.00198192
-0.001971868
-0.001961816
-0.001951764
-0.001941712
-0.00193166
-0.001921608
-0.001911556
-0.001901504
-0.001891452
-0.0018814
-0.001871348
-0.001861296
-0.001851244
-0.001841192
-0.00183114
-0.001821088
-0.001811036
-0.001800984
-0.001790932
-0.00178088
-0.001770828
-0.001760776
-0.001750724
-0.001740672
-0.00173062
-0.001720568
-0.001710516
-0.001700464
-0.001690412
-0.00168036
-0.001670308
-0.001660256
-0.001650204
-0.001640152
-0.0016301
-0.001620048
-0.001609996
-0.001599944
-0.001589892
-0.00157984
-0.001569788
-0.001559736
-0.001549684
-0.001539632
-0.00152958
-0.001519528
-0.001509476
-0.001499424
-0.001489372
-0.00147932
-0.001469268
-0.001459216
-0.001449164
-0.001439112
-0.00142906
-0.001419008
-0.001408956
-0.001398904
-0.001388852
-0.0013788
-0.001368748
-0.001358696
-0.001348644
-0.001338592
-0.00132854
-0.001318488
-0.001308436
-0.001298384
-0.001288332
-0.00127828
-0.001268228
-0.001258176
-0.001248124
-0.001238072
-0.00122802
-0.001217968
-0.001207916
-0.001197864
-0.001187812
-0.00117776
-0.001167708
-0.001157656
-0.001147604
-0.001137552
-0.0011275
-0.001117448
-0.001107396
-0.001097344
-0.001087292
-0.00107724
-0.001067188
-0.001057136
-0.001047084
-0.001037032
-0.00102698
-0.001016928
-0.001006876
-0.000996824
-0.000986772
-0.00097672
-0.000966668
-0.000956616
-0.000946564
-0.000936512
-0.00092646
-0.000916408
-0.000906356
-0.000896304
-0.000886252
-0.0008762
-0.000866148
-0.000856096
-0.000846044
-0.000835992
-0.00082594
-0.000815888
-0.000805836
-0.000795784
-0.000785732
-0.00077568
-0.000765628
-0.000755576
-0.000745524
-0.000735472
-0.00072542
-0.000715368
-0.000705316
-0.000695264
-0.000685212
-0.00067516
-0.000665108
-0.000655056
-0.000645004
-0.000634952
-0.0006249
-0.000614848
-0.000604796
-0.000594744
-0.000584692
-0.00057464
-0.000564588
-0.000554536
-0.000544484
-0.000534432
-0.00052438
-0.000514328
-0.000504276
-0.000494224
-0.000484172
-0.00047412
-0.000464068
-0.000454016
-0.000443964
-0.000433912
-0.00042386
-0.000413808
-0.000403756
-0.000393704
-0.000383652
-0.0003736
-0.000363548
-0.000353496
-0.000343444
-0.000333392
-0.000323339
-0.000313287
-0.000303235
-0.000293183
-0.000283131
-0.000273079
-0.000263027
-0.000252975
-0.000242923
-0.000232871
-0.000222819
-0.000212767
-0.000202715
-0.000192663
-0.000182611
-0.000172559
-0.000162507
-0.000152455
-0.000142403
-0.000132351
-0.000122299
-0.000112247
-0.000102195
-9.2143e-05
-8.2091e-05
-7.2039e-05
-6.1987e-05
-5.1935e-05
-4.1883e-05
-3.1831e-05
-2.1779e-05
-1.1727e-05
-1.675e-06
8.384e-06
1.8464e-05
2.8564e-05
3.8685e-05
4.8827e-05
5.899e-05
6.9174e-05
7.9379e-05
8.9605e-05
9.9853e-05
0.000110121
0.00012041
0.000130721
0.000141053
0.000151406
0.000161781
0.000172177
0.000182594
0.000193033
0.000203493
0.000213975
0.000224479
0.000235004
0.000245551
0.00025612
0.00026671
0.000277323
0.000287957
0.000298613
0.000309291
0.000319991
0.000330713
0.000341458
0.000352224
0.000363013
0.000373824
0.000384657
0.000395513
0.00040639
0.000417291
0.000428214
0.000439159
0.000450127
0.000461118
0.000472131
0.000483167
0.000494225
0.000505307
0.000516411
0.000527538
0.000538689
0.000549862
0.000561058
0.000572277
0.00058352
0.000594785
0.000606074
0.000617386
0.000628722
0.00064008
0.000651463
0.000662868
0.000674298
0.00068575
0.000697227
0.000708727
0.000720251
0.000731798
0.00074337
0.000754965
0.000766584
0.000778227
0.000789894
0.000801585
0.000813301
0.00082504
0.000836804
0.000848591
0.000860404
0.00087224
0.000884101
0.000895987
0.000907897
0.000919831
0.00093179
0.000943774
0.000955782
0.000967816
0.000979874
0.000991957
0.001004064
0.001016197
0.001028355
0.001040538
0.001052746
0.001064979
0.001077237
0.001089521
0.00110183
0.001114164
0.001126524
0.00113891
0.00115132
0.001163757
0.001176219
0.001188707
0.00120122
0.00121376
0.001226325
0.001238916
0.001251533
0.001264176
0.001276845
0.00128954
0.001302262
0.00131501
0.001327783
0.001340584
0.00135341
0.001366264
0.001379143
0.00139205
0.001404982
0.001417942
0.001430928
0.001443941
0.001456981
0.001470048
0.001483141
0.001496262
0.00150941
0.001522584
0.001535786
0.001549016
0.001562272
0.001575556
0.001588867
0.001602206
0.001615572
0.001628966
0.001642387
0.001655836
0.001669313
0.001682818
0.00169635
0.00170991
0.001723499
0.001737115
0.001750759
0.001764432
0.001778132
0.001791861
0.001805619
0.001819404
0.001833218
0.001847061
0.001860932
0.001874832
0.00188876
0.001902717
0.001916703
0.001930718
0.001944761
0.001958834
0.001972935
0.001987066
0.002001226
0.002015415
0.002029633
0.00204388
0.002058157
0.002072464
0.0020868
0.002101165
0.00211556
0.002129985
0.002144439
0.002158924
0.002173438
0.002187982
0.002202556
0.00221716
0.002231794
0.002246459
0.002261153
0.002275878
0.002290634
0.002305419
0.002320236
0.002335082
0.00234996
0.002364868
0.002379807
0.002394776
0.002409777
0.002424808
0.002439871
0.002454964
0.002470089
0.002485244
0.002500431
0.00251565
0.0025309
0.002546181
0.002561493
0.002576838
0.002592214
0.002607621
0.002623061
0.002638532
0.002654035
0.00266957
0.002685137
0.002700736
0.002716368
0.002732031
0.002747727
0.002763456
0.002779216
0.00279501
0.002810835
0.002826694
0.002842585
0.002858509
0.002874466
0.002890455
0.002906478
0.002922533
0.002938622
0.002954744
0.002970899
0.002987088
0.00300331
0.003019565
0.003035854
0.003052176
0.003068532
0.003084922
0.003101346
0.003117803
0.003134295
0.00315082
0.003167379
0.003183973
0.003200601
0.003217263
0.00323396
0.00325069
0.003267456
0.003284256
0.003301091
0.00331796
0.003334864
0.003351803
0.003368777
0.003385786
0.00340283
0.003419909
0.003437023
0.003454173
0.003471358
0.003488578
0.003505834
0.003523126
0.003540453
0.003557816
0.003575215
0.003592649
0.00361012
0.003627627
0.003645169
0.003662748
0.003680363
0.003698015
0.003715702
0.003733427
0.003751188
0.003768985
0.003786819
0.00380469
0.003822598
0.003840543
0.003858524
0.003876543
0.003894599
0.003912692
0.003930823
0.003948991
0.003967196
0.003985439
0.004003719
0.004022038
0.004040394
0.004058787
0.004077219
0.004095689
0.004114197
0.004132743
0.004151327
0.00416995
0.004188611
0.00420731
0.004226048
0.004244825
0.00426364
0.004282494
0.004301387
0.004320319
0.00433929
0.0043583
0.00437735
0.004396438
0.004415566
0.004434734
0.004453941
0.004473187
0.004492474
0.0045118
0.004531166
0.004550571
0.004570017
0.004589503
0.004609029
0.004628596
0.004648202
0.00466785
0.004687537
0.004707265
0.004727034
0.004746844
0.004766695
0.004786586
0.004806519
0.004826492
0.004846507
0.004866563
0.00488666
0.004906799
0.00492698
0.004947202
0.004967465
0.004987771
0.005008118
0.005028508
0.005048939
0.005069412
0.005089928
0.005110486
0.005131087
0.005151729
0.005172415
0.005193143
0.005213914
0.005234727
0.005255584
0.005276484
0.005297426
0.005318412
0.005339441
0.005360514
0.00538163
0.005402789
0.005423992
0.005445239
0.00546653
0.005487865
0.005509243
0.005530666
0.005552133
0.005573644
0.005595199
0.005616799
0.005638443
0.005660133
0.005681866
0.005703645
0.005725468
0.005747337
0.005769251
0.005791209
0.005813213
0.005835263
0.005857358
0.005879498
0.005901684
0.005923916
0.005946194
0.005968518
0.005990887
0.006013303
0.006035765
0.006058274
0.006080828
0.00610343
0.006126078
0.006148772
0.006171513
0.006194302
0.006217137
0.006240019
0.006262949
0.006285926
0.00630895
0.006332022
0.006355141
0.006378308
0.006401523
0.006424785
0.006448096
0.006471454
0.006494861
0.006518316
0.006541819
0.006565371
0.006588972
0.006612621
0.006636319
0.006660065
0.006683861
0.006707706
0.0067316
0.006755543
0.006779536
0.006803578
0.006827669
0.006851811
0.006876002
0.006900243
0.006924533
0.006948875
0.006973266
0.006997707
0.007022199
0.007046742
0.007071335
0.007095978
0.007120673
0.007145418
0.007170215
0.007195063
0.007219961
0.007244912
0.007269913
0.007294967
0.007320071
0.007345228
0.007370437
0.007395697
0.00742101
0.007446375
0.007471792
0.007497261
0.007522783
0.007548358
0.007573985
0.007599665
0.007625399
0.007651185
0.007677024
0.007702917
0.007728863
0.007754863
0.007780916
0.007807023
0.007833184
0.007859398
0.007885667
0.00791199
0.007938367
0.007964799
0.007991285
0.008017826
0.008044421
0.008071071
0.008097777
0.008124537
0.008151352
0.008178223
0.008205149
0.008232131
0.008259169
0.008286262
0.008313411
0.008340616
0.008367877
0.008395194
0.008422567
0.008449998
0.008477484
0.008505027
0.008532627
0.008560284
0.008587999
0.00861577
0.008643598
0.008671484
0.008699427
0.008727428
0.008755487
0.008783603
0.008811778
0.008840011
0.008868301
0.008896651
0.008925058
0.008953524
0.008982049
0.009010633
0.009039276
0.009067977
0.009096738
0.009125558
0.009154438
0.009183377
0.009212376
0.009241435
0.009270553
0.009299732
0.009328971
0.00935827
0.009387629
0.009417049
0.00944653
0.009476072
0.009505674
0.009535338
0.009565062
0.009594848
0.009624695
0.009654604
0.009684575
0.009714607
0.009744701
0.009774858
0.009805076
0.009835357
0.0098657
