RWG/RWG_Log3G10 to REC2020_BT1886 with MEDIUM_CONTRAST and R_2_Medium size_33 v1.13.cube
# RED Digital Cinema Output Transform LUT for IPP2
# LUT Name = RWG_Log3G10 to REC2020_BT1886 with MEDIUM_CONTRAST and R_2_Medium size_33 v1.13
# Generated by version 1.13
# Settings used in creation of this LUT are:
# Development Color Space = REC2020
# Output Gamma Curve = BT1886
# Output Tonemap = MEDIUM_CONTRAST
# Highlight Rolloff = Rolloff 2 - medium
# Resolution = 33 x 33 x 33
TITLE "RED IPP2 LUT to map REDWideGamutRGB/Log3G10 to REC2020/BT1886/MEDIUM_CONTRAST/Rolloff 2 - medium"
LUT_3D_SIZE 33
0.000000 0.000000 0.000000
0.000000 0.000000 0.000000
0.000004 0.000000 0.000000
0.014493 0.003505 0.003505
0.057505 0.003505 0.003505
0.096039 0.003505 0.003505
0.138706 0.004617 0.004104
0.188202 0.010319 0.007104
0.244448 0.021325 0.014346
0.308409 0.034005 0.023424
0.381470 0.048039 0.033582
0.470481 0.064612 0.045647
0.573277 0.085751 0.061067
0.661044 0.110665 0.079185
0.736335 0.142424 0.102058
0.798924 0.182875 0.131936
0.849485 0.229659 0.172372
0.889566 0.284555 0.226507
0.920559 0.349397 0.289333
0.943678 0.424745 0.361294
0.961136 0.513539 0.446766
0.973857 0.599016 0.541690
0.982866 0.673108 0.626142
0.989372 0.737174 0.699513
0.993896 0.789666 0.759735
0.997130 0.833360 0.809856
0.999360 0.868192 0.849762
1.000003 0.896612 0.882261
1.000003 0.919262 0.908105
1.000003 0.936999 0.928298
1.000003 0.951331 0.944576
1.000003 0.962645 0.957399
1.000003 0.971919 0.967888
0.000000 0.000000 0.000000
0.000000 0.000000 0.000000
0.000005 0.000000 0.000000
0.018996 0.003505 0.003505
0.058341 0.003505 0.003505
0.096494 0.003663 0.003505
0.139032 0.005798 0.004051
0.188481 0.013574 0.006875
0.244721 0.024800 0.013946
0.308701 0.037353 0.023011
0.381801 0.051160 0.033187
0.470924 0.067465 0.045297
0.573692 0.088342 0.060768
0.661419 0.113058 0.078941
0.736664 0.144687 0.101877
0.799205 0.184685 0.131829
0.849719 0.231075 0.172358
0.889756 0.285728 0.226623
0.920709 0.350429 0.289571
0.943795 0.425710 0.361650
0.961224 0.514419 0.447244
0.973924 0.599718 0.542210
0.982916 0.673677 0.626629
0.989408 0.737636 0.699950
0.993923 0.790044 0.760115
0.997149 0.833668 0.810178
0.999374 0.868443 0.850032
1.000003 0.896817 0.882485
1.000003 0.919429 0.908290
1.000003 0.937135 0.928449
1.000003 0.951441 0.944699
1.000003 0.962734 0.957499
1.000003 0.971991 0.967968
0.000000 0.000025 0.000000
0.000000 0.000023 0.000000
0.000007 0.000020 0.000000
0.023374 0.003505 0.003505
0.059440 0.003505 0.003505
0.097101 0.004899 0.003505
0.139468 0.010107 0.003972
0.188853 0.019532 0.006582
0.245085 0.030409 0.013412
0.309092 0.042448 0.022452
0.382245 0.055720 0.032656
0.471517 0.071549 0.044825
0.574247 0.092003 0.060361
0.661920 0.116412 0.078608
0.737105 0.147841 0.101628
0.799582 0.187141 0.131678
0.850032 0.233003 0.172333
0.890010 0.287327 0.226775
0.920909 0.351833 0.289888
0.943951 0.427021 0.362124
0.961343 0.515607 0.447885
0.974013 0.600667 0.542908
0.982982 0.674442 0.627282
0.989457 0.738258 0.700535
0.993959 0.790551 0.760623
0.997175 0.834081 0.810611
0.999393 0.868781 0.850395
1.000003 0.897092 0.882786
1.000003 0.919652 0.908536
1.000003 0.937317 0.928651
1.000003 0.951588 0.944864
1.000003 0.962854 0.957633
1.000003 0.972086 0.968076
0.003505 0.042620 0.003505
0.003505 0.042177 0.003505
0.003505 0.041571 0.003505
0.027842 0.040748 0.003505
0.060854 0.037272 0.003505
0.097896 0.029385 0.003505
0.140040 0.026109 0.003897
0.189343 0.031380 0.006225
0.245565 0.039898 0.012707
0.309608 0.050354 0.021715
0.382832 0.062476 0.031952
0.472302 0.077436 0.044195
0.574979 0.097186 0.059816
0.662581 0.121111 0.078159
0.737686 0.152192 0.101289
0.800078 0.190430 0.131468
0.850445 0.235599 0.172289
0.890344 0.289481 0.226967
0.921174 0.353724 0.290302
0.944156 0.428782 0.362747
0.961499 0.517192 0.448730
0.974130 0.601928 0.543828
0.983070 0.675459 0.628144
0.989522 0.739080 0.701306
0.994006 0.791222 0.761294
0.997210 0.834627 0.811180
0.999418 0.869228 0.850874
1.000003 0.897455 0.883182
1.000003 0.919948 0.908863
1.000003 0.937557 0.928918
1.000003 0.951783 0.945081
1.000003 0.963012 0.957810
1.000003 0.972212 0.968217
0.003505 0.073106 0.003505
0.003505 0.072888 0.003505
0.003505 0.072592 0.003505
0.016822 0.072198 0.003505
0.062900 0.071610 0.003505
0.099069 0.068073 0.003505
0.140888 0.063733 0.003761
0.190068 0.060216 0.005760
0.246276 0.059720 0.011694
0.310373 0.065081 0.020634
0.383703 0.074302 0.030908
0.473466 0.087344 0.043251
0.576058 0.105686 0.058992
0.663555 0.128696 0.077474
0.738542 0.158707 0.100764
0.800810 0.195407 0.131135
0.851054 0.239554 0.172201
0.890837 0.292769 0.227234
0.921564 0.356603 0.290903
0.944460 0.431454 0.363664
0.961730 0.519575 0.449980
0.974303 0.603817 0.545187
0.983199 0.676977 0.629418
0.989617 0.740306 0.702446
0.994076 0.792220 0.762286
0.997261 0.835438 0.812024
0.999455 0.869889 0.851582
1.000003 0.897993 0.883768
1.000003 0.920385 0.909344
1.000003 0.937913 0.929313
1.000003 0.952071 0.945403
1.000003 0.963245 0.958070
1.000003 0.972399 0.968426
0.003663 0.113141 0.003505
0.003825 0.113007 0.003505
0.004774 0.112824 0.003505
0.013363 0.112582 0.003505
0.055841 0.112221 0.003505
0.101775 0.111414 0.003505
0.142844 0.107882 0.003663
0.191732 0.104842 0.004960
0.247900 0.103337 0.009577
0.312114 0.104013 0.018255
0.385681 0.107467 0.028540
0.476101 0.115000 0.041069
0.578478 0.128547 0.057051
0.665738 0.147711 0.075830
0.740460 0.173673 0.099473
0.802451 0.207167 0.130271
0.852420 0.249020 0.171890
0.891945 0.300661 0.227750
0.922440 0.363493 0.292205
0.945141 0.437805 0.365701
0.962249 0.525131 0.452787
0.974693 0.608185 0.548236
0.983489 0.680464 0.632284
0.989830 0.743106 0.705014
0.994233 0.794490 0.764522
0.997375 0.837279 0.813924
0.999538 0.871388 0.853177
1.000003 0.899210 0.885089
1.000003 0.921372 0.910430
1.000003 0.938716 0.930204
1.000003 0.952722 0.946127
1.000003 0.963771 0.958658
1.000003 0.972820 0.968897
0.005179 0.161027 0.003505
0.006177 0.160925 0.003505
0.008819 0.160786 0.003505
0.016837 0.160601 0.003505
0.043114 0.160324 0.003505
0.095295 0.159698 0.003505
0.146233 0.158690 0.003663
0.194568 0.154823 0.004176
0.250623 0.152228 0.007091
0.315006 0.151277 0.014608
0.388951 0.152311 0.024690
0.480427 0.156283 0.037375
0.582367 0.164867 0.053644
0.669237 0.178667 0.072844
0.743537 0.199349 0.097019
0.805086 0.228195 0.128486
0.854617 0.266316 0.170993
0.893728 0.315169 0.228282
0.923853 0.376095 0.294123
0.946242 0.449283 0.368897
0.963087 0.534805 0.457305
0.975322 0.615677 0.553150
0.983958 0.686365 0.636923
0.990176 0.747794 0.709183
0.994486 0.798260 0.768155
0.997559 0.840316 0.817013
0.999672 0.873852 0.855771
1.000003 0.901204 0.887238
1.000003 0.922987 0.912196
1.000003 0.940028 0.931652
1.000003 0.953782 0.947304
1.000003 0.964627 0.959613
1.000003 0.973505 0.969662
0.011420 0.219005 0.003897
0.013623 0.218914 0.003897
0.017307 0.218791 0.003897
0.023849 0.218627 0.003917
0.038477 0.218381 0.003917
0.087666 0.217817 0.003917
0.139525 0.216878 0.003955
0.198790 0.215615 0.004006
0.254541 0.211200 0.005214
0.319068 0.208461 0.010262
0.393486 0.207467 0.019638
0.486269 0.208771 0.032189
0.587447 0.213532 0.048574
0.673786 0.222647 0.068162
0.747536 0.237942 0.092921
0.808520 0.261244 0.125189
0.857491 0.294264 0.168810
0.896070 0.338854 0.228163
0.925714 0.396561 0.296128
0.947694 0.467618 0.372812
0.964196 0.549376 0.463159
0.976155 0.626693 0.559579
0.984580 0.694856 0.643060
0.990633 0.754415 0.714731
0.994823 0.803510 0.773006
0.997803 0.844503 0.821148
0.999849 0.877221 0.859246
1.000003 0.903916 0.890118
1.000003 0.925174 0.914564
1.000003 0.941799 0.933593
1.000003 0.955211 0.948884
1.000003 0.965780 0.960893
1.000003 0.974426 0.970689
0.023099 0.287238 0.004624
0.025402 0.287149 0.004631
0.028912 0.287028 0.004637
0.034408 0.286868 0.004643
0.044826 0.286627 0.004656
0.082234 0.286070 0.004681
0.133773 0.285124 0.004722
0.191606 0.283785 0.004780
0.259559 0.282262 0.004873
0.324018 0.277027 0.006906
0.398840 0.273753 0.014422
0.492685 0.272578 0.026268
0.592758 0.274140 0.042302
0.678484 0.279275 0.061960
0.751665 0.289626 0.087066
0.812085 0.307230 0.119955
0.860497 0.334305 0.164561
0.898539 0.373288 0.226294
0.927691 0.426248 0.297088
0.949247 0.493593 0.376232
0.965387 0.568555 0.469015
0.977053 0.640756 0.566255
0.985252 0.705365 0.649599
0.991130 0.762384 0.720726
0.995188 0.809688 0.778292
0.998069 0.849343 0.825675
1.000003 0.881067 0.863063
1.000003 0.906983 0.893288
1.000003 0.927632 0.917174
1.000003 0.943781 0.935735
1.000003 0.956805 0.950627
1.000003 0.967063 0.962307
1.000003 0.975449 0.971822
0.039159 0.367320 0.006103
0.041351 0.367229 0.006113
0.044553 0.367106 0.006119
0.049291 0.366942 0.006131
0.057581 0.366696 0.006143
0.084114 0.366124 0.006177
0.131654 0.365139 0.006225
0.186531 0.363701 0.006293
0.251522 0.361945 0.006388
0.328450 0.357893 0.007804
0.404768 0.353766 0.010000
0.498841 0.349771 0.020530
0.597347 0.348217 0.035579
0.682401 0.349696 0.054748
0.755093 0.355488 0.079666
0.815079 0.367516 0.112636
0.863068 0.388208 0.157641
0.900692 0.420477 0.221395
0.929445 0.467078 0.295660
0.950645 0.526586 0.377702
0.966473 0.592193 0.473277
0.977881 0.657546 0.571790
0.985876 0.717450 0.655368
0.991593 0.771205 0.726197
0.995530 0.816304 0.783211
0.998319 0.854386 0.829940
1.000003 0.884994 0.866689
1.000003 0.910067 0.896316
1.000003 0.930077 0.919677
1.000003 0.945738 0.937795
1.000003 0.958370 0.952308
1.000003 0.968319 0.963673
1.000003 0.976447 0.972918
0.060786 0.461536 0.009216
0.062808 0.461441 0.009226
0.065699 0.461312 0.009236
0.069854 0.461139 0.009250
0.076824 0.460880 0.009268
0.097236 0.460276 0.009310
0.136278 0.459229 0.009369
0.185766 0.457675 0.009437
0.246414 0.455707 0.009520
0.320581 0.453475 0.009692
0.411448 0.451209 0.010178
0.503129 0.443584 0.015633
0.600420 0.438544 0.029257
0.684675 0.436307 0.047287
0.757016 0.437679 0.071289
0.816818 0.444254 0.103496
0.864651 0.458353 0.147869
0.902098 0.483076 0.212113
0.930652 0.519879 0.290395
0.951650 0.566239 0.375610
0.967281 0.620394 0.474161
0.978514 0.677074 0.574728
0.986364 0.730971 0.659193
0.991961 0.780622 0.730207
0.995806 0.823045 0.787014
0.998522 0.859313 0.833348
1.000003 0.888701 0.869649
1.000003 0.912904 0.898826
1.000003 0.932283 0.921773
1.000003 0.947481 0.939534
1.000003 0.959752 0.953735
1.000003 0.969421 0.964840
1.000003 0.977321 0.973858
0.089416 0.561543 0.015038
0.091266 0.561460 0.015045
0.093881 0.561349 0.015055
0.097585 0.561200 0.015067
0.103661 0.560977 0.015084
0.120426 0.560455 0.015118
0.149801 0.559547 0.015161
0.191655 0.558184 0.015193
0.246206 0.556422 0.015208
0.315035 0.554337 0.015269
0.400731 0.552038 0.015556
0.504186 0.549748 0.016438
0.597619 0.541950 0.023604
0.684449 0.536534 0.040554
0.756618 0.533837 0.062930
0.816573 0.534889 0.093414
0.864646 0.541338 0.135851
0.902290 0.555302 0.197858
0.930962 0.578625 0.279990
0.952002 0.611257 0.368328
0.967626 0.652738 0.469721
0.978822 0.699225 0.573423
0.986623 0.745818 0.659751
0.992170 0.790448 0.731714
0.995971 0.829662 0.788885
0.998648 0.863846 0.835263
1.000003 0.891919 0.871442
1.000003 0.915246 0.900423
1.000003 0.934036 0.923155
1.000003 0.948828 0.940710
1.000003 0.960801 0.954719
1.000003 0.970247 0.965656
1.000003 0.977971 0.974525
0.128057 0.649311 0.023435
0.129766 0.649244 0.023440
0.132159 0.649155 0.023446
0.135392 0.649036 0.023454
0.140294 0.648856 0.023465
0.151923 0.648439 0.023485
0.172871 0.647712 0.023500
0.206144 0.646622 0.023485
0.252968 0.645204 0.023421
0.314932 0.643499 0.023346
0.394288 0.641548 0.023412
0.492107 0.639460 0.023939
0.593572 0.637350 0.025518
0.676204 0.630378 0.034266
0.753731 0.625262 0.055747
0.814620 0.622526 0.084016
0.863276 0.623146 0.123486
0.901362 0.628676 0.181380
0.930366 0.640963 0.264521
0.951663 0.661065 0.355449
0.967464 0.689724 0.459155
0.978767 0.724941 0.566956
0.986626 0.762904 0.656314
0.992200 0.801362 0.730180
0.996009 0.836588 0.788429
0.998687 0.868225 0.835395
1.000003 0.894760 0.871856
1.000003 0.917132 0.900952
1.000003 0.935334 0.923703
1.000003 0.949760 0.941230
1.000003 0.961489 0.955190
1.000003 0.970770 0.966068
1.000003 0.978374 0.974877
0.174418 0.722649 0.035088
0.175493 0.722596 0.035090
0.176971 0.722525 0.035092
0.178986 0.722430 0.035095
0.182106 0.722288 0.035098
0.189808 0.721956 0.035098
0.204605 0.721381 0.035080
0.229999 0.720524 0.035012
0.268439 0.719410 0.034864
0.322269 0.718064 0.034651
0.393962 0.716500 0.034489
0.484691 0.714767 0.034653
0.582786 0.712900 0.035648
0.670486 0.711021 0.038324
0.742913 0.704907 0.049411
0.810591 0.700240 0.076814
0.860580 0.697621 0.112960
0.899529 0.697945 0.165917
0.929149 0.702636 0.246370
0.950864 0.713028 0.339014
0.966960 0.730478 0.444171
0.978463 0.754647 0.556212
0.986448 0.783269 0.649533
0.992103 0.814516 0.726135
0.995959 0.844828 0.786106
0.998664 0.873239 0.834143
1.000003 0.897815 0.871231
1.000003 0.918995 0.900695
1.000003 0.936495 0.923653
1.000003 0.950514 0.941288
1.000003 0.961994 0.955302
1.000003 0.971124 0.966202
1.000003 0.978629 0.975014
0.223643 0.783004 0.051119
0.224350 0.782963 0.051117
0.225327 0.782907 0.051114
0.226667 0.782832 0.051110
0.228764 0.782719 0.051102
0.234037 0.782458 0.051078
0.244529 0.782007 0.051019
0.263473 0.781338 0.050888
0.293886 0.780474 0.050650
0.338931 0.779435 0.050300
0.401748 0.778222 0.049913
0.483964 0.776857 0.049716
0.575967 0.775340 0.050138
0.661057 0.773721 0.051910
0.735570 0.772063 0.056278
0.797685 0.766812 0.070435
0.855803 0.762648 0.105685
0.896415 0.760211 0.153407
0.927065 0.760325 0.227262
0.949461 0.764120 0.319969
0.966036 0.772957 0.425152
0.977866 0.787513 0.540714
0.986069 0.807012 0.638916
0.991866 0.830457 0.719179
0.995813 0.855001 0.781619
0.998575 0.879395 0.831303
1.000003 0.901446 0.869430
1.000003 0.921068 0.899564
1.000003 0.937662 0.922944
1.000003 0.951172 0.940845
1.000003 0.962363 0.955030
1.000003 0.971335 0.966039
1.000003 0.978751 0.974923
0.277702 0.831774 0.072968
0.278184 0.831741 0.072961
0.278853 0.831697 0.072951
0.279775 0.831638 0.072937
0.281224 0.831549 0.072915
0.284912 0.831343 0.072859
0.292408 0.830990 0.072746
0.306402 0.830471 0.072539
0.329870 0.829806 0.072200
0.366355 0.829011 0.071710
0.419656 0.828088 0.071105
0.492073 0.827046 0.070557
0.574923 0.825868 0.070422
0.654985 0.824575 0.071338
0.727507 0.823181 0.074360
0.789578 0.821740 0.081264
0.841885 0.817302 0.099603
0.891453 0.813622 0.146199
0.923928 0.811422 0.211723
0.947393 0.811372 0.301257
0.964669 0.814481 0.404232
0.976967 0.821744 0.521121
0.985480 0.833373 0.624511
0.991487 0.849236 0.709167
0.995569 0.867562 0.774821
0.998420 0.887243 0.826778
1.000003 0.906131 0.866405
1.000003 0.923713 0.897545
1.000003 0.939085 0.921585
1.000003 0.951905 0.939915
1.000003 0.962708 0.954393
1.000003 0.971476 0.965599
1.000003 0.978787 0.974623
0.337933 0.870613 0.102719
0.338267 0.870587 0.102705
0.338732 0.870552 0.102685
0.339373 0.870505 0.102658
0.340388 0.870435 0.102617
0.342991 0.870274 0.102517
0.348372 0.869998 0.102332
0.358669 0.869594 0.102022
0.376509 0.869083 0.101557
0.405343 0.868478 0.100907
0.449268 0.867782 0.100078
0.510443 0.866998 0.099189
0.581419 0.866109 0.098513
0.653765 0.865118 0.098608
0.722219 0.864021 0.100395
0.782804 0.862834 0.105385
0.833707 0.861597 0.116118
0.877512 0.857866 0.140955
0.919168 0.854660 0.204786
0.944454 0.852737 0.286894
0.962787 0.852582 0.384611
0.975740 0.855064 0.499225
0.984671 0.860787 0.607014
0.990960 0.870169 0.696257
0.995225 0.882491 0.765669
0.998199 0.897112 0.820480
1.000003 0.912288 0.862084
1.000003 0.927301 0.894595
1.000003 0.941050 0.919555
1.000003 0.952914 0.938496
1.000003 0.963165 0.953396
1.000003 0.971637 0.964891
1.000003 0.978797 0.974123
0.405971 0.901400 0.144082
0.406200 0.901380 0.144057
0.406520 0.901352 0.144023
0.406964 0.901316 0.143977
0.407669 0.901261 0.143907
0.409498 0.901135 0.143745
0.413343 0.900919 0.143453
0.420870 0.900606 0.142993
0.434274 0.900213 0.142345
0.456637 0.899753 0.141482
0.491823 0.899230 0.140386
0.539326 0.898647 0.139128
0.596711 0.897987 0.137901
0.658871 0.897247 0.137176
0.720914 0.896416 0.137770
0.778255 0.895495 0.141037
0.828056 0.894496 0.149170
0.869581 0.893440 0.166079
0.905761 0.890339 0.201313
0.940042 0.887607 0.281423
0.960162 0.885898 0.370131
0.974094 0.885681 0.478059
0.983605 0.887551 0.587840
0.990267 0.892080 0.680934
0.994770 0.899277 0.754221
0.997904 0.909015 0.812316
1.000003 0.920200 0.856353
1.000003 0.932184 0.890623
1.000003 0.943867 0.916796
1.000003 0.954437 0.936553
1.000003 0.963900 0.952023
1.000003 0.971930 0.963910
1.000003 0.978851 0.973423
0.482955 0.925534 0.203328
0.483106 0.925519 0.203286
0.483320 0.925497 0.203231
0.483616 0.925468 0.203154
0.484091 0.925425 0.203041
0.485340 0.925327 0.202777
0.488013 0.925159 0.202316
0.493338 0.924916 0.201617
0.502907 0.924614 0.200679
0.518783 0.924264 0.199485
0.543206 0.923871 0.198006
0.577201 0.923438 0.196277
0.620872 0.922952 0.194413
0.671313 0.922408 0.192799
0.724818 0.921794 0.192153
0.776957 0.921104 0.193738
0.824215 0.920338 0.199582
0.864926 0.919499 0.213122
0.898416 0.918607 0.238548
0.927332 0.916097 0.277774
0.956243 0.913713 0.365081
0.971824 0.912243 0.462552
0.982198 0.911973 0.569642
0.989372 0.913376 0.664482
0.994189 0.916778 0.740978
0.997527 0.922390 0.802395
0.999762 0.929764 0.849172
1.000003 0.938518 0.885553
1.000003 0.947780 0.913239
1.000003 0.956707 0.934039
1.000003 0.965097 0.950244
1.000003 0.972487 0.962638
1.000003 0.979036 0.972517
0.559811 0.944017 0.281604
0.559887 0.944004 0.281552
0.559994 0.943987 0.281480
0.560144 0.943965 0.281385
0.560390 0.943931 0.281243
0.561053 0.943854 0.280913
0.562530 0.943723 0.280346
0.565605 0.943534 0.279505
0.571361 0.943300 0.278415
0.581287 0.943032 0.277082
0.597194 0.942735 0.275476
0.620413 0.942412 0.273604
0.651950 0.942053 0.271484
0.690703 0.941654 0.269341
0.734499 0.941204 0.267652
0.779785 0.940695 0.267357
0.822982 0.940123 0.269950
0.861755 0.939484 0.277539
0.894672 0.938782 0.292688
0.921055 0.938045 0.317569
0.944949 0.935956 0.359099
0.968493 0.933931 0.457070
0.980295 0.932699 0.556190
0.988221 0.932407 0.649268
0.993460 0.933419 0.727231
0.997060 0.936050 0.791331
0.999459 0.940284 0.840793
1.000003 0.946038 0.879467
1.000003 0.952786 0.908903
1.000003 0.959836 0.930953
1.000003 0.966896 0.948058
1.000003 0.973431 0.961078
1.000003 0.979448 0.971410
0.629773 0.958507 0.365524
0.629803 0.958497 0.365464
0.629846 0.958484 0.365382
0.629908 0.958467 0.365274
0.630014 0.958440 0.365112
0.630317 0.958380 0.364737
0.631051 0.958278 0.364099
0.632699 0.958132 0.363170
0.635976 0.957951 0.361996
0.641896 0.957747 0.360609
0.651784 0.957522 0.359002
0.666860 0.957281 0.357177
0.688392 0.957017 0.355107
0.716431 0.956726 0.352887
0.750189 0.956400 0.350746
0.787396 0.956031 0.349235
0.825041 0.955613 0.349325
0.860579 0.955141 0.352526
0.892000 0.954612 0.360929
0.917976 0.954041 0.376744
0.939255 0.953421 0.403146
0.958330 0.951732 0.447295
0.977386 0.950036 0.550742
0.986610 0.948969 0.637548
0.992493 0.948659 0.714220
0.996460 0.949370 0.779629
0.999075 0.951286 0.831316
1.000003 0.954519 0.872278
1.000003 0.958886 0.903643
1.000003 0.963954 0.927156
1.000003 0.969468 0.945352
1.000003 0.974918 0.959148
1.000003 0.980205 0.970044
0.690895 0.969586 0.456010
0.690899 0.969578 0.455941
0.690906 0.969568 0.455847
0.690918 0.969554 0.455722
0.690944 0.969534 0.455535
0.691041 0.969487 0.455105
0.691340 0.969407 0.454378
0.692138 0.969294 0.453328
0.693898 0.969155 0.452025
0.697290 0.968997 0.450520
0.703227 0.968827 0.448827
0.712665 0.968646 0.446960
0.726759 0.968450 0.444872
0.746078 0.968238 0.442594
0.770737 0.968001 0.440220
0.799679 0.967735 0.438055
0.830847 0.967434 0.436718
0.862005 0.967090 0.437257
0.890933 0.966701 0.441269
0.915798 0.966274 0.450668
0.936785 0.965797 0.468253
0.953530 0.965287 0.496355
0.968272 0.963958 0.538067
0.984138 0.962501 0.632147
0.991149 0.961607 0.704248
0.995673 0.961287 0.768756
0.998589 0.961754 0.821559
1.000003 0.963180 0.864381
1.000003 0.965604 0.897620
1.000003 0.968850 0.922698
1.000003 0.972780 0.942132
1.000003 0.977006 0.956838
1.000003 0.981393 0.968411
0.742463 0.977886 0.547271
0.742453 0.977880 0.547203
0.742441 0.977872 0.547113
0.742427 0.977861 0.546992
0.742411 0.977845 0.546813
0.742398 0.977808 0.546400
0.742458 0.977746 0.545702
0.742773 0.977658 0.544698
0.743646 0.977549 0.543461
0.745519 0.977428 0.542051
0.749003 0.977297 0.540493
0.754788 0.977159 0.538806
0.763783 0.977013 0.536948
0.776671 0.976856 0.534920
0.793979 0.976683 0.532728
0.815491 0.976490 0.530509
0.840108 0.976272 0.528596
0.866228 0.976023 0.527621
0.891831 0.975739 0.528635
0.914866 0.975423 0.532996
0.935034 0.975067 0.542540
0.951589 0.974675 0.558844
0.964505 0.974263 0.582424
0.976346 0.973183 0.618002
0.989072 0.971970 0.698820
0.994593 0.971203 0.760336
0.997962 0.970906 0.812635
1.000003 0.971224 0.856442
1.000003 0.972285 0.891194
1.000003 0.974087 0.917756
1.000003 0.976605 0.938475
1.000003 0.979617 0.954181
1.000003 0.983019 0.966524
0.786668 0.984274 0.626545
0.786652 0.984269 0.626486
0.786631 0.984263 0.626406
0.786604 0.984254 0.626301
0.786567 0.984242 0.626143
0.786497 0.984213 0.625780
0.786429 0.984165 0.625168
0.786473 0.984096 0.624292
0.786829 0.984012 0.623220
0.787786 0.983918 0.622011
0.789744 0.983817 0.620696
0.793176 0.983712 0.619300
0.798741 0.983602 0.617792
0.807042 0.983485 0.616170
0.818699 0.983359 0.614408
0.833954 0.983219 0.612547
0.852441 0.983062 0.610729
0.873270 0.982882 0.609258
0.894911 0.982677 0.608716
0.915423 0.982448 0.609958
0.934187 0.982185 0.614181
0.950146 0.981894 0.622686
0.962939 0.981581 0.636334
0.973175 0.981241 0.656114
0.982222 0.980401 0.684148
0.992813 0.979359 0.754541
0.997067 0.978718 0.805312
0.999669 0.978435 0.848909
1.000003 0.978638 0.884561
1.000003 0.979401 0.912375
1.000003 0.980776 0.934345
1.000003 0.982686 0.951112
1.000003 0.985095 0.964315
0.823092 0.989038 0.691751
0.823074 0.989035 0.691699
0.823049 0.989030 0.691630
0.823018 0.989023 0.691538
0.822973 0.989013 0.691401
0.822878 0.988991 0.691087
0.822750 0.988953 0.690556
0.822654 0.988899 0.689800
0.822729 0.988833 0.688877
0.823162 0.988760 0.687845
0.824218 0.988682 0.686734
0.826218 0.988601 0.685572
0.829616 0.988517 0.684340
0.834882 0.988429 0.683035
0.842572 0.988335 0.681627
0.853088 0.988232 0.680121
0.866490 0.988118 0.678566
0.882450 0.987988 0.677099
0.900009 0.987839 0.676021
0.917582 0.987672 0.675841
0.934457 0.987480 0.677289
0.949410 0.987265 0.681302
0.961792 0.987031 0.688688
0.971951 0.986773 0.700426
0.979818 0.986501 0.716507
0.987082 0.985817 0.739988
0.995569 0.984951 0.799360
0.998962 0.984399 0.842689
1.000003 0.984149 0.878381
1.000003 0.984277 0.906984
1.000003 0.984857 0.930001
1.000003 0.985905 0.947775
1.000003 0.987445 0.961861
0.853923 0.992713 0.746665
0.853904 0.992710 0.746620
0.853880 0.992706 0.746561
0.853848 0.992701 0.746482
0.853801 0.992693 0.746365
0.853699 0.992675 0.746095
0.853547 0.992646 0.745641
0.853385 0.992603 0.744994
0.853307 0.992552 0.744207
0.853440 0.992495 0.743331
0.853956 0.992435 0.742397
0.855069 0.992373 0.741430
0.857083 0.992308 0.740420
0.860339 0.992242 0.739365
0.865272 0.992172 0.738244
0.872289 0.992096 0.737045
0.881639 0.992013 0.735779
0.893352 0.991918 0.734496
0.906969 0.991811 0.733341
0.921376 0.991690 0.732600
0.935957 0.991551 0.732685
0.949495 0.991394 0.734215
0.961148 0.991222 0.737815
0.971008 0.991030 0.744270
0.978828 0.990824 0.753895
0.985081 0.990600 0.767236
0.990633 0.990069 0.785520
0.997673 0.989327 0.836436
1.000003 0.988860 0.872909
1.000003 0.988638 0.901726
1.000003 0.988714 0.925487
1.000003 0.989143 0.944154
1.000003 0.989981 0.959114
0.879130 0.995462 0.791254
0.879113 0.995459 0.791217
0.879090 0.995456 0.791166
0.879059 0.995452 0.791099
0.879014 0.995446 0.790998
0.878915 0.995432 0.790768
0.878760 0.995409 0.790380
0.878573 0.995376 0.789827
0.878422 0.995336 0.789158
0.878393 0.995291 0.788415
0.878603 0.995244 0.787626
0.879192 0.995195 0.786818
