RWG/RWG_Log3G10 to REC2020_BT1886 with MEDIUM_CONTRAST and R_2_Medium size_33 v1.13.cube
# RED Digital Cinema Output Transform LUT for IPP2
# LUT Name = RWG_Log3G10 to REC2020_BT1886 with MEDIUM_CONTRAST and R_2_Medium size_33 v1.13
# Generated by version 1.13
# Settings used in creation of this LUT are:
# Development Color Space = REC2020
# Output Gamma Curve = BT1886
# Output Tonemap = MEDIUM_CONTRAST
# Highlight Rolloff = Rolloff 2 - medium
# Resolution = 33 x 33 x 33
TITLE "RED IPP2 LUT to map REDWideGamutRGB/Log3G10 to REC2020/BT1886/MEDIUM_CONTRAST/Rolloff 2 - medium"
LUT_3D_SIZE 9
0.000000 0.000000 0.000000
0.057505 0.003505 0.003505
0.244448 0.021325 0.014346
0.573277 0.085751 0.061067
0.849485 0.229659 0.172372
0.961136 0.513539 0.446766
0.993896 0.789666 0.759735
1.000003 0.919262 0.908105
1.000003 0.971919 0.967888
0.003505 0.073106 0.003505
0.062900 0.071610 0.003505
0.246276 0.059720 0.011694
0.576058 0.105686 0.058992
0.851054 0.239554 0.172201
0.961730 0.519575 0.449980
0.994076 0.792220 0.762286
1.000003 0.920385 0.909344
1.000003 0.972399 0.968426
0.023099 0.287238 0.004624
0.044826 0.286627 0.004656
0.259559 0.282262 0.004873
0.592758 0.274140 0.042302
0.860497 0.334305 0.164561
0.965387 0.568555 0.469015
0.995188 0.809688 0.778292
1.000003 0.927632 0.917174
1.000003 0.975449 0.971822
0.128057 0.649311 0.023435
0.140294 0.648856 0.023465
0.252968 0.645204 0.023421
0.593572 0.637350 0.025518
0.863276 0.623146 0.123486
0.967464 0.689724 0.459155
0.996009 0.836588 0.788429
1.000003 0.935334 0.923703
1.000003 0.978374 0.974877
0.337933 0.870613 0.102719
0.340388 0.870435 0.102617
0.376509 0.869083 0.101557
0.581419 0.866109 0.098513
0.833707 0.861597 0.116118
0.962787 0.852582 0.384611
0.995225 0.882491 0.765669
1.000003 0.941050 0.919555
1.000003 0.978797 0.974123
0.629773 0.958507 0.365524
0.630014 0.958440 0.365112
0.635976 0.957951 0.361996
0.688392 0.957017 0.355107
0.825041 0.955613 0.349325
0.939255 0.953421 0.403146
0.992493 0.948659 0.714220
1.000003 0.958886 0.903643
1.000003 0.980205 0.970044
0.823092 0.989038 0.691751
0.822973 0.989013 0.691401
0.822729 0.988833 0.688877
0.829616 0.988517 0.684340
0.866490 0.988118 0.678566
0.934457 0.987480 0.677289
0.979818 0.986501 0.716507
1.000003 0.984149 0.878381
1.000003 0.987445 0.961861
0.917927 0.999205 0.859102
0.917832 0.999195 0.858918
0.917249 0.999127 0.857597
0.917468 0.999012 0.855364
0.924007 0.998885 0.852916
0.947040 0.998708 0.850140
0.977495 0.998421 0.851429
0.994879 0.997997 0.870795
1.000003 0.996850 0.950052
0.963026 1.000003 0.936248
0.962972 1.000003 0.936154
0.962603 1.000003 0.935481
0.962200 1.000003 0.934364
0.963002 1.000003 0.933233
0.968299 1.000003 0.931994
0.980985 1.000003 0.930858
0.993813 1.000003 0.932325
1.000003 1.000003 0.941691
0.003505 0.003505 0.066219
0.052638 0.003505 0.065785
0.243720 0.017003 0.040258
0.572965 0.082257 0.074726
0.849449 0.228012 0.181626
0.961146 0.513151 0.449525
0.993902 0.789695 0.760155
1.000003 0.919303 0.908193
1.000003 0.971941 0.967917
0.003505 0.057625 0.060174
0.058073 0.058073 0.058073
0.245420 0.048504 0.034840
0.575594 0.101187 0.072723
0.850943 0.237782 0.181692
0.961714 0.519011 0.452669
0.994074 0.792149 0.762601
1.000003 0.920379 0.909379
1.000003 0.972401 0.968433
0.021636 0.284123 0.007069
0.042281 0.284183 0.006906
0.258747 0.279657 0.008010
0.592333 0.271849 0.051319
0.860399 0.332944 0.172606
0.965374 0.568117 0.471453
0.995187 0.809633 0.778553
1.000003 0.927629 0.917204
1.000003 0.975451 0.971828
0.127088 0.648147 0.026523
0.139406 0.648257 0.026403
0.252416 0.644543 0.026584
0.593404 0.636626 0.029157
0.863196 0.622570 0.128380
0.967452 0.689506 0.461323
0.996009 0.836553 0.788649
1.000003 0.935334 0.923730
1.000003 0.978377 0.974884
0.337455 0.870342 0.104905
0.340302 0.870414 0.104887
0.376395 0.869053 0.103983
0.581347 0.866064 0.101140
0.833742 0.861547 0.119265
0.962779 0.852552 0.386596
0.995224 0.882484 0.765909
1.000003 0.941052 0.919584
1.000003 0.978800 0.974130
0.629391 0.958428 0.366231
0.630126 0.958460 0.366408
0.636075 0.957970 0.363379
0.688450 0.957033 0.356641
0.825078 0.955628 0.350975
0.938280 0.952570 0.402064
0.992493 0.948674 0.714530
1.000003 0.958895 0.903677
1.000003 0.980209 0.970052
0.822882 0.989011 0.691571
0.823061 0.989024 0.691745
0.822814 0.988844 0.689236
0.829690 0.988527 0.684728
0.866538 0.988128 0.678985
0.934484 0.987490 0.677719
0.979832 0.986511 0.716865
1.000003 0.984159 0.878438
1.000003 0.987451 0.961871
0.917816 0.999195 0.858937
0.917883 0.999200 0.859031
0.917299 0.999132 0.857712
0.917516 0.999017 0.855483
0.924047 0.998890 0.853039
0.947065 0.998712 0.850268
0.977509 0.998425 0.851555
0.994886 0.998002 0.870903
1.000003 0.996854 0.950071
0.962968 1.000003 0.936155
0.962999 1.000003 0.936204
0.962630 1.000003 0.935531
0.962226 1.000003 0.934414
0.963027 1.000003 0.933284
0.968318 1.000003 0.932046
0.980996 1.000003 0.930912
0.993819 1.000003 0.932376
1.000003 1.000003 0.941735
0.010230 0.004298 0.265567
0.022583 0.004307 0.265711
0.234952 0.004418 0.265157
0.567918 0.051224 0.247733
0.848025 0.206507 0.277319
0.960901 0.505895 0.481850
0.993868 0.788651 0.763908
1.000003 0.919155 0.908554
1.000003 0.971928 0.967963
0.009749 0.006445 0.265457
0.023035 0.006391 0.265049
0.236598 0.006945 0.264387
0.570531 0.063868 0.246282
0.849521 0.217006 0.277313
0.961470 0.511899 0.484776
0.994040 0.791119 0.766264
1.000003 0.920231 0.909728
1.000003 0.972387 0.968476
0.007790 0.248244 0.254086
0.019235 0.248270 0.253635
0.248774 0.248774 0.248774
0.586142 0.244572 0.227339
0.858469 0.315234 0.270868
0.964959 0.560961 0.501386
0.995103 0.808037 0.781010
1.000003 0.927181 0.917139
1.000003 0.975305 0.971713
0.113982 0.634829 0.124896
0.126529 0.634948 0.124070
0.245212 0.635426 0.116549
0.590431 0.626607 0.140207
0.861480 0.614476 0.211042
0.967074 0.685833 0.488547
0.995936 0.835401 0.790622
1.000003 0.934972 0.923649
1.000003 0.978258 0.974786
0.332373 0.867658 0.143866
0.335348 0.867732 0.143723
0.374154 0.868166 0.142187
0.579774 0.864978 0.143567
0.833678 0.860391 0.171245
0.962437 0.851767 0.411971
0.995149 0.882013 0.768083
1.000003 0.940788 0.919506
1.000003 0.978696 0.974036
0.626311 0.957774 0.380037
0.627075 0.957806 0.380162
0.636437 0.958015 0.380828
0.688568 0.957052 0.376223
0.825196 0.955624 0.372225
0.939457 0.953431 0.424480
0.992418 0.948701 0.717608
1.000003 0.958842 0.903615
1.000003 0.980141 0.969949
0.821347 0.988807 0.691768
0.821530 0.988820 0.691929
0.823369 0.988905 0.693013
0.830161 0.988585 0.688906
0.866834 0.988183 0.683594
0.934653 0.987544 0.682544
0.979930 0.986567 0.720799
1.000003 0.984214 0.878626
1.000003 0.987455 0.961756
0.917021 0.999123 0.857966
0.917088 0.999127 0.858059
0.917642 0.999161 0.858693
0.917842 0.999045 0.856520
0.924317 0.998918 0.854139
0.947232 0.998740 0.851428
0.977599 0.998454 0.852711
0.994931 0.998032 0.871872
1.000003 0.996883 0.950043
0.962555 1.000003 0.935525
0.962586 1.000003 0.935573
0.962817 1.000003 0.935907
0.962410 1.000003 0.934799
0.963199 1.000003 0.933680
0.968453 1.000003 0.932454
0.981077 1.000003 0.931328
0.993861 1.000003 0.932781
1.000003 1.000003 0.942083
0.029732 0.007003 0.601367
0.035793 0.007008 0.601848
0.186722 0.007071 0.603779
0.530928 0.009093 0.600529
0.834943 0.108878 0.573802
0.957305 0.449243 0.615859
0.993024 0.774002 0.778331
1.000003 0.914493 0.906854
1.000003 0.970240 0.966471
0.029380 0.008489 0.603067
0.035842 0.008453 0.602896
0.187250 0.008565 0.604797
0.533324 0.011537 0.601527
0.836426 0.116480 0.574605
0.957891 0.455661 0.617554
0.993204 0.776607 0.780279
1.000003 0.915604 0.907986
1.000003 0.970712 0.966989
0.027388 0.094619 0.607850
0.033161 0.094191 0.607701
0.191431 0.091769 0.605099
0.548939 0.108819 0.602681
0.845218 0.227041 0.575367
0.961471 0.511957 0.627022
0.994310 0.794562 0.792533
1.000003 0.922781 0.915144
1.000003 0.973714 0.970257
0.055485 0.572079 0.584588
0.063601 0.572162 0.584486
0.207733 0.572402 0.582457
0.572650 0.572650 0.572650
0.846733 0.566283 0.545351
0.963138 0.656841 0.619219
0.995059 0.823347 0.799588
1.000003 0.930357 0.920834
1.000003 0.976520 0.973091
0.306855 0.855652 0.453537
0.310153 0.855733 0.453264
0.352843 0.856217 0.450555
0.567567 0.856331 0.440783
0.830798 0.851119 0.468703
0.958661 0.844547 0.556465
0.994213 0.876546 0.778197
1.000003 0.937224 0.916544
1.000003 0.977087 0.972316
0.616758 0.955587 0.498289
0.617591 0.955621 0.498233
0.627870 0.955845 0.497605
0.685648 0.956072 0.494387
0.823829 0.954477 0.500762
0.939266 0.952255 0.542955
0.991415 0.947903 0.733355
1.000003 0.957539 0.900369
1.000003 0.978937 0.968026
0.818199 0.988325 0.709315
0.818389 0.988337 0.709418
0.820337 0.988425 0.710093
0.830351 0.988542 0.710759
0.866845 0.988114 0.708293
0.934701 0.987455 0.708860
0.980014 0.986483 0.742079
1.000003 0.984179 0.876853
1.000003 0.987088 0.959500
0.915634 0.998983 0.858959
0.915702 0.998987 0.859040
0.916270 0.999021 0.859599
0.918267 0.999070 0.860404
0.924652 0.998939 0.858466
0.947428 0.998759 0.856187
0.977708 0.998471 0.857571
0.994991 0.998051 0.875801
1.000003 0.996912 0.948231
0.961870 1.000003 0.934919
0.961902 1.000003 0.934965
0.962134 1.000003 0.935285
0.962685 1.000003 0.935769
0.963452 1.000003 0.934721
0.968649 1.000003 0.933572
0.981193 1.000003 0.932509
0.993923 1.000003 0.933943
1.000003 1.000003 0.943047
0.039135 0.008442 0.841505
0.042376 0.008438 0.841842
0.106515 0.008393 0.843545
0.475607 0.009202 0.843598
0.785045 0.019677 0.837732
0.946582 0.274799 0.816783
0.990373 0.720444 0.837062
1.000003 0.899281 0.908386
1.000003 0.964992 0.962928
0.038842 0.009278 0.842820
0.042303 0.009254 0.842806
0.106436 0.009200 0.844494
0.477041 0.010195 0.844520
0.786602 0.021442 0.838739
0.947226 0.281764 0.817786
0.990579 0.723626 0.838210
1.000003 0.900537 0.909354
1.000003 0.965516 0.963453
0.036393 0.030820 0.848775
0.039431 0.030711 0.848774
0.104906 0.029870 0.848039
0.485128 0.031798 0.848229
0.796750 0.050946 0.843856
0.951133 0.345230 0.823765
0.991844 0.745883 0.845585
1.000003 0.908674 0.915534
1.000003 0.968848 0.966781
0.045849 0.408595 0.847284
0.049189 0.408248 0.847289
0.106376 0.405453 0.846875
0.498910 0.402115 0.843635
0.809539 0.425537 0.840960
0.952496 0.556283 0.825052
0.992629 0.784211 0.851169
1.000003 0.917425 0.920633
1.000003 0.971933 0.969646
0.216828 0.820395 0.828878
0.221295 0.820469 0.828921
0.276420 0.820878 0.828928
0.528339 0.820818 0.826627
0.820629 0.820629 0.820629
0.947323 0.816448 0.806848
0.991299 0.856159 0.840829
1.000003 0.926082 0.916489
1.000003 0.972293 0.968365
0.586805 0.948771 0.768929
0.587785 0.948809 0.768886
0.599947 0.949062 0.768444
0.667553 0.949325 0.766399
0.816748 0.949149 0.760910
0.937400 0.946675 0.776708
0.988361 0.943508 0.811335
1.000003 0.953243 0.901473
1.000003 0.975386 0.963623
0.811587 0.987055 0.790455
0.811792 0.987069 0.790459
0.813923 0.987166 0.790443
0.825010 0.987297 0.790049
0.864729 0.987329 0.788300
0.933747 0.986570 0.793074
0.979765 0.985594 0.812516
0.999737 0.983605 0.882939
1.000003 0.985968 0.954491
0.913710 0.998719 0.873288
0.913780 0.998724 0.873335
0.914372 0.998760 0.873657
0.916514 0.998812 0.874090
0.924491 0.998844 0.874192
0.947256 0.998645 0.873698
0.977642 0.998343 0.875630
0.994986 0.997928 0.890394
1.000003 0.996864 0.944885
0.961114 1.000003 0.936745
0.961146 1.000003 0.936784
0.961381 1.000003 0.937051
0.961956 1.000003 0.937451
0.963595 1.000003 0.937759
0.968743 1.000003 0.936968
0.981240 1.000003 0.936211
0.993950 1.000003 0.937645
1.000003 1.000003 0.946025
0.033607 0.006794 0.948930
0.035129 0.006783 0.949099
0.061430 0.006682 0.950038
0.381989 0.006685 0.950306
0.759868 0.009234 0.948485
0.911031 0.040052 0.942413
0.985514 0.569108 0.928338
1.000003 0.865155 0.934984
1.000003 0.955195 0.963197
0.033239 0.007036 0.949603
0.034898 0.007023 0.949614
0.061087 0.006916 0.950544
0.382468 0.006919 0.950800
0.761088 0.009743 0.948965
0.911850 0.041527 0.942971
0.985764 0.574039 0.928910
1.000003 0.866776 0.935566
1.000003 0.955826 0.963652
0.030145 0.013255 0.953053
0.031549 0.013209 0.953069
0.057965 0.012858 0.952910
0.382596 0.013004 0.953074
0.768142 0.020025 0.951119
0.917257 0.060488 0.946287
0.987297 0.609560 0.932696
1.000003 0.877302 0.939397
1.000003 0.959835 0.966577
0.027637 0.151772 0.953058
0.028813 0.151315 0.953075
0.050966 0.147466 0.952966
0.378495 0.141300 0.951661
0.775860 0.156115 0.950742
0.924186 0.264482 0.948020
0.988114 0.678023 0.937145
1.000003 0.888826 0.943569
1.000003 0.963487 0.969294
0.088091 0.742479 0.947601
0.090031 0.742390 0.947628
0.119452 0.741560 0.947697
0.399721 0.739144 0.946981
0.784163 0.737565 0.944743
0.928529 0.751824 0.943097
0.986161 0.806314 0.935956
1.000003 0.902962 0.943455
1.000003 0.964053 0.968644
0.493439 0.932671 0.937192
0.470584 0.926302 0.931083
0.512667 0.932958 0.937406
0.609853 0.933174 0.937227
0.800013 0.932910 0.935594
0.932724 0.932724 0.932724
0.982808 0.930381 0.926809
0.999568 0.942850 0.937093
1.000003 0.968888 0.964827
0.793743 0.983518 0.913642
0.793979 0.983534 0.913644
0.796468 0.983646 0.913640
0.809669 0.983797 0.913420
0.856012 0.983838 0.912339
0.930322 0.983671 0.909893
0.978724 0.982610 0.916345
0.998154 0.981231 0.925719
1.000003 0.983797 0.957090
0.909550 0.997974 0.918568
0.909626 0.997980 0.918576
0.910267 0.998022 0.918618
0.912635 0.998083 0.918620
0.921506 0.998121 0.918346
0.945927 0.998102 0.917394
0.977042 0.997748 0.920107
0.994786 0.997336 0.927785
1.000003 0.996496 0.950710
0.959946 1.000003 0.947244
0.959978 1.000003 0.947264
0.960223 1.000003 0.947402
0.960832 1.000003 0.947601
0.962608 1.000003 0.947722
0.968498 1.000003 0.947642
0.981056 1.000003 0.947819
0.993865 1.000003 0.949279
1.000003 1.000003 0.955497
0.015779 0.004360 0.989464
0.016228 0.004352 0.989534
0.023615 0.004298 0.989959
0.185717 0.004188 0.989982
0.725834 0.004352 0.989461
0.902923 0.007634 0.987195
0.965233 0.081206 0.982324
0.998233 0.788450 0.973708
1.000003 0.936967 0.975542
0.015416 0.004377 0.989749
0.015947 0.004377 0.989757
0.023221 0.004326 0.990177
0.184774 0.004208 0.990195
0.726932 0.004368 0.989673
0.903638 0.007813 0.987404
0.965631 0.082812 0.982579
0.998327 0.790908 0.973986
1.000003 0.937806 0.975819
0.012728 0.004825 0.991346
0.013139 0.004819 0.991355
0.020200 0.004769 0.991347
0.176328 0.004592 0.991327
0.732963 0.004857 0.990777
0.908008 0.011882 0.988442
0.968280 0.100247 0.984185
0.998904 0.806910 0.975869
1.000003 0.943117 0.977655
0.007592 0.045788 0.990587
0.007772 0.045589 0.990600
0.011486 0.044063 0.990614
0.149299 0.040459 0.989881
0.727375 0.044284 0.989375
0.912070 0.072178 0.988064
0.971809 0.214503 0.985673
0.999272 0.824817 0.978566
1.000003 0.947748 0.979869
0.011178 0.596535 0.988413
0.011474 0.596078 0.988424
0.016781 0.592077 0.988423
0.149241 0.578820 0.987771
0.729157 0.571803 0.986849
0.914686 0.598477 0.986111
0.974017 0.678190 0.984827
0.998692 0.853104 0.980037
1.000003 0.948528 0.980795
0.223938 0.903712 0.983968
0.225365 0.903707 0.983984
0.247342 0.903630 0.984070
0.418883 0.903186 0.984004
0.745830 0.902098 0.983378
0.918275 0.901557 0.982143
0.975250 0.906937 0.981358
0.997313 0.922625 0.978493
1.000003 0.957376 0.980100
0.747653 0.976773 0.978997
0.747955 0.976790 0.979012
0.751310 0.976908 0.979114
0.770167 0.977058 0.979195
0.833659 0.977069 0.978930
0.924346 0.976861 0.977986
0.976762 0.976762 0.976762
0.995747 0.975626 0.974356
1.000003 0.979160 0.977015
0.900010 0.996236 0.969952
0.900095 0.996243 0.969958
0.900820 0.996291 0.969996
0.903601 0.996362 0.970020
0.914132 0.996407 0.969881
0.942264 0.996387 0.969277
0.975511 0.996284 0.968238
0.994255 0.995846 0.970672
1.000003 0.995271 0.972898
0.957519 1.000003 0.970267
0.957554 1.000003 0.970272
0.957817 1.000003 0.970306
0.958482 1.000003 0.970344
0.960460 1.000003 0.970326
0.966996 1.000003 0.970132
0.980329 1.000003 0.969649
0.993527 1.000003 0.970936
1.000003 1.000003 0.973897
0.004585 0.003505 1.000003
0.004605 0.003505 1.000003
0.005014 0.003505 1.000003
0.020213 0.003505 1.000003
0.655279 0.003505 1.000003
0.899143 0.003505 1.000003
0.963667 0.006371 0.999867
0.987599 0.165669 0.996662
1.000003 0.902436 0.991570
0.004523 0.003505 1.000003
0.004551 0.003505 1.000003
0.004940 0.003505 1.000003
0.019578 0.003505 1.000003
0.656144 0.003505 1.000003
0.899895 0.003505 1.000003
0.964034 0.006417 0.999948
0.987790 0.168184 0.996771
1.000003 0.903664 0.991703
0.004130 0.003505 1.000003
0.004154 0.003505 1.000003
0.004479 0.003505 1.000003
0.015242 0.003505 1.000003
0.660158 0.003505 1.000003
0.904567 0.003505 1.000003
0.966330 0.007696 1.000003
0.989068 0.191908 0.997469
1.000003 0.911396 0.992602
0.003721 0.003897 1.000003
0.003721 0.003897 1.000003
0.003761 0.003850 1.000003
0.008316 0.003793 1.000003
0.643429 0.003721 1.000003
0.906075 0.004188 1.000003
0.968173 0.044161 1.000003
0.990819 0.303236 0.998258
1.000003 0.917652 0.993960
0.003505 0.248111 1.000003
0.003505 0.247288 1.000003
0.003505 0.240896 1.000003
0.004326 0.223659 1.000003
0.577672 0.197514 1.000003
0.897684 0.221586 0.999852
0.969305 0.362370 0.999259
0.991989 0.653125 0.998285
1.000003 0.918854 0.995060
0.004711 0.865326 0.999507
0.004734 0.865243 0.999512
0.005196 0.864453 0.999521
0.031036 0.860822 0.999254
0.599335 0.855551 0.998701
0.899695 0.853853 0.998186
0.969981 0.862276 0.997785
0.992568 0.883662 0.997256
1.000003 0.936699 0.995347
0.591403 0.966483 0.996761
0.591825 0.966488 0.996768
0.598131 0.966519 0.996814
0.641834 0.966509 0.996846
0.769495 0.966286 0.996720
0.906194 0.965799 0.996311
0.971396 0.965625 0.995710
0.992890 0.967479 0.995374
1.000003 0.971607 0.994238
0.878955 0.993475 0.994555
0.879053 0.993483 0.994562
0.879936 0.993535 0.994609
0.883660 0.993611 0.994669
0.898138 0.993653 0.994656
0.934562 0.993614 0.994437
0.973454 0.993494 0.993952
0.993452 0.993452 0.993452
1.000003 0.992941 0.992465
0.952761 1.000003 0.990925
0.952799 1.000003 0.990929
0.953088 1.000003 0.990955
0.953845 1.000003 0.990989
0.956170 1.000003 0.990990
0.963824 1.000003 0.990883
0.978902 1.000003 0.990558
0.992870 1.000003 0.990127
1.000003 1.000003 0.991078
0.003505 0.003505 1.000003
0.003505 0.003505 1.000003
0.003505 0.003505 1.000003
0.003663 0.003505 1.000003
0.098588 0.003505 1.000003
0.900530 0.003505 1.000003
0.968628 0.003505 1.000003
0.987905 0.005901 1.000003
0.997111 0.369462 1.000003
0.003505 0.003505 1.000003
0.003505 0.003505 1.000003
0.003505 0.003505 1.000003
0.003505 0.003505 1.000003
0.094812 0.003505 1.000003
0.901422 0.003505 1.000003
0.969039 0.003505 1.000003
0.988088 0.005891 1.000003
0.997202 0.375415 1.000003
0.003505 0.003505 1.000003
0.003505 0.003505 1.000003
0.003505 0.003505 1.000003
0.003505 0.003505 1.000003
0.070706 0.003505 1.000003
0.907128 0.003505 1.000003
0.971682 0.003505 1.000003
0.989244 0.006287 1.000003
0.997815 0.422091 1.000003
0.003505 0.003505 1.000003
0.003505 0.003505 1.000003
0.003505 0.003505 1.000003
0.003505 0.003505 1.000003
0.038901 0.003505 1.000003
0.910904 0.003505 1.000003
0.973909 0.003505 1.000003
0.990073 0.029376 1.000003
0.998666 0.536870 1.000003
0.003505 0.004925 1.000003
0.003505 0.004883 1.000003
0.003505 0.004631 1.000003
0.003505 0.004288 1.000003
0.011348 0.003955 1.000003
0.883945 0.004208 1.000003
0.966010 0.034656 1.000003
0.990486 0.202999 1.000003
0.999272 0.710617 1.000003
0.003505 0.805294 1.000003
0.003505 0.805057 1.000003
0.003505 0.803075 1.000003
0.003505 0.796355 1.000003
0.005855 0.768846 1.000003
0.862920 0.750123 1.000003
0.963920 0.767824 1.000003
0.990672 0.812645 1.000003
0.999592 0.875220 1.000003
0.004571 0.955581 1.000003
0.004564 0.955571 1.000003
0.004729 0.955437 1.000003
0.014486 0.954496 1.000003
0.407804 0.952400 1.000003
0.870503 0.951100 1.000003
0.964981 0.950666 1.000003
0.990815 0.953320 1.000003
0.999704 0.959462 1.000003
0.815661 0.989601 1.000003
0.815737 0.989606 1.000003
0.816723 0.989633 1.000003
0.823482 0.989665 1.000003
0.852161 0.989648 1.000003
0.913921 0.989514 1.000003
0.967181 0.989297 1.000003
0.991375 0.989242 1.000003
0.999784 0.989923 1.000003
0.943065 1.000003 1.000003
0.943108 1.000003 1.000003
0.943439 1.000003 1.000003
0.944378 1.000003 1.000003
0.947480 1.000003 1.000003
0.957608 1.000003 1.000003
0.976255 1.000003 1.000003
0.992115 1.000003 1.000003
1.000003 1.000003 1.000003
