RED_IPP2_Creative/RED_ST4.cube
# RED Digital Cinema Output Transform LUT for IPP2
# Creatives by Eric Weidt
# BMD cube from Truelight v4.0
# Settings used in creation of this LUT are:
# Development Color Space = USER SELECTABLE
# Output Gamma Curve = USER SELECTABLE
# Output Tonemap = USER SELECTABLE
# Highlight Rolloff = USER SELECTABLE 
LUT_3D_SIZE 9
0.010475 0.010475 0.010475
0.124756 0.008751 0.008553
0.226929 0.027420 0.023544
0.321289 0.062317 0.048553
0.406494 0.097107 0.071045
0.506836 0.140015 0.103149
0.619141 0.193970 0.150024
0.744141 0.257080 0.210693
0.883789 0.329346 0.282227
0.034821 0.109314 0.034821
0.119934 0.121399 0.021393
0.229736 0.130249 0.044830
0.328613 0.152100 0.070557
0.410889 0.180298 0.093018
0.507324 0.215454 0.122986
0.616699 0.263184 0.166992
0.738281 0.321533 0.223877
0.874512 0.390381 0.292236
0.109863 0.217651 0.109436
0.145142 0.244385 0.073120
0.247681 0.250488 0.086243
0.345215 0.266846 0.110413
0.417969 0.289307 0.141479
0.511230 0.315186 0.163208
0.617188 0.352051 0.198730
0.733887 0.401855 0.248291
0.866211 0.463867 0.310059
0.176880 0.326660 0.168945
0.188232 0.359863 0.116333
0.284424 0.359131 0.140747
0.373291 0.370605 0.154297
0.450195 0.385498 0.175903
0.534180 0.405762 0.205811
0.622559 0.434570 0.245850
0.732422 0.473633 0.284668
0.859863 0.527832 0.336670
0.201050 0.451904 0.187622
0.233398 0.464600 0.164429
0.327393 0.455811 0.194092
0.407471 0.465576 0.207275
0.480957 0.477295 0.219727
0.566406 0.495361 0.243286
0.659180 0.519531 0.278564
0.755859 0.554688 0.325195
0.864258 0.600098 0.377197
0.232910 0.593262 0.217651
0.291260 0.585449 0.224854
0.378174 0.574707 0.245483
0.454590 0.573730 0.270508
0.521973 0.584961 0.280518
0.602051 0.598145 0.294922
0.694824 0.619629 0.322021
0.793945 0.648438 0.361572
0.902344 0.689941 0.414062
0.300537 0.728027 0.287109
0.356934 0.718750 0.293213
0.439697 0.707031 0.309082
0.513672 0.693359 0.340332
0.576172 0.704102 0.351807
0.650391 0.716797 0.363525
0.736328 0.731934 0.379395
0.834473 0.755859 0.408936
0.940430 0.788574 0.450439
0.375000 0.875000 0.363525
0.429932 0.864746 0.368408
0.509766 0.851562 0.380615
0.580078 0.837402 0.403809
0.643066 0.833984 0.428955
0.711426 0.845703 0.439697
0.790527 0.859375 0.452148
0.881348 0.876953 0.470215
0.980469 0.900391 0.497070
0.423584 1.000000 0.413330
0.482178 1.000000 0.422363
0.567383 0.992188 0.439209
0.643555 0.982910 0.464355
0.712891 0.973633 0.500488
0.777344 0.979980 0.512207
0.848633 0.989258 0.520020
0.929688 1.000000 0.530762
1.000000 1.000000 0.543945
0.012917 0.012894 0.107605
0.114746 0.014450 0.126099
0.224976 0.030182 0.125122
0.325439 0.061249 0.134644
0.413818 0.094421 0.150146
0.515625 0.137085 0.178467
0.629883 0.192017 0.221802
0.755371 0.256348 0.279053
0.895508 0.329102 0.348145
0.032532 0.111328 0.118591
0.120789 0.122559 0.130981
0.245728 0.126099 0.133423
0.346436 0.147217 0.144287
0.429443 0.176392 0.162231
0.526367 0.213745 0.190674
0.636719 0.263184 0.233276
0.758301 0.323730 0.288574
0.895020 0.393555 0.355713
0.108704 0.220581 0.161987
0.155273 0.238525 0.164429
0.248779 0.253662 0.157104
0.350830 0.268555 0.179932
0.437012 0.287354 0.194458
0.531738 0.313232 0.219482
0.637207 0.352295 0.256592
0.755371 0.404053 0.307373
0.888184 0.468750 0.370117
0.192505 0.319336 0.229126
0.225342 0.336670 0.230713
0.279541 0.364502 0.202148
0.374512 0.373291 0.217041
0.454346 0.387451 0.238770
0.537109 0.407471 0.270264
0.639648 0.435303 0.295898
0.753418 0.476318 0.336426
0.881836 0.532227 0.392090
0.194580 0.455322 0.248047
0.245117 0.459717 0.250244
0.317383 0.468262 0.241577
0.406738 0.468994 0.268799
0.482178 0.480469 0.280518
0.569824 0.497314 0.304199
0.662109 0.521973 0.340332
0.759766 0.555664 0.384033
0.877930 0.602539 0.429199
0.229004 0.594727 0.285889
0.282959 0.595215 0.285889
0.370117 0.587402 0.296387
0.453613 0.577148 0.328369
0.521973 0.587402 0.340332
0.604004 0.601562 0.354736
0.697754 0.621582 0.381836
0.797852 0.650879 0.422607
0.903320 0.691895 0.474609
0.298828 0.729004 0.353271
0.351318 0.729004 0.353516
0.434082 0.719727 0.362061
0.510742 0.708008 0.384033
0.576660 0.706543 0.410889
0.651367 0.719238 0.422852
0.738770 0.734863 0.439209
0.837891 0.758789 0.469238
0.942383 0.790527 0.510254
0.373779 0.875977 0.428711
0.425537 0.875977 0.428955
0.505371 0.865723 0.436035
0.578613 0.852051 0.452393
0.643066 0.838867 0.483643
0.713379 0.848633 0.499268
0.792480 0.862793 0.512207
0.883789 0.879883 0.529785
0.982422 0.902832 0.556152
0.422607 1.000000 0.478271
0.474121 1.000000 0.478271
0.557617 1.000000 0.489258
0.635742 0.992188 0.509277
0.704590 0.983887 0.539062
0.778320 0.981445 0.570801
0.849121 0.991211 0.579102
0.931641 1.000000 0.589844
1.000000 1.000000 0.602539
0.027725 0.020966 0.184082
0.101807 0.031860 0.191772
0.218262 0.040039 0.226685
0.326904 0.065613 0.236450
0.413574 0.095703 0.246338
0.517578 0.136230 0.268311
0.632324 0.190186 0.303711
0.757812 0.254639 0.354736
0.896484 0.327393 0.419189
0.046204 0.118225 0.217285
0.122498 0.125732 0.225708
0.237061 0.131104 0.249390
0.345215 0.149292 0.251709
0.432861 0.175049 0.260010
0.532227 0.211304 0.279785
0.644043 0.260742 0.313965
0.767090 0.322021 0.363770
0.902344 0.390137 0.424805
0.108765 0.222534 0.226318
0.149902 0.240356 0.245605
0.249390 0.256348 0.262939
0.372314 0.262695 0.264160
0.457764 0.281250 0.273926
0.551270 0.310059 0.295166
0.657715 0.351562 0.328857
0.774902 0.405518 0.376709
0.906250 0.467773 0.434570
0.185913 0.324951 0.278320
0.223145 0.338867 0.287598
0.282471 0.362549 0.292969
0.375488 0.376953 0.292236
0.459717 0.389160 0.312256
0.556641 0.406006 0.326416
0.660645 0.434814 0.355713
0.773926 0.478516 0.398193
0.903809 0.536621 0.454834
0.185913 0.459473 0.319336
0.237183 0.463379 0.321777
0.317139 0.470459 0.324463
0.403564 0.473633 0.334961
0.483887 0.483643 0.345459
0.573730 0.499512 0.367676
0.666016 0.522949 0.400879
0.776367 0.557129 0.433594
0.899902 0.606445 0.481201
0.223633 0.596191 0.362793
0.277588 0.597168 0.362793
0.359375 0.598633 0.362793
0.446777 0.591309 0.377686
0.520996 0.590820 0.401611
0.605957 0.604004 0.414062
0.701660 0.624023 0.439453
0.800293 0.652344 0.478516
0.906738 0.693359 0.524414
0.296143 0.729492 0.426758
0.348877 0.729980 0.427002
0.426270 0.730957 0.427246
0.505371 0.721680 0.438477
0.575684 0.711426 0.465332
0.652344 0.721680 0.478760
0.740723 0.737305 0.493896
0.839844 0.760742 0.522461
0.944336 0.792480 0.562500
0.372803 0.876465 0.500000
0.424316 0.876465 0.500000
0.500000 0.876953 0.500488
0.575195 0.865234 0.509277
0.640137 0.853027 0.527344
0.714844 0.852051 0.553711
0.794434 0.865234 0.565430
0.886230 0.882324 0.582520
0.984863 0.905762 0.607910
0.422119 1.000000 0.548828
0.473877 1.000000 0.548828
0.548340 1.000000 0.549316
0.627441 1.000000 0.562012
0.697266 0.993164 0.582520
0.776855 0.985840 0.617188
0.850586 0.992676 0.629883
0.932617 1.000000 0.640137
1.000000 1.000000 0.652344
0.050171 0.032623 0.246826
0.110779 0.043884 0.254883
0.208984 0.058868 0.289307
0.329102 0.072327 0.326172
0.422363 0.100586 0.337402
0.524414 0.139526 0.354004
0.633789 0.190308 0.380859
0.759277 0.253662 0.425293
0.897949 0.326172 0.484619
0.070923 0.124756 0.282715
0.132568 0.132935 0.290771
0.225586 0.147949 0.304688
0.345215 0.153687 0.343994
0.435303 0.177734 0.349609
0.532715 0.212891 0.362793
0.645508 0.260254 0.390137
0.769531 0.321045 0.433594
0.903809 0.388184 0.489502
0.092834 0.241089 0.321533
0.147949 0.250000 0.339600
0.252441 0.258789 0.347900
0.368408 0.262451 0.368896
0.457275 0.281250 0.367676
0.555176 0.308838 0.378418
0.663086 0.349365 0.403320
0.782715 0.404053 0.444824
0.912109 0.464355 0.496338
0.179443 0.330078 0.329590
0.220825 0.341309 0.341064
0.277344 0.365479 0.365234
0.377686 0.379150 0.378662
0.480713 0.384766 0.378662
0.576172 0.403076 0.391846
0.679199 0.434326 0.417969
0.792969 0.479980 0.458008
0.917480 0.533203 0.505859
0.175171 0.463867 0.388916
0.226562 0.467773 0.391602
0.306885 0.474609 0.395020
0.396240 0.482178 0.396484
0.485352 0.486816 0.404785
0.579102 0.500977 0.424805
0.683105 0.522461 0.445801
0.794922 0.558105 0.480713
0.917969 0.606934 0.528320
0.216919 0.598633 0.433105
0.271240 0.599121 0.433105
0.353027 0.600586 0.433350
0.436279 0.603027 0.433105
0.520020 0.595703 0.453125
0.607422 0.606934 0.464111
0.705566 0.626465 0.488770
0.803711 0.654785 0.524414
0.921875 0.695312 0.564453
0.292969 0.730957 0.491943
0.345459 0.731445 0.491943
0.423096 0.732422 0.492188
0.499268 0.733398 0.492920
0.570312 0.724121 0.503418
0.652832 0.726074 0.525879
0.742676 0.740723 0.539551
0.843750 0.763672 0.567871
0.946777 0.794922 0.607422
0.371582 0.876953 0.562500
0.423096 0.877441 0.562500
0.498535 0.877930 0.562988
0.570801 0.877930 0.563477
0.636719 0.866699 0.571289
0.714844 0.855469 0.595703
0.795410 0.868164 0.610352
0.888184 0.885254 0.626465
0.987305 0.907715 0.651855
0.421387 1.000000 0.610352
0.472900 1.000000 0.610840
0.547363 1.000000 0.610840
0.618652 1.000000 0.611328
0.688477 1.000000 0.623047
0.769043 0.994629 0.646484
0.851562 0.994629 0.673340
0.934570 1.000000 0.683105
1.000000 1.000000 0.695312
0.069641 0.050385 0.307129
0.123108 0.060699 0.316162
0.210449 0.079468 0.336914
0.323486 0.090637 0.389160
0.426758 0.108582 0.418701
0.534180 0.145752 0.435059
0.648926 0.195068 0.458496
0.768555 0.255859 0.493408
0.899414 0.325195 0.543457
0.092346 0.135864 0.343506
0.146973 0.143555 0.351074
0.233643 0.158936 0.365723
0.336914 0.170532 0.404297
0.438721 0.183472 0.431152
0.542480 0.216553 0.443359
0.653320 0.262695 0.463623
0.770996 0.320801 0.497803
0.905273 0.386963 0.548340
0.118896 0.248291 0.390869
0.174561 0.253906 0.397217
0.262939 0.264893 0.407715
0.356689 0.277588 0.423828
0.458008 0.282715 0.451904
0.558105 0.309814 0.457520
0.663574 0.349854 0.474121
0.784668 0.403564 0.508789
0.914062 0.462891 0.555176
0.151367 0.352783 0.416504
0.204590 0.358398 0.422363
0.277344 0.373291 0.451172
0.380615 0.381348 0.457764
0.479980 0.384033 0.474609
0.577637 0.402588 0.473633
0.684082 0.433594 0.489014
0.799805 0.479492 0.521484
0.923828 0.530762 0.563477
0.164062 0.468506 0.462646
0.215210 0.472168 0.466309
0.295654 0.478516 0.472656
0.385742 0.485840 0.479492
0.488037 0.489014 0.483643
0.599609 0.498047 0.485596
0.702637 0.520508 0.504395
0.813965 0.558594 0.537109
0.931641 0.603027 0.576660
0.209106 0.601074 0.502441
0.263184 0.602051 0.502930
0.344971 0.603516 0.502930
0.428711 0.606445 0.502930
0.507324 0.608887 0.501953
0.609375 0.610840 0.520020
0.709961 0.628906 0.544922
0.820312 0.654785 0.569824
0.937500 0.693359 0.606934
0.288574 0.732422 0.553223
0.341064 0.732910 0.553223
0.418701 0.733887 0.553711
0.494629 0.735840 0.553711
0.562012 0.737305 0.554199
0.651367 0.729004 0.577637
0.744629 0.742676 0.590332
0.847168 0.766113 0.619141
0.950684 0.797363 0.658691
0.369385 0.877930 0.620117
0.421143 0.878418 0.620117
0.496826 0.878418 0.620605
0.568848 0.879395 0.621094
0.631348 0.879883 0.622070
0.710938 0.869629 0.636230
0.796875 0.871582 0.660645
0.890625 0.888184 0.675781
0.990234 0.910645 0.701660
0.420410 1.000000 0.666992
0.471924 1.000000 0.667480
0.546875 1.000000 0.667480
0.618164 1.000000 0.667969
0.678711 1.000000 0.669434
0.759766 1.000000 0.685059
0.851074 0.997559 0.720215
0.935547 1.000000 0.732910
1.000000 1.000000 0.744141
0.098267 0.078064 0.388672
0.149780 0.086548 0.396973
0.230591 0.103210 0.413086
0.325928 0.117737 0.455078
0.422363 0.131836 0.493652
0.539551 0.157593 0.528809
0.659180 0.203369 0.551270
0.786621 0.261719 0.582031
0.912109 0.320801 0.617676
0.121155 0.156128 0.418701
0.172119 0.163452 0.425781
0.251465 0.177734 0.438965
0.337646 0.195068 0.462158
0.432129 0.205322 0.504395
0.547363 0.226807 0.537109
0.665039 0.269775 0.556152
0.788574 0.325439 0.584961
0.911621 0.384521 0.620605
0.151367 0.260010 0.461426
0.202271 0.265869 0.467285
0.281006 0.277100 0.477539
0.363281 0.291748 0.490479
0.448486 0.301758 0.521484
0.561523 0.316406 0.551758
0.674805 0.354248 0.565918
0.792969 0.405518 0.590332
0.915039 0.462402 0.626953
0.169067 0.367432 0.515625
0.228760 0.369385 0.508789
0.308350 0.377930 0.517578
0.391357 0.388428 0.527832
0.467773 0.400635 0.538086
0.579590 0.407471 0.570801
0.688965 0.436768 0.578613
0.801270 0.480225 0.600098
0.925781 0.530273 0.635742
0.165894 0.478027 0.565918
0.223511 0.478760 0.565918
0.313721 0.480957 0.566895
0.410645 0.484375 0.563477
0.491943 0.492432 0.572754
0.600586 0.497314 0.591797
0.705566 0.520508 0.594238
0.820312 0.558105 0.615723
0.938477 0.600586 0.646484
0.199585 0.604492 0.595215
0.253418 0.605469 0.596191
0.333984 0.606934 0.597656
0.416016 0.609863 0.600586
0.494873 0.613281 0.603516
0.612793 0.614258 0.605957
0.731934 0.625488 0.610840
0.841309 0.653320 0.634766
0.954102 0.688477 0.664551
0.281250 0.735840 0.630859
0.333740 0.736328 0.630859
0.411133 0.736816 0.631348
0.487305 0.738770 0.631836
0.554688 0.740723 0.632324
0.639648 0.743164 0.632324
0.747070 0.747559 0.653320
0.852051 0.768555 0.681152
0.964355 0.795410 0.705566
0.366211 0.879395 0.690430
0.417969 0.879883 0.690430
0.493652 0.880371 0.690918
0.565918 0.881348 0.691406
0.627930 0.882324 0.691895
0.701660 0.883301 0.692383
0.796875 0.875000 0.718750
0.893555 0.891602 0.733398
0.993164 0.913574 0.758789
0.418457 1.000000 0.734863
0.469971 1.000000 0.735352
0.544922 1.000000 0.735352
0.616211 1.000000 0.735840
0.676758 1.000000 0.736328
0.747559 1.000000 0.738281
0.840820 1.000000 0.760254
0.936523 1.000000 0.788574
1.000000 1.000000 0.800293
0.141602 0.119019 0.490234
0.190308 0.125854 0.496338
0.265137 0.139404 0.508789
0.342773 0.157104 0.525879
0.429199 0.166626 0.572754
0.537598 0.185669 0.615723
0.667480 0.218140 0.656738
0.797363 0.270752 0.685059
0.922363 0.319824 0.710938
0.160522 0.189941 0.511719
0.208862 0.196289 0.517578
0.282959 0.208496 0.529297
0.358887 0.224976 0.543457
0.437012 0.237671 0.577148
0.542969 0.253662 0.622070
0.671875 0.283203 0.661621
0.800293 0.334229 0.687988
0.923828 0.382324 0.712891
0.188477 0.283936 0.545410
0.236450 0.289551 0.550781
0.309326 0.299805 0.560547
0.383789 0.313477 0.572266
0.452637 0.329102 0.585938
0.554688 0.341309 0.633789
0.680664 0.365479 0.670898
0.806152 0.412598 0.693359
0.927246 0.459473 0.717285
0.218140 0.379395 0.583496
0.265625 0.383789 0.588379
0.337891 0.392334 0.596191
0.411621 0.403320 0.605957
0.479004 0.415771 0.617188
0.569824 0.428955 0.648926
0.693359 0.446533 0.684082
0.814941 0.487549 0.701660
0.931641 0.530273 0.723633
0.231079 0.477539 0.639648
0.286377 0.478516 0.635254
0.364990 0.483887 0.633301
0.438232 0.492188 0.642090
0.505371 0.501465 0.650879
0.587891 0.516113 0.663086
0.709473 0.525879 0.700684
0.826172 0.561523 0.712891
0.939941 0.601562 0.733887
0.235229 0.601074 0.695312
0.289551 0.601074 0.695312
0.371338 0.602539 0.695312
0.455078 0.604980 0.695312
0.531738 0.608398 0.692383
0.617676 0.618164 0.703125
0.732910 0.625488 0.724609
0.845703 0.654297 0.730957
0.959961 0.686035 0.750000
0.272949 0.739746 0.731934
0.325195 0.740234 0.732422
0.402344 0.741211 0.733398
0.477539 0.743164 0.734863
0.543945 0.745117 0.737305
0.627441 0.749023 0.741211
0.750488 0.750977 0.744141
0.875000 0.766113 0.751953
0.983398 0.790039 0.771484
0.360352 0.882324 0.775391
0.412109 0.882812 0.775879
0.487549 0.883301 0.775879
0.559570 0.884277 0.776367
0.621582 0.885742 0.776855
0.695801 0.888184 0.777344
0.785645 0.891602 0.778320
0.895996 0.895996 0.801270
0.998047 0.917480 0.827148
0.415283 1.000000 0.814941
0.466553 1.000000 0.815430
0.541504 1.000000 0.815430
0.612793 1.000000 0.815918
0.673340 1.000000 0.815918
0.744141 1.000000 0.816895
0.826660 1.000000 0.818848
0.937012 1.000000 0.853516
1.000000 1.000000 0.863281
0.198242 0.175415 0.608398
0.244751 0.180786 0.613281
0.314941 0.190796 0.622559
0.385010 0.204102 0.634277
0.453369 0.216064 0.658691
0.549316 0.227661 0.707031
0.667969 0.250488 0.753418
0.808594 0.287842 0.801270
0.930176 0.326416 0.819824
0.212646 0.239868 0.624023
0.259277 0.245117 0.628418
0.328857 0.254639 0.637695
0.398682 0.267090 0.648926
0.462158 0.281494 0.661621
0.553711 0.293701 0.708496
0.671387 0.314697 0.756836
0.811035 0.349854 0.803223
0.932129 0.388184 0.821777
0.234985 0.323730 0.648438
0.281006 0.328613 0.652832
0.350342 0.337402 0.661133
0.419434 0.348633 0.671387
0.481445 0.361572 0.682617
0.562988 0.377930 0.711914
0.678223 0.395020 0.763672
0.815430 0.427246 0.808594
0.935547 0.463867 0.825195
0.260742 0.408203 0.677734
0.306641 0.412842 0.681641
0.375244 0.420898 0.688965
0.443115 0.430664 0.698242
0.503906 0.441650 0.708008
0.579102 0.458984 0.722656
0.688477 0.474121 0.772949
0.823242 0.501465 0.816406
0.940918 0.534668 0.831543
0.288330 0.491943 0.709961
0.334229 0.496338 0.713867
0.401855 0.502930 0.720703
0.469238 0.511230 0.728516
0.529297 0.520996 0.736816
0.602539 0.534668 0.749023
0.701660 0.550781 0.785156
0.833008 0.572754 0.827148
0.949219 0.604004 0.839355
0.301270 0.602539 0.777344
0.354492 0.603516 0.773926
0.433594 0.605469 0.766113
0.502441 0.611816 0.769531
0.561523 0.619141 0.776367
0.633789 0.629883 0.786621
0.722168 0.646973 0.801270
0.850098 0.660156 0.845215
0.962891 0.688477 0.853516
0.312988 0.736328 0.837891
0.365479 0.736816 0.837402
0.442871 0.737793 0.837402
0.519043 0.738770 0.837402
0.586426 0.740723 0.836426
0.667969 0.745117 0.833984
0.757324 0.756348 0.845703
0.876465 0.766602 0.872070
0.986328 0.790039 0.876465
0.353516 0.887207 0.882324
0.405273 0.887695 0.882324
0.480225 0.888184 0.882812
0.552246 0.889160 0.883789
0.613770 0.890137 0.885254
0.686523 0.893066 0.887695
0.773926 0.897461 0.892090
0.899902 0.900391 0.896484
1.000000 0.911621 0.899902
0.409424 1.000000 0.910645
0.460938 1.000000 0.910645
0.535645 1.000000 0.911133
0.606445 1.000000 0.911133
0.666992 1.000000 0.911621
0.736816 1.000000 0.912598
0.819336 1.000000 0.914062
0.919434 1.000000 0.914551
1.000000 1.000000 0.938965
0.241333 0.219360 0.721191
0.287109 0.224121 0.726074
0.354980 0.232422 0.733398
0.421875 0.242920 0.743164
0.481201 0.254883 0.753906
0.563477 0.266113 0.791504
0.672363 0.282227 0.843750
0.805664 0.311768 0.895996
0.939453 0.335693 0.935547
0.253662 0.280518 0.733887
0.299316 0.285156 0.738770
0.366699 0.293213 0.745605
0.433350 0.303467 0.755371
0.492920 0.315186 0.765625
0.567871 0.331299 0.787598
0.675781 0.345703 0.844238
0.807617 0.373779 0.897949
0.940918 0.396973 0.937012
0.271973 0.358887 0.753418
0.317627 0.363281 0.757812
0.384766 0.371094 0.765137
0.451172 0.380615 0.773926
0.509766 0.391357 0.783203
0.581055 0.407959 0.797852
0.682129 0.425049 0.845703
0.811523 0.450439 0.901855
0.943848 0.471924 0.939941
0.293701 0.437012 0.777344
0.338867 0.441406 0.781250
0.406006 0.448486 0.788086
0.471680 0.457275 0.795898
0.529297 0.467041 0.804688
0.600098 0.481934 0.817871
0.690918 0.501953 0.848633
0.817871 0.523438 0.907715
0.948730 0.542969 0.945312
0.318115 0.514160 0.804199
0.363037 0.517578 0.807617
0.429932 0.524902 0.813965
0.494873 0.532715 0.821777
0.551758 0.540527 0.829102
0.621094 0.553711 0.840820
0.705566 0.574219 0.858887
0.826660 0.593262 0.915527
0.956055 0.610352 0.952637
0.345947 0.611328 0.849121
0.396240 0.613770 0.845215
0.462402 0.619141 0.851562
0.526367 0.625977 0.857422
0.583008 0.633301 0.864258
0.650391 0.643555 0.873535
0.732422 0.660156 0.888672
0.841797 0.679688 0.929199
0.968262 0.691406 0.965820
0.360596 0.735840 0.922363
0.412842 0.736328 0.919922
0.489990 0.737305 0.915039
0.564453 0.739746 0.907715
0.621094 0.745117 0.911133
0.687988 0.752930 0.918945
0.768066 0.765137 0.930176
0.865234 0.784668 0.946777
0.989258 0.790039 0.987793
0.379395 0.883301 0.985840
0.431152 0.883789 0.985352
0.506348 0.884277 0.985352
0.578613 0.884766 0.985352
0.641113 0.886230 0.985352
0.715820 0.888184 0.985352
0.805664 0.892578 0.982422
0.904297 0.903809 0.997070
1.000000 0.908691 1.000000
0.406250 1.000000 1.000000
0.457764 1.000000 1.000000
0.532227 1.000000 1.000000
0.603027 1.000000 1.000000
0.663086 1.000000 1.000000
0.732910 1.000000 1.000000
0.813965 1.000000 1.000000
0.910645 1.000000 1.000000
1.000000 1.000000 1.000000
