RED_IPP2_Creative/RED_FilmBiasOffset.cube
#RED_IPP2_CREATIVE_LUT
# RED_FilmBiasOffset - Color inspired by motion picture film with a highlight and shadow offset
# created by Phil Holland - phfx.com
# Settings used in creation of this LUT are:
# Development Color Space = USER SELECTABLE
# Output Gamma Curve = USER SELECTABLE
# Output Tonemap = USER SELECTABLE
# Highlight Rolloff = USER SELECTABLE
LUT_3D_SIZE 5
0 0.00531014 0.0137789
0.189609 0.0838331 0.0942855
0.312673 0.188098 0.195148
0.358724 0.324453 0.325887
0.445579 0.445579 0.445579
0.104921 0.222126 0.118761
0.268711 0.229145 0.114794
0.334508 0.281498 0.252537
0.378912 0.378164 0.377951
0.461143 0.461143 0.461143
0.244465 0.392248 0.250614
0.347021 0.390326 0.228687
0.487877 0.45597 0.384192
0.529625 0.527047 0.52491
0.559777 0.559777 0.559777
0.396826 0.508629 0.397757
0.465827 0.536858 0.378256
0.512886 0.517098 0.419028
0.690242 0.687297 0.681773
0.714977 0.714977 0.714977
0.558816 0.612802 0.558434
0.58381 0.651148 0.531029
0.617411 0.634485 0.554437
0.723033 0.721691 0.710094
0.810849 0.810849 0.810849
0.0583505 0.0809339 0.126329
0.192844 0.112291 0.210147
0.356664 0.190356 0.27895
0.434913 0.327276 0.360479
0.486244 0.468284 0.471748
0.103136 0.233433 0.230793
0.247089 0.250614 0.253758
0.436332 0.290364 0.293996
0.488899 0.396826 0.398642
0.52723 0.511437 0.511589
0.239414 0.406256 0.325856
0.3149 0.439628 0.307698
0.524041 0.472831 0.362799
0.579568 0.536126 0.513985
0.602319 0.596841 0.595132
0.399084 0.52575 0.44097
0.433204 0.568017 0.421042
0.551431 0.582483 0.426459
0.728542 0.696315 0.63711
0.759091 0.745724 0.731304
0.571252 0.62948 0.584878
0.566796 0.660639 0.557351
0.646525 0.698329 0.562387
0.691325 0.691325 0.613275
0.837354 0.830335 0.808927
0.128359 0.159365 0.255482
0.205692 0.192706 0.29305
0.378454 0.232334 0.374166
0.428305 0.330373 0.388144
0.500648 0.470756 0.482612
0.164736 0.259174 0.331502
0.247456 0.281147 0.374456
0.443976 0.313161 0.427039
0.550347 0.400351 0.459236
0.591073 0.525719 0.540749
0.274342 0.418555 0.406058
0.318654 0.458091 0.439872
0.523415 0.493507 0.470451
0.668254 0.538231 0.526741
0.681682 0.632944 0.630594
0.422965 0.54902 0.49984
0.434226 0.598703 0.502434
0.550301 0.659663 0.505562
0.770184 0.712139 0.606683
0.813733 0.76376 0.726726
0.594125 0.657176 0.62182
0.578332 0.689479 0.607141
0.634256 0.749096 0.605173
0.756863 0.774487 0.636851
0.889174 0.863722 0.796979
0.200504 0.237659 0.355718
0.254154 0.258183 0.385107
0.395682 0.31783 0.448783
0.515877 0.376287 0.491234
0.49247 0.480293 0.487465
0.23154 0.304219 0.393973
0.287587 0.327886 0.440436
0.419608 0.382681 0.502251
0.588937 0.429572 0.550057
0.603311 0.533135 0.568521
0.33225 0.441276 0.47451
0.36643 0.467658 0.532662
0.498085 0.514778 0.602502
0.707988 0.548547 0.638209
0.751812 0.639918 0.671946
0.469673 0.567239 0.553658
0.46566 0.61471 0.588403
0.553399 0.688853 0.641688
0.800031 0.735637 0.683635
0.89102 0.774395 0.74519
0.626734 0.687648 0.665782
0.601663 0.721996 0.667308
0.641642 0.800916 0.685405
0.793469 0.877317 0.711101
0.965347 0.924025 0.808423
0.275959 0.312245 0.435782
0.315496 0.325353 0.460395
0.422339 0.3776 0.516182
0.577111 0.437797 0.582528
0.582895 0.515984 0.565667
0.301823 0.360662 0.449699
0.341222 0.383703 0.502678
0.439261 0.429725 0.569528
0.611505 0.491508 0.627115
0.666545 0.561471 0.634226
0.40029 0.472389 0.523003
0.422049 0.493874 0.577722
0.515297 0.545205 0.664775
0.678798 0.599878 0.726329
0.796857 0.654871 0.738872
0.526009 0.600366 0.609812
0.523339 0.633143 0.658076
0.588754 0.691402 0.751827
0.765286 0.749493 0.823194
0.948394 0.783352 0.849821
0.682734 0.720882 0.714397
0.648936 0.744991 0.727031
0.664332 0.821164 0.77969
0.801862 0.919051 0.839841
0.999664 0.976608 0.889891
