RED_IPP2_Creative/RED_BIPOLAR.cube
# RED Digital Cinema Output Transform LUT for IPP2
# Creatives by Eric Weidt
# BMD cube from Truelight v4.0
# Settings used in creation of this LUT are:
# Development Color Space = USER SELECTABLE
# Output Gamma Curve = USER SELECTABLE
# Output Tonemap = USER SELECTABLE
# Highlight Rolloff = USER SELECTABLE
LUT_3D_SIZE 33
0.070801 0.070801 0.070801
0.070801 0.070801 0.070801
0.070801 0.070801 0.070801
0.070801 0.070801 0.070801
0.070801 0.070801 0.070801
0.109375 0.024796 0.062317
0.138794 0.042542 0.072266
0.167847 0.055664 0.082336
0.196655 0.068481 0.092651
0.225098 0.081848 0.104187
0.253418 0.096130 0.116455
0.283447 0.110962 0.129883
0.312988 0.127197 0.145020
0.344482 0.144531 0.161743
0.376465 0.163940 0.179688
0.409912 0.184082 0.199097
0.443604 0.204712 0.218872
0.477295 0.226074 0.239746
0.511230 0.247925 0.260498
0.546387 0.269531 0.281494
0.581543 0.291260 0.302490
0.616699 0.312256 0.322510
0.652344 0.332520 0.341797
0.685547 0.352783 0.361328
0.720703 0.371582 0.379639
0.754883 0.389648 0.396973
0.788574 0.406250 0.412842
0.822266 0.422852 0.428467
0.854980 0.437500 0.443115
0.887207 0.451416 0.455811
0.917969 0.463379 0.467529
0.950195 0.475342 0.479004
0.981445 0.486816 0.489502
0.070801 0.070801 0.070801
0.070801 0.070801 0.070801
0.070801 0.070801 0.070801
0.070801 0.070801 0.070801
0.070801 0.070801 0.070801
0.109558 0.065979 0.062561
0.139648 0.077209 0.071960
0.169434 0.087891 0.081726
0.198486 0.098816 0.092102
0.227173 0.110413 0.103271
0.256348 0.122498 0.115479
0.286865 0.135742 0.128296
0.317627 0.150269 0.142822
0.349121 0.166504 0.159180
0.380859 0.184082 0.176270
0.414795 0.202515 0.194824
0.448242 0.221924 0.213623
0.481689 0.242188 0.232666
0.516113 0.262939 0.252197
0.550293 0.283203 0.271973
0.585449 0.304199 0.291504
0.621094 0.324707 0.310059
0.655762 0.345459 0.329346
0.690430 0.364502 0.346924
0.724121 0.383301 0.364014
0.758301 0.401611 0.379883
0.792480 0.418457 0.394287
0.825684 0.434814 0.409180
0.857422 0.449219 0.422119
0.889160 0.463135 0.433838
0.921387 0.476318 0.445068
0.953125 0.488525 0.455078
0.983398 0.499023 0.462646
0.070801 0.070801 0.070801
0.070801 0.070801 0.070801
0.070801 0.070801 0.070801
0.070801 0.070801 0.070801
0.078430 0.080017 0.052002
0.111633 0.090332 0.062744
0.141724 0.100525 0.071777
0.171631 0.110291 0.081360
0.200806 0.120422 0.091614
0.230469 0.131104 0.101868
0.259277 0.142822 0.113647
0.289795 0.155151 0.126343
0.320801 0.168823 0.140747
0.353027 0.183838 0.156250
0.385498 0.199951 0.172852
0.418945 0.217407 0.189575
0.452393 0.235352 0.207275
0.486084 0.253906 0.225464
0.519531 0.273438 0.243896
0.554199 0.292969 0.261719
0.588867 0.312256 0.279785
0.623535 0.331787 0.297607
0.658203 0.351562 0.315430
0.692871 0.369873 0.331055
0.727051 0.387939 0.346924
0.760254 0.405518 0.361816
0.793945 0.421875 0.375977
0.827148 0.437744 0.388184
0.859863 0.452148 0.399902
0.891113 0.465576 0.410889
0.922852 0.477783 0.420410
0.954590 0.490479 0.429932
0.984863 0.499268 0.435059
0.000000 0.086853 0.052490
0.000000 0.088135 0.055420
0.013611 0.088867 0.053986
0.045624 0.089294 0.044952
0.082153 0.100769 0.054016
0.114746 0.111572 0.063110
0.145020 0.120911 0.072021
0.174072 0.130981 0.081177
0.204102 0.140869 0.090942
0.233521 0.151245 0.101379
0.263672 0.162231 0.112915
0.294189 0.174683 0.125732
0.325439 0.187622 0.139038
0.357666 0.201782 0.153564
0.390137 0.217041 0.169434
0.423340 0.232910 0.184937
0.457031 0.249512 0.201660
0.489746 0.267090 0.218384
0.524414 0.284668 0.235229
0.558105 0.303467 0.251953
0.591797 0.321777 0.268555
0.626465 0.340332 0.285156
0.661133 0.357910 0.301025
0.694824 0.375977 0.315918
0.728516 0.393555 0.330566
0.762695 0.410156 0.343994
0.796875 0.425293 0.355957
0.829102 0.440430 0.368164
0.861816 0.454346 0.377930
0.893555 0.467285 0.387451
0.924316 0.479736 0.395996
0.956055 0.491455 0.404053
0.985352 0.500488 0.408691
0.000000 0.116760 0.066833
0.011742 0.117432 0.068359
0.034821 0.117981 0.070251
0.060303 0.118835 0.063416
0.085693 0.119751 0.055634
0.117676 0.130493 0.064026
0.148071 0.140869 0.072876
0.177856 0.150757 0.081604
0.207031 0.160889 0.091309
0.236694 0.171509 0.101562
0.267822 0.182617 0.112366
0.299072 0.194702 0.125000
0.330811 0.207397 0.137817
0.362305 0.220825 0.151611
0.395508 0.234863 0.165771
0.428467 0.249634 0.180786
0.461670 0.265625 0.196167
0.494873 0.281738 0.211670
0.528320 0.298096 0.227295
0.562012 0.315430 0.243164
0.595703 0.332520 0.257812
0.630371 0.350342 0.273438
0.664062 0.366943 0.287109
0.698730 0.383789 0.300781
0.732422 0.400391 0.313721
0.765625 0.416260 0.325928
0.798340 0.430908 0.336670
0.831055 0.444824 0.347656
0.863281 0.458252 0.356689
0.895020 0.471191 0.365723
0.926270 0.482910 0.373047
0.957520 0.493408 0.379639
0.987793 0.502441 0.382324
0.004539 0.144531 0.080444
0.032745 0.144897 0.081970
0.053162 0.145630 0.083923
0.072815 0.146240 0.085022
0.097473 0.147827 0.072754
0.120544 0.148682 0.064941
0.151245 0.160156 0.073669
0.180664 0.170532 0.082214
0.211182 0.181152 0.091675
0.241211 0.192139 0.102234
0.272461 0.203491 0.112854
0.303711 0.215698 0.124695
0.335938 0.227905 0.136719
0.367920 0.240601 0.150024
0.400391 0.254150 0.163086
0.433838 0.268555 0.177002
0.466797 0.283447 0.190918
0.499756 0.298096 0.205566
0.533203 0.313965 0.219727
0.566406 0.329834 0.234131
0.601074 0.345947 0.247925
0.634277 0.362061 0.261230
0.667969 0.377686 0.273926
0.701172 0.394287 0.287109
0.734863 0.409424 0.298340
0.768555 0.424072 0.309326
0.801270 0.437988 0.318848
0.833984 0.451904 0.328613
0.865723 0.464111 0.336670
0.897461 0.476074 0.343506
0.928223 0.486816 0.348389
0.959961 0.496826 0.352295
0.989746 0.505371 0.356201
0.027100 0.172119 0.094971
0.052124 0.172607 0.097290
0.070557 0.173340 0.098694
0.088196 0.174072 0.101013
0.108154 0.175049 0.095764
0.131958 0.177002 0.081787
0.154541 0.178345 0.074646
0.184570 0.190552 0.083740
0.215576 0.201660 0.093201
0.246094 0.213135 0.103271
0.277588 0.224976 0.113403
0.308838 0.237183 0.124756
0.341064 0.249268 0.136719
0.373535 0.261719 0.148438
0.405518 0.274658 0.161011
0.439209 0.288330 0.173950
0.471680 0.302002 0.186279
0.504883 0.316162 0.199463
0.538086 0.331299 0.212524
0.571289 0.345947 0.225342
0.605469 0.361084 0.237671
0.638184 0.375977 0.250000
0.672363 0.391113 0.261719
0.705566 0.405762 0.272461
0.738281 0.419922 0.281982
0.771484 0.434082 0.291748
0.804199 0.447266 0.300781
0.836426 0.460205 0.308105
0.868164 0.471924 0.315430
0.899902 0.482422 0.319336
0.930664 0.492676 0.324707
0.960938 0.501953 0.330322
0.991699 0.509766 0.329346
0.049591 0.200439 0.111877
0.071838 0.201050 0.113708
0.088928 0.201782 0.115784
0.105225 0.202759 0.117859
0.122131 0.203735 0.120605
0.143066 0.205933 0.107544
0.167114 0.208374 0.091614
0.188843 0.209839 0.084778
0.220581 0.222778 0.094849
0.251221 0.234619 0.104248
0.281982 0.246582 0.114380
0.314697 0.258301 0.124756
0.346436 0.270996 0.135986
0.379150 0.283936 0.147339
0.411133 0.295898 0.158081
0.444092 0.308838 0.170288
0.477295 0.322266 0.182129
0.510254 0.335205 0.193481
0.542969 0.349854 0.205566
0.577148 0.363525 0.217285
0.609375 0.377686 0.227905
0.643066 0.391846 0.238892
0.675781 0.405762 0.249023
0.709473 0.419434 0.259277
0.740723 0.432617 0.267334
0.774414 0.445557 0.275146
0.806641 0.458008 0.281982
0.838379 0.470215 0.289795
0.870117 0.480957 0.293213
0.901367 0.491455 0.300049
0.932129 0.500000 0.300781
0.963379 0.509277 0.304199
0.993652 0.517090 0.310303
0.073730 0.230225 0.131836
0.093567 0.231323 0.133911
0.109375 0.232300 0.135864
0.124634 0.233154 0.138062
0.140259 0.234375 0.140747
0.157593 0.235840 0.137207
0.179443 0.238525 0.120483
0.203491 0.241089 0.101746
0.225098 0.242798 0.096069
0.256348 0.255859 0.105713
0.288330 0.268066 0.115295
0.319824 0.280518 0.125366
0.352295 0.293213 0.135376
0.384521 0.305664 0.145752
0.416992 0.318115 0.156128
0.450439 0.330811 0.167236
0.482910 0.343506 0.177490
0.515625 0.356201 0.188599
0.548340 0.369385 0.198608
0.581543 0.383057 0.209473
0.614258 0.395508 0.218994
0.647461 0.409180 0.227905
0.679688 0.421875 0.236572
0.712402 0.435059 0.245239
0.745605 0.447266 0.252686
0.777832 0.459229 0.258789
0.810059 0.470947 0.265625
0.841309 0.481689 0.269043
0.872559 0.491943 0.272705
0.903809 0.500977 0.277832
0.935059 0.509766 0.281738
0.964844 0.517578 0.284668
0.994629 0.524414 0.271973
0.100281 0.261719 0.154663
0.117188 0.262939 0.156494
0.131226 0.263428 0.158325
0.145752 0.264648 0.160522
0.160400 0.265625 0.162842
0.175781 0.267090 0.165527
0.194092 0.269043 0.152710
0.216187 0.272461 0.133057
0.239746 0.274658 0.111206
0.261475 0.276855 0.106873
0.293701 0.290527 0.116699
0.325928 0.302979 0.125488
0.358154 0.315674 0.135010
0.390625 0.328369 0.144531
0.423584 0.340332 0.154175
0.456055 0.353271 0.163940
0.489258 0.365723 0.173462
0.521484 0.377930 0.182739
0.553711 0.390625 0.192261
0.585938 0.403320 0.201294
0.619629 0.415039 0.209473
0.651855 0.427734 0.217651
0.684570 0.439941 0.224976
0.716797 0.451660 0.232788
0.749512 0.463623 0.238525
0.781738 0.474609 0.244751
0.813477 0.484863 0.246094
0.844238 0.495361 0.252686
0.875488 0.504395 0.254883
0.906250 0.513672 0.255127
0.937500 0.521484 0.259766
0.967285 0.527832 0.257324
0.996582 0.534668 0.252930
0.128296 0.294922 0.179810
0.143066 0.295654 0.181519
0.155884 0.296631 0.183228
0.168457 0.297119 0.185059
0.182129 0.298340 0.187134
0.196411 0.299561 0.190430
0.212036 0.301025 0.189087
0.231445 0.303955 0.167969
0.253662 0.307129 0.145020
0.278076 0.310303 0.120117
0.299316 0.312500 0.116699
0.332031 0.325439 0.125488
0.364502 0.338379 0.134399
0.396729 0.350830 0.143188
0.429199 0.363525 0.151855
0.461426 0.376221 0.160522
0.494385 0.388428 0.169312
0.526855 0.400146 0.177612
0.558594 0.412354 0.185303
0.591797 0.424316 0.192993
0.624512 0.436035 0.200562
0.656738 0.447998 0.207031
0.688477 0.459229 0.213623
0.720703 0.469971 0.218750
0.753418 0.480957 0.223633
0.784668 0.491699 0.229980
0.815918 0.500488 0.229370
0.846680 0.510254 0.232422
0.878418 0.518555 0.233643
0.908691 0.526367 0.241455
0.939453 0.534668 0.234497
0.968262 0.540527 0.230591
0.998047 0.546387 0.245483
0.157837 0.328369 0.207153
0.170898 0.329346 0.209106
0.181763 0.330078 0.210205
0.193604 0.331543 0.212158
0.205688 0.332520 0.214722
0.219360 0.333740 0.216797
0.233398 0.334717 0.219360
0.249023 0.336670 0.206909
0.268555 0.339844 0.181885
0.291504 0.343018 0.155518
0.316406 0.345947 0.126831
0.337158 0.348145 0.125122
0.369873 0.361084 0.133179
0.402588 0.374268 0.141602
0.434814 0.386963 0.149292
0.467285 0.398682 0.156738
0.500000 0.410889 0.164429
0.531738 0.423096 0.172119
0.564453 0.434570 0.178955
0.596680 0.445801 0.185059
0.628906 0.457520 0.190918
0.661621 0.468750 0.197388
0.693359 0.479248 0.201904
0.725098 0.489746 0.207275
0.756836 0.500000 0.209839
0.788574 0.509277 0.213379
0.819336 0.518555 0.216797
0.850098 0.527344 0.218018
0.880859 0.534668 0.215942
0.910645 0.541992 0.212158
0.940918 0.548340 0.214966
0.971191 0.553223 0.216431
1.000000 0.559082 0.222656
0.189575 0.363281 0.236694
0.200317 0.364258 0.237915
0.210449 0.365234 0.239014
0.219849 0.365967 0.240845
0.231079 0.366455 0.242432
0.243164 0.367432 0.244507
0.256348 0.368652 0.247070
0.270020 0.370117 0.249878
0.287109 0.373047 0.222534
0.307129 0.375732 0.193970
0.329590 0.378906 0.163452
0.354492 0.382324 0.131592
0.375000 0.383789 0.131226
0.407471 0.396973 0.138672
0.440186 0.409912 0.146240
0.472900 0.422119 0.153076
0.505371 0.434326 0.159424
0.536621 0.446045 0.165771
0.569336 0.457275 0.171387
0.602051 0.468506 0.177490
0.633301 0.479248 0.181519
0.665527 0.490479 0.186401
0.697754 0.500000 0.189941
0.728516 0.510254 0.193970
0.760254 0.520020 0.196167
0.791992 0.528320 0.196411
0.822754 0.536621 0.200195
0.853516 0.544922 0.204102
0.883301 0.551758 0.202881
0.912598 0.557617 0.191895
0.942871 0.563965 0.196899
0.972656 0.568848 0.182617
1.000000 0.573730 0.200928
0.222168 0.398438 0.266357
0.231689 0.399170 0.268311
0.239502 0.399902 0.269043
0.248291 0.400635 0.270508
0.257812 0.401367 0.271973
0.268799 0.402344 0.273926
0.280518 0.403320 0.275879
0.293457 0.404297 0.278809
0.307373 0.406494 0.267822
0.324219 0.409424 0.236206
0.344482 0.412354 0.203613
0.367676 0.415527 0.169312
0.392090 0.418457 0.136475
0.413086 0.420166 0.135986
0.446045 0.432617 0.142578
0.477783 0.445068 0.147583
0.510742 0.457520 0.154175
0.541992 0.469482 0.159668
0.574707 0.480713 0.164795
0.606934 0.491211 0.168823
0.638672 0.501953 0.172852
0.669922 0.511719 0.176392
0.701660 0.521973 0.178589
0.732422 0.530273 0.180176
0.763672 0.539551 0.183228
0.795410 0.548340 0.184937
0.825195 0.556152 0.181152
0.855469 0.562500 0.175049
0.885742 0.569824 0.184082
0.915039 0.575195 0.179321
0.944824 0.580566 0.179321
0.974609 0.585938 0.180908
1.000000 0.590820 0.154419
0.255615 0.434082 0.298096
0.263428 0.434814 0.299561
0.269775 0.434814 0.300049
0.277100 0.435547 0.301514
0.285645 0.436279 0.302490
0.295166 0.437256 0.303955
0.306152 0.437988 0.306152
0.317627 0.438965 0.308105
0.330566 0.440186 0.310547
0.344482 0.442871 0.282227
0.361816 0.445312 0.247192
0.382568 0.448975 0.210327
0.405273 0.451416 0.172241
0.429443 0.454590 0.138550
0.450195 0.455566 0.137451
0.483154 0.468262 0.142334
0.515625 0.480225 0.147949
0.547363 0.491699 0.152710
0.579102 0.503418 0.156616
0.610840 0.513184 0.160156
0.642578 0.523926 0.162354
0.673828 0.533691 0.165039
0.705566 0.543457 0.166748
0.735840 0.552734 0.167480
0.767090 0.560547 0.167725
0.797363 0.567871 0.167114
0.828125 0.576172 0.166870
0.857910 0.583496 0.172852
0.887207 0.588867 0.164917
0.916992 0.596191 0.161743
0.945801 0.602051 0.174561
0.974121 0.608887 0.167114
1.000000 0.614258 0.188965
0.290039 0.469727 0.330322
0.295898 0.469971 0.330811
0.301514 0.470215 0.331787
0.308105 0.470703 0.332764
0.314941 0.471191 0.333740
0.322754 0.471924 0.334961
0.332764 0.472900 0.336670
0.343018 0.473389 0.338135
0.354736 0.474365 0.340576
0.367188 0.476318 0.333008
0.380859 0.478516 0.294189
0.398926 0.481934 0.255127
0.419189 0.484619 0.213745
0.442627 0.487305 0.171143
0.466064 0.489746 0.137817
0.487305 0.490967 0.137451
0.519531 0.502930 0.140991
0.550781 0.514648 0.142578
0.582520 0.525879 0.147461
0.614258 0.536133 0.150146
0.646484 0.547363 0.152832
0.677246 0.555664 0.154053
0.708008 0.565430 0.156616
0.739746 0.573730 0.155640
0.770508 0.582031 0.156738
0.800293 0.589844 0.157471
0.829590 0.597656 0.162109
0.858887 0.604492 0.163818
0.888184 0.612305 0.164673
0.917480 0.618652 0.168213
0.945312 0.625488 0.168945
0.973633 0.631348 0.180176
1.000000 0.637695 0.176025
0.324219 0.504883 0.362793
0.329346 0.505371 0.363281
0.333496 0.505371 0.363770
0.339111 0.505371 0.364502
0.344971 0.506348 0.365234
0.351807 0.506836 0.366211
0.360107 0.506836 0.367920
0.368896 0.507324 0.368896
0.379395 0.508301 0.370850
0.391113 0.509277 0.373047
0.402588 0.511230 0.345459
0.417236 0.513672 0.302734
0.435059 0.516602 0.258545
0.455322 0.519531 0.213013
0.479004 0.522461 0.166138
0.502441 0.524414 0.135376
0.523438 0.525879 0.132690
0.554199 0.537598 0.135620
0.586426 0.547363 0.136597
0.618164 0.559082 0.141479
0.649414 0.568359 0.143188
0.681152 0.579102 0.142334
0.710938 0.587402 0.145264
0.741699 0.596191 0.149170
0.770996 0.604492 0.150513
0.801270 0.612305 0.159668
0.830078 0.620117 0.162964
0.859375 0.627441 0.156860
0.887695 0.633789 0.152588
0.916504 0.640625 0.164673
0.945801 0.647461 0.171387
0.973145 0.653809 0.177612
1.000000 0.660156 0.186890
0.358154 0.538086 0.394287
0.361084 0.539062 0.394775
0.365479 0.539062 0.395264
0.369385 0.539551 0.395996
0.374756 0.539551 0.396729
0.381348 0.540039 0.397705
0.387939 0.540039 0.398193
0.395020 0.540527 0.399170
0.404541 0.541016 0.400391
0.415527 0.541992 0.402832
0.426270 0.543457 0.400635
0.436768 0.544922 0.354004
0.451904 0.547852 0.306885
0.469971 0.550293 0.257812
0.490479 0.553223 0.208618
0.514160 0.556641 0.159302
0.537109 0.558105 0.129150
0.558594 0.559082 0.126953
0.589355 0.569824 0.127808
0.620605 0.580566 0.132812
0.650879 0.590332 0.138062
0.682617 0.600586 0.141113
0.712402 0.609863 0.145020
0.742188 0.618164 0.146606
0.771484 0.625977 0.151245
0.800293 0.634277 0.154663
0.830078 0.641602 0.155273
0.858887 0.648438 0.162964
0.887207 0.656738 0.151001
0.915527 0.662598 0.163940
0.944336 0.669434 0.148926
0.973145 0.675781 0.163696
1.000000 0.682129 0.172729
0.391846 0.572266 0.425781
0.395020 0.572266 0.426514
0.397461 0.572266 0.427002
0.401123 0.573242 0.427490
0.405029 0.572754 0.427490
0.410156 0.573242 0.427979
0.415771 0.573730 0.429199
0.422119 0.573730 0.429688
0.430664 0.574219 0.431152
0.439697 0.574707 0.432861
0.449951 0.575684 0.434082
0.459961 0.576660 0.410156
0.471191 0.579102 0.359619
0.485840 0.582031 0.307617
0.504395 0.584473 0.254150
0.525391 0.587402 0.202637
0.547363 0.588867 0.151855
0.570801 0.591309 0.129761
0.591309 0.591797 0.130249
0.622070 0.602539 0.134644
0.651855 0.612305 0.140381
0.682617 0.621582 0.140503
0.712402 0.630859 0.144409
0.742188 0.639160 0.148193
0.771484 0.648438 0.149902
0.800293 0.655273 0.158081
0.830078 0.663086 0.159424
0.858887 0.670410 0.164062
0.887207 0.677246 0.155273
0.915527 0.684082 0.167603
0.943359 0.690430 0.171875
0.971680 0.696777 0.167358
1.000000 0.703125 0.169678
0.424072 0.604492 0.456787
0.427246 0.604980 0.457275
0.429688 0.604980 0.457764
0.431885 0.604980 0.457764
0.436035 0.604980 0.458252
0.439209 0.605469 0.458008
0.444336 0.605957 0.458984
0.449951 0.605469 0.459473
0.456787 0.605957 0.460693
0.464600 0.606445 0.461182
0.473633 0.606934 0.462891
0.483398 0.607422 0.463867
0.490967 0.609375 0.415283
0.502930 0.611816 0.361572
0.518555 0.613770 0.308105
0.536621 0.617188 0.255615
0.557129 0.619141 0.203613
0.580078 0.622070 0.154297
0.602539 0.623047 0.137451
0.622559 0.623535 0.136597
0.652832 0.633789 0.143799
0.682617 0.642578 0.143066
0.711914 0.650879 0.144775
0.741699 0.660156 0.153809
0.770508 0.667969 0.152954
0.800293 0.676758 0.150146
0.829102 0.683594 0.156006
0.857422 0.690918 0.157349
0.885742 0.697754 0.167725
0.914551 0.704590 0.150879
0.941895 0.711426 0.163940
0.970215 0.717773 0.179810
0.999023 0.724121 0.149658
0.456543 0.636230 0.486816
0.458008 0.636230 0.486816
0.460449 0.636230 0.486816
0.462402 0.636230 0.487305
0.465088 0.636230 0.487305
0.469238 0.637207 0.488281
0.472900 0.637207 0.488525
0.477539 0.637207 0.489014
0.483154 0.637695 0.489990
0.489014 0.637207 0.490234
0.497070 0.638184 0.491211
0.506348 0.638672 0.492676
0.513672 0.639648 0.475098
0.521973 0.641113 0.420166
0.534180 0.643555 0.365723
0.549805 0.645996 0.311768
0.568359 0.647949 0.257324
0.588867 0.650391 0.203247
0.610840 0.652344 0.158325
0.633301 0.653320 0.139893
0.652344 0.653320 0.143555
0.682617 0.663574 0.145508
0.712402 0.671875 0.141968
0.740234 0.679688 0.153320
0.770020 0.688477 0.153809
0.799805 0.696289 0.158325
0.828125 0.704102 0.153320
0.856445 0.711914 0.156250
0.885254 0.718262 0.163086
0.913086 0.725586 0.168335
0.940918 0.732422 0.154663
0.969727 0.738770 0.175659
0.996582 0.745117 0.158569
0.487061 0.666016 0.515137
0.489014 0.666016 0.515137
0.490234 0.666016 0.515625
0.492188 0.666504 0.516113
0.494629 0.666016 0.516113
0.497070 0.666016 0.516113
0.499756 0.666016 0.516113
0.503906 0.666504 0.517090
0.508789 0.666504 0.517578
0.513672 0.666504 0.517578
0.520020 0.666504 0.518555
0.527344 0.666992 0.519531
0.536133 0.666992 0.520020
0.542969 0.668457 0.478516
0.550781 0.670898 0.423096
0.562988 0.673340 0.366943
0.579590 0.675293 0.312012
0.598145 0.677734 0.257324
0.618652 0.680664 0.205811
0.640137 0.682129 0.153564
0.662598 0.682617 0.141724
0.682129 0.682617 0.144165
0.711426 0.691895 0.146484
0.740723 0.700195 0.152710
0.769531 0.708496 0.153198
0.798340 0.716309 0.153809
0.827148 0.724121 0.154907
0.854980 0.731934 0.148438
0.882812 0.738281 0.159668
0.911133 0.745605 0.166748
0.939453 0.752441 0.158203
0.966797 0.758789 0.176270
0.995605 0.765137 0.164551
0.516602 0.695312 0.542969
0.518555 0.695312 0.542969
0.519531 0.695801 0.543457
0.520996 0.695312 0.542969
0.521973 0.695801 0.542969
0.524414 0.695312 0.543457
0.526855 0.695312 0.543945
0.529785 0.695312 0.544434
0.534180 0.695312 0.543945
0.538574 0.695312 0.544434
0.543457 0.695312 0.544434
0.550781 0.695801 0.545898
0.558105 0.696289 0.546387
0.564941 0.695801 0.537598
0.569336 0.698242 0.480713
0.579590 0.700195 0.423828
0.592773 0.702637 0.367676
0.609375 0.704590 0.310547
0.626953 0.707031 0.256348
0.647461 0.708984 0.203857
0.669434 0.710449 0.151978
0.690430 0.711426 0.149536
0.710938 0.710938 0.147461
0.739746 0.719727 0.156860
0.767578 0.728516 0.155884
0.796875 0.735352 0.145508
0.826172 0.744141 0.148682
0.854492 0.750977 0.161255
0.882324 0.758789 0.159058
0.909668 0.764648 0.152588
0.938477 0.772461 0.160522
0.965332 0.778320 0.171265
0.993164 0.784668 0.161133
0.546387 0.723145 0.569824
0.547363 0.723145 0.569824
0.548340 0.723145 0.570312
0.548828 0.723145 0.570312
0.550293 0.722656 0.570312
0.551758 0.723145 0.570312
0.553223 0.722656 0.569336
0.556152 0.723145 0.570312
0.559570 0.722656 0.570801
0.563477 0.722656 0.570801
0.568359 0.723633 0.571289
0.572754 0.723145 0.571777
0.580078 0.723145 0.572266
0.587402 0.723633 0.573730
0.592285 0.725098 0.540039
0.598145 0.727051 0.482178
0.607910 0.729004 0.425049
0.621582 0.731445 0.367920
0.637207 0.733398 0.309570
0.656250 0.735352 0.255615
0.676270 0.737305 0.201172
0.697266 0.738281 0.145874
0.718262 0.739258 0.150391
0.738770 0.739258 0.144409
0.766602 0.747070 0.144287
0.795410 0.755371 0.153076
0.824219 0.762207 0.155029
0.851562 0.770508 0.155884
0.880859 0.777832 0.160034
0.908691 0.784668 0.157715
0.936035 0.791016 0.183228
0.963379 0.797852 0.157837
0.990723 0.804199 0.161499
0.574707 0.750488 0.595703
0.574707 0.750488 0.595215
0.576172 0.750488 0.595703
0.576660 0.750488 0.596191
0.577148 0.750488 0.595703
0.578613 0.750488 0.596191
0.580566 0.750488 0.596680
0.583008 0.750488 0.596680
0.585449 0.750488 0.596191
0.587891 0.750488 0.596680
0.592285 0.750488 0.596680
0.596680 0.750488 0.597168
0.602539 0.750977 0.598145
0.608398 0.750488 0.598633
0.614746 0.750977 0.600098
0.618652 0.752930 0.541016
0.625977 0.754883 0.482422
0.635742 0.756836 0.424316
0.649414 0.759277 0.366943
0.665527 0.761230 0.309814
0.684082 0.763672 0.252686
0.704102 0.765137 0.197754
0.726074 0.767090 0.143311
0.745117 0.766113 0.152588
0.765625 0.766113 0.134888
0.794434 0.774414 0.159912
0.822754 0.782227 0.160767
0.849609 0.789062 0.159668
0.878418 0.796387 0.158569
0.905762 0.803711 0.148193
0.934570 0.810547 0.151245
0.961426 0.816406 0.189819
0.989258 0.824219 0.106873
0.602051 0.777832 0.622070
0.602539 0.777832 0.621582
0.602539 0.777832 0.621582
0.603516 0.778320 0.622070
0.604492 0.777832 0.621582
0.605957 0.777832 0.622559
0.606934 0.777832 0.622070
0.608398 0.777832 0.622070
0.611816 0.777832 0.622070
0.613770 0.777832 0.622559
0.616211 0.777832 0.623047
0.620117 0.777832 0.623535
0.624512 0.777832 0.624023
0.630371 0.777344 0.624512
0.636719 0.777344 0.625000
0.641602 0.778809 0.600098
0.644531 0.781250 0.540527
0.651367 0.782715 0.481689
0.662598 0.784668 0.422852
0.676270 0.786621 0.363770
0.692383 0.789062 0.308105
0.710938 0.790527 0.250977
0.730957 0.792480 0.193481
0.751953 0.793457 0.154053
0.772461 0.793457 0.150024
0.791992 0.792969 0.149048
0.820801 0.800293 0.148926
0.849121 0.808594 0.167480
0.876465 0.815430 0.138550
0.903809 0.823242 0.151489
0.931641 0.829590 0.134644
0.958984 0.835938 0.139648
0.986816 0.841797 0.121094
0.629395 0.804199 0.646973
0.629395 0.804199 0.646973
0.629395 0.804199 0.646973
0.631348 0.804199 0.646973
0.631836 0.804199 0.646973
0.631836 0.804199 0.646973
0.633301 0.803711 0.647461
0.634766 0.803223 0.646973
0.636230 0.803223 0.646973
0.638672 0.803223 0.647461
0.641602 0.803223 0.647949
0.644531 0.803711 0.648438
0.647949 0.803711 0.648926
0.652344 0.803711 0.649414
0.658203 0.803711 0.649414
0.664062 0.803711 0.649414
0.665527 0.805176 0.598633
0.669434 0.807617 0.539551
