RED_IPP2_Creative/RED_BW_0200.cube
# RED Digital Cinema Output Transform LUT for IPP2
# Creatives by Eric Weidt
# BMD cube from Truelight v4.0
# Settings used in creation of this LUT are:
# Development Color Space = USER SELECTABLE
# Output Gamma Curve = USER SELECTABLE
# Output Tonemap = USER SELECTABLE
# Highlight Rolloff = USER SELECTABLE
LUT_3D_SIZE 5
0.064026 0.064026 0.064026
0.094666 0.094666 0.094666
0.382080 0.382080 0.382080
0.741211 0.741211 0.741211
0.939453 0.939453 0.939453
0.149536 0.149536 0.149536
0.106995 0.106995 0.106995
0.279541 0.279541 0.279541
0.645020 0.645020 0.645020
0.903809 0.903809 0.903809
0.500488 0.500488 0.500488
0.390625 0.390625 0.390625
0.322754 0.322754 0.322754
0.559082 0.559082 0.559082
0.853027 0.853027 0.853027
0.826172 0.826172 0.826172
0.741699 0.741699 0.741699
0.653809 0.653809 0.653809
0.597656 0.597656 0.597656
0.791016 0.791016 0.791016
0.963867 0.963867 0.963867
0.937988 0.937988 0.937988
0.904297 0.904297 0.904297
0.858398 0.858398 0.858398
0.821289 0.821289 0.820801
0.133301 0.133179 0.133179
0.170410 0.170410 0.170410
0.401367 0.401367 0.401367
0.742188 0.742188 0.742188
0.939453 0.939453 0.939453
0.208130 0.208130 0.208130
0.231567 0.231567 0.231567
0.422607 0.422607 0.422363
0.744141 0.744141 0.744141
0.939453 0.939453 0.939453
0.512695 0.512695 0.512695
0.517578 0.517578 0.517578
0.453125 0.453125 0.453125
0.666016 0.666016 0.666016
0.904785 0.904785 0.904785
0.829590 0.829590 0.829590
0.830078 0.830078 0.830078
0.750000 0.750000 0.750000
0.699707 0.699707 0.699707
0.864746 0.864746 0.864746
0.964355 0.964355 0.964355
0.964844 0.964844 0.964844
0.939453 0.939453 0.939453
0.908203 0.908203 0.908203
0.884277 0.884277 0.884277
0.475830 0.475830 0.475830
0.481445 0.481445 0.481445
0.539062 0.539062 0.539062
0.757324 0.757324 0.757324
0.939941 0.939941 0.939941
0.488770 0.488770 0.488770
0.493896 0.493896 0.493896
0.547363 0.547363 0.547363
0.758789 0.758789 0.758789
0.939941 0.939941 0.939941
0.593750 0.593750 0.593750
0.596191 0.596191 0.596191
0.623047 0.623047 0.623047
0.773926 0.773926 0.773926
0.940430 0.940430 0.940430
0.838867 0.838867 0.838867
0.838379 0.838379 0.838379
0.841309 0.841309 0.841309
0.797363 0.797363 0.797363
0.913086 0.913086 0.913086
0.965332 0.965332 0.965332
0.965820 0.965820 0.965820
0.965820 0.965820 0.965820
0.942383 0.942383 0.942383
0.925293 0.925293 0.925293
0.812988 0.812988 0.812988
0.813477 0.813477 0.813477
0.817383 0.817383 0.817383
0.854004 0.854004 0.854004
0.944336 0.944336 0.944336
0.813965 0.813965 0.813965
0.813965 0.813965 0.813965
0.818359 0.818359 0.818359
0.854492 0.854492 0.854492
0.944336 0.944336 0.944336
0.822754 0.822754 0.822754
0.822754 0.822754 0.822754
0.826172 0.826172 0.826172
0.858887 0.858887 0.858887
0.944824 0.944824 0.944824
0.882324 0.882324 0.882324
0.882324 0.882324 0.882324
0.883301 0.883301 0.883301
0.895508 0.895508 0.895508
0.949707 0.949707 0.949707
0.968750 0.968750 0.968750
0.968750 0.968750 0.968750
0.968750 0.968750 0.968750
0.969727 0.969727 0.969727
0.956055 0.956055 0.956055
0.960449 0.960449 0.960449
0.960449 0.960449 0.960449
0.960938 0.960938 0.960938
0.961914 0.961914 0.961914
0.974121 0.974121 0.974121
0.960449 0.960449 0.960449
0.960449 0.960449 0.960449
0.960938 0.960938 0.960938
0.961914 0.961914 0.961914
0.974121 0.974121 0.974121
0.960938 0.960938 0.960938
0.960938 0.960938 0.960938
0.960938 0.960938 0.960938
0.962402 0.962402 0.962402
0.974121 0.974121 0.974121
0.963867 0.963867 0.963867
0.963867 0.963867 0.963867
0.963867 0.963867 0.963867
0.964844 0.964844 0.964844
0.976074 0.976074 0.976074
0.987305 0.987305 0.987305
0.987305 0.987305 0.987305
0.987305 0.987305 0.987305
0.987793 0.987793 0.987793
0.999023 0.999023 0.999023
