RED_IPP2_Creative/RED_BASE.cube
# RED Digital Cinema Output Transform LUT for IPP2
# Creatives by Eric Weidt
# BMD cube from Truelight v4.0
# Settings used in creation of this LUT are:
# Development Color Space = USER SELECTABLE
# Output Gamma Curve = USER SELECTABLE
# Output Tonemap = USER SELECTABLE
# Highlight Rolloff = USER SELECTABLE
LUT_3D_SIZE 5
0.025925 0.005180 0.000000
0.241821 0.000000 0.000000
0.502930 0.023880 0.075500
0.752930 0.151978 0.265625
1.000000 0.379639 0.509766
0.000000 0.246704 0.017120
0.239258 0.247925 0.020493
0.503418 0.253418 0.085938
0.752930 0.275879 0.268555
1.000000 0.402588 0.510254
0.145996 0.501465 0.152344
0.275879 0.500977 0.154053
0.505371 0.500977 0.172363
0.752930 0.502930 0.287354
1.000000 0.525391 0.511719
0.380371 0.750488 0.382324
0.402588 0.750488 0.381104
0.527344 0.750977 0.383301
0.754883 0.750488 0.405273
1.000000 0.752441 0.532227
0.624512 0.999512 0.627441
0.626953 0.999512 0.628418
0.649414 0.999512 0.627930
0.776367 0.999512 0.629883
1.000000 1.000000 0.654297
0.042206 0.024673 0.248657
0.245483 0.032837 0.249268
0.502930 0.011612 0.251465
0.752930 0.147827 0.319092
1.000000 0.375000 0.514160
0.028763 0.249390 0.250977
0.241943 0.249634 0.251221
0.502930 0.252197 0.253174
0.752930 0.274658 0.319092
1.000000 0.401367 0.515137
0.143921 0.500488 0.269043
0.274658 0.500488 0.269287
0.505371 0.500977 0.275635
0.752930 0.502930 0.332764
1.000000 0.524902 0.517578
0.379639 0.750488 0.399170
0.401123 0.750488 0.400391
0.527832 0.750488 0.401367
0.754883 0.750488 0.420898
1.000000 0.752930 0.537598
0.625000 0.999512 0.629395
0.626953 0.999512 0.630371
0.647949 0.999512 0.629395
0.776367 0.999512 0.631348
1.000000 1.000000 0.655762
0.000000 0.000000 0.491943
0.222168 0.000000 0.491943
0.500977 0.000000 0.492676
0.752441 0.093628 0.500000
1.000000 0.373535 0.567871
0.000000 0.235352 0.491943
0.224243 0.235718 0.492188
0.500977 0.237793 0.492676
0.752441 0.263428 0.500000
1.000000 0.397949 0.568359
0.001798 0.499756 0.494141
0.253174 0.499756 0.494141
0.502930 0.499756 0.494873
0.752930 0.501953 0.501953
1.000000 0.524414 0.569336
0.372803 0.750488 0.517578
0.395508 0.750488 0.517578
0.524902 0.750488 0.518555
0.754883 0.750488 0.524902
1.000000 0.752441 0.580566
0.624023 0.999512 0.649902
0.625977 0.999512 0.649414
0.647461 0.999512 0.649414
0.776855 0.999512 0.651367
1.000000 1.000000 0.671875
0.000000 0.000000 0.740723
0.000000 0.000000 0.740723
0.472168 0.000000 0.741211
0.750488 0.000000 0.741699
1.000000 0.316162 0.749512
0.000000 0.000000 0.740723
0.000000 0.000000 0.741211
0.471924 0.000000 0.741211
0.750488 0.000000 0.741699
1.000000 0.355957 0.749512
0.000000 0.486084 0.741211
0.000000 0.485840 0.741211
0.475098 0.485596 0.741211
0.750977 0.487793 0.741699
1.000000 0.514160 0.749512
0.000000 0.749512 0.743164
0.236816 0.749512 0.743164
0.502441 0.749512 0.743164
0.752930 0.749512 0.744141
1.000000 0.751465 0.751465
0.615723 0.999512 0.768555
0.619629 0.999512 0.767578
0.641113 0.999512 0.768066
0.775391 0.999512 0.768555
1.000000 0.999512 0.774902
0.000000 0.000000 0.991211
0.000000 0.000000 0.991211
0.000000 0.000000 0.991211
0.723145 0.000000 0.991211
0.999512 0.000000 0.991699
0.000000 0.000000 0.991211
0.000000 0.000000 0.991211
0.000000 0.000000 0.991211
0.722168 0.000000 0.991211
0.999512 0.000000 0.991699
0.000000 0.000000 0.991211
0.000000 0.000000 0.991211
0.000000 0.000000 0.990723
0.722656 0.000000 0.991211
0.999512 0.000000 0.991699
0.000000 0.734863 0.991211
0.000000 0.734863 0.991211
0.000000 0.735840 0.991699
0.726074 0.736328 0.991211
1.000000 0.737793 0.991699
0.000000 0.999023 0.993164
0.000000 0.999023 0.993164
0.501953 0.999023 0.993164
0.752930 0.999023 0.993164
1.000000 0.999023 0.993652
