RED_IPP2_Creative/RED_BASE.cube
# RED Digital Cinema Output Transform LUT for IPP2
# Creatives by Eric Weidt
# BMD cube from Truelight v4.0
# Settings used in creation of this LUT are:
# Development Color Space = USER SELECTABLE
# Output Gamma Curve = USER SELECTABLE
# Output Tonemap = USER SELECTABLE
# Highlight Rolloff = USER SELECTABLE
LUT_3D_SIZE 33
0.025925 0.005180 0.000000
0.048492 0.004124 0.000000
0.072876 0.003059 0.000000
0.098999 0.000922 0.000000
0.126221 0.000000 0.000000
0.154175 0.000000 0.000000
0.183105 0.000000 0.000000
0.212280 0.000000 0.000000
0.241821 0.000000 0.000000
0.271484 0.001860 0.000000
0.303223 0.017792 0.012199
0.336426 0.021088 0.017929
0.371094 0.021133 0.025223
0.406982 0.013779 0.032196
0.441162 0.013145 0.048553
0.472168 0.017303 0.061005
0.502930 0.023880 0.075500
0.534180 0.031586 0.091858
0.565430 0.042328 0.112000
0.596680 0.054779 0.133301
0.627930 0.067627 0.158203
0.659180 0.086670 0.183350
0.690430 0.104980 0.210205
0.721680 0.128784 0.238159
0.752930 0.151978 0.265625
0.784180 0.176514 0.296143
0.815430 0.208618 0.326660
0.846680 0.234985 0.357666
0.877930 0.262939 0.385986
0.909180 0.289062 0.417969
0.940430 0.316650 0.447021
0.971680 0.353027 0.479004
1.000000 0.379639 0.509766
0.021454 0.035309 0.000000
0.045044 0.034607 0.000000
0.070312 0.033569 0.000000
0.096985 0.032227 0.000000
0.124695 0.030411 0.000000
0.153076 0.027939 0.000000
0.182129 0.025177 0.000000
0.211548 0.022751 0.000000
0.241577 0.023727 0.000000
0.271240 0.032593 0.000000
0.302979 0.043518 0.012718
0.336670 0.046539 0.018814
0.371338 0.046967 0.026077
0.406982 0.041534 0.032013
0.440918 0.040894 0.048706
0.472168 0.043884 0.060303
0.502930 0.048737 0.075195
0.533691 0.055237 0.092041
0.565430 0.063049 0.111572
0.596680 0.073486 0.134033
0.627930 0.087524 0.158203
0.659180 0.100159 0.183472
0.690430 0.119263 0.209961
0.721680 0.139282 0.239258
0.752930 0.162476 0.267578
0.784180 0.184326 0.296387
0.815430 0.211182 0.326172
0.846680 0.235352 0.355957
0.877930 0.266602 0.386963
0.909180 0.291260 0.416992
0.940430 0.319580 0.447510
0.971680 0.353027 0.479004
1.000000 0.378174 0.508789
0.014809 0.065918 0.000000
0.039856 0.065369 0.000000
0.066406 0.064636 0.000000
0.093994 0.063660 0.000000
0.122498 0.062256 0.000000
0.151489 0.060516 0.000000
0.181030 0.058380 0.000000
0.211060 0.056641 0.000000
0.240967 0.057281 0.000000
0.270996 0.063293 0.000000
0.303223 0.070801 0.013664
0.336426 0.073120 0.019714
0.371338 0.073669 0.026520
0.407227 0.070312 0.032898
0.440918 0.070251 0.049042
0.472168 0.073059 0.061951
0.502930 0.076721 0.076599
0.534180 0.081543 0.092590
0.565430 0.087952 0.113403
0.596680 0.095886 0.134399
0.627930 0.105835 0.158936
0.659180 0.118225 0.184204
0.690430 0.132568 0.209717
0.721680 0.149658 0.239014
0.752930 0.169922 0.266602
0.784180 0.191406 0.296387
0.815430 0.219482 0.326660
0.846680 0.241333 0.357422
0.877930 0.267822 0.386230
0.909180 0.295166 0.417725
0.940430 0.320068 0.446777
0.971680 0.353027 0.479004
1.000000 0.379639 0.507812
0.005089 0.096558 0.000000
0.032318 0.096191 0.000000
0.060669 0.095703 0.000000
0.089661 0.094910 0.000000
0.119263 0.093933 0.000000
0.149292 0.092590 0.000000
0.179565 0.091003 0.000000
0.209961 0.089600 0.000000
0.240479 0.090027 0.000000
0.270752 0.094177 0.000000
0.303223 0.099121 0.014877
0.336670 0.101013 0.020737
0.371338 0.101807 0.027359
0.407471 0.099487 0.034393
0.440918 0.099976 0.050293
0.472168 0.101440 0.062012
0.502930 0.104492 0.076721
0.533691 0.108093 0.093628
0.565430 0.112854 0.112854
0.596680 0.118958 0.134644
0.627930 0.127930 0.159424
0.659180 0.136719 0.184082
0.690430 0.149048 0.209351
0.721680 0.164307 0.239258
0.752930 0.179565 0.264893
0.784180 0.199707 0.296387
0.815430 0.223999 0.325439
0.846680 0.248169 0.357178
0.877930 0.273926 0.386230
0.909180 0.298584 0.417969
0.940430 0.322021 0.446777
0.971680 0.356934 0.479248
1.000000 0.379639 0.507812
0.000000 0.127075 0.000000
0.021606 0.126953 0.000000
0.052704 0.126587 0.000000
0.083862 0.125977 0.000000
0.114929 0.125366 0.000000
0.146118 0.124329 0.000000
0.177246 0.123108 0.000000
0.208496 0.122192 0.000000
0.239746 0.122253 0.000000
0.270996 0.125000 0.001513
0.303223 0.128174 0.016632
0.336914 0.129761 0.022522
0.371826 0.130615 0.028900
0.407471 0.129272 0.035126
0.441162 0.130005 0.051544
0.472412 0.131470 0.063721
0.502930 0.133423 0.077637
0.534180 0.136230 0.094299
0.565430 0.139404 0.113831
0.596680 0.144775 0.134888
0.627930 0.150146 0.159180
0.659180 0.158447 0.183960
0.690430 0.170166 0.211670
0.721680 0.181396 0.239502
0.752930 0.196045 0.267090
0.784180 0.212646 0.295898
0.815430 0.230835 0.324219
0.846680 0.255371 0.357178
0.877930 0.278320 0.386475
0.909180 0.302734 0.416992
0.940430 0.327393 0.447021
0.971680 0.359375 0.479248
1.000000 0.384277 0.509766
0.000000 0.157349 0.000000
0.007607 0.157227 0.000000
0.042633 0.157104 0.000000
0.076355 0.156738 0.000000
0.109619 0.156250 0.000000
0.141968 0.155762 0.000000
0.174805 0.154785 0.000000
0.207153 0.153931 0.000000
0.239136 0.153931 0.000000
0.270752 0.155762 0.006786
0.303711 0.157715 0.018997
0.337158 0.159180 0.024887
0.371826 0.160034 0.030334
0.407471 0.159424 0.036743
0.441162 0.160156 0.053253
0.472412 0.161133 0.063965
0.502930 0.162720 0.078857
0.534180 0.164917 0.095032
0.565430 0.167725 0.115479
0.596680 0.171265 0.136353
0.627930 0.175781 0.158813
0.659180 0.182251 0.185425
0.690430 0.190796 0.211914
0.721680 0.201172 0.239868
0.752930 0.211792 0.266357
0.784180 0.226440 0.297119
0.814941 0.242188 0.324707
0.846680 0.265625 0.357910
0.877930 0.286377 0.386719
0.909180 0.312988 0.419434
0.940430 0.331543 0.447266
0.971680 0.361572 0.478760
1.000000 0.387207 0.509766
0.000000 0.187378 0.000000
0.000000 0.187378 0.000000
0.034241 0.187134 0.000000
0.070190 0.187134 0.000000
0.104980 0.186890 0.000000
0.138916 0.186523 0.000000
0.171753 0.186279 0.000000
0.205444 0.185425 0.000000
0.238647 0.185425 0.000000
0.270752 0.186646 0.013794
0.303711 0.187866 0.022461
0.337158 0.189087 0.027878
0.372314 0.189941 0.032623
0.408203 0.190063 0.039520
0.441162 0.190918 0.055328
0.472412 0.191895 0.067627
0.502930 0.192993 0.081421
0.534180 0.194336 0.096558
0.565430 0.196289 0.116516
0.596680 0.199219 0.136963
0.627930 0.202148 0.159668
0.659180 0.207397 0.185669
0.690430 0.214478 0.212280
0.721680 0.221313 0.239990
0.752930 0.231812 0.266602
0.784180 0.243164 0.296143
0.815430 0.260986 0.327881
0.846680 0.276367 0.358154
0.877930 0.296143 0.386719
0.909180 0.316162 0.417725
0.940430 0.336182 0.446777
0.971680 0.363770 0.478271
1.000000 0.390625 0.509766
0.000000 0.217041 0.000000
0.000000 0.217041 0.000000
0.035889 0.217163 0.000000
0.071716 0.217041 0.000000
0.106018 0.217041 0.000000
0.139282 0.217041 0.000000
0.172241 0.216919 0.000000
0.204590 0.216919 0.000000
0.238159 0.216797 0.000000
0.271240 0.217529 0.022003
0.304199 0.218262 0.026825
0.337891 0.219360 0.030960
0.372803 0.220459 0.036316
0.408447 0.220825 0.042511
0.441162 0.221680 0.058075
0.472412 0.222290 0.069763
0.502930 0.223022 0.082886
0.534180 0.224121 0.098206
0.565430 0.225830 0.117432
0.596680 0.227783 0.138672
0.627930 0.230469 0.162231
0.659180 0.234375 0.186523
0.690430 0.238281 0.212524
0.721680 0.244507 0.240234
0.752930 0.253662 0.268066
0.784180 0.262207 0.295898
0.815430 0.272949 0.324951
0.846680 0.290771 0.357178
0.877930 0.306152 0.386230
0.909180 0.325928 0.417236
0.940430 0.346924 0.448242
0.971680 0.369629 0.478516
1.000000 0.396973 0.509766
0.000000 0.246704 0.017120
0.022446 0.247192 0.017502
0.053162 0.247314 0.018005
0.083069 0.247070 0.017670
0.114807 0.247070 0.018372
0.145630 0.247192 0.018341
0.176758 0.247437 0.018829
0.208008 0.247681 0.019653
0.239258 0.247925 0.020493
0.271729 0.248291 0.027573
0.304443 0.249023 0.031342
0.338867 0.250000 0.036102
0.374023 0.250977 0.039581
0.409180 0.251709 0.047272
0.441406 0.252441 0.062378
0.472656 0.252686 0.073303
0.503418 0.253418 0.085938
0.534180 0.254150 0.101746
0.565430 0.255127 0.120239
0.596680 0.256836 0.140137
0.627930 0.258789 0.162842
0.659180 0.261719 0.187378
0.690430 0.264893 0.214478
0.721680 0.269775 0.240356
0.752930 0.275879 0.268555
0.784180 0.284424 0.298340
0.815430 0.292480 0.326416
0.846680 0.306396 0.355957
0.877930 0.319336 0.386719
0.909180 0.336426 0.416992
0.940430 0.355225 0.447021
0.971680 0.379395 0.479980
1.000000 0.402588 0.510254
0.000000 0.278809 0.027115
0.023239 0.278564 0.027084
0.054565 0.278564 0.027206
0.085876 0.278564 0.027649
0.117065 0.278564 0.028305
0.148193 0.278809 0.028580
0.178833 0.278809 0.029709
0.209961 0.279053 0.030777
0.241455 0.279053 0.032532
0.272461 0.279297 0.034973
0.305664 0.280029 0.038391
0.339600 0.281006 0.042084
0.375000 0.281982 0.046082
0.409424 0.282715 0.054260
0.441650 0.283203 0.068848
0.472656 0.283691 0.078308
0.503418 0.283936 0.090515
0.534180 0.284424 0.105164
0.565430 0.285400 0.123291
0.596680 0.286377 0.142700
0.627930 0.288086 0.165039
0.659180 0.290527 0.189087
0.690430 0.293213 0.215698
0.721680 0.296875 0.241333
0.752930 0.301025 0.267822
0.784180 0.307373 0.298096
0.815430 0.315430 0.326904
0.846680 0.325439 0.356689
0.877930 0.337402 0.387939
0.909180 0.352539 0.418945
0.940430 0.366699 0.447510
0.971680 0.390869 0.480713
1.000000 0.409424 0.510254
0.000000 0.310791 0.036499
0.027817 0.310791 0.036469
0.060028 0.310791 0.036499
0.090637 0.310791 0.036987
0.121643 0.310791 0.037628
0.151978 0.311035 0.038239
0.183228 0.311035 0.039368
0.213989 0.311035 0.039978
0.245239 0.311035 0.042053
0.275635 0.311279 0.044739
0.307129 0.311279 0.047333
0.341309 0.312500 0.049896
0.376221 0.313232 0.053131
0.410156 0.313965 0.064941
0.441650 0.314209 0.075073
0.472656 0.314697 0.084595
0.503418 0.314941 0.096985
0.534180 0.315186 0.109680
0.565430 0.315918 0.126953
0.596680 0.316650 0.144653
0.627930 0.317627 0.166748
0.659180 0.319824 0.190674
0.690430 0.321777 0.215576
0.721680 0.324463 0.242676
0.752930 0.327881 0.270264
0.784180 0.332275 0.297852
0.815430 0.338135 0.327637
0.846680 0.347168 0.357178
0.877930 0.356201 0.387939
0.909180 0.370117 0.419434
0.940430 0.381592 0.447998
0.971680 0.401855 0.480957
1.000000 0.419189 0.510254
0.023071 0.343750 0.048462
0.048218 0.343750 0.048370
0.075073 0.343750 0.048431
0.102295 0.343750 0.049316
0.131348 0.343750 0.050659
0.160522 0.343750 0.049988
0.190552 0.343750 0.050995
0.220581 0.343750 0.050995
0.250977 0.343750 0.052399
0.281250 0.343750 0.054047
0.312500 0.343506 0.055969
0.343262 0.343994 0.058685
0.377930 0.344727 0.063293
0.410645 0.345459 0.077209
0.441895 0.345459 0.083984
0.472900 0.345703 0.092529
0.503418 0.345947 0.104309
0.534180 0.346191 0.116211
0.565430 0.346680 0.132080
0.596680 0.347168 0.149658
0.627930 0.347900 0.171875
0.659180 0.349121 0.193359
0.690430 0.350586 0.217163
0.721680 0.353027 0.244263
0.752930 0.355713 0.272461
0.784180 0.359375 0.298828
0.815430 0.363281 0.328125
0.846680 0.370605 0.358154
0.877930 0.377197 0.387451
0.909180 0.387939 0.418945
0.940430 0.398682 0.447510
0.971680 0.415283 0.481445
1.000000 0.429688 0.509277
0.057678 0.376221 0.067627
0.077026 0.376221 0.067444
0.098328 0.376221 0.067749
0.121765 0.376221 0.067932
0.147217 0.376221 0.067627
0.174561 0.376221 0.068298
0.201660 0.376221 0.068604
0.230225 0.376221 0.068848
0.259033 0.376221 0.070312
0.288330 0.376221 0.072083
0.319092 0.376221 0.073975
0.348877 0.376221 0.074768
0.379883 0.376221 0.078735
0.411621 0.376465 0.089294
0.441895 0.376709 0.095215
0.472900 0.376709 0.102783
0.503906 0.376953 0.112549
0.534180 0.377197 0.124512
0.565430 0.377686 0.139404
0.596680 0.377930 0.155640
0.627930 0.378418 0.174805
0.659180 0.379150 0.195923
0.690430 0.380127 0.220703
0.721680 0.382080 0.246216
0.752930 0.384033 0.274902
0.784180 0.386963 0.301270
0.815430 0.390381 0.329590
0.846680 0.395508 0.359375
0.877930 0.400879 0.388672
0.909180 0.409424 0.419678
0.940430 0.418457 0.449463
0.971680 0.430664 0.479980
1.000000 0.445557 0.510254
0.082275 0.407715 0.088623
0.097839 0.407715 0.088501
0.113708 0.407715 0.088562
0.134766 0.407715 0.089050
0.156860 0.407715 0.089050
0.181519 0.407715 0.089233
0.207275 0.407715 0.089539
0.234497 0.407715 0.090332
0.262695 0.407715 0.091125
0.291260 0.407715 0.092590
0.320801 0.407715 0.094238
0.350830 0.407715 0.096008
0.381348 0.407715 0.099731
0.411621 0.407715 0.103943
0.442627 0.407715 0.108765
0.473389 0.407959 0.116089
0.503906 0.408203 0.124023
0.534668 0.408203 0.134277
0.565430 0.408447 0.148193
0.596680 0.408936 0.163208
0.627930 0.409180 0.181152
0.659668 0.409668 0.202637
0.690430 0.410400 0.225342
0.721680 0.411621 0.248413
0.752930 0.413330 0.277588
0.784180 0.415527 0.302979
0.815430 0.417725 0.330322
0.846680 0.422119 0.359375
0.877930 0.426025 0.388916
0.909180 0.432373 0.419922
0.940430 0.439941 0.448975
0.971680 0.449219 0.479004
1.000000 0.460938 0.510742
0.100769 0.438965 0.106750
0.113159 0.438965 0.107971
0.129395 0.438965 0.107727
0.145996 0.438965 0.108276
0.166748 0.438965 0.108093
0.188721 0.438965 0.108154
0.213623 0.438965 0.108093
0.238647 0.438965 0.108826
0.265869 0.438965 0.110413
0.293945 0.438965 0.111084
0.322510 0.438965 0.111816
0.352539 0.438965 0.113770
0.382324 0.438965 0.116333
0.412354 0.438965 0.119385
0.443115 0.438965 0.124512
0.474121 0.438965 0.130493
0.503906 0.439209 0.137817
0.534668 0.439209 0.146729
0.566406 0.439453 0.158569
0.596680 0.439697 0.172974
0.628418 0.439941 0.189087
0.659180 0.440430 0.208130
0.690918 0.440918 0.230103
0.721680 0.441895 0.253418
0.752930 0.442871 0.277588
0.784180 0.444092 0.303711
0.815430 0.446289 0.331543
0.846680 0.449219 0.361328
0.877930 0.452881 0.389893
0.909180 0.458008 0.420898
0.940430 0.463379 0.449951
0.971680 0.472900 0.482178
1.000000 0.480713 0.510742
0.122375 0.470215 0.129028
0.133667 0.470215 0.129761
0.148315 0.470215 0.130371
0.162109 0.470215 0.129639
0.178467 0.470215 0.129761
0.198730 0.470215 0.130615
0.221069 0.470215 0.130493
0.245239 0.470215 0.131226
0.270508 0.470215 0.131714
0.297363 0.470215 0.132568
0.325439 0.470215 0.133667
0.354492 0.470215 0.135742
0.383545 0.470215 0.136353
0.413574 0.470215 0.140137
0.443604 0.470459 0.143921
0.474609 0.470215 0.148438
0.504395 0.470459 0.155029
0.535156 0.470459 0.161499
0.565918 0.470459 0.172485
0.597656 0.470703 0.184570
0.627930 0.470947 0.200684
0.659180 0.471191 0.216309
0.690430 0.471680 0.236450
0.721680 0.472168 0.258789
0.752930 0.473145 0.283447
0.784180 0.474121 0.308350
0.815430 0.475830 0.334717
0.846680 0.477783 0.362061
0.877930 0.479980 0.390381
0.909180 0.483887 0.420898
0.940430 0.488037 0.448975
0.971680 0.495117 0.480713
1.000000 0.501953 0.511230
0.145996 0.501465 0.152344
0.155029 0.500977 0.153809
0.166748 0.500977 0.153931
0.175537 0.500977 0.152954
0.191528 0.500977 0.153076
0.211304 0.500977 0.152832
0.230591 0.500977 0.152954
0.251465 0.500977 0.152710
0.275879 0.500977 0.154053
0.302002 0.500977 0.155518
0.328857 0.500977 0.155273
0.357178 0.500977 0.156738
0.385742 0.500977 0.158569
0.415283 0.500977 0.161133
0.445312 0.500977 0.163452
0.475098 0.500977 0.167236
0.505371 0.500977 0.172363
0.536133 0.500977 0.178223
0.566406 0.500977 0.188721
0.597168 0.500977 0.198608
0.628418 0.501465 0.211670
0.659668 0.501465 0.225952
0.690430 0.501953 0.245483
0.721680 0.502441 0.265381
0.752930 0.502930 0.287354
0.784180 0.503906 0.312012
0.815430 0.504883 0.338623
0.847168 0.506836 0.365479
0.877930 0.508301 0.392334
0.909180 0.511719 0.422607
0.940430 0.515137 0.451172
0.971680 0.520020 0.482422
1.000000 0.525391 0.511719
0.170776 0.531738 0.177368
0.177856 0.531738 0.178223
0.187378 0.531738 0.177490
0.198730 0.531738 0.177490
0.211426 0.531738 0.177612
0.223877 0.531738 0.178345
0.243530 0.531738 0.177856
0.260742 0.531738 0.178833
0.283691 0.531738 0.179443
0.308838 0.531738 0.179077
0.333252 0.531738 0.180298
0.360352 0.531738 0.181885
0.388184 0.531738 0.182007
0.416992 0.531738 0.184570
0.446045 0.531738 0.185425
0.476074 0.531738 0.188721
0.506348 0.532227 0.195557
0.536133 0.532227 0.200195
0.566406 0.532227 0.206299
0.598145 0.532227 0.215820
0.628418 0.532227 0.225830
0.659668 0.532227 0.239136
0.690430 0.532715 0.255127
0.721680 0.532715 0.274658
0.752930 0.533203 0.294189
0.784180 0.533691 0.317383
0.815430 0.534668 0.343506
0.847168 0.535645 0.368652
0.877930 0.537109 0.395020
0.909180 0.540039 0.423584
0.940430 0.542480 0.451660
0.971680 0.546387 0.482910
1.000000 0.550293 0.512695
0.202026 0.562988 0.203491
0.204346 0.562988 0.204956
0.209351 0.562988 0.204590
0.218628 0.562988 0.204590
0.231201 0.562988 0.204834
0.242065 0.562988 0.203857
0.256592 0.562988 0.205322
0.272949 0.562988 0.205078
0.293457 0.562988 0.205322
0.316162 0.562988 0.207153
0.339111 0.562988 0.206909
0.364502 0.562988 0.207275
0.392090 0.562988 0.207520
0.419678 0.562988 0.210693
0.448730 0.562988 0.211060
0.477783 0.562988 0.213745
0.507812 0.562988 0.216431
0.536621 0.562988 0.219849
0.567871 0.563477 0.226685
0.598145 0.563477 0.232056
0.628906 0.563477 0.243286
0.659668 0.563477 0.253174
0.691406 0.563477 0.269287
0.721680 0.563965 0.283447
0.752930 0.563965 0.302979
0.784180 0.564453 0.325439
0.815430 0.564941 0.347168
0.846680 0.565918 0.373047
0.877930 0.566895 0.397217
0.909180 0.568359 0.425049
0.940430 0.571289 0.454346
0.971680 0.573242 0.483643
1.000000 0.577637 0.513184
0.228516 0.594238 0.231079
0.234619 0.594238 0.232422
0.236450 0.594238 0.232056
0.243652 0.594238 0.232544
0.250244 0.594238 0.232544
0.259277 0.594238 0.232788
0.275146 0.594238 0.232056
0.286865 0.594238 0.232300
0.305908 0.594727 0.232056
0.324707 0.594238 0.233765
0.346436 0.594238 0.234131
0.371094 0.594727 0.234253
0.395752 0.594238 0.236328
0.423340 0.594238 0.236328
0.450684 0.594238 0.237549
0.479492 0.594238 0.239868
0.508301 0.594238 0.241333
0.538086 0.594238 0.245483
0.568359 0.594238 0.250244
0.599121 0.594727 0.255371
0.629395 0.594727 0.262451
0.660156 0.594727 0.271973
0.690918 0.594727 0.283203
0.722168 0.594727 0.298096
0.753418 0.595215 0.313477
0.784180 0.595215 0.333984
0.815430 0.595703 0.354492
0.846680 0.596191 0.377930
0.877930 0.597168 0.402344
0.909180 0.598145 0.428955
0.940430 0.599609 0.456787
0.971680 0.601562 0.486328
1.000000 0.604492 0.513672
0.257568 0.625488 0.259521
0.260742 0.625488 0.260498
0.265137 0.625488 0.261475
0.269043 0.625488 0.261719
0.274170 0.625488 0.260498
0.283691 0.625977 0.261230
0.296143 0.625488 0.260742
0.308105 0.625488 0.259521
0.319092 0.625488 0.260010
0.335205 0.625488 0.261963
0.357422 0.625488 0.260010
0.377686 0.625977 0.261963
0.401367 0.625488 0.261719
0.427734 0.625488 0.263672
0.454590 0.625488 0.264648
0.482422 0.625488 0.264648
0.509766 0.625488 0.267334
0.539062 0.625488 0.270508
0.568848 0.625488 0.274414
0.599121 0.625488 0.277100
0.630859 0.625488 0.284912
0.661133 0.625977 0.290771
0.691406 0.625977 0.301270
0.722168 0.625977 0.312256
0.753418 0.625977 0.328369
0.784180 0.626465 0.345947
0.815430 0.626465 0.363770
0.846680 0.626953 0.385498
0.877930 0.627441 0.409424
0.909180 0.628418 0.433594
0.940430 0.629395 0.459961
0.971680 0.631348 0.489258
1.000000 0.633301 0.515625
0.284668 0.657227 0.290771
0.288574 0.656738 0.289795
0.290039 0.657227 0.291260
0.299072 0.656738 0.291016
0.300781 0.656738 0.290039
0.306396 0.656738 0.290283
0.311523 0.656738 0.289551
0.321289 0.656738 0.290527
0.334473 0.656738 0.291748
0.351562 0.656738 0.290771
0.367188 0.656738 0.291016
0.386963 0.656738 0.290771
0.409424 0.656738 0.291992
0.433350 0.656738 0.290527
0.458984 0.656738 0.293945
0.485596 0.656738 0.293701
0.512695 0.657227 0.296631
0.541992 0.656738 0.297119
0.570801 0.656738 0.299316
0.600586 0.656738 0.302979
0.630859 0.656738 0.307373
0.661621 0.656738 0.312500
0.692383 0.657227 0.322754
0.722656 0.657227 0.332764
0.753418 0.657227 0.343262
0.784668 0.657227 0.356934
0.815430 0.657715 0.375000
0.846680 0.658203 0.395020
0.877930 0.658203 0.415771
0.909180 0.659180 0.439209
0.940430 0.659668 0.463135
0.971680 0.660645 0.490967
1.000000 0.662109 0.518555
0.317627 0.687988 0.318359
0.319580 0.687988 0.319336
0.321045 0.687988 0.319336
0.325684 0.687988 0.320557
0.328613 0.687988 0.319824
0.333008 0.687988 0.321045
0.337891 0.687988 0.318848
0.347900 0.687988 0.319580
0.357910 0.687988 0.318848
0.370605 0.687988 0.319336
0.382812 0.687988 0.319824
0.399414 0.687988 0.320312
0.420898 0.687988 0.320312
0.441406 0.687988 0.320312
0.464600 0.687988 0.323242
0.489258 0.687988 0.322021
0.516113 0.687988 0.322510
0.544434 0.687988 0.325928
0.572266 0.687988 0.326416
0.603027 0.687988 0.330811
0.631836 0.687988 0.333740
0.663086 0.687988 0.338379
0.692871 0.687988 0.343262
0.723633 0.687988 0.351318
0.753906 0.688477 0.360352
0.784668 0.688477 0.373047
0.815918 0.688477 0.389160
0.847168 0.688965 0.405762
0.877930 0.688965 0.425049
0.909180 0.689453 0.447754
0.940430 0.689941 0.469482
0.971680 0.690918 0.495361
1.000000 0.691895 0.521973
0.343750 0.719238 0.350342
0.343750 0.719238 0.350342
0.346191 0.719238 0.350342
0.348389 0.719238 0.350098
0.350830 0.719238 0.350098
0.357422 0.719238 0.350586
0.361816 0.719238 0.352051
0.367676 0.719238 0.350586
0.376709 0.719238 0.349609
0.387939 0.719238 0.349854
0.399658 0.719238 0.349365
0.411377 0.719238 0.350586
0.429932 0.719238 0.349854
0.450195 0.719238 0.350098
0.470703 0.719238 0.352295
0.495361 0.719238 0.352051
0.520508 0.719238 0.351562
0.546875 0.719238 0.354736
0.575684 0.719238 0.354980
0.604492 0.719238 0.356445
0.632812 0.719238 0.359863
0.663086 0.719238 0.362793
0.693359 0.719238 0.367676
0.724121 0.719238 0.374268
0.754883 0.719727 0.382080
0.785156 0.719727 0.392822
0.816406 0.719727 0.403809
0.847168 0.719727 0.418945
0.877930 0.720215 0.435059
0.909180 0.720215 0.456787
0.940430 0.720703 0.476562
0.971680 0.721191 0.501465
1.000000 0.722168 0.526367
0.380371 0.750488 0.382324
0.380371 0.750488 0.382324
0.381836 0.750488 0.381348
0.385010 0.750488 0.379883
0.386719 0.750488 0.381836
0.388184 0.750488 0.380859
0.391113 0.750488 0.379395
0.396973 0.750488 0.379883
0.402588 0.750488 0.381104
0.410400 0.750488 0.380859
0.417725 0.751465 0.382080
0.432861 0.750488 0.379395
0.446777 0.750488 0.381104
0.463135 0.750488 0.381592
0.483154 0.750488 0.382080
0.502930 0.750488 0.381592
0.527344 0.750977 0.383301
0.551758 0.750488 0.383789
0.578125 0.750488 0.384033
0.606445 0.750488 0.386230
0.635742 0.750488 0.387695
0.665039 0.750488 0.392090
0.694336 0.750488 0.393799
0.725098 0.750488 0.397705
0.754883 0.750488 0.405273
0.786133 0.750977 0.413330
0.816406 0.750977 0.421875
0.847168 0.750977 0.434326
0.878418 0.750977 0.449463
0.909180 0.751465 0.467773
0.940430 0.751465 0.489014
0.971680 0.751953 0.507324
1.000000 0.752441 0.532227
0.409424 0.781738 0.410645
0.411865 0.781738 0.410889
0.411865 0.781738 0.410889
0.411865 0.781738 0.410889
0.411865 0.781738 0.410889
0.416504 0.781738 0.410400
0.418701 0.781738 0.409912
0.423096 0.781738 0.409668
0.427246 0.781738 0.409424
0.429443 0.781738 0.410156
0.437500 0.781738 0.411377
0.448242 0.781738 0.412354
0.463623 0.781738 0.411865
0.476807 0.781738 0.411377
0.493896 0.781738 0.411865
0.512695 0.781738 0.412354
0.535156 0.781738 0.412842
0.558105 0.781738 0.414062
0.583496 0.781738 0.415039
0.610352 0.781738 0.414795
0.638184 0.781738 0.416504
0.666504 0.781738 0.418701
0.695801 0.781738 0.421143
0.725586 0.781738 0.425293
0.755859 0.781738 0.429199
0.786133 0.781738 0.435547
0.817383 0.782227 0.444824
0.847656 0.782227 0.455078
0.878418 0.782227 0.466064
0.910156 0.782227 0.481201
0.940430 0.782715 0.497803
0.971680 0.782715 0.517578
1.000000 0.783203 0.539062
0.438477 0.812988 0.442383
0.438477 0.812988 0.442383
0.440430 0.812988 0.442871
0.440430 0.812988 0.442871
0.441895 0.812988 0.442139
0.441895 0.812988 0.442139
0.447021 0.812988 0.440918
0.448730 0.812988 0.441650
0.456787 0.812988 0.441650
0.461182 0.812988 0.439697
0.467041 0.812988 0.441406
0.473633 0.812988 0.441650
0.481201 0.812988 0.442383
0.493652 0.812988 0.443115
0.506348 0.812988 0.442139
0.522949 0.812988 0.443359
0.544434 0.812988 0.442627
0.565430 0.812988 0.443848
