RED_IPP2_Creative/RED_AWASH.cube
# RED Digital Cinema Output Transform LUT for IPP2
# Creatives by Eric Weidt
# BMD cube from Truelight v4.0
# Settings used in creation of this LUT are:
# Development Color Space = USER SELECTABLE
# Output Gamma Curve = USER SELECTABLE
# Output Tonemap = USER SELECTABLE
# Highlight Rolloff = USER SELECTABLE
LUT_3D_SIZE 9
0.029160 0.025482 0.025909
0.096191 0.028152 0.030624
0.152466 0.059296 0.067932
0.243042 0.133301 0.135864
0.341797 0.213989 0.198364
0.438965 0.307129 0.278076
0.569824 0.422119 0.380127
0.728027 0.556641 0.502441
0.877441 0.699707 0.641113
0.054810 0.109009 0.067444
0.118591 0.125488 0.076477
0.218628 0.151367 0.113403
0.291016 0.201294 0.170532
0.368896 0.258789 0.224243
0.461426 0.339600 0.301025
0.582031 0.445801 0.400146
0.735840 0.572266 0.516113
0.882324 0.708008 0.647949
0.169800 0.242798 0.178833
0.206665 0.252197 0.181152
0.265381 0.264893 0.189209
0.336426 0.288818 0.221680
0.408203 0.325684 0.267578
0.493896 0.389893 0.336914
0.603027 0.483643 0.432861
0.747070 0.596191 0.537598
0.886719 0.719238 0.657227
0.283203 0.355957 0.270996
0.305420 0.361572 0.275879
0.340332 0.370850 0.284180
0.390381 0.386475 0.299805
0.458496 0.414062 0.333496
0.539551 0.462646 0.393066
0.636230 0.539062 0.481689
0.766602 0.634766 0.572754
0.896484 0.739258 0.673828
0.414551 0.482910 0.394287
0.427246 0.486816 0.397705
0.448486 0.494629 0.404541
0.482178 0.506348 0.415771
0.533691 0.526855 0.438965
0.603027 0.561523 0.481934
0.685547 0.616211 0.549805
0.793457 0.688477 0.621582
0.909668 0.770020 0.699707
0.559570 0.631836 0.535156
0.567871 0.633301 0.538574
0.582031 0.637207 0.545898
0.604492 0.645508 0.556152
0.637695 0.657715 0.571777
0.685547 0.678223 0.596191
0.748535 0.709961 0.635742
0.830078 0.756836 0.683594
0.926758 0.812500 0.736328
0.694336 0.775879 0.664551
0.699219 0.776367 0.666016
0.707520 0.778320 0.669922
0.721191 0.780273 0.675781
0.742676 0.785156 0.686035
0.773926 0.792969 0.701172
0.817871 0.809082 0.723633
0.875000 0.833496 0.751465
0.948242 0.867188 0.784180
0.805664 0.891113 0.772461
0.808105 0.892090 0.773438
0.812500 0.892578 0.774414
0.819824 0.893066 0.776367
0.832031 0.894043 0.779785
0.852051 0.897461 0.786133
0.881836 0.901855 0.797852
0.922852 0.912598 0.815430
0.972168 0.928711 0.835938
0.897461 0.980957 0.864746
0.898926 0.981445 0.864746
0.900879 0.981445 0.865234
0.904785 0.980957 0.865234
0.911133 0.981445 0.866211
0.922363 0.981934 0.868164
0.939453 0.983398 0.871094
0.966797 0.985840 0.877441
0.997070 0.991211 0.887207
0.026413 0.027573 0.097473
0.083984 0.034241 0.098816
0.151001 0.067139 0.111389
0.246826 0.139282 0.167358
0.343750 0.217773 0.225952
0.443115 0.309814 0.300049
0.566406 0.427490 0.404297
0.725586 0.560059 0.521484
0.877930 0.700195 0.651367
0.045380 0.117188 0.130005
0.122192 0.130859 0.141357
0.234985 0.151367 0.159058
0.302734 0.200195 0.199585
0.372314 0.262207 0.252441
0.465332 0.340820 0.321289
0.579590 0.449951 0.422119
0.731934 0.574219 0.533203
0.880859 0.707031 0.656738
0.157104 0.250000 0.202759
0.193848 0.259521 0.201416
0.266357 0.269775 0.202759
0.349121 0.287354 0.234009
0.411865 0.326416 0.289551
0.497314 0.390381 0.354980
0.600586 0.485840 0.450928
0.744629 0.599121 0.554688
0.886719 0.720215 0.666504
0.277832 0.359619 0.294189
0.299072 0.364746 0.297607
0.333740 0.374268 0.301758
0.389160 0.389160 0.311768
0.459961 0.415039 0.348633
0.541992 0.463623 0.407959
0.636719 0.540527 0.494385
0.762695 0.636719 0.586914
0.895996 0.739746 0.682617
0.409180 0.485352 0.406982
0.422119 0.489502 0.410645
0.443848 0.497070 0.417236
0.478760 0.509277 0.427246
0.532227 0.528809 0.449463
0.603027 0.562012 0.489746
0.687012 0.617188 0.558105
0.790039 0.690430 0.633789
0.907715 0.770020 0.707031
0.560547 0.631836 0.547852
0.568359 0.633789 0.550781
0.582031 0.638672 0.556641
0.603516 0.645996 0.565430
0.636230 0.658691 0.579590
0.685059 0.679199 0.602051
0.748535 0.710938 0.641602
0.828125 0.758301 0.693359
0.925293 0.813965 0.743652
0.694824 0.775879 0.673340
0.699707 0.776855 0.674805
0.707520 0.777344 0.678223
0.721680 0.780762 0.684082
0.742676 0.785645 0.694336
0.773438 0.793457 0.708984
0.817383 0.810059 0.730957
0.873535 0.833984 0.758301
0.946777 0.867676 0.790039
0.805176 0.891602 0.776855
0.807617 0.892578 0.777832
0.812012 0.892578 0.779297
0.818848 0.892578 0.780273
0.831543 0.894043 0.784180
0.852051 0.897949 0.791504
0.881348 0.901855 0.802734
0.921875 0.912109 0.819824
0.971680 0.928711 0.840332
0.896973 0.980957 0.866211
0.897949 0.980957 0.866699
0.900391 0.981445 0.867188
0.904297 0.980957 0.867188
0.911133 0.981934 0.868652
0.921387 0.981934 0.870117
0.939941 0.983887 0.873535
0.966309 0.985840 0.878906
0.997070 0.991211 0.889160
0.038422 0.035614 0.120911
0.080017 0.050354 0.128906
0.147827 0.085144 0.155029
0.248047 0.153076 0.210571
0.343750 0.224976 0.263428
0.446533 0.314453 0.331055
0.564453 0.431885 0.428711
0.721680 0.564453 0.544434
0.875977 0.701172 0.665527
0.078918 0.123535 0.193481
0.139771 0.138672 0.212402
0.224365 0.165771 0.230835
0.300781 0.208496 0.252441
0.375488 0.268066 0.292236
0.468262 0.344482 0.351318
0.579590 0.453613 0.445068
0.729004 0.579102 0.556152
0.880371 0.708984 0.670898
0.136963 0.257812 0.258545
0.171631 0.266846 0.269531
0.270020 0.271973 0.276367
0.364990 0.284424 0.286133
0.422119 0.325684 0.322021
0.500000 0.393799 0.382568
0.603027 0.488281 0.470459
0.740234 0.603027 0.575195
0.885254 0.720703 0.679688
0.266357 0.365479 0.322998
0.283203 0.372314 0.324463
0.318848 0.382324 0.323730
0.389648 0.394043 0.326416
0.473877 0.414795 0.362305
0.545410 0.465576 0.429688
0.639648 0.541504 0.509766
0.759277 0.640137 0.605469
0.893066 0.740723 0.695312
0.404297 0.489502 0.427002
0.417236 0.493896 0.430908
0.439697 0.500977 0.436523
0.475098 0.513184 0.444580
0.531738 0.532227 0.462646
0.604980 0.563965 0.502930
0.689941 0.617676 0.568359
0.786133 0.692383 0.649414
0.905762 0.772461 0.719727
0.560059 0.633301 0.562500
0.567871 0.635742 0.564941
0.580078 0.640625 0.569336
0.600586 0.647949 0.576172
0.633789 0.660645 0.588379
0.683594 0.680664 0.609375
0.749023 0.711914 0.647949
0.824219 0.758301 0.704590
0.921875 0.814453 0.754395
0.695801 0.775391 0.686035
0.700684 0.776367 0.687500
0.708984 0.778320 0.691406
0.722168 0.780273 0.696777
0.742676 0.784668 0.705078
0.773438 0.794434 0.719727
0.815430 0.810059 0.739258
0.871094 0.834473 0.768066
0.944336 0.868164 0.799316
0.804199 0.891602 0.784180
0.807129 0.892578 0.784668
0.811035 0.892090 0.785645
0.818848 0.892578 0.788086
0.831543 0.894531 0.791992
0.851074 0.896973 0.798828
0.880859 0.902344 0.811035
0.920898 0.912109 0.827148
0.971191 0.929199 0.847168
0.895996 0.981445 0.870117
0.897461 0.980957 0.870605
0.899414 0.981445 0.870605
0.903320 0.981445 0.871094
0.910156 0.981445 0.872070
0.920898 0.982910 0.874023
0.938477 0.983398 0.876465
0.965820 0.986328 0.882812
0.996582 0.990723 0.893066
0.072021 0.053131 0.154541
0.108093 0.072693 0.168823
0.171631 0.113098 0.201904
0.257324 0.173096 0.255371
0.345215 0.237183 0.303955
0.448242 0.323242 0.367188
0.566406 0.437988 0.457275
0.718262 0.569824 0.569824
0.875000 0.704102 0.685547
0.132690 0.142700 0.224121
0.171631 0.161255 0.243164
0.226807 0.189575 0.267822
0.294189 0.227173 0.295654
0.376709 0.281250 0.334961
0.470703 0.352539 0.387451
0.581543 0.458740 0.472168
0.725098 0.584473 0.581055
0.878418 0.711426 0.690918
0.177612 0.260010 0.320068
0.213257 0.267090 0.333252
0.275391 0.278076 0.347168
0.352051 0.295654 0.356201
0.421387 0.333984 0.371826
0.502930 0.398926 0.418945
0.606445 0.492432 0.496582
0.736328 0.607910 0.599121
0.882324 0.723145 0.699219
0.249146 0.373779 0.371338
0.262207 0.380859 0.378418
0.297119 0.390869 0.389648
0.394531 0.396973 0.396484
0.489990 0.413818 0.411377
0.554688 0.467529 0.461182
0.644043 0.544434 0.532715
0.755371 0.644043 0.626953
0.890137 0.743652 0.714355
0.400635 0.495850 0.455811
0.411377 0.500488 0.458984
0.428467 0.508301 0.461670
0.463867 0.520508 0.465088
0.534180 0.537109 0.473633
0.616699 0.565430 0.518066
0.693359 0.619141 0.585449
0.784180 0.695312 0.666992
0.901855 0.773926 0.737305
0.557617 0.636719 0.580078
0.563965 0.639160 0.581543
0.576172 0.644043 0.585938
0.597656 0.651855 0.593262
0.630859 0.664062 0.603027
0.683105 0.683594 0.622559
0.750000 0.712891 0.658203
0.824707 0.760254 0.716309
0.916992 0.815918 0.770020
0.699219 0.775879 0.703613
0.703613 0.776855 0.705078
0.710938 0.777832 0.707520
0.723633 0.781250 0.712891
0.742676 0.785645 0.719727
0.771973 0.795410 0.730957
0.814941 0.811523 0.748047
0.870117 0.835449 0.778320
0.940430 0.869141 0.812500
0.804199 0.891602 0.795410
0.806641 0.892090 0.795898
0.811523 0.892090 0.797852
0.818848 0.893066 0.799805
0.832031 0.894531 0.804688
0.851074 0.896484 0.811035
0.880371 0.902344 0.823242
0.919434 0.912598 0.839355
0.970703 0.929688 0.858398
0.894531 0.981445 0.876465
0.895996 0.981445 0.876465
0.898438 0.981934 0.876953
0.902344 0.981934 0.877441
0.908691 0.981934 0.877930
0.919434 0.982422 0.878906
0.937012 0.983887 0.881836
0.964355 0.985840 0.889160
0.996582 0.991211 0.899902
0.132812 0.094971 0.204712
0.163818 0.119507 0.226318
0.213013 0.155640 0.260498
0.275146 0.201782 0.300537
0.350586 0.257568 0.345215
0.451416 0.340088 0.408447
0.571289 0.449219 0.492676
0.717773 0.577637 0.600586
0.872070 0.708008 0.711426
0.189453 0.177490 0.278564
0.215088 0.192749 0.292725
0.253174 0.215698 0.312744
0.306641 0.248047 0.339355
0.380615 0.297363 0.377686
0.473389 0.367432 0.429932
0.585449 0.469238 0.507324
0.725098 0.592285 0.611328
0.874512 0.714844 0.715820
0.241943 0.271484 0.350586
0.264648 0.280518 0.360107
0.301758 0.295898 0.374756
0.349609 0.315918 0.390381
0.417725 0.352295 0.417480
0.505371 0.411621 0.462158
0.610352 0.500977 0.530762
0.735840 0.615234 0.626953
0.879395 0.728027 0.724609
0.286621 0.378906 0.430420
0.304688 0.384033 0.439697
0.339844 0.392334 0.452393
0.400146 0.404541 0.468018
0.479492 0.427734 0.481201
0.555664 0.477051 0.507324
0.648438 0.551270 0.566895
0.755371 0.649902 0.652344
0.885254 0.747070 0.737305
0.391602 0.505859 0.500488
0.397461 0.510742 0.505859
0.412598 0.519043 0.515137
0.444824 0.531738 0.527832
0.536133 0.541992 0.537598
0.634766 0.564941 0.559082
0.699707 0.622559 0.615723
0.786621 0.697266 0.686523
0.896484 0.777832 0.759277
0.555176 0.643555 0.606445
0.561523 0.645508 0.608398
0.572754 0.649902 0.611816
0.592285 0.657715 0.617676
0.622559 0.670898 0.622070
0.685547 0.687500 0.631836
0.758301 0.714355 0.672852
0.828125 0.760742 0.730957
0.912109 0.818848 0.790039
0.702637 0.777344 0.724121
0.705566 0.777832 0.725098
0.711426 0.779297 0.727051
0.722656 0.782715 0.729980
0.740234 0.788574 0.735352
0.768555 0.797363 0.742676
0.814453 0.812988 0.758789
0.871582 0.836426 0.787598
0.936523 0.871094 0.829590
0.805664 0.891113 0.812988
0.808594 0.891602 0.813965
0.813477 0.892090 0.815430
0.820312 0.892090 0.817383
0.833496 0.894043 0.821777
0.852051 0.895996 0.828125
0.879883 0.902344 0.838867
0.917480 0.912598 0.852051
0.966797 0.930176 0.873047
0.893066 0.981445 0.886230
0.894043 0.981934 0.886230
0.896484 0.981934 0.886230
0.900391 0.982422 0.886719
0.906738 0.982422 0.887207
0.917480 0.982910 0.888672
0.936035 0.983398 0.893066
0.963379 0.985840 0.900391
0.996094 0.990723 0.910645
0.218506 0.164062 0.310303
0.237915 0.179443 0.321045
0.265869 0.202026 0.335938
0.307617 0.235229 0.358887
0.374512 0.289795 0.400146
0.464844 0.364502 0.457275
0.582031 0.466064 0.537109
0.724121 0.588867 0.638184
0.871094 0.714844 0.742188
0.250732 0.221558 0.340332
0.266113 0.232056 0.348633
0.291748 0.249756 0.362305
0.334961 0.280518 0.388184
0.396240 0.324951 0.423584
0.482178 0.391846 0.475830
0.593262 0.485840 0.550293
0.729980 0.602539 0.646973
0.873535 0.721680 0.746582
0.298584 0.298340 0.399414
0.311523 0.304932 0.405273
0.335938 0.318359 0.416748
0.374268 0.340088 0.434814
0.431641 0.375732 0.463623
0.512207 0.432861 0.507812
0.614746 0.517578 0.573242
0.740234 0.625000 0.661621
0.877441 0.733887 0.754395
0.353027 0.392578 0.469238
0.366699 0.397705 0.474121
0.390137 0.407471 0.483398
0.427734 0.423096 0.498291
0.482422 0.450195 0.520508
0.558594 0.495117 0.556152
0.651855 0.564453 0.608887
0.758789 0.658203 0.684082
0.882812 0.752930 0.765625
0.428467 0.514648 0.556641
0.437988 0.518555 0.563477
0.456543 0.525391 0.572754
0.489014 0.535645 0.587402
0.547852 0.551270 0.606445
0.624512 0.579590 0.624512
0.702637 0.632324 0.657715
0.791016 0.703125 0.716309
0.892578 0.782227 0.785156
0.557129 0.652832 0.646973
0.561523 0.655762 0.649902
0.567871 0.660156 0.655273
0.578613 0.668945 0.664062
0.605469 0.682617 0.677734
0.688965 0.692383 0.687500
0.774902 0.714355 0.708008
0.832520 0.763672 0.756348
0.908203 0.822754 0.812500
0.701660 0.781250 0.748047
0.705078 0.782227 0.749512
0.710449 0.784180 0.750488
0.719727 0.787109 0.752930
0.737305 0.793457 0.757324
0.763184 0.803223 0.761719
0.815430 0.816406 0.770020
0.875488 0.837891 0.802246
0.935547 0.872559 0.845703
0.812012 0.890625 0.835938
0.814453 0.891113 0.836914
0.818848 0.891602 0.837891
0.825684 0.892578 0.839844
0.836426 0.893555 0.843262
0.853027 0.896973 0.847168
0.877441 0.903320 0.852539
0.916992 0.914551 0.864258
0.965820 0.931152 0.886719
0.891113 0.981445 0.899902
0.892090 0.981445 0.900391
0.895020 0.981934 0.900879
0.898438 0.981934 0.901367
0.905762 0.982910 0.902832
0.917480 0.982422 0.905273
0.936035 0.983398 0.909668
0.962891 0.985840 0.918457
0.995605 0.990723 0.928223
0.295654 0.225708 0.411133
0.307129 0.234619 0.416748
0.327148 0.250000 0.427002
0.364746 0.281006 0.449463
0.423340 0.329590 0.484619
0.502930 0.396973 0.532227
0.609863 0.489990 0.600586
0.738770 0.604980 0.687988
0.874023 0.723633 0.781250
0.318604 0.268799 0.433350
0.331299 0.278564 0.440430
0.354492 0.296387 0.453857
0.387939 0.321289 0.471436
0.439941 0.361572 0.500488
0.516113 0.423096 0.544922
0.618652 0.508789 0.610352
0.744629 0.618164 0.695801
0.876465 0.730957 0.784668
0.360107 0.337402 0.469482
0.370605 0.344238 0.473877
0.389648 0.356934 0.483887
0.420166 0.377441 0.499756
0.467285 0.410889 0.524902
0.538086 0.464111 0.566406
0.634766 0.540527 0.627441
0.753906 0.638672 0.707031
0.880371 0.742188 0.790527
0.416992 0.423096 0.520508
0.426758 0.428467 0.524902
0.442627 0.437988 0.532715
0.469727 0.453857 0.547363
0.512207 0.480713 0.569336
0.575684 0.523438 0.604980
0.661133 0.587402 0.655762
0.767578 0.670898 0.725098
0.885254 0.760742 0.800293
0.491943 0.533203 0.605469
0.499756 0.536621 0.608887
0.514648 0.543457 0.615234
0.538574 0.554199 0.625000
0.576172 0.572754 0.642090
0.632812 0.602539 0.666992
0.708008 0.650391 0.704102
0.792969 0.714355 0.753418
0.893555 0.788574 0.815918
0.587891 0.664551 0.698730
0.593262 0.666504 0.701660
0.602051 0.669922 0.706543
0.619141 0.676758 0.716309
0.647461 0.686523 0.730469
0.698730 0.701660 0.747070
0.765625 0.728516 0.764160
0.834473 0.770508 0.793457
0.908691 0.826660 0.839355
0.705078 0.788086 0.783203
0.707520 0.789551 0.784180
0.711914 0.791504 0.787109
0.719238 0.795410 0.790527
0.728027 0.803223 0.797852
0.748047 0.812988 0.808594
0.818359 0.820312 0.815430
0.889648 0.835938 0.831543
0.938965 0.873535 0.867676
0.817871 0.892090 0.861328
0.819824 0.892578 0.861816
0.821777 0.893066 0.862305
0.826660 0.894531 0.863770
0.834473 0.896484 0.864746
0.848145 0.900391 0.867676
0.874023 0.907227 0.872559
0.917480 0.916504 0.877930
0.968262 0.932129 0.901367
0.894531 0.981934 0.922852
0.895996 0.981934 0.922852
0.898438 0.981934 0.923828
0.902344 0.981445 0.924316
0.909180 0.981934 0.925781
0.920410 0.981445 0.927734
0.937500 0.982422 0.932129
0.961426 0.985352 0.937012
0.994629 0.990234 0.942871
0.397461 0.317383 0.527832
0.406494 0.324951 0.533203
0.422607 0.338135 0.543457
0.450195 0.360840 0.560059
0.493164 0.396484 0.585449
0.558594 0.452148 0.625488
0.650391 0.530762 0.681641
0.763672 0.631348 0.752930
0.882812 0.738281 0.829102
0.416016 0.349365 0.548340
0.425293 0.356201 0.553711
0.440430 0.368164 0.562500
0.466553 0.388184 0.577148
0.508301 0.421143 0.601562
0.570801 0.471924 0.637207
0.659668 0.546875 0.691406
0.769531 0.642090 0.759766
0.885742 0.744629 0.832031
0.445312 0.398193 0.579102
0.454102 0.404541 0.583496
0.468750 0.414551 0.591309
0.492920 0.432129 0.604004
0.531738 0.460938 0.625000
0.590820 0.506348 0.657715
0.674316 0.573242 0.706055
0.778809 0.661133 0.769531
0.889648 0.754883 0.837402
0.491211 0.471436 0.619629
0.498535 0.476074 0.622559
0.511230 0.484375 0.628906
0.533203 0.498291 0.639648
0.567871 0.521973 0.656738
0.621094 0.559082 0.685059
0.696289 0.615723 0.727539
0.790527 0.688477 0.782715
0.895508 0.771484 0.845703
0.560059 0.568848 0.671387
0.565918 0.572754 0.674316
0.575684 0.577637 0.678223
0.593262 0.588379 0.686523
0.622070 0.605957 0.701172
0.666016 0.633301 0.723633
0.728027 0.674805 0.757324
0.808105 0.730469 0.802734
0.902832 0.796875 0.856934
0.645508 0.682617 0.747559
0.648926 0.684570 0.749023
0.657227 0.687988 0.752441
0.669434 0.693848 0.758789
0.690918 0.704102 0.768555
0.725098 0.721191 0.783203
0.774414 0.746582 0.805176
0.837891 0.785156 0.834473
0.913086 0.834473 0.874023
0.728516 0.797363 0.828613
0.731445 0.798340 0.830078
0.735840 0.799805 0.832031
0.745117 0.803711 0.836426
0.759277 0.808105 0.842285
0.783203 0.815918 0.852539
0.824707 0.827148 0.865234
0.880371 0.847168 0.878418
0.940918 0.878906 0.901367
0.819336 0.897461 0.893555
0.819824 0.897949 0.894043
0.822266 0.898438 0.895020
0.826660 0.899902 0.895996
0.833496 0.902344 0.898926
0.845703 0.906738 0.904297
0.859863 0.914551 0.912598
0.918457 0.918457 0.916504
0.978027 0.931641 0.928711
0.904297 0.980957 0.950684
0.905762 0.980957 0.950684
0.907227 0.980957 0.951172
0.910645 0.980957 0.951660
0.916504 0.981445 0.952637
0.923828 0.981934 0.953125
0.935547 0.984375 0.955078
0.958496 0.987793 0.956543
0.993652 0.991211 0.959473
0.522949 0.436523 0.662109
0.529297 0.441650 0.665527
0.540527 0.451660 0.672852
0.559082 0.467529 0.683105
0.589355 0.493652 0.701660
0.637695 0.535645 0.730469
0.707520 0.597168 0.772461
0.797852 0.676758 0.827148
0.895508 0.764160 0.884766
0.536621 0.458740 0.675293
0.541992 0.463135 0.678711
0.552734 0.471924 0.684570
0.570312 0.487061 0.694824
0.600586 0.511719 0.712891
0.646973 0.551270 0.739746
0.714844 0.608887 0.780273
0.801758 0.685059 0.832031
0.897949 0.769043 0.888184
0.557617 0.493652 0.696777
0.563477 0.497803 0.699707
0.573242 0.505859 0.705078
0.589844 0.519043 0.714355
0.617676 0.540527 0.729492
0.662109 0.576172 0.755371
0.726562 0.629395 0.791992
0.809082 0.697754 0.839355
0.901855 0.777344 0.891602
0.591309 0.546875 0.729004
0.596680 0.550781 0.732910
0.605469 0.557129 0.736816
0.621094 0.568359 0.745117
0.646484 0.586426 0.758301
0.686523 0.616699 0.779297
0.744629 0.661133 0.810547
0.820801 0.720215 0.852051
0.907715 0.790039 0.898438
0.640137 0.622559 0.776855
0.644043 0.625000 0.778320
0.652344 0.629883 0.782715
0.665527 0.637695 0.788086
0.687500 0.651367 0.798828
0.721191 0.673828 0.814453
0.770996 0.707031 0.837402
0.838867 0.753906 0.870605
0.917480 0.811523 0.909668
0.702637 0.714844 0.826172
0.706055 0.716797 0.827637
0.711914 0.719727 0.830078
0.722168 0.725098 0.833496
0.738281 0.732910 0.839844
0.764160 0.747070 0.849609
0.805176 0.769531 0.866699
0.859863 0.801758 0.891602
0.929199 0.843750 0.923340
0.777344 0.812988 0.875000
0.778809 0.812988 0.875488
0.782715 0.814453 0.876953
0.789062 0.817383 0.878906
0.799805 0.821777 0.883301
0.818359 0.829102 0.891113
0.846680 0.840820 0.900391
0.887695 0.860352 0.916992
0.942383 0.889160 0.939453
0.841797 0.903809 0.934570
0.842285 0.903320 0.934570
0.844727 0.904297 0.935547
0.848145 0.904785 0.937012
0.855957 0.907227 0.939941
0.867676 0.910156 0.943848
0.888672 0.916016 0.950684
0.924316 0.924805 0.959961
0.972168 0.938477 0.969238
0.910156 0.982422 0.980469
0.910645 0.982910 0.980957
0.912109 0.983398 0.981934
0.913574 0.982910 0.981934
0.916504 0.983887 0.982910
0.922852 0.984863 0.983887
0.934082 0.986816 0.986816
0.944336 0.993164 0.992188
0.993164 0.992188 0.992676
