RED_IPP2_Creative/RED_CAUSTIC.cube
# RED Digital Cinema Output Transform LUT for IPP2
# Creatives by Eric Weidt
# BMD cube from Truelight v4.0
# Settings used in creation of this LUT are:
# Development Color Space = USER SELECTABLE
# Output Gamma Curve = USER SELECTABLE
# Output Tonemap = USER SELECTABLE
# Highlight Rolloff = USER SELECTABLE
LUT_3D_SIZE 33
0.023254 0.014511 0.020447
0.054871 0.012230 0.021057
0.083252 0.010735 0.022675
0.109863 0.010284 0.025192
0.135010 0.011177 0.028503
0.159668 0.012871 0.032837
0.184570 0.015747 0.038086
0.209351 0.020081 0.044312
0.233887 0.025970 0.051544
0.258057 0.034180 0.059418
0.281494 0.045044 0.067871
0.305908 0.058289 0.077393
0.331055 0.073914 0.088928
0.355957 0.090088 0.101257
0.380859 0.106262 0.114258
0.405273 0.122437 0.128296
0.430420 0.138916 0.144653
0.456543 0.156616 0.165405
0.481934 0.174438 0.186768
0.505371 0.190552 0.203003
0.527344 0.206421 0.219849
0.550781 0.221802 0.237183
0.573730 0.237427 0.254639
0.596191 0.252441 0.272217
0.617676 0.267822 0.290283
0.640137 0.282715 0.308350
0.662109 0.297607 0.326660
0.683105 0.312500 0.344238
0.704102 0.326660 0.362549
0.724609 0.340820 0.379883
0.744629 0.354248 0.397461
0.764648 0.367676 0.414795
0.784180 0.380859 0.432373
0.016525 0.044647 0.019379
0.049286 0.044586 0.021194
0.080627 0.042847 0.022293
0.110779 0.041107 0.024963
0.138428 0.040527 0.029251
0.164917 0.041077 0.034393
0.190796 0.042999 0.040466
0.216431 0.046082 0.047333
0.241211 0.051056 0.054840
0.264648 0.058990 0.062927
0.287598 0.069458 0.071228
0.311768 0.082153 0.081177
0.336182 0.096252 0.092712
0.360352 0.110413 0.104797
0.384033 0.124817 0.117676
0.408447 0.139404 0.131592
0.433105 0.154907 0.148560
0.459229 0.171265 0.168701
0.484131 0.187744 0.189087
0.506836 0.202759 0.205322
0.529297 0.217896 0.221802
0.552246 0.232788 0.239014
0.574707 0.247559 0.256104
0.597168 0.262451 0.273438
0.618652 0.277100 0.291016
0.640625 0.291748 0.309326
0.662109 0.306152 0.327393
0.683594 0.320312 0.345215
0.704590 0.334229 0.363525
0.725098 0.348145 0.380859
0.745117 0.361328 0.398438
0.764648 0.374756 0.415283
0.784180 0.387695 0.432617
0.019699 0.072205 0.023422
0.050262 0.072571 0.026489
0.078369 0.074341 0.027466
0.107239 0.073853 0.030533
0.137085 0.073059 0.033142
0.166016 0.072693 0.037659
0.193848 0.073608 0.043854
0.220825 0.075562 0.051056
0.245972 0.079895 0.058502
0.269531 0.087219 0.066711
0.292725 0.096863 0.075317
0.315918 0.107849 0.085693
0.339844 0.119507 0.097046
0.363281 0.131958 0.109009
0.387207 0.144531 0.121704
0.410400 0.157593 0.135498
0.435547 0.171875 0.152832
0.461182 0.187256 0.173340
0.485596 0.201904 0.192139
0.508301 0.216064 0.208130
0.530273 0.230469 0.223999
0.552734 0.244019 0.240723
0.575684 0.258545 0.257812
0.597168 0.272705 0.275146
0.619629 0.287109 0.292725
0.640625 0.301025 0.310303
0.663086 0.314941 0.328369
0.683105 0.328857 0.345947
0.704590 0.342285 0.364258
0.725098 0.355469 0.382080
0.745605 0.368652 0.399414
0.765137 0.382080 0.416748
0.784668 0.394531 0.433594
0.027679 0.100464 0.030884
0.054779 0.101501 0.032898
0.081421 0.103271 0.036469
0.108276 0.105286 0.037964
0.136597 0.105652 0.041534
0.164917 0.106201 0.046753
0.194946 0.106506 0.050568
0.223267 0.107727 0.056458
0.249512 0.111633 0.063721
0.272461 0.117615 0.071472
0.296143 0.125122 0.080322
0.320068 0.133911 0.091003
0.343018 0.143555 0.102173
0.366699 0.153931 0.113892
0.389404 0.164795 0.126343
0.413086 0.176514 0.140137
0.437500 0.189575 0.157593
0.463623 0.203613 0.178101
0.486816 0.216797 0.195557
0.508789 0.230103 0.211060
0.531738 0.242920 0.226929
0.553711 0.256348 0.243286
0.576172 0.270264 0.260010
0.598145 0.283691 0.277100
0.619629 0.297119 0.293701
0.641602 0.310547 0.311523
0.663086 0.324219 0.329346
0.684082 0.337646 0.347168
0.705078 0.350830 0.364746
0.725586 0.363525 0.382568
0.745605 0.376465 0.399902
0.764648 0.388916 0.417236
0.784668 0.401611 0.433838
0.039154 0.129761 0.041260
0.063416 0.131348 0.043121
0.088989 0.132568 0.048096
0.113525 0.135498 0.049805
0.139648 0.138062 0.052002
0.167847 0.139160 0.055878
0.196167 0.140259 0.061218
0.223389 0.142212 0.067017
0.249878 0.144775 0.071960
0.274658 0.148560 0.078430
0.298828 0.154053 0.087280
0.322510 0.160767 0.097412
0.346436 0.168335 0.108093
0.368896 0.176880 0.119385
0.392090 0.186279 0.131592
0.416016 0.196533 0.145752
0.440674 0.208252 0.163330
0.465820 0.220947 0.183594
0.488525 0.232910 0.199463
0.510254 0.244263 0.214355
0.532715 0.256592 0.230103
0.554688 0.269287 0.246094
0.576172 0.282227 0.262451
0.598633 0.295166 0.279053
0.620605 0.308105 0.296143
0.642090 0.321045 0.313721
0.663086 0.333984 0.330811
0.684570 0.346680 0.348389
0.705078 0.359375 0.365723
0.726074 0.372559 0.383545
0.746094 0.384766 0.400879
0.765137 0.396729 0.417969
0.784668 0.409180 0.434814
0.053711 0.160645 0.054291
0.075562 0.162476 0.056244
0.098694 0.164062 0.059723
0.122620 0.166260 0.064331
0.146729 0.169556 0.065918
0.173340 0.172241 0.068420
0.200317 0.172974 0.071899
0.226562 0.174561 0.076965
0.251221 0.176514 0.082947
0.275146 0.179321 0.089539
0.300293 0.182861 0.096558
0.324463 0.187866 0.105591
0.348145 0.193848 0.115479
0.371582 0.200317 0.126099
0.394287 0.208374 0.137817
0.418213 0.217163 0.151978
0.443115 0.227295 0.169678
0.468018 0.238892 0.189575
0.490234 0.248901 0.203857
0.511719 0.259766 0.218506
0.534180 0.271240 0.233765
0.555176 0.282471 0.249390
0.577148 0.294678 0.265381
0.599121 0.306641 0.281494
0.621094 0.319092 0.298584
0.642578 0.331543 0.315430
0.663574 0.343750 0.332764
0.685059 0.356201 0.350098
0.706055 0.368408 0.367188
0.726074 0.380859 0.384277
0.745605 0.393066 0.401367
0.765137 0.404785 0.417969
0.784668 0.416992 0.435059
0.070862 0.192139 0.069580
0.090759 0.194092 0.071106
0.111938 0.195435 0.073853
0.134888 0.196533 0.078857
0.157837 0.198975 0.080688
0.181885 0.201904 0.082275
0.206543 0.203857 0.085022
0.231323 0.204834 0.088318
0.255371 0.206177 0.092957
0.279053 0.208252 0.099548
0.302246 0.211426 0.108337
0.326416 0.214966 0.116516
0.350342 0.219360 0.124695
0.373291 0.224609 0.134155
0.396729 0.230835 0.145386
0.420410 0.238403 0.159546
0.445068 0.247192 0.177124
0.469971 0.256348 0.195190
0.491699 0.265625 0.208862
0.513184 0.275635 0.222900
0.535156 0.285889 0.237793
0.556641 0.296631 0.253174
0.578125 0.307861 0.268555
0.599609 0.319092 0.284668
0.621582 0.330811 0.301025
0.642090 0.342285 0.317627
0.664062 0.354492 0.334961
0.684570 0.366211 0.351074
0.705566 0.378174 0.368652
0.726074 0.389893 0.385254
0.746094 0.401367 0.402344
0.765137 0.412842 0.418701
0.784180 0.424805 0.435547
0.090027 0.222534 0.085022
0.108398 0.223755 0.086487
0.128174 0.224609 0.088562
0.149536 0.225220 0.092346
0.171021 0.226685 0.095825
0.192505 0.229248 0.096863
0.214600 0.231689 0.098572
0.237305 0.233521 0.101379
0.260010 0.234253 0.104919
0.283691 0.236084 0.110901
0.306885 0.238525 0.118347
0.329346 0.241699 0.126953
0.351318 0.245239 0.136597
0.375000 0.249023 0.144409
0.398438 0.253662 0.154663
0.423096 0.260010 0.168457
0.447998 0.268066 0.185547
0.471680 0.275635 0.201660
0.493164 0.283447 0.214478
0.514648 0.292236 0.228027
0.536133 0.301758 0.242432
0.557617 0.311523 0.257080
0.579590 0.321533 0.272461
0.600586 0.332031 0.288086
0.622559 0.342773 0.304199
0.642578 0.354248 0.320312
0.664062 0.365234 0.336914
0.684570 0.376465 0.353271
0.705566 0.387939 0.370361
0.726074 0.399170 0.387207
0.746094 0.410400 0.403564
0.766113 0.421387 0.420166
0.784668 0.432861 0.436279
0.110718 0.250732 0.100281
0.128052 0.251465 0.101624
0.146118 0.251953 0.103760
0.165527 0.252441 0.106873
0.185303 0.253174 0.111206
0.204590 0.255371 0.112244
0.224487 0.257568 0.113464
0.245117 0.259766 0.115417
0.266602 0.261475 0.118835
0.289062 0.262939 0.123901
0.311279 0.264648 0.129883
0.333984 0.266602 0.137329
0.355469 0.269531 0.145874
0.377441 0.272949 0.155518
0.400146 0.277588 0.166504
0.425049 0.282959 0.179443
0.450195 0.289307 0.195435
0.472900 0.295898 0.209106
0.494629 0.302979 0.221069
0.515625 0.310059 0.234131
0.537109 0.317871 0.247681
0.559082 0.326904 0.261719
0.580566 0.335938 0.276367
0.602051 0.345459 0.291748
0.622559 0.355469 0.307617
0.643555 0.366211 0.323486
0.665039 0.376465 0.339600
0.685547 0.387451 0.355957
0.706055 0.398193 0.372070
0.725586 0.409180 0.388428
0.745605 0.419922 0.405029
0.765625 0.430908 0.421631
0.785156 0.441650 0.437744
0.133789 0.278076 0.117310
0.149658 0.278320 0.118469
0.165894 0.278809 0.120422
0.183350 0.279297 0.123413
0.201172 0.279541 0.127808
0.218750 0.281494 0.129517
0.236694 0.283203 0.130493
0.255371 0.285400 0.132202
0.274902 0.288086 0.134521
0.295410 0.289307 0.137939
0.316895 0.290283 0.142944
0.338379 0.292236 0.149048
0.360107 0.294434 0.156616
0.381836 0.297119 0.165771
0.403564 0.300537 0.177612
0.427246 0.305664 0.192261
0.452393 0.311523 0.207031
0.474365 0.316162 0.217651
0.495605 0.322266 0.228760
0.517090 0.327881 0.240723
0.538574 0.335205 0.253418
0.560059 0.343018 0.267090
0.582031 0.351074 0.281494
0.602539 0.359863 0.296143
0.623047 0.368896 0.311035
0.644043 0.378662 0.326660
0.665527 0.388428 0.342529
0.686035 0.398438 0.358398
0.705566 0.408691 0.374268
0.726074 0.419434 0.390625
0.745117 0.429932 0.406494
0.765137 0.440186 0.422607
0.784180 0.450684 0.438477
0.156738 0.304443 0.134277
0.170410 0.304688 0.135620
0.185547 0.305176 0.137573
0.200806 0.305176 0.140015
0.217285 0.305908 0.143799
0.233643 0.306641 0.146973
0.249756 0.308350 0.147827
0.266846 0.310303 0.149292
0.284668 0.312256 0.150879
0.303467 0.314697 0.153320
0.323486 0.315918 0.157104
0.343506 0.317139 0.162231
0.364746 0.318848 0.168823
0.385986 0.321045 0.177124
0.408203 0.324707 0.189331
0.431396 0.328857 0.204712
0.453613 0.333740 0.219238
0.475830 0.337402 0.227661
0.497070 0.341797 0.237427
0.519043 0.346924 0.248535
0.539551 0.353027 0.260254
0.561523 0.359375 0.273193
0.582031 0.366943 0.286865
0.603027 0.374756 0.300781
0.624023 0.383057 0.315430
0.644531 0.391602 0.330322
0.665527 0.400879 0.345459
0.686035 0.410645 0.361084
0.706055 0.420166 0.377441
0.725586 0.429932 0.392578
0.746094 0.440186 0.408936
0.765625 0.449951 0.424561
0.784180 0.459961 0.439941
0.178589 0.330078 0.151978
0.191040 0.330566 0.153076
0.204468 0.330811 0.154907
0.218384 0.331055 0.157104
0.233398 0.331543 0.160278
0.248901 0.331543 0.164551
0.263184 0.333008 0.165405
0.279053 0.334717 0.166626
0.295166 0.336426 0.167969
0.312500 0.338867 0.170044
0.330811 0.340820 0.172607
0.350342 0.342041 0.176636
0.370361 0.343506 0.182617
0.391357 0.345459 0.191162
0.413330 0.347900 0.203125
0.435547 0.351562 0.217163
0.456787 0.355469 0.229492
0.476807 0.358887 0.239380
0.498535 0.362305 0.247925
0.520020 0.366699 0.257324
0.541504 0.371338 0.268066
0.562500 0.376953 0.280029
0.583496 0.383057 0.292969
0.603516 0.390381 0.305908
0.625000 0.397217 0.320312
0.645508 0.405273 0.334473
0.666504 0.413818 0.349365
0.686035 0.422607 0.364502
0.706055 0.431641 0.379883
0.726562 0.441162 0.395508
0.745605 0.450195 0.410400
0.765137 0.459717 0.426025
0.784668 0.468994 0.442139
0.200439 0.355225 0.170288
0.211548 0.355713 0.171631
0.223389 0.355469 0.173096
0.236450 0.355957 0.175293
0.249756 0.355957 0.177734
0.263672 0.356689 0.181519
0.278076 0.357422 0.184204
0.292236 0.359131 0.185181
0.307129 0.360840 0.186646
0.323242 0.362549 0.188110
0.340088 0.364502 0.190430
0.357666 0.366455 0.193115
0.376709 0.367676 0.198364
0.397705 0.369629 0.207397
0.418701 0.371826 0.218506
0.440674 0.375000 0.231934
0.460449 0.376953 0.239868
0.480469 0.379639 0.249023
0.500000 0.382812 0.259033
0.521484 0.386230 0.267822
0.541504 0.390625 0.277344
0.562988 0.395020 0.287842
0.583984 0.400391 0.299561
0.604980 0.406250 0.312256
0.625977 0.412598 0.325439
0.646484 0.419678 0.339111
0.666504 0.427246 0.353516
0.686523 0.435547 0.368164
0.706055 0.444092 0.382812
0.726562 0.452637 0.397949
0.745605 0.461426 0.412842
0.764648 0.470215 0.427979
0.783691 0.479004 0.443359
0.223022 0.381104 0.191895
0.233032 0.381104 0.192871
0.243896 0.381348 0.194702
0.255615 0.381348 0.196411
0.267578 0.381836 0.198853
0.280273 0.381836 0.201904
0.294189 0.382324 0.206177
0.307373 0.383545 0.207275
0.321045 0.385010 0.208618
0.335449 0.386475 0.210205
0.351074 0.388428 0.212158
0.367432 0.390137 0.214478
0.384766 0.392090 0.217407
0.404053 0.393311 0.225098
0.424805 0.395508 0.235474
0.444824 0.397217 0.244263
0.464111 0.398926 0.251465
0.483643 0.401123 0.259277
0.502930 0.403809 0.268555
0.521973 0.406738 0.278320
0.542969 0.410156 0.288086
0.564453 0.413818 0.296875
0.584961 0.418213 0.307617
0.605957 0.423340 0.319336
0.626953 0.428711 0.331299
0.646973 0.435059 0.344482
0.666992 0.441406 0.357910
0.687012 0.448975 0.372070
0.706543 0.456787 0.386475
0.727051 0.464111 0.401123
0.746094 0.472412 0.415771
0.765137 0.480713 0.430908
0.783691 0.489014 0.445557
0.247559 0.406738 0.217407
0.256836 0.406982 0.218750
0.266357 0.407227 0.219971
0.277100 0.407227 0.221680
0.288086 0.407471 0.223633
0.299561 0.407471 0.226196
0.311768 0.407715 0.229614
0.324219 0.408203 0.232910
0.336914 0.409668 0.234497
0.350586 0.410889 0.235718
0.364746 0.412842 0.237671
0.379883 0.414307 0.239868
0.395508 0.415771 0.242310
0.412354 0.417480 0.245605
0.431152 0.418945 0.252686
0.448975 0.420166 0.258057
0.468018 0.421143 0.263916
0.487061 0.422607 0.270752
0.505371 0.424316 0.278564
0.525391 0.426758 0.287354
0.544922 0.429932 0.297607
0.564453 0.433105 0.307617
0.585938 0.436768 0.316406
0.606934 0.440430 0.326904
0.627441 0.445068 0.338379
0.647461 0.450439 0.350586
0.666992 0.456543 0.363037
0.687988 0.462891 0.376709
0.707031 0.469482 0.390381
0.726562 0.476807 0.404297
0.745605 0.484619 0.418701
0.764648 0.491943 0.433105
0.783691 0.499512 0.447998
0.268311 0.431152 0.239380
0.276855 0.431152 0.240356
0.285645 0.431641 0.241577
0.294922 0.431641 0.243042
0.305176 0.431641 0.244629
0.316162 0.432129 0.246948
0.327148 0.431885 0.249756
0.339111 0.431885 0.253418
0.351318 0.432861 0.255615
0.363281 0.434082 0.256592
0.376221 0.435059 0.257812
0.390137 0.437012 0.259766
0.404785 0.438477 0.261963
0.420410 0.440186 0.264404
0.436768 0.441162 0.267578
0.454346 0.442139 0.271973
0.472412 0.443115 0.277100
0.490479 0.444336 0.282959
0.509277 0.445557 0.290283
0.528809 0.447510 0.298096
0.547852 0.449463 0.307129
0.566895 0.452393 0.316895
0.585449 0.455566 0.327148
0.606445 0.458740 0.336182
0.627441 0.462646 0.346191
0.647949 0.467041 0.356934
0.668457 0.471680 0.368896
0.687988 0.477783 0.381836
0.707520 0.483398 0.394775
0.727051 0.490234 0.408203
0.745605 0.496826 0.422119
0.764648 0.502930 0.436035
0.783691 0.510254 0.450195
0.286133 0.454346 0.257812
0.293945 0.454346 0.258545
0.302002 0.454834 0.259766
0.310791 0.454834 0.261230
0.320312 0.454834 0.262451
0.330078 0.454834 0.264404
0.340820 0.454834 0.266846
0.351807 0.455078 0.269531
0.363281 0.455078 0.273193
0.375000 0.456055 0.274658
0.386963 0.457275 0.275635
0.399902 0.458740 0.277344
0.413574 0.459961 0.279053
0.428223 0.461670 0.281006
0.443359 0.462891 0.283936
0.459717 0.464600 0.287109
0.476562 0.465088 0.291260
0.494385 0.465820 0.296387
0.512695 0.466797 0.302246
0.531738 0.468262 0.309326
0.549805 0.469727 0.316895
0.568848 0.471680 0.325928
0.587891 0.474121 0.335693
0.606934 0.477051 0.346436
0.627441 0.480225 0.354736
0.647949 0.483643 0.364746
0.668457 0.487793 0.375488
0.688477 0.492676 0.387451
0.708008 0.497314 0.399658
0.727051 0.503418 0.412842
0.746582 0.508789 0.425781
0.764648 0.515137 0.439209
0.783203 0.521973 0.452881
0.302734 0.476807 0.276123
0.310303 0.477295 0.277100
0.318359 0.477539 0.278076
0.326416 0.477295 0.279053
0.334961 0.477295 0.280273
0.344482 0.477295 0.281738
0.354248 0.477539 0.283936
0.364746 0.477539 0.286377
0.375244 0.477783 0.289307
0.386963 0.477783 0.292725
0.397949 0.478760 0.293701
0.409912 0.479980 0.294922
0.422607 0.481201 0.296387
0.436279 0.482666 0.298096
0.450928 0.484131 0.300537
0.465576 0.485352 0.302490
0.481934 0.486816 0.305908
0.498535 0.487305 0.310303
0.515625 0.488281 0.315430
0.533691 0.488770 0.321045
0.552246 0.489746 0.328125
0.571777 0.491699 0.336182
0.590332 0.493408 0.344238
0.609375 0.495605 0.354492
0.627930 0.498779 0.364990
0.648438 0.500977 0.373535
0.668945 0.504395 0.383301
0.687988 0.507812 0.393799
0.708496 0.512207 0.405518
0.727539 0.517090 0.417480
0.745605 0.522461 0.429932
0.764648 0.527832 0.443115
0.783691 0.533691 0.456299
0.319336 0.499268 0.294434
0.326904 0.499023 0.295166
0.333740 0.499023 0.295898
0.341797 0.499512 0.297119
0.349609 0.499756 0.298340
0.358398 0.499268 0.299561
0.367920 0.499512 0.301025
0.377686 0.499268 0.303223
0.387451 0.500000 0.305908
0.398682 0.499268 0.308838
0.409668 0.500000 0.311523
0.420654 0.500977 0.312500
0.432617 0.501953 0.313721
0.445068 0.502930 0.315186
0.458496 0.504395 0.316895
0.472656 0.505859 0.319092
0.487305 0.506836 0.321289
0.503418 0.508301 0.324707
0.519043 0.508789 0.328857
0.537109 0.509766 0.333984
0.555176 0.510254 0.339844
0.573242 0.510742 0.346436
0.592773 0.512207 0.354248
0.610840 0.514160 0.362793
0.629883 0.515625 0.372070
0.648438 0.518555 0.382812
0.667969 0.520996 0.391602
0.687988 0.523438 0.400879
0.707520 0.527832 0.411621
0.727051 0.532227 0.422607
0.745605 0.536621 0.434814
0.764648 0.540527 0.446777
0.783203 0.546387 0.459717
0.336426 0.520996 0.312256
0.343018 0.520996 0.312988
0.349854 0.520996 0.313721
0.357422 0.520996 0.314697
0.364502 0.520996 0.315674
0.372803 0.520996 0.316650
0.381348 0.520996 0.318359
0.390381 0.521484 0.320312
0.400146 0.520996 0.322266
0.410156 0.520996 0.324707
0.420898 0.520996 0.328125
0.431641 0.521973 0.330322
0.442627 0.522461 0.331055
0.454590 0.523438 0.332275
0.466797 0.524902 0.333984
0.479980 0.525879 0.335449
0.494141 0.526855 0.337158
0.508789 0.528809 0.340332
0.524414 0.529785 0.343262
0.541016 0.529785 0.347168
0.558105 0.530762 0.352539
0.576172 0.530762 0.357910
0.594727 0.532227 0.364746
0.613281 0.532715 0.372314
0.631348 0.534668 0.381104
0.650391 0.536621 0.390381
0.667969 0.538574 0.400635
0.687012 0.541504 0.409668
0.708008 0.543945 0.418945
0.727051 0.546875 0.428955
0.746094 0.550781 0.439941
0.764648 0.555176 0.451660
0.782715 0.559570 0.463623
0.352295 0.541992 0.329834
0.358154 0.541992 0.330322
0.365234 0.542480 0.331543
0.372070 0.542480 0.332275
0.379395 0.541992 0.333008
0.386963 0.541992 0.333984
0.395020 0.542480 0.335449
0.403564 0.542480 0.337158
0.412598 0.541992 0.338623
0.421875 0.542480 0.340820
0.432129 0.542480 0.343506
0.442627 0.541992 0.346680
0.453125 0.542969 0.348389
0.464111 0.543457 0.349365
0.475586 0.544922 0.350830
0.488037 0.545898 0.352295
0.500977 0.547363 0.353760
0.515137 0.548340 0.355469
0.529785 0.549805 0.358154
0.544922 0.550293 0.361084
0.561523 0.550781 0.365234
0.578613 0.550781 0.370361
0.595703 0.551270 0.375977
0.614258 0.552246 0.382812
0.633301 0.553223 0.390381
0.650879 0.554199 0.398438
0.668945 0.556152 0.407715
0.687500 0.558105 0.417969
0.706543 0.560547 0.427246
0.726074 0.562988 0.436035
0.745117 0.565918 0.446045
0.764160 0.569336 0.456787
0.781738 0.573242 0.468018
0.367920 0.563477 0.347412
0.373779 0.563477 0.347900
0.380127 0.563477 0.348877
0.386719 0.563477 0.349609
0.394043 0.563477 0.350342
0.400391 0.562988 0.351318
0.408447 0.562988 0.352539
0.416748 0.562988 0.353760
0.424805 0.562988 0.354980
0.434082 0.562988 0.356934
0.443848 0.562988 0.359131
0.453369 0.562500 0.361816
0.463623 0.562988 0.365234
0.474365 0.563477 0.366211
0.485107 0.564453 0.367188
0.496582 0.565430 0.368408
0.508301 0.566406 0.369629
0.520996 0.567383 0.371826
0.534668 0.568359 0.373291
0.549316 0.570312 0.375977
0.565430 0.570801 0.379150
0.581055 0.570801 0.382812
0.598633 0.570801 0.387939
0.615723 0.571777 0.393555
0.634766 0.572266 0.400146
0.652344 0.572754 0.407471
0.669922 0.573730 0.416016
0.688477 0.575684 0.425293
0.706543 0.576660 0.434814
0.724609 0.579590 0.444336
0.744141 0.581055 0.452881
0.763184 0.583984 0.462891
0.781250 0.587402 0.473145
0.384033 0.583496 0.364746
0.388916 0.583496 0.365234
0.395020 0.583496 0.365723
0.401855 0.583496 0.366455
0.408203 0.583984 0.367432
0.414551 0.583496 0.368164
0.422119 0.583496 0.369385
0.429443 0.583496 0.370361
0.437012 0.583496 0.371582
0.446045 0.583496 0.373047
0.454834 0.583496 0.375244
0.464111 0.583496 0.377441
0.473877 0.583008 0.380127
0.484375 0.583496 0.383545
0.494385 0.583984 0.384277
0.504395 0.584961 0.385010
0.516113 0.585449 0.386230
0.527832 0.586914 0.387451
0.541016 0.587402 0.388916
0.554688 0.588867 0.390869
0.569336 0.589844 0.393311
0.584961 0.590332 0.396240
0.601562 0.591309 0.400879
0.617676 0.590820 0.405273
0.636230 0.590820 0.410889
0.653809 0.591309 0.417480
0.671387 0.592285 0.424561
0.689453 0.592773 0.433105
0.707031 0.594238 0.441895
0.724121 0.595215 0.451416
0.742676 0.597656 0.461182
0.761719 0.599121 0.469482
0.780762 0.601562 0.479004
0.398193 0.603516 0.381836
0.404053 0.603516 0.382324
0.409668 0.603516 0.382812
0.415771 0.603516 0.383301
0.421631 0.603516 0.383789
0.428467 0.603516 0.384766
0.435059 0.603027 0.385498
0.442383 0.603027 0.386475
0.449951 0.603027 0.387695
0.457764 0.603027 0.388916
0.465820 0.602539 0.390381
0.474609 0.603516 0.392822
0.484131 0.603516 0.395020
0.493896 0.603027 0.397949
0.503906 0.603027 0.400391
0.513672 0.603516 0.401123
0.524414 0.604980 0.402344
0.535156 0.605469 0.403564
0.547852 0.606934 0.405029
0.560059 0.607422 0.406250
0.574219 0.608398 0.408447
0.588867 0.609375 0.410645
0.604004 0.609863 0.413574
0.620117 0.609863 0.417480
0.637207 0.609375 0.422119
0.654297 0.609863 0.427734
0.671875 0.609863 0.434082
0.689453 0.610352 0.441162
0.707031 0.610840 0.449463
0.725098 0.612305 0.458252
0.742676 0.613770 0.468018
0.760742 0.615234 0.477295
0.779297 0.617188 0.486084
0.414062 0.623047 0.398193
0.418457 0.623047 0.398438
0.424561 0.623047 0.399170
0.429443 0.623047 0.399658
0.435547 0.623535 0.400635
0.441406 0.623535 0.401123
0.448486 0.623047 0.401611
0.455566 0.623047 0.402832
0.461670 0.623047 0.403809
0.469727 0.623047 0.405029
0.477051 0.623047 0.406494
0.485840 0.622559 0.408203
0.494629 0.622559 0.410156
0.502930 0.622559 0.412109
0.513672 0.622070 0.415039
0.522949 0.622070 0.417236
0.533203 0.622559 0.418213
0.543457 0.623535 0.419189
0.554688 0.624023 0.420166
0.567383 0.625000 0.421387
0.579590 0.625977 0.423096
0.593262 0.626953 0.424805
0.607422 0.627930 0.427246
0.622559 0.628418 0.430176
0.638184 0.628418 0.434326
0.655273 0.627930 0.438721
0.672852 0.627930 0.443848
0.689941 0.627930 0.449951
0.708008 0.628418 0.457520
0.725098 0.628906 0.465576
0.742676 0.629883 0.474365
0.760254 0.630859 0.483887
0.777344 0.632324 0.493164
0.427734 0.642090 0.414551
0.432617 0.642090 0.415039
0.437500 0.642090 0.415527
0.442871 0.642090 0.416016
0.448730 0.642090 0.416504
0.454102 0.642090 0.417236
0.460938 0.642090 0.417725
0.467041 0.641602 0.418701
0.473633 0.641602 0.419678
0.480957 0.641602 0.420654
0.488281 0.641602 0.421387
0.496582 0.641602 0.423096
0.504395 0.641113 0.424561
0.513184 0.641113 0.426514
0.521973 0.640625 0.428955
0.532227 0.640625 0.431885
0.541504 0.640625 0.433838
0.551270 0.641113 0.434814
0.561523 0.642090 0.435547
0.573242 0.642578 0.436768
0.585449 0.644043 0.437988
0.597656 0.644531 0.439697
0.610840 0.645508 0.441406
0.625488 0.646484 0.443604
0.640137 0.646973 0.446533
0.656738 0.646973 0.450684
0.673340 0.646484 0.455078
0.689941 0.645996 0.460449
0.707520 0.645996 0.466553
0.725098 0.646484 0.473389
0.743164 0.645996 0.481445
0.760254 0.647461 0.490234
0.777832 0.647949 0.499512
0.441162 0.660156 0.429932
0.446045 0.660156 0.430420
0.451172 0.660156 0.430664
0.456787 0.660156 0.431396
0.462158 0.660156 0.432129
0.467529 0.660156 0.432617
0.473145 0.660156 0.433350
0.479492 0.660156 0.433838
0.485107 0.659668 0.434814
0.492676 0.659668 0.436035
0.499268 0.659668 0.436768
0.506348 0.659668 0.437988
0.514160 0.659668 0.439209
0.522461 0.659180 0.441162
0.530762 0.659180 0.442871
0.539551 0.658691 0.445312
0.550293 0.658691 0.448242
0.559570 0.658691 0.450195
