RED_IPP2_Creative/RED_AWASH.cube
# RED Digital Cinema Output Transform LUT for IPP2
# Creatives by Eric Weidt
# BMD cube from Truelight v4.0
# Settings used in creation of this LUT are:
# Development Color Space = USER SELECTABLE
# Output Gamma Curve = USER SELECTABLE
# Output Tonemap = USER SELECTABLE
# Highlight Rolloff = USER SELECTABLE
LUT_3D_SIZE 5
0.029160 0.025482 0.025909
0.152466 0.059296 0.067932
0.341797 0.213989 0.198364
0.569824 0.422119 0.380127
0.877441 0.699707 0.641113
0.169800 0.242798 0.178833
0.265381 0.264893 0.189209
0.408203 0.325684 0.267578
0.603027 0.483643 0.432861
0.886719 0.719238 0.657227
0.414551 0.482910 0.394287
0.448486 0.494629 0.404541
0.533691 0.526855 0.438965
0.685547 0.616211 0.549805
0.909668 0.770020 0.699707
0.694336 0.775879 0.664551
0.707520 0.778320 0.669922
0.742676 0.785156 0.686035
0.817871 0.809082 0.723633
0.948242 0.867188 0.784180
0.897461 0.980957 0.864746
0.900879 0.981445 0.865234
0.911133 0.981445 0.866211
0.939453 0.983398 0.871094
0.997070 0.991211 0.887207
0.038422 0.035614 0.120911
0.147827 0.085144 0.155029
0.343750 0.224976 0.263428
0.564453 0.431885 0.428711
0.875977 0.701172 0.665527
0.136963 0.257812 0.258545
0.270020 0.271973 0.276367
0.422119 0.325684 0.322021
0.603027 0.488281 0.470459
0.885254 0.720703 0.679688
0.404297 0.489502 0.427002
0.439697 0.500977 0.436523
0.531738 0.532227 0.462646
0.689941 0.617676 0.568359
0.905762 0.772461 0.719727
0.695801 0.775391 0.686035
0.708984 0.778320 0.691406
0.742676 0.784668 0.705078
0.815430 0.810059 0.739258
0.944336 0.868164 0.799316
0.895996 0.981445 0.870117
0.899414 0.981445 0.870605
0.910156 0.981445 0.872070
0.938477 0.983398 0.876465
0.996582 0.990723 0.893066
0.132812 0.094971 0.204712
0.213013 0.155640 0.260498
0.350586 0.257568 0.345215
0.571289 0.449219 0.492676
0.872070 0.708008 0.711426
0.241943 0.271484 0.350586
0.301758 0.295898 0.374756
0.417725 0.352295 0.417480
0.610352 0.500977 0.530762
0.879395 0.728027 0.724609
0.391602 0.505859 0.500488
0.412598 0.519043 0.515137
0.536133 0.541992 0.537598
0.699707 0.622559 0.615723
0.896484 0.777832 0.759277
0.702637 0.777344 0.724121
0.711426 0.779297 0.727051
0.740234 0.788574 0.735352
0.814453 0.812988 0.758789
0.936523 0.871094 0.829590
0.893066 0.981445 0.886230
0.896484 0.981934 0.886230
0.906738 0.982422 0.887207
0.936035 0.983398 0.893066
0.996094 0.990723 0.910645
0.295654 0.225708 0.411133
0.327148 0.250000 0.427002
0.423340 0.329590 0.484619
0.609863 0.489990 0.600586
0.874023 0.723633 0.781250
0.360107 0.337402 0.469482
0.389648 0.356934 0.483887
0.467285 0.410889 0.524902
0.634766 0.540527 0.627441
0.880371 0.742188 0.790527
0.491943 0.533203 0.605469
0.514648 0.543457 0.615234
0.576172 0.572754 0.642090
0.708008 0.650391 0.704102
0.893555 0.788574 0.815918
0.705078 0.788086 0.783203
0.711914 0.791504 0.787109
0.728027 0.803223 0.797852
0.818359 0.820312 0.815430
0.938965 0.873535 0.867676
0.894531 0.981934 0.922852
0.898438 0.981934 0.923828
0.909180 0.981934 0.925781
0.937500 0.982422 0.932129
0.994629 0.990234 0.942871
0.522949 0.436523 0.662109
0.540527 0.451660 0.672852
0.589355 0.493652 0.701660
0.707520 0.597168 0.772461
0.895508 0.764160 0.884766
0.557617 0.493652 0.696777
0.573242 0.505859 0.705078
0.617676 0.540527 0.729492
0.726562 0.629395 0.791992
0.901855 0.777344 0.891602
0.640137 0.622559 0.776855
0.652344 0.629883 0.782715
0.687500 0.651367 0.798828
0.770996 0.707031 0.837402
0.917480 0.811523 0.909668
0.777344 0.812988 0.875000
0.782715 0.814453 0.876953
0.799805 0.821777 0.883301
0.846680 0.840820 0.900391
0.942383 0.889160 0.939453
0.910156 0.982422 0.980469
0.912109 0.983398 0.981934
0.916504 0.983887 0.982910
0.934082 0.986816 0.986816
0.993164 0.992188 0.992676
