RED_IPP2_Creative/RED_ZONE.cube
# RED Digital Cinema Output Transform LUT for IPP2
# Creatives by Eric Weidt
# BMD cube from Truelight v4.0
# Settings used in creation of this LUT are:
# Development Color Space = USER SELECTABLE
# Output Gamma Curve = USER SELECTABLE
# Output Tonemap = USER SELECTABLE
# Highlight Rolloff = USER SELECTABLE
LUT_3D_SIZE 9
0.036407 0.029739 0.030701
0.102600 0.035156 0.035278
0.151978 0.064392 0.066528
0.221558 0.115967 0.117493
0.333008 0.193604 0.181274
0.427246 0.293945 0.262451
0.523926 0.392822 0.360840
0.636230 0.496826 0.461182
0.761230 0.622559 0.584961
0.056854 0.107788 0.060211
0.106018 0.113708 0.065796
0.182007 0.130615 0.095642
0.268799 0.174316 0.148438
0.359375 0.242798 0.206055
0.442383 0.323730 0.281982
0.534668 0.407959 0.372070
0.644043 0.506836 0.468994
0.766113 0.629395 0.590820
0.136597 0.214233 0.150513
0.169556 0.223389 0.154785
0.232666 0.239136 0.167847
0.312012 0.268555 0.200684
0.389893 0.311035 0.246216
0.464111 0.365723 0.312256
0.552246 0.433594 0.390381
0.656250 0.524414 0.481934
0.773926 0.640137 0.599121
0.255859 0.341797 0.250000
0.280762 0.345703 0.254883
0.318359 0.352783 0.266113
0.367432 0.366943 0.279297
0.425293 0.387695 0.308838
0.493896 0.420654 0.358887
0.577148 0.474854 0.420166
0.676270 0.554199 0.503906
0.787598 0.659668 0.614746
0.372803 0.444092 0.357910
0.384277 0.446533 0.361084
0.402588 0.450439 0.366943
0.431885 0.458252 0.375488
0.476318 0.472412 0.389160
0.537598 0.495117 0.416992
0.612793 0.536621 0.468262
0.705566 0.599609 0.540039
0.811035 0.690430 0.640137
0.481689 0.557129 0.463623
0.488281 0.558105 0.465576
0.500000 0.561035 0.468994
0.521484 0.565918 0.476807
0.551758 0.575684 0.485107
0.599121 0.592285 0.501465
0.666016 0.621094 0.537109
0.746582 0.667969 0.596680
0.845703 0.741699 0.681641
0.609863 0.685059 0.589355
0.614746 0.685059 0.590332
0.621094 0.687500 0.592285
0.633301 0.690430 0.596680
0.655273 0.697266 0.604980
0.687988 0.708496 0.615723
0.737793 0.728516 0.636230
0.807617 0.761230 0.677246
0.893555 0.815430 0.743652
0.756836 0.827148 0.734863
0.758301 0.827148 0.734863
0.762695 0.828125 0.735840
0.770508 0.830566 0.738770
0.782715 0.834961 0.743652
0.803223 0.841797 0.752441
0.835938 0.855957 0.764160
0.888672 0.877930 0.787598
0.961914 0.916016 0.833984
0.917480 0.981934 0.894043
0.918457 0.981934 0.895508
0.921387 0.984863 0.896973
0.925293 0.985352 0.898438
0.932617 0.987793 0.900879
0.945312 0.992676 0.907715
0.965820 1.000000 0.916016
1.000000 1.000000 0.929688
1.000000 1.000000 0.955566
0.041534 0.041504 0.105225
0.090820 0.049805 0.106750
0.146484 0.075012 0.113770
0.224243 0.122559 0.149048
0.337646 0.197144 0.213257
0.432129 0.293457 0.288574
0.527344 0.392334 0.375977
0.639648 0.496094 0.470703
0.762695 0.622559 0.590332
0.055145 0.118103 0.129272
0.106018 0.122070 0.135376
0.205811 0.131470 0.140991
0.285645 0.175415 0.180664
0.365967 0.243286 0.238647
0.447754 0.322754 0.306152
0.538574 0.407471 0.385986
0.646973 0.506836 0.478027
0.767578 0.628906 0.595703
0.130127 0.223145 0.178345
0.158569 0.234253 0.176636
0.234985 0.244629 0.181885
0.325928 0.268311 0.216553
0.396729 0.310547 0.272217
0.469971 0.364746 0.332031
0.555664 0.432617 0.402588
0.659668 0.524414 0.490234
0.776367 0.640137 0.604004
0.245239 0.346436 0.276123
0.269043 0.351318 0.278076
0.310059 0.357910 0.283936
0.365967 0.369385 0.296387
0.427734 0.388672 0.326660
0.498779 0.420166 0.370850
0.581543 0.473877 0.429443
0.678223 0.552734 0.510742
0.790039 0.659180 0.619141
0.364990 0.447266 0.370850
0.376709 0.450195 0.372559
0.395996 0.453857 0.376709
0.427490 0.460205 0.386230
0.474854 0.473877 0.398193
0.539062 0.496094 0.424805
0.616699 0.535156 0.473633
0.708008 0.599609 0.545898
0.813477 0.690430 0.644043
0.476807 0.558594 0.470215
0.483643 0.560059 0.471680
0.496094 0.562988 0.474854
0.517090 0.567383 0.481445
0.548828 0.576660 0.490479
0.598145 0.593750 0.506836
0.666504 0.621094 0.541016
0.749023 0.667969 0.599609
0.847168 0.741211 0.684082
0.606445 0.686035 0.592285
0.611816 0.687500 0.593750
0.618164 0.688965 0.595703
0.630371 0.691895 0.599609
0.653320 0.697754 0.608398
0.686035 0.709961 0.618652
0.737793 0.728516 0.639648
0.807617 0.761230 0.678711
0.894531 0.815430 0.746094
0.754395 0.827148 0.735840
0.757324 0.828125 0.736328
0.760742 0.829590 0.737793
0.769043 0.831543 0.740234
0.781250 0.835449 0.745605
0.802246 0.842773 0.753906
0.835938 0.856445 0.766113
0.889160 0.879395 0.789551
0.962891 0.916016 0.834961
0.916504 0.981934 0.895508
0.917480 0.982910 0.895996
0.919434 0.983398 0.896484
0.925293 0.985352 0.898926
0.932129 0.988770 0.902344
0.944824 0.993164 0.908203
0.965820 1.000000 0.916504
1.000000 1.000000 0.930176
1.000000 1.000000 0.956055
0.057404 0.053253 0.128052
0.091309 0.065918 0.136475
0.142578 0.091248 0.153320
0.224731 0.135864 0.193726
0.336914 0.207275 0.259766
0.434082 0.297119 0.325195
0.531738 0.393066 0.396484
0.643066 0.496094 0.484131
0.766113 0.621582 0.598633
0.088501 0.124451 0.192871
0.128418 0.133057 0.207275
0.198364 0.149902 0.220093
0.280762 0.187012 0.242432
0.366699 0.250000 0.286621
0.451172 0.324463 0.340576
0.542969 0.407715 0.405273
0.650391 0.506348 0.490479
0.770996 0.628418 0.604004
0.123901 0.239502 0.249878
0.147461 0.250000 0.262695
0.223633 0.254639 0.271484
0.329590 0.269287 0.278320
0.395508 0.311035 0.316406
0.473389 0.364258 0.361572
0.560547 0.432617 0.420166
0.662598 0.523926 0.502930
0.779297 0.639648 0.611816
0.230957 0.352295 0.313965
0.250732 0.358154 0.314453
0.303467 0.358398 0.305664
0.361328 0.371582 0.316650
0.428223 0.388672 0.352295
0.502930 0.419922 0.391357
0.586914 0.473389 0.445068
0.682129 0.552734 0.521973
0.792969 0.659180 0.625977
0.355957 0.450684 0.390625
0.367920 0.453613 0.391846
0.395508 0.451904 0.390869
0.427246 0.459229 0.403076
0.471191 0.475586 0.413086
0.540039 0.496582 0.439209
0.621582 0.535156 0.484131
0.711426 0.598633 0.554688
0.815430 0.689941 0.649902
0.470703 0.562012 0.482178
0.477783 0.563477 0.483154
0.489746 0.564453 0.483643
0.510742 0.569336 0.489258
0.545410 0.578125 0.500000
0.596680 0.594727 0.514648
0.667969 0.621582 0.548340
0.752441 0.667969 0.605957
0.849609 0.740234 0.688477
0.602539 0.687988 0.598633
0.606934 0.688965 0.599609
0.614746 0.691406 0.601562
0.627441 0.694336 0.605469
0.649414 0.699707 0.612305
0.683594 0.710938 0.624512
0.736328 0.730469 0.644043
0.808594 0.762207 0.683594
0.896484 0.814453 0.748535
0.752441 0.828125 0.738770
0.753906 0.829590 0.739258
0.758301 0.830566 0.740234
0.766602 0.833496 0.743164
0.778809 0.837402 0.747559
0.801270 0.843750 0.757324
0.835449 0.856934 0.769043
0.888672 0.879395 0.792480
0.963867 0.916016 0.837402
0.915039 0.983398 0.896973
0.916016 0.983398 0.896973
0.918457 0.984863 0.898438
0.923340 0.986816 0.900391
0.930664 0.989258 0.903809
0.942871 0.994629 0.909668
0.964355 1.000000 0.918457
0.999023 1.000000 0.931641
1.000000 1.000000 0.957520
0.089172 0.070435 0.156738
0.115906 0.085083 0.169922
0.158569 0.112671 0.197388
0.240601 0.157349 0.250000
0.337158 0.225342 0.304932
0.433350 0.306152 0.363770
0.532715 0.396484 0.423584
0.646484 0.497314 0.503906
0.770020 0.621582 0.610840
0.125122 0.137817 0.227173
0.154297 0.150879 0.244019
0.206665 0.173096 0.267578
0.281738 0.209595 0.296143
0.364990 0.264160 0.333008
0.450439 0.331787 0.378174
0.544922 0.410400 0.432617
0.654297 0.507324 0.510254
0.774902 0.628418 0.616211
0.153198 0.249023 0.323975
0.186035 0.255371 0.336426
0.244629 0.263184 0.341064
0.327393 0.280518 0.353271
0.395508 0.317871 0.366943
0.473633 0.369141 0.397949
0.564941 0.434570 0.447510
0.666992 0.524414 0.521484
0.783203 0.640137 0.624023
0.207275 0.361572 0.368652
0.221802 0.367188 0.375488
0.252686 0.374023 0.383057
0.351807 0.377197 0.389893
0.448486 0.385254 0.392822
0.512207 0.419434 0.423340
0.593262 0.473389 0.469482
0.686523 0.552734 0.540039
0.796875 0.658203 0.637207
0.346680 0.455566 0.420898
0.358398 0.458496 0.422607
0.381104 0.457520 0.418701
0.412598 0.467773 0.418945
0.471924 0.479736 0.425537
0.552246 0.495605 0.455078
0.628906 0.534668 0.503418
0.716797 0.598633 0.569336
0.819336 0.689453 0.660156
0.463379 0.565918 0.501465
0.470215 0.567383 0.502441
0.482422 0.569336 0.502441
0.503418 0.574707 0.505371
0.540039 0.582520 0.514648
0.595703 0.597168 0.529297
0.671387 0.622559 0.561523
0.756836 0.667969 0.615723
0.853516 0.740234 0.696777
0.597168 0.691406 0.610352
0.601562 0.692871 0.611328
0.608887 0.694336 0.612305
0.620605 0.697754 0.614746
0.644043 0.703125 0.620605
0.680176 0.713867 0.633789
0.735840 0.731445 0.651367
0.810547 0.762695 0.689941
0.899902 0.815430 0.754395
0.748535 0.831055 0.744629
0.750000 0.831543 0.745117
0.753906 0.833008 0.746094
0.761230 0.834961 0.748535
0.774414 0.839355 0.752441
0.797852 0.845703 0.760742
0.833496 0.857910 0.773438
0.887695 0.880371 0.795898
0.964844 0.916992 0.840820
0.912598 0.984863 0.899902
0.914062 0.985352 0.900391
0.916016 0.985352 0.901367
0.920898 0.987793 0.903320
0.929199 0.991211 0.905762
0.940918 0.995117 0.910645
0.962891 1.000000 0.920898
0.999023 1.000000 0.933594
1.000000 1.000000 0.958984
0.132080 0.103577 0.207397
0.153687 0.119568 0.227905
0.196533 0.145996 0.261230
0.263916 0.187134 0.302246
0.347900 0.247437 0.351562
0.433105 0.322754 0.400391
0.532715 0.404785 0.457275
0.647949 0.501953 0.531738
0.773926 0.624023 0.630371
0.171997 0.166016 0.281982
0.196533 0.178711 0.295166
0.238647 0.199951 0.314941
0.297852 0.234253 0.343506
0.370850 0.281982 0.377441
0.449219 0.346191 0.415527
0.544922 0.418213 0.467041
0.655762 0.511719 0.538086
0.779297 0.629883 0.635254
0.216187 0.259277 0.357910
0.242554 0.266846 0.365234
0.275635 0.279053 0.371338
0.330811 0.301025 0.386475
0.396484 0.333252 0.408936
0.472900 0.379395 0.438477
0.564941 0.441406 0.483398
0.668945 0.527832 0.549805
0.787598 0.641113 0.643066
0.254639 0.364502 0.421875
0.276367 0.367920 0.429199
0.310303 0.371826 0.434082
0.368896 0.380127 0.446289
0.438965 0.394531 0.456299
0.509766 0.426514 0.471436
0.594727 0.478516 0.506348
0.690430 0.555664 0.567383
0.802246 0.660156 0.655762
0.337646 0.462402 0.468262
0.344482 0.465820 0.471924
0.354492 0.471191 0.478271
0.383057 0.479736 0.487305
0.465576 0.484375 0.494385
0.573730 0.491943 0.499512
0.637207 0.536133 0.538574
0.723145 0.599609 0.594238
0.824219 0.690430 0.676758
0.455811 0.571289 0.532715
0.461914 0.572754 0.533691
0.473633 0.575195 0.535156
0.492920 0.580566 0.538574
0.527344 0.591309 0.539551
0.597168 0.601562 0.543945
0.681641 0.623047 0.581055
0.764648 0.666992 0.634766
0.858887 0.741211 0.711426
0.591309 0.695801 0.629883
0.594238 0.696777 0.630371
0.602051 0.698730 0.632324
0.613770 0.702637 0.634277
0.635742 0.708496 0.637207
0.675293 0.718262 0.647461
0.734863 0.734375 0.664062
0.814453 0.764160 0.701660
0.904785 0.814453 0.763672
0.742676 0.834961 0.754883
0.745117 0.835449 0.755859
0.749512 0.837402 0.756836
0.756836 0.839355 0.758301
0.769043 0.843262 0.762207
0.792480 0.849121 0.768066
0.830078 0.860352 0.782715
0.887207 0.881836 0.803223
0.966309 0.917480 0.847168
0.909180 0.986816 0.904785
0.910645 0.987793 0.905762
0.912598 0.988770 0.905762
0.916016 0.990234 0.907715
0.924316 0.992676 0.910156
0.937988 0.998047 0.915039
0.960449 1.000000 0.924805
0.996582 1.000000 0.937988
1.000000 1.000000 0.962891
0.200195 0.158691 0.293213
0.220825 0.171631 0.307617
0.254150 0.193359 0.329590
0.302979 0.228394 0.360352
0.365967 0.281250 0.395508
0.439209 0.347656 0.439697
0.534668 0.420166 0.496094
0.648926 0.512207 0.567383
0.776855 0.628906 0.658203
0.238037 0.209106 0.343750
0.255859 0.220093 0.353027
0.285156 0.238647 0.368164
0.327881 0.268799 0.387939
0.383301 0.312012 0.415527
0.453125 0.367432 0.454834
0.545898 0.432861 0.506348
0.656738 0.521484 0.574219
0.781250 0.635254 0.662598
0.281982 0.285645 0.396973
0.297363 0.292969 0.402100
0.321533 0.305176 0.410156
0.358887 0.325439 0.424561
0.407471 0.355713 0.446777
0.475830 0.396484 0.479248
0.563965 0.454590 0.523926
0.670410 0.537109 0.585938
0.790527 0.645996 0.670898
0.328369 0.373291 0.456055
0.342529 0.376709 0.460449
0.363281 0.382568 0.465820
0.394775 0.393311 0.476807
0.441895 0.411133 0.492920
0.507812 0.441162 0.516113
0.592285 0.489746 0.551270
0.691406 0.562988 0.604492
0.805176 0.663574 0.683105
0.375488 0.466553 0.522461
0.384277 0.468994 0.527344
0.398926 0.473145 0.533691
0.428223 0.479248 0.545898
0.481689 0.488281 0.559570
0.557129 0.505859 0.568848
0.634766 0.543945 0.589355
0.725586 0.604980 0.632324
0.829590 0.693848 0.703613
0.454102 0.577637 0.581543
0.458496 0.579590 0.583984
0.465820 0.583008 0.588379
0.476807 0.590332 0.595703
0.502441 0.600586 0.606934
0.598633 0.604980 0.615723
0.704102 0.620117 0.625977
0.773438 0.668945 0.669434
0.864746 0.741699 0.734863
0.583496 0.701660 0.661133
0.586914 0.702637 0.662109
0.593750 0.705566 0.663574
0.605957 0.709473 0.666504
0.626953 0.715332 0.671387
0.663574 0.726074 0.675293
0.735840 0.739258 0.683105
0.824219 0.764648 0.722656
0.912598 0.814453 0.782227
0.736816 0.838867 0.773438
0.738770 0.839355 0.773926
0.743652 0.841309 0.774902
0.750000 0.843750 0.776855
0.763184 0.847656 0.779297
0.785645 0.854492 0.783691
0.825684 0.865234 0.795898
0.887695 0.884766 0.815430
0.970215 0.918945 0.857910
0.903809 0.990723 0.914551
0.905273 0.991211 0.915039
0.907715 0.991699 0.915039
0.911621 0.993652 0.916992
0.919434 0.997070 0.918945
0.932617 1.000000 0.922852
0.956543 1.000000 0.930664
0.995117 1.000000 0.945312
1.000000 1.000000 0.969238
0.289795 0.233398 0.377686
0.302490 0.244629 0.385010
0.323242 0.262451 0.396729
0.354248 0.290527 0.415527
0.396729 0.330322 0.444336
0.457764 0.381104 0.485107
0.542480 0.444092 0.539551
0.651367 0.529785 0.608887
0.777832 0.640625 0.694336
0.315186 0.273682 0.404541
0.326172 0.282715 0.410400
0.344238 0.296875 0.420410
0.371826 0.319580 0.436768
0.410889 0.353027 0.462646
0.469727 0.396484 0.499023
0.552734 0.456299 0.550781
0.659668 0.539062 0.616211
0.782715 0.646484 0.698730
0.348633 0.328857 0.443604
0.357666 0.334961 0.448242
0.372803 0.345215 0.456299
0.396240 0.361328 0.469727
0.432861 0.385986 0.490479
0.489258 0.422119 0.522949
0.568848 0.476562 0.567871
0.671875 0.553711 0.628418
0.792480 0.656250 0.706543
0.387695 0.394775 0.496826
0.395020 0.398193 0.500488
0.407959 0.404785 0.506348
0.429932 0.415283 0.516602
0.465332 0.433350 0.533203
0.518555 0.463135 0.559082
0.594727 0.509277 0.595703
0.691895 0.577637 0.647949
0.807129 0.673340 0.719238
0.431885 0.477051 0.565430
0.438721 0.479492 0.568359
0.451904 0.483887 0.572754
0.473145 0.490479 0.580566
0.507324 0.503418 0.592773
0.560059 0.524414 0.610840
0.633301 0.560547 0.637695
0.724121 0.617676 0.678223
0.830566 0.701660 0.740234
0.487305 0.583984 0.640137
0.492920 0.585449 0.642578
0.502930 0.588379 0.646973
0.520508 0.593262 0.654297
0.552246 0.601074 0.666992
0.608887 0.613770 0.682617
0.686523 0.635254 0.696289
0.772949 0.678223 0.721680
0.868164 0.747559 0.772461
0.582520 0.709473 0.711426
0.585938 0.710938 0.712402
0.592773 0.712402 0.715332
0.603027 0.716309 0.719727
0.616699 0.724121 0.728027
0.641113 0.736816 0.741211
0.740234 0.743652 0.750488
0.844727 0.763184 0.766602
0.921875 0.816406 0.815430
0.730469 0.846191 0.804199
0.731934 0.846680 0.804688
0.735840 0.847656 0.805664
0.743164 0.850098 0.807617
0.755859 0.854980 0.810547
0.776855 0.862305 0.815918
0.816406 0.874023 0.822266
0.888672 0.889648 0.836426
0.979980 0.920410 0.877441
0.897949 0.995605 0.931641
0.899902 0.996582 0.932129
0.900879 0.997070 0.932129
0.905273 0.999023 0.933594
0.912598 1.000000 0.935059
0.925781 1.000000 0.938965
0.949707 1.000000 0.944336
0.991699 1.000000 0.959473
1.000000 1.000000 0.981445
0.378906 0.330322 0.453857
0.385254 0.336426 0.458740
0.395996 0.346924 0.467529
0.414307 0.364014 0.481689
0.445068 0.388916 0.504883
0.492920 0.426270 0.539551
0.564453 0.482178 0.589844
0.661133 0.559570 0.655273
0.780762 0.660645 0.736328
0.393066 0.353027 0.473145
0.399170 0.358398 0.477539
0.409424 0.367432 0.485352
0.427246 0.381836 0.498291
0.456543 0.403809 0.519531
0.502930 0.439209 0.552246
0.572754 0.492432 0.599121
0.667480 0.567383 0.662109
0.786621 0.666504 0.741211
0.415283 0.385986 0.502930
0.420898 0.389893 0.506836
0.430908 0.396729 0.513672
0.447754 0.408936 0.525391
0.475830 0.428955 0.543945
0.520020 0.461182 0.573242
0.586914 0.509766 0.616211
0.679199 0.580566 0.673828
0.794922 0.675293 0.749512
0.448242 0.433105 0.548828
0.453613 0.436279 0.551758
0.462646 0.442139 0.557617
0.478516 0.452148 0.566895
0.504395 0.468750 0.581543
0.546875 0.496094 0.606445
0.609863 0.539062 0.642578
0.698242 0.603027 0.694336
0.808594 0.691406 0.762695
0.492432 0.501953 0.609863
0.497314 0.504883 0.612305
0.505859 0.508789 0.616699
0.520996 0.516113 0.624023
0.545898 0.528809 0.635254
0.585449 0.551270 0.654297
0.645020 0.585938 0.683105
0.727539 0.640137 0.725586
0.831543 0.718262 0.784668
0.548340 0.597168 0.687500
0.553223 0.598633 0.688965
0.561035 0.601562 0.692383
0.575195 0.606934 0.697754
0.598145 0.615234 0.706055
0.635742 0.629883 0.720215
0.692871 0.654785 0.741211
0.771484 0.696289 0.771484
0.867676 0.760742 0.818848
0.618164 0.717773 0.772461
0.621582 0.718750 0.773926
0.627441 0.720215 0.776367
0.639648 0.723633 0.780762
0.658203 0.729492 0.789062
0.692871 0.738281 0.801270
0.750488 0.752441 0.818848
0.832520 0.778809 0.835938
0.922852 0.826172 0.866699
0.729980 0.854980 0.854004
0.731445 0.856445 0.854980
0.735352 0.857422 0.856934
0.741211 0.859375 0.859375
0.752441 0.864258 0.864258
0.771484 0.871582 0.872559
0.796387 0.885254 0.887207
0.896484 0.895508 0.898438
1.000000 0.920410 0.920898
0.892090 1.000000 0.961426
0.893066 1.000000 0.961426
0.895508 1.000000 0.962891
0.898926 1.000000 0.963379
0.906250 1.000000 0.965332
0.918945 1.000000 0.969238
0.942383 1.000000 0.975098
0.983398 1.000000 0.982910
1.000000 1.000000 1.000000
0.468262 0.421387 0.544922
0.472656 0.425293 0.548340
0.480225 0.431641 0.554688
0.492920 0.442627 0.564941
0.514648 0.460693 0.581543
0.550781 0.490234 0.608887
0.606445 0.536133 0.650391
0.687012 0.603027 0.708496
0.792969 0.693359 0.784668
0.478516 0.435059 0.558105
0.483398 0.438477 0.561523
0.490234 0.444580 0.566895
0.502930 0.454834 0.576660
0.524414 0.472412 0.593262
0.559570 0.500488 0.619141
0.613770 0.545410 0.659180
0.692383 0.609863 0.714844
0.796875 0.698242 0.789062
0.495605 0.457520 0.579590
0.499512 0.460693 0.582520
0.506348 0.466064 0.587402
0.518555 0.475830 0.596680
0.539062 0.491455 0.611328
0.572754 0.518066 0.635742
0.625488 0.560059 0.672852
0.702148 0.621582 0.725586
0.804688 0.706543 0.796387
0.522949 0.493408 0.613770
0.526855 0.496094 0.616699
0.532715 0.500488 0.620117
0.544434 0.509277 0.628418
0.563477 0.523438 0.641113
0.595215 0.547363 0.662598
0.644531 0.584473 0.694824
0.718262 0.641602 0.743652
0.817383 0.721680 0.810059
0.562988 0.548340 0.665039
0.566406 0.550293 0.666504
0.572266 0.554199 0.669434
0.582031 0.561035 0.676270
0.600098 0.572754 0.687012
0.629395 0.592773 0.704102
0.675293 0.624512 0.731934
0.745117 0.673828 0.773438
0.839355 0.745605 0.831543
0.617676 0.627441 0.735352
0.620117 0.628906 0.736816
0.625488 0.631836 0.739258
0.634766 0.636230 0.743652
0.650879 0.645020 0.751953
0.678223 0.660156 0.765137
0.720215 0.684570 0.786621
0.784180 0.724121 0.819336
0.872559 0.785645 0.867188
0.684570 0.733398 0.821777
0.686523 0.734375 0.822754
0.692383 0.736328 0.825195
0.699707 0.739258 0.828125
0.714844 0.745117 0.833984
0.739258 0.754883 0.844238
0.779297 0.771484 0.859863
0.840820 0.799805 0.883789
0.922852 0.846680 0.919434
0.765137 0.864746 0.916992
0.768066 0.865234 0.918457
0.771484 0.866699 0.919434
0.777344 0.868164 0.922852
0.789551 0.872559 0.928223
0.810547 0.878906 0.937012
0.846191 0.888672 0.950684
0.905762 0.905273 0.968262
0.990723 0.935059 0.990234
0.893555 1.000000 1.000000
0.894531 1.000000 1.000000
0.895508 1.000000 1.000000
0.899902 1.000000 1.000000
0.906250 1.000000 1.000000
0.916992 1.000000 1.000000
0.937012 1.000000 1.000000
0.966309 1.000000 1.000000
1.000000 1.000000 1.000000
