RED_IPP2_Creative/RED_FilmBiasOffset.cube
#RED_IPP2_CREATIVE_LUT
# RED_FilmBiasOffset - Color inspired by motion picture film with a highlight and shadow offset
# created by Phil Holland - phfx.com
# Settings used in creation of this LUT are:
# Development Color Space = USER SELECTABLE
# Output Gamma Curve = USER SELECTABLE
# Output Tonemap = USER SELECTABLE
# Highlight Rolloff = USER SELECTABLE
LUT_3D_SIZE 33
0 0.00531014 0.0137789
0.0105745 0.0149996 0.0239109
0.0364691 0.0261845 0.0349584
0.0613413 0.0383459 0.0467842
0.0872358 0.0500343 0.0586252
0.114168 0.0606699 0.0697185
0.141192 0.0698863 0.079408
0.166079 0.0759747 0.0860609
0.189609 0.0838331 0.0942855
0.211917 0.0932326 0.103868
0.232517 0.103853 0.114519
0.251148 0.115557 0.125933
0.267659 0.12813 0.13814
0.281849 0.141588 0.151034
0.294087 0.156252 0.164981
0.304372 0.171862 0.179797
0.312673 0.188098 0.195148
0.319829 0.204669 0.211109
0.325582 0.22153 0.227253
0.330816 0.238636 0.243442
0.335927 0.255848 0.2598
0.340902 0.27303 0.276204
0.346303 0.290227 0.292744
0.352178 0.307378 0.309316
0.358724 0.324453 0.325887
0.366094 0.341451 0.342443
0.374517 0.358373 0.358984
0.384253 0.375219 0.375555
0.395697 0.39205 0.392172
0.40943 0.408942 0.408957
0.426123 0.426123 0.426123
0.441032 0.441032 0.441032
0.445579 0.445579 0.445579
0.00361639 0.0302892 0.0299535
0.0207218 0.0325475 0.0303655
0.0456855 0.0370489 0.033341
0.0696574 0.0448463 0.0421302
0.0944686 0.0545663 0.052842
0.120409 0.0641947 0.0632029
0.145876 0.0723583 0.071931
0.169802 0.0784314 0.0784924
0.192294 0.0865949 0.0870527
0.213703 0.0962387 0.0970321
0.233387 0.107057 0.108064
0.251179 0.118868 0.120043
0.266926 0.131548 0.132876
0.2804 0.145098 0.146487
0.292134 0.159884 0.161273
0.301946 0.175509 0.176852
0.310079 0.191653 0.192935
0.316838 0.208392 0.209476
0.322393 0.224994 0.226154
0.327611 0.241901 0.242878
0.332723 0.258869 0.259709
0.337926 0.275853 0.276555
0.343465 0.292821 0.2934
0.349523 0.309728 0.310201
0.356298 0.326558 0.326925
0.363958 0.343297 0.343557
0.372747 0.35996 0.360128
0.383093 0.376623 0.376699
0.395377 0.393332 0.393347
0.410147 0.410117 0.410117
0.427436 0.427436 0.427436
0.440574 0.440574 0.440574
0.444877 0.444877 0.444877
0.0240482 0.0559396 0.0469978
0.0382391 0.0568704 0.0468452
0.0567483 0.0606851 0.0462196
0.0807965 0.0649424 0.0486152
0.107103 0.0696727 0.0531319
0.132998 0.0747845 0.0594644
0.156344 0.0792248 0.065156
0.178164 0.0847944 0.0718242
0.198749 0.0926375 0.0807507
0.218311 0.102098 0.0912337
0.236255 0.112795 0.102876
0.252491 0.124514 0.115511
0.266804 0.137148 0.129061
0.278935 0.150668 0.143526
0.28986 0.165499 0.159304
0.298863 0.180987 0.175708
0.306523 0.196963 0.192493
0.312871 0.213336 0.209628
0.318379 0.229908 0.22681
0.323842 0.246693 0.244053
0.329503 0.263416 0.261372
0.335332 0.280186 0.27863
0.341558 0.296941 0.295811
0.348363 0.313664 0.312871
0.355917 0.330343 0.329809
0.36437 0.346944 0.346624
0.373953 0.363485 0.363317
0.384924 0.379995 0.379919
0.397742 0.396521 0.39649
0.413123 0.413123 0.413123
0.430472 0.430472 0.430472
0.442664 0.442664 0.442664
0.446647 0.446647 0.446647
0.0422522 0.0827192 0.062623
0.0560464 0.082536 0.0622568
0.0697795 0.0861524 0.0613718
0.0918898 0.0895857 0.0602884
0.11754 0.0925612 0.0617685
0.144518 0.0962997 0.0649577
0.169924 0.0960403 0.0650339
0.190784 0.0987869 0.0697185
0.209262 0.104738 0.0780957
0.226291 0.112886 0.0886244
0.24184 0.122698 0.10071
0.255894 0.133806 0.11397
0.268193 0.145998 0.128283
0.278935 0.15935 0.143771
0.288426 0.173846 0.160357
0.296574 0.188922 0.177386
0.303471 0.204562 0.194827
0.309346 0.220462 0.21239
0.314885 0.236698 0.229938
0.320455 0.253056 0.247532
0.326223 0.269474 0.265095
0.332525 0.285878 0.282551
0.3393 0.302251 0.299825
0.346716 0.318624 0.316915
0.35491 0.334951 0.333837
0.364096 0.351232 0.350576
0.374472 0.367483 0.367163
0.386389 0.383749 0.383627
0.400305 0.400046 0.400046
0.416602 0.416602 0.416602
0.434241 0.434241 0.434241
0.443702 0.443702 0.443702
0.447318 0.447318 0.447318
0.0577401 0.11043 0.0764477
0.0718395 0.109483 0.0766461
0.0852979 0.111757 0.0748913
0.10251 0.115297 0.0724498
0.128573 0.117983 0.0713817
0.155932 0.119097 0.0715343
0.181247 0.121202 0.0731518
0.204868 0.122316 0.0750896
0.223636 0.124758 0.0808881
0.238529 0.130236 0.0906844
0.251286 0.138064 0.1028
0.262562 0.147738 0.116548
0.272251 0.158862 0.131548
0.281193 0.171557 0.147967
0.289113 0.185229 0.165072
0.295888 0.199649 0.18262
0.301778 0.214511 0.200351
0.307195 0.229847 0.218082
0.312627 0.245472 0.235859
0.318318 0.26125 0.253574
0.324392 0.277134 0.271183
0.330999 0.29308 0.288624
0.338216 0.309071 0.305867
0.346288 0.324956 0.322789
0.3552 0.340856 0.339498
0.365164 0.356741 0.356008
0.376455 0.372641 0.372335
0.389425 0.388586 0.388525
0.404639 0.404639 0.404639
0.421347 0.421347 0.421347
0.43798 0.43798 0.43798
0.445243 0.445243 0.445243
0.448524 0.448524 0.448524
0.0708171 0.138643 0.0885634
0.0862287 0.137072 0.0894026
0.100679 0.138033 0.0868696
0.115221 0.140887 0.0847334
0.137011 0.143786 0.0809949
0.166094 0.145388 0.0797436
0.194263 0.144366 0.0783093
0.217273 0.146731 0.082002
0.237629 0.151492 0.0891432
0.253956 0.154437 0.0972457
0.265385 0.159442 0.108995
0.274052 0.166857 0.123201
0.280949 0.176303 0.13904
0.28748 0.187625 0.156176
0.293065 0.199969 0.173724
0.297978 0.213214 0.191409
0.302663 0.227176 0.209171
0.307485 0.241611 0.227008
0.312673 0.256367 0.244755
0.318334 0.271351 0.262333
0.324575 0.286534 0.279713
0.331487 0.301839 0.29688
0.339162 0.317235 0.313817
0.347753 0.332708 0.330526
0.357336 0.348104 0.346853
0.368139 0.363531 0.362951
0.380392 0.379004 0.378836
0.394598 0.394583 0.394583
0.410559 0.410559 0.410559
0.427558 0.427558 0.427558
0.440284 0.440284 0.440284
0.44744 0.44744 0.44744
0.450355 0.450355 0.450355
0.0824445 0.166842 0.0992142
0.0997482 0.164797 0.100877
0.115251 0.164843 0.0982223
0.130327 0.166476 0.094667
0.147524 0.168856 0.0914473
0.172656 0.171313 0.0873426
0.203769 0.17203 0.0862593
0.228885 0.172244 0.0887007
0.249561 0.174838 0.095201
0.266743 0.180835 0.105165
0.280812 0.18613 0.116884
0.289219 0.190875 0.131518
0.294255 0.198108 0.148669
0.2981 0.207462 0.166857
0.301183 0.218235 0.185183
0.304189 0.23006 0.203433
0.307546 0.242664 0.221454
0.311482 0.255863 0.239185
0.316106 0.26952 0.256641
0.321462 0.283528 0.273823
0.327642 0.297826 0.290745
0.334676 0.312322 0.307378
0.342626 0.32697 0.323751
0.351614 0.341756 0.339864
0.361837 0.35668 0.355749
0.373495 0.371725 0.37142
0.386816 0.386694 0.386664
0.401953 0.401953 0.401953
0.418021 0.418021 0.418021
0.435431 0.435431 0.435431
0.443427 0.443427 0.443427
0.450416 0.450416 0.450416
0.452949 0.452949 0.452949
0.0922866 0.195254 0.107897
0.111391 0.193362 0.110094
0.128069 0.192905 0.107469
0.144228 0.19353 0.103136
0.159457 0.1953 0.0999008
0.180591 0.195697 0.0941482
0.208072 0.198459 0.0928817
0.23682 0.200656 0.0967117
0.259739 0.201831 0.103212
0.277592 0.204593 0.112932
0.2925 0.210178 0.125887
0.30547 0.21799 0.141009
0.311803 0.223529 0.158999
0.314397 0.230793 0.178943
0.315465 0.239658 0.198795
0.316411 0.249775 0.21796
0.317952 0.260853 0.236378
0.320409 0.272663 0.254108
0.323919 0.285069 0.27126
0.328511 0.297902 0.287907
0.334249 0.311131 0.304158
0.341085 0.324651 0.320058
0.349065 0.338415 0.335653
0.358297 0.352407 0.350973
0.368978 0.366613 0.366079
0.381369 0.381048 0.380987
0.39585 0.39585 0.39585
0.411063 0.411063 0.411063
0.427314 0.427314 0.427314
0.440894 0.440894 0.440894
0.447578 0.447578 0.447578
0.454337 0.454337 0.454337
0.456489 0.456489 0.456489
0.104921 0.222126 0.118761
0.125261 0.220706 0.121279
0.142626 0.219944 0.118685
0.159426 0.219715 0.113985
0.175082 0.219699 0.109026
0.191775 0.220356 0.105715
0.214252 0.221042 0.101747
0.241733 0.22565 0.106218
0.268711 0.229145 0.114794
0.289006 0.231296 0.125017
0.304311 0.234363 0.137774
0.316777 0.239872 0.15349
0.327932 0.24799 0.171099
0.335698 0.256397 0.19057
0.336019 0.263493 0.212192
0.335103 0.271962 0.233036
0.334508 0.281498 0.252537
0.334997 0.291875 0.270726
0.336828 0.302907 0.287831
0.340108 0.314488 0.304097
0.344869 0.326543 0.319692
0.351095 0.338964 0.334783
0.358785 0.35172 0.349477
0.368002 0.364797 0.363851
0.378912 0.378164 0.377951
0.391852 0.391852 0.391852
0.40621 0.40621 0.40621
0.421683 0.421683 0.421683
0.438849 0.438849 0.438849
0.446647 0.446647 0.446647
0.452964 0.452964 0.452964
0.459388 0.459388 0.459388
0.461143 0.461143 0.461143
0.119493 0.24744 0.131212
0.140856 0.246677 0.134096
0.158618 0.245731 0.131472
0.175296 0.244556 0.126268
0.191882 0.243595 0.120821
0.206317 0.2439 0.117739
0.223758 0.244007 0.115114
0.246479 0.246372 0.115755
0.274022 0.252766 0.125856
0.298863 0.257511 0.138674
0.317037 0.260594 0.152361
0.330083 0.264057 0.167971
0.340612 0.270008 0.18613
0.349752 0.278126 0.205295
0.357885 0.287617 0.224704
0.359289 0.295872 0.246448
0.356893 0.304067 0.268025
0.355184 0.31313 0.287633
0.35494 0.322896 0.305425
0.356435 0.333227 0.321752
0.359747 0.34406 0.336965
0.364904 0.355337 0.35137
0.371878 0.367025 0.365164
0.380728 0.37908 0.3785
0.391608 0.391501 0.39147
0.40444 0.40444 0.40444
0.418311 0.418311 0.418311
0.433555 0.433555 0.433555
0.448203 0.448203 0.448203
0.453925 0.453925 0.453925
0.459785 0.459785 0.459785
0.465782 0.465782 0.465782
0.467155 0.467155 0.467155
0.135531 0.271183 0.144976
0.157855 0.271305 0.148211
0.175036 0.269947 0.145205
0.192401 0.268391 0.140108
0.208179 0.267277 0.135195
0.222309 0.266697 0.131548
0.235691 0.267384 0.130571
0.254566 0.267201 0.129198
0.277668 0.271702 0.135409
0.304814 0.279789 0.150042
0.328099 0.285695 0.166583
0.344518 0.289708 0.183703
0.355764 0.294133 0.201968
0.364141 0.300298 0.221607
0.371359 0.308324 0.241489
0.378515 0.317937 0.261067
0.382757 0.327626 0.281483
0.380423 0.336004 0.303166
0.377997 0.344686 0.322728
0.37734 0.353918 0.340002
0.378775 0.363607 0.355428
0.382422 0.37377 0.369512
0.388251 0.384344 0.382589
0.396292 0.395346 0.394949
0.40676 0.40676 0.40676
0.418875 0.418875 0.418875
0.43209 0.43209 0.43209
0.446876 0.446876 0.446876
0.457816 0.457816 0.457816
0.462882 0.462882 0.462882
0.468193 0.468193 0.468193
0.473671 0.473671 0.473671
0.474678 0.474678 0.474678
0.156909 0.294316 0.163561
0.174334 0.294438 0.162768
0.192111 0.293111 0.159426
0.208804 0.291783 0.155261
0.224201 0.290547 0.150896
0.238224 0.289479 0.147219
0.250874 0.289204 0.145388
0.265126 0.289219 0.145098
0.283909 0.29015 0.147097
0.30779 0.297093 0.158755
0.334737 0.306722 0.177661
0.356756 0.313817 0.198016
0.371633 0.319249 0.21828
0.380804 0.324239 0.2383
0.387366 0.330541 0.258625
0.392905 0.338521 0.279011
0.398611 0.347951 0.298695
0.405219 0.358572 0.31751
0.405325 0.367742 0.338094
0.402487 0.37612 0.357534
0.401709 0.384909 0.374197
0.403388 0.39408 0.388678
0.407614 0.403632 0.401526
0.414405 0.413581 0.413169
0.423941 0.423941 0.423941
0.43508 0.43508 0.43508
0.447379 0.447379 0.447379
0.461311 0.461311 0.461311
0.469535 0.469535 0.469535
0.473793 0.473793 0.473793
0.47837 0.47837 0.47837
0.483238 0.483238 0.483238
0.483909 0.483909 0.483909
0.175616 0.316136 0.179706
0.192065 0.316487 0.177951
0.209247 0.315663 0.17496
0.225254 0.314611 0.171374
0.24033 0.313359 0.167376
0.254261 0.312001 0.16376
0.266606 0.310918 0.161364
0.277882 0.311208 0.161486
0.293126 0.310307 0.161837
0.312154 0.313085 0.168292
0.337255 0.322484 0.185321
0.364019 0.333608 0.208576
0.384802 0.342367 0.232517
0.397787 0.34876 0.254932
0.405325 0.354299 0.27599
0.410315 0.360769 0.296773
0.414618 0.368704 0.317128
0.419272 0.377951 0.336568
0.424949 0.388281 0.354971
0.43064 0.39913 0.372915
0.428229 0.407431 0.391867
0.427649 0.415839 0.407843
0.429786 0.424536 0.421286
0.434806 0.433524 0.432792
0.442832 0.442832 0.442832
0.452827 0.452827 0.452827
0.46389 0.46389 0.46389
0.476356 0.476356 0.476356
0.483528 0.483528 0.483528
0.486854 0.486854 0.486854
0.490593 0.490593 0.490593
0.494682 0.494682 0.494682
0.495033 0.495033 0.495033
0.188693 0.336492 0.198764
0.209964 0.337728 0.193668
0.226032 0.337575 0.191241
0.241566 0.336843 0.188006
0.256489 0.335683 0.184283
0.270115 0.334173 0.18085
0.282185 0.332586 0.178225
0.292851 0.331579 0.177188
0.304219 0.331533 0.178332
0.319951 0.331136 0.18146
0.339925 0.336217 0.193088
0.3664 0.347951 0.215228
0.392706 0.361044 0.242588
0.411719 0.370932 0.269017
0.423163 0.378225 0.292836
0.429389 0.38436 0.314672
0.433234 0.390951 0.335348
0.436698 0.398856 0.355306
0.440696 0.407889 0.374136
0.445792 0.417914 0.391836
0.452186 0.428733 0.40856
0.454932 0.438468 0.425498
0.454673 0.44651 0.44065
0.457374 0.454673 0.452903
0.463188 0.46302 0.462913
0.471702 0.471702 0.471702
0.4813 0.4813 0.4813
0.492149 0.492149 0.492149
0.499733 0.499733 0.499733
0.501991 0.501991 0.501991
0.504723 0.504723 0.504723
0.507836 0.507836 0.507836
0.507988 0.507988 0.507988
0.207309 0.356146 0.21622
0.222126 0.35877 0.213352
0.242664 0.35877 0.207919
0.257832 0.358434 0.20499
0.272343 0.357443 0.201633
0.285695 0.355901 0.198306
0.297597 0.354009 0.195621
0.308003 0.352255 0.194095
0.317601 0.35169 0.19469
0.32987 0.350576 0.196689
0.346136 0.351873 0.204105
0.367803 0.359731 0.221393
0.395102 0.374105 0.24831
0.420264 0.388449 0.278614
0.437736 0.399298 0.306645
0.447883 0.407385 0.331456
0.453178 0.414099 0.353567
0.456245 0.420829 0.373816
0.459174 0.428672 0.393042
0.462776 0.437507 0.411063
0.467567 0.447257 0.427924
0.473747 0.457816 0.443854
0.480476 0.468742 0.45922
0.482567 0.477348 0.473472
0.486244 0.485344 0.484733
0.493507 0.493507 0.493507
0.502464 0.502464 0.502464
0.512718 0.512718 0.512718
0.517998 0.517998 0.517998
0.519203 0.519203 0.519203
0.520928 0.520928 0.520928
0.522988 0.522988 0.522988
0.523079 0.523079 0.523079
0.225788 0.374655 0.233524
0.239414 0.378164 0.230182
0.254826 0.380118 0.227955
0.274037 0.379278 0.22208
0.28806 0.378546 0.219059
0.301076 0.377081 0.216007
0.312795 0.375051 0.213352
0.323095 0.372808 0.211597
0.332158 0.371084 0.211353
0.341527 0.370794 0.213443
0.354696 0.369299 0.217655
0.371893 0.372656 0.229999
0.395453 0.38381 0.25275
0.422965 0.400122 0.283406
0.446967 0.415717 0.315862
0.46305 0.427573 0.345159
0.472206 0.436439 0.370443
0.476921 0.443687 0.392462
0.479515 0.450599 0.412055
0.4822 0.458396 0.430335
0.48571 0.467109 0.447379
0.490501 0.476646 0.463264
0.496773 0.486961 0.478233
0.504555 0.497993 0.492561
0.51136 0.508354 0.50605
0.516381 0.516304 0.516243
0.524681 0.524681 0.524681
0.534356 0.534356 0.534356
0.538415 0.538415 0.538415
0.538582 0.538582 0.538582
0.539269 0.539269 0.539269
0.540352 0.540352 0.540352
0.540368 0.540368 0.540368
0.244465 0.392248 0.250614
0.256687 0.396582 0.247227
0.271275 0.399374 0.244953
0.286519 0.400565 0.242527
0.303731 0.398657 0.236469
0.316426 0.397314 0.233661
0.327962 0.395239 0.231144
0.338125 0.392737 0.229313
0.347021 0.390326 0.228687
0.3552 0.388952 0.229892
0.365255 0.387808 0.233127
0.379126 0.387701 0.241398
0.397589 0.393927 0.259007
0.422705 0.40824 0.286473
0.450034 0.426429 0.320089
0.472892 0.443198 0.354253
0.487877 0.45597 0.384192
0.496345 0.465537 0.409522
0.500755 0.473289 0.431098
0.503182 0.480354 0.449836
0.505882 0.488136 0.467048
0.50956 0.496727 0.482979
0.514656 0.506111 0.497765
0.521324 0.516228 0.511635
0.529625 0.527047 0.52491
0.539223 0.538399 0.537758
0.547662 0.547662 0.547662
0.556832 0.556832 0.556832
0.560723 0.560723 0.560723
0.559915 0.559915 0.559915
0.559625 0.559625 0.559625
0.559838 0.559838 0.559838
0.559777 0.559777 0.559777
0.263157 0.409079 0.26807
0.274113 0.414237 0.264561
0.287816 0.417868 0.26215
0.302327 0.419699 0.259846
0.319371 0.418158 0.254017
0.331762 0.416999 0.251423
0.343099 0.414954 0.249058
0.35314 0.412284 0.247272
0.361837 0.409384 0.246418
0.369604 0.407004 0.247028
0.377554 0.40647 0.249897
0.388418 0.404303 0.255146
0.403189 0.406699 0.268177
0.423072 0.415991 0.29073
0.449287 0.433051 0.321859
0.476463 0.453132 0.358114
0.498283 0.470954 0.393362
0.512413 0.484459 0.423362
0.52047 0.494652 0.448341
0.524788 0.502861 0.469306
0.527413 0.510155 0.487037
0.530343 0.517891 0.503044
0.534447 0.526421 0.517754
0.540108 0.535698 0.531334
0.547524 0.545678 0.544015
0.556771 0.55642 0.556115
0.56759 0.56759 0.56759
0.578805 0.578805 0.578805
0.584573 0.584573 0.584573
0.58294 0.58294 0.58294
0.581765 0.581765 0.581765
0.581262 0.581262 0.581262
0.58114 0.58114 0.58114
0.28188 0.425147 0.285863
0.291691 0.431113 0.2822
0.304433 0.435569 0.279606
0.318151 0.438087 0.277333
0.331868 0.438956 0.274922
0.347051 0.436072 0.269291
0.358129 0.434104 0.267033
0.368093 0.431373 0.265339
0.376745 0.428199 0.264454
0.384268 0.425132 0.264759
0.391272 0.423072 0.266712
0.399558 0.422049 0.270924
0.411078 0.421332 0.279988
0.426917 0.426307 0.297688
0.448417 0.43888 0.324498
0.475593 0.458579 0.358968
0.502434 0.480247 0.39707
0.523415 0.498909 0.432578
0.536904 0.513085 0.462318
0.544747 0.523766 0.48661
0.549218 0.532326 0.506615
0.552178 0.539849 0.523323
0.555611 0.547646 0.538094
0.560433 0.556207 0.551629
0.566979 0.565438 0.563897
0.575463 0.57528 0.575128
0.58587 0.58587 0.58587
0.597345 0.597345 0.597345
0.606485 0.606485 0.606485
0.607233 0.607233 0.607233
0.605371 0.605371 0.605371
0.604318 0.604318 0.604318
0.604135 0.604135 0.604135
0.30071 0.440436 0.303929
0.309438 0.447257 0.300084
0.321141 0.452491 0.297292
0.334066 0.45568 0.294987
0.347234 0.457099 0.292699
0.360052 0.456992 0.290318
0.373236 0.45272 0.285161
0.383108 0.450019 0.283589
0.391699 0.446677 0.282719
0.399069 0.443153 0.282872
0.405432 0.440253 0.284382
0.412177 0.439139 0.287892
0.420996 0.437522 0.294179
0.433371 0.438849 0.307393
0.450446 0.446708 0.329442
0.473869 0.46276 0.360128
0.501778 0.484825 0.397253
0.528252 0.507774 0.436377
0.54847 0.527184 0.471855
0.561532 0.541863 0.500908
0.569314 0.552911 0.524239
0.574136 0.561807 0.54316
0.577691 0.569558 0.558679
0.581811 0.577386 0.572091
0.587533 0.585916 0.584146
0.595285 0.595132 0.594995
0.605142 0.605142 0.605142
0.61619 0.61619 0.61619
0.62118 0.62118 0.62118
0.625345 0.625345 0.625345
0.629725 0.629725 0.629725
0.628641 0.628641 0.628641
0.628412 0.628412 0.628412
0.319661 0.454994 0.322271
0.327367 0.462699 0.318227
0.338003 0.46865 0.315221
0.350088 0.472526 0.312825
0.362692 0.474525 0.310582
0.375143 0.474861 0.308354
0.386938 0.473716 0.306203
0.398138 0.468132 0.30193
0.406683 0.464729 0.301137
0.413794 0.461082 0.301289
0.419989 0.457633 0.302617
0.425681 0.455131 0.305348
0.432502 0.455116 0.310307
0.441978 0.453193 0.319722
0.455604 0.457267 0.337118
0.474281 0.468345 0.363516
0.499596 0.487694 0.397314
0.527993 0.511788 0.436423
0.554131 0.535866 0.476036
0.573693 0.555764 0.510887
0.586404 0.570764 0.538888
0.594308 0.582116 0.561059
0.599664 0.591333 0.57879
0.604028 0.599329 0.593072
0.609064 0.607248 0.605051
0.616037 0.615839 0.615625
0.625254 0.625254 0.625254
0.63505 0.63505 0.63505
0.637461 0.637461 0.637461
0.640574 0.640574 0.640574
0.64445 0.64445 0.64445
0.647517 0.647517 0.647517
0.647608 0.647608 0.647608
0.338766 0.468849 0.340871
0.345464 0.477455 0.336583
0.355032 0.484077 0.333379
0.366262 0.488594 0.330831
0.378256 0.491188 0.328603
0.390295 0.492012 0.326467
0.401862 0.491234 0.324483
0.412482 0.489067 0.322805
0.4215 0.48246 0.319753
0.428656 0.478721 0.319982
0.434577 0.474891 0.321141
0.43975 0.471626 0.323522
0.445228 0.470008 0.327535
0.45243 0.46894 0.33431
0.462867 0.469657 0.347463
0.478126 0.47686 0.369192
0.498695 0.491371 0.39939
0.52575 0.513771 0.435813
0.554498 0.539574 0.476143
0.58024 0.564508 0.51574
0.59913 0.584604 0.549447
0.611597 0.599741 0.576089
0.619821 0.611368 0.596963
0.625895 0.620905 0.613443
0.631312 0.629206 0.626413
0.637598 0.637293 0.636927
0.646113 0.646113 0.646113
0.653574 0.653574 0.653574
0.655116 0.655116 0.655116
0.657282 0.657282 0.657282
0.660304 0.660304 0.660304
0.662547 0.662547 0.662547
0.662593 0.662593 0.662593
0.358068 0.48246 0.359716
0.363714 0.491585 0.355184
0.372213 0.498787 0.351736
0.382559 0.503929 0.34905
0.393912 0.507103 0.346761
0.405524 0.508431 0.344686
0.416815 0.50808 0.342809
0.427237 0.50631 0.341344
0.436469 0.503441 0.340551
0.443305 0.495933 0.33875
0.449119 0.491936 0.339879
0.454017 0.488212 0.342046
0.45861 0.485466 0.345449
0.464302 0.485039 0.35079
0.47216 0.483726 0.360388
0.484062 0.487312 0.377554
0.50106 0.497734 0.403143
0.524056 0.515984 0.436591
0.552499 0.540993 0.475074
0.581415 0.5682 0.516167
0.606561 0.593515 0.555032
0.624781 0.61355 0.587182
0.637217 0.628809 0.612345
0.645975 0.640711 0.631876
0.652995 0.650584 0.647028
0.659739 0.659266 0.65864
0.667689 0.667689 0.667689
0.673091 0.673091 0.673091
0.673899 0.673899 0.673899
0.675273 0.675273 0.675273
0.67744 0.67744 0.67744
0.67895 0.67895 0.67895
0.678981 0.678981 0.678981
0.37734 0.495735 0.378622
0.382101 0.50515 0.373999
0.389578 0.512856 0.370321
0.399023 0.518593 0.367453
0.409674 0.522332 0.365072
0.420813 0.524178 0.363012
0.431815 0.524254 0.361196
0.442069 0.523003 0.360037
0.451164 0.520424 0.35938
0.458808 0.516762 0.359304
0.463691 0.50869 0.358755
0.468391 0.504662 0.3608
0.472526 0.501274 0.363928
0.477028 0.499458 0.36846
0.483101 0.499092 0.375265
0.492134 0.499626 0.388586
0.505974 0.506493 0.409796
0.525185 0.520531 0.439185
0.550439 0.542199 0.475013
0.579843 0.569268 0.514977
0.608774 0.597528 0.556176
0.632837 0.622507 0.593362
0.650736 0.642573 0.623941
0.663401 0.657984 0.647608
0.672908 0.670207 0.665721
0.681132 0.680461 0.679484
0.689647 0.689647 0.689647
0.693339 0.693339 0.693339
0.693568 0.693568 0.693568
0.69427 0.69427 0.69427
0.695583 0.695583 0.695583
0.696498 0.696498 0.696498
0.696498 0.696498 0.696498
0.396826 0.508629 0.397757
0.400656 0.518242 0.392996
0.407111 0.52636 0.38912
0.415671 0.532616 0.386053
0.425574 0.536904 0.383551
0.436179 0.539239 0.38143
0.446769 0.539864 0.379767
0.456886 0.539086 0.37879
0.465827 0.536858 0.378256
0.473396 0.533455 0.378271
0.478248 0.525124 0.377737
0.482811 0.520943 0.379721
0.486686 0.517159 0.382681
0.490394 0.514412 0.386542
0.495277 0.513924 0.392264
0.502037 0.513466 0.401938
0.512886 0.517098 0.419028
0.529046 0.527611 0.444129
0.550607 0.545266 0.477028
0.577951 0.570016 0.514458
0.607935 0.598657 0.555261
0.636103 0.626963 0.595346
0.659419 0.651713 0.630823
0.677134 0.671702 0.659678
0.690242 0.687297 0.681773
0.700786 0.699886 0.698405
0.710689 0.710674 0.710674
0.71397 0.71397 0.71397
0.713924 0.713924 0.713924
0.713985 0.713985 0.713985
0.714534 0.714534 0.714534
0.714992 0.714992 0.714992
0.714977 0.714977 0.714977
0.416419 0.521309 0.41706
0.419196 0.531029 0.411994
0.424826 0.539376 0.408087
0.432471 0.546075 0.404837
0.441611 0.550851 0.402167
0.451621 0.553689 0.399954
0.461875 0.554925 0.398489
0.471687 0.554589 0.39762
0.480461 0.552743 0.397208
0.487938 0.549645 0.397299
0.494041 0.545617 0.398047
0.497261 0.536995 0.398749
0.500938 0.533013 0.401434
0.504311 0.529747 0.405234
0.508125 0.528023 0.410285
0.513542 0.528328 0.417395
0.521737 0.529397 0.430716
0.534813 0.536492 0.451698
0.553567 0.550851 0.480537
0.57763 0.572137 0.516136
0.606363 0.599115 0.554528
0.635981 0.628229 0.594812
0.663478 0.656474 0.633524
0.68632 0.681025 0.667231
0.704112 0.700999 0.694316
0.717968 0.716838 0.714778
0.729946 0.7299 0.729839
0.733928 0.733928 0.733928
0.734447 0.734447 0.734447
0.734051 0.734051 0.734051
0.733959 0.733959 0.733959
0.734081 0.734081 0.734081
0.734066 0.734066 0.734066
0.436118 0.533989 0.4365
0.43798 0.543496 0.431266
0.442588 0.552056 0.427085
0.449439 0.559045 0.423789
0.457786 0.564263 0.42092
0.46714 0.567529 0.41854
0.477028 0.569406 0.417304
0.486503 0.569528 0.416526
0.495079 0.568109 0.416205
0.50248 0.565347 0.416403
0.508537 0.561593 0.417166
0.513359 0.557183 0.418677
0.515297 0.54873 0.420432
0.518471 0.54519 0.424125
0.521675 0.542702 0.428794
0.52607 0.542412 0.435004
0.532372 0.543206 0.444572
0.542657 0.547295 0.461692
0.558419 0.558267 0.486427
0.579751 0.576318 0.518486
0.60592 0.600626 0.555718
0.634775 0.628534 0.594018
