RED_IPP2_Creative/RED_LUSH.cube
# RED Digital Cinema Output Transform LUT for IPP2
# Creatives by Eric Weidt
# BMD cube from Truelight v4.0
# Settings used in creation of this LUT are:
# Development Color Space = USER SELECTABLE
# Output Gamma Curve = USER SELECTABLE
# Output Tonemap = USER SELECTABLE
# Highlight Rolloff = USER SELECTABLE
LUT_3D_SIZE 33
0.000000 0.006214 0.030731
0.003098 0.008102 0.031174
0.034851 0.013962 0.032288
0.069824 0.019821 0.032043
0.097412 0.026886 0.033783
0.131714 0.027328 0.030487
0.170410 0.025070 0.026489
0.212036 0.019852 0.020645
0.255615 0.010422 0.011101
0.300049 0.000000 0.000000
0.342529 0.000000 0.000000
0.376709 0.000000 0.000000
0.410889 0.000000 0.000000
0.445557 0.000000 0.000000
0.479980 0.000000 0.000000
0.514160 0.000000 0.000000
0.547852 0.000000 0.000000
0.582520 0.000000 0.000000
0.617188 0.000000 0.000000
0.651855 0.000000 0.000000
0.686035 0.000000 0.000000
0.720215 0.000000 0.000000
0.754883 0.000000 0.000000
0.789551 0.000000 0.000000
0.823730 0.000000 0.000000
0.858398 0.000000 0.000000
0.893555 0.000000 0.000000
0.928223 0.000000 0.000000
0.962891 0.000000 0.000000
0.995605 0.000000 0.000000
1.000000 0.000000 0.000000
1.000000 0.000000 0.000000
1.000000 0.000000 0.000000
0.000000 0.034668 0.035553
0.004856 0.035553 0.034546
0.036957 0.038208 0.035950
0.070312 0.042267 0.035187
0.097351 0.047638 0.036591
0.129395 0.049500 0.032684
0.166748 0.049316 0.028168
0.206909 0.046967 0.021973
0.248657 0.041168 0.012131
0.291504 0.031235 0.000000
0.333008 0.018799 0.000000
0.367432 0.016769 0.000000
0.401855 0.014778 0.000000
0.436279 0.012772 0.000000
0.470703 0.010834 0.000000
0.504883 0.008850 0.000000
0.539551 0.006916 0.000000
0.573730 0.004936 0.000000
0.608398 0.002964 0.000000
0.643066 0.001117 0.000000
0.677246 0.000000 0.000000
0.711914 0.000000 0.000000
0.746094 0.000000 0.000000
0.780762 0.000000 0.000000
0.814941 0.000000 0.000000
0.849609 0.000000 0.000000
0.884277 0.000000 0.000000
0.919434 0.000000 0.000000
0.954102 0.000000 0.000000
0.988281 0.000000 0.000000
1.000000 0.000000 0.000000
1.000000 0.000000 0.000000
1.000000 0.000000 0.000000
0.000000 0.065063 0.038696
0.011223 0.064209 0.037750
0.042511 0.065125 0.036987
0.073181 0.066895 0.039795
0.097534 0.070496 0.043091
0.127441 0.073486 0.039154
0.162354 0.075317 0.033569
0.200928 0.075317 0.026398
0.241577 0.073120 0.015991
0.283203 0.066833 0.000722
0.323242 0.057678 0.000000
0.357910 0.055786 0.000000
0.392334 0.053894 0.000000
0.426758 0.052002 0.000000
0.461426 0.050110 0.000000
0.495850 0.048187 0.000000
0.530273 0.046326 0.000000
0.564941 0.044464 0.000000
0.598633 0.042725 0.000000
0.633301 0.040833 0.000000
0.667969 0.039093 0.000000
0.702637 0.037231 0.000000
0.737305 0.035553 0.000000
0.771973 0.033844 0.000000
0.806641 0.032196 0.000000
0.841309 0.030502 0.000000
0.876465 0.028915 0.000000
0.911133 0.027435 0.000000
0.946289 0.025955 0.000000
0.980957 0.024445 0.000000
1.000000 0.022797 0.000000
1.000000 0.021164 0.000000
1.000000 0.019394 0.000000
0.000000 0.097229 0.044037
0.020798 0.095825 0.042633
0.048645 0.094971 0.043030
0.077881 0.095581 0.044525
0.101196 0.097168 0.048889
0.128418 0.100830 0.045807
0.158813 0.104248 0.043030
0.194946 0.106689 0.036163
0.233765 0.106506 0.024323
0.274658 0.102905 0.007458
0.313721 0.096558 0.000000
0.348389 0.094788 0.000000
0.383057 0.093079 0.000000
0.417480 0.091248 0.000000
0.452148 0.089478 0.000000
0.486816 0.087708 0.000000
0.520996 0.085876 0.000000
0.555176 0.084290 0.000000
0.589844 0.082458 0.000000
0.624512 0.080933 0.000000
0.659668 0.079285 0.000000
0.694336 0.077759 0.000000
0.729492 0.076111 0.000000
0.765137 0.074585 0.000000
0.799805 0.072998 0.000000
0.834961 0.071655 0.000000
0.869141 0.070190 0.000000
0.903809 0.068787 0.000000
0.939453 0.067444 0.000000
0.974121 0.065979 0.000000
1.000000 0.064453 0.000000
1.000000 0.062500 0.000000
1.000000 0.060944 0.000000
0.013046 0.131470 0.053528
0.034088 0.130127 0.052368
0.057861 0.128296 0.053162
0.083984 0.128540 0.054596
0.105408 0.129639 0.057587
0.131592 0.131958 0.052795
0.162720 0.135132 0.047455
0.195923 0.137695 0.041931
0.229126 0.139282 0.035187
0.265625 0.138916 0.020828
0.304443 0.135010 0.001199
0.339600 0.133423 0.000000
0.373535 0.132080 0.000000
0.408447 0.130493 0.000000
0.443359 0.128906 0.000000
0.478271 0.127563 0.000000
0.512695 0.125854 0.000000
0.546875 0.124451 0.000000
0.582031 0.122986 0.000000
0.616699 0.121460 0.000000
0.651855 0.119934 0.000000
0.687012 0.118713 0.000000
0.721680 0.117249 0.000000
0.756836 0.115967 0.000000
0.791992 0.114563 0.000000
0.826172 0.113159 0.000000
0.861328 0.111938 0.000000
0.896484 0.110413 0.000000
0.931641 0.109314 0.000000
0.966797 0.107971 0.000000
1.000000 0.106506 0.000000
1.000000 0.104675 0.000000
1.000000 0.102783 0.000000
0.026138 0.169556 0.053467
0.045593 0.167358 0.053131
0.067871 0.165039 0.054260
0.092285 0.164185 0.057434
0.113098 0.164917 0.059357
0.138184 0.166992 0.052124
0.168091 0.168701 0.045776
0.201294 0.170410 0.038696
0.234497 0.171875 0.030838
0.267578 0.172485 0.021805
0.298828 0.171875 0.013443
0.330322 0.172241 0.012741
0.365234 0.171021 0.006168
0.400146 0.170044 0.000916
0.435303 0.168579 0.000000
0.469971 0.167603 0.000000
0.504883 0.166260 0.000000
0.539551 0.164795 0.000000
0.574707 0.163574 0.000000
0.609375 0.162598 0.000000
0.644531 0.161133 0.000000
0.679688 0.159912 0.000000
0.714355 0.158447 0.000000
0.750000 0.157471 0.000000
0.785156 0.156128 0.000000
0.820312 0.154785 0.000000
0.854492 0.153687 0.000000
0.890625 0.152100 0.000000
0.925781 0.151001 0.000000
0.960938 0.149902 0.000000
0.995605 0.148682 0.000000
1.000000 0.146973 0.000000
1.000000 0.145142 0.000000
0.032196 0.208496 0.049835
0.052612 0.205688 0.049866
0.075317 0.203247 0.051758
0.099670 0.200928 0.056519
0.120972 0.200806 0.059143
0.145264 0.202637 0.051117
0.173706 0.204834 0.042358
0.205444 0.205688 0.035004
0.239136 0.206909 0.027252
0.272217 0.207520 0.018295
0.303955 0.207520 0.010979
0.332764 0.208252 0.014557
0.361328 0.208740 0.018661
0.393066 0.209229 0.018127
0.426758 0.208740 0.012947
0.462402 0.207642 0.007591
0.496826 0.206909 0.003256
0.532227 0.205688 0.000000
0.567383 0.204712 0.000000
0.602539 0.203491 0.000000
0.637695 0.202515 0.000000
0.672852 0.201294 0.000000
0.707520 0.200073 0.000000
0.743164 0.198975 0.000000
0.778809 0.197876 0.000000
0.813965 0.196777 0.000000
0.849121 0.195557 0.000000
0.883789 0.194092 0.000000
0.919434 0.193237 0.000000
0.954102 0.191895 0.000000
0.989258 0.190796 0.000000
1.000000 0.189331 0.000000
1.000000 0.187378 0.000000
0.030289 0.248169 0.041046
0.053680 0.244995 0.041443
0.078430 0.242676 0.043823
0.103394 0.239746 0.048615
0.128540 0.237427 0.055786
0.152588 0.238892 0.047729
0.179932 0.240967 0.039185
0.209839 0.243774 0.030518
0.242432 0.244141 0.023575
0.275146 0.244629 0.015991
0.307617 0.244995 0.010071
0.337646 0.244995 0.013344
0.367432 0.245239 0.017059
0.396484 0.245850 0.020889
0.425049 0.246704 0.025009
0.456299 0.247437 0.024612
0.489990 0.247192 0.020645
0.524414 0.246460 0.014984
0.560059 0.245483 0.010071
0.595215 0.244995 0.005707
0.630371 0.243774 0.002054
0.665527 0.242676 0.000180
0.701660 0.241699 0.000000
0.736328 0.240723 0.000000
0.771484 0.239624 0.000000
0.808105 0.238525 0.000000
0.842285 0.237549 0.000000
0.877441 0.236328 0.000000
0.912598 0.235107 0.000000
0.948242 0.234131 0.000000
0.982910 0.233032 0.000000
1.000000 0.231567 0.000000
1.000000 0.229736 0.000000
0.018539 0.288330 0.024155
0.046326 0.285400 0.025177
0.074463 0.282227 0.028137
0.103027 0.279297 0.032990
0.132080 0.275635 0.042145
0.158691 0.275635 0.040375
0.186157 0.277832 0.033325
0.215332 0.280029 0.026230
0.245728 0.282715 0.019043
0.278076 0.282471 0.013840
0.310547 0.282959 0.010445
0.341797 0.282471 0.013168
0.372070 0.282715 0.016495
0.402100 0.282959 0.019943
0.431641 0.283447 0.023773
0.460449 0.283936 0.027771
0.488525 0.285156 0.032288
0.520020 0.285889 0.031616
0.553223 0.286377 0.029343
0.588379 0.285400 0.023026
0.624023 0.284424 0.017975
0.659180 0.283936 0.013443
0.694824 0.282471 0.009438
0.729980 0.281738 0.005615
0.764648 0.281006 0.004410
0.799805 0.279541 0.002987
0.835449 0.279053 0.002272
0.871094 0.277832 0.001679
0.906250 0.276855 0.001094
0.941895 0.275879 0.000448
0.976074 0.274902 0.000000
1.000000 0.273438 0.000000
1.000000 0.271729 0.000000
0.000000 0.328369 0.000000
0.028198 0.325195 0.000000
0.062164 0.322266 0.002054
0.095703 0.319092 0.007698
0.129150 0.315186 0.016922
0.161987 0.312256 0.025955
0.190430 0.314209 0.022491
0.220093 0.316895 0.019043
0.250244 0.319336 0.015343
0.280518 0.321777 0.011757
0.312500 0.321533 0.011101
0.344238 0.321533 0.013977
0.375732 0.320801 0.016571
0.406494 0.320557 0.019775
0.436523 0.321289 0.023560
0.466309 0.321289 0.027237
0.496094 0.322021 0.030991
0.524414 0.322754 0.035004
0.553223 0.323486 0.039398
0.584473 0.324463 0.038940
0.617676 0.325195 0.038116
0.651855 0.324707 0.031647
0.687500 0.323730 0.025986
0.722656 0.322754 0.021149
0.758301 0.322266 0.016769
0.793457 0.321533 0.013016
0.828125 0.320312 0.009056
0.863770 0.319580 0.008301
0.899414 0.318359 0.007233
0.934570 0.317139 0.006168
0.969727 0.315918 0.005505
1.000000 0.315186 0.004841
1.000000 0.313477 0.002884
0.000000 0.368408 0.000000
0.006912 0.364746 0.000000
0.045746 0.362061 0.000000
0.084106 0.359131 0.000000
0.122314 0.355225 0.000000
0.159790 0.351562 0.003092
0.193359 0.351318 0.012024
0.223755 0.353760 0.011894
0.253906 0.355957 0.011902
0.284668 0.358398 0.012199
0.315186 0.360840 0.012474
0.346924 0.360352 0.015030
0.378906 0.359619 0.017792
0.409912 0.359619 0.020645
0.440674 0.359375 0.023773
0.471436 0.359619 0.027313
0.501465 0.360107 0.030945
0.530762 0.360352 0.034790
0.560547 0.361084 0.038513
0.588867 0.361572 0.042847
0.617676 0.362793 0.047119
0.648926 0.363770 0.046753
0.680664 0.364746 0.046570
0.715332 0.364258 0.040558
0.751953 0.363037 0.034515
0.786621 0.362061 0.029160
0.821777 0.361572 0.024643
0.857422 0.360596 0.020340
0.893066 0.359375 0.016403
0.927734 0.358398 0.012947
0.962891 0.357666 0.011902
0.997559 0.356201 0.010704
1.000000 0.354736 0.009438
0.000000 0.407471 0.000000
0.006092 0.403809 0.000000
0.045013 0.401367 0.000000
0.083374 0.398438 0.000000
0.121765 0.395508 0.000000
0.159424 0.391357 0.000089
0.196289 0.388184 0.013062
0.227417 0.389893 0.015533
0.257812 0.392090 0.015884
0.288330 0.395020 0.016037
0.318604 0.397217 0.016113
0.349365 0.399902 0.016251
0.381592 0.399170 0.019043
0.413330 0.398193 0.021652
0.444580 0.398438 0.024689
0.475342 0.398438 0.027695
0.505859 0.397949 0.030991
0.536133 0.398438 0.034760
0.566406 0.399170 0.038513
0.595703 0.399414 0.042145
0.624512 0.399902 0.046082
0.653809 0.400635 0.050354
0.682129 0.401855 0.054565
0.713379 0.402588 0.054077
0.745117 0.403320 0.053772
0.778809 0.402832 0.049042
0.814453 0.401855 0.042664
0.850098 0.401367 0.036987
0.885742 0.400391 0.032074
0.920898 0.399414 0.027695
0.956055 0.398438 0.023224
0.991211 0.397461 0.019424
1.000000 0.395996 0.016037
0.000000 0.447021 0.000000
0.005478 0.443359 0.000000
0.044128 0.440674 0.000000
0.082886 0.437744 0.000000
0.121216 0.434570 0.000000
0.159058 0.431152 0.000178
0.196899 0.427002 0.009171
0.231079 0.426270 0.019424
0.261475 0.428467 0.019745
0.291992 0.431152 0.019745
0.322510 0.433594 0.019943
0.353027 0.436035 0.020187
0.383301 0.438232 0.020340
0.415527 0.437744 0.023010
0.447266 0.437256 0.025696
0.478760 0.436768 0.028519
0.509766 0.437012 0.031616
0.540039 0.436768 0.034790
0.570801 0.436768 0.037933
0.601074 0.437012 0.041504
0.630371 0.437256 0.045258
0.660156 0.438232 0.049530
0.688477 0.438965 0.053131
0.717773 0.439209 0.057190
0.746094 0.440186 0.061646
0.777344 0.440918 0.060974
0.808594 0.441406 0.060242
0.841797 0.441162 0.056580
0.876953 0.440430 0.050385
0.912598 0.439941 0.044769
0.947754 0.438477 0.039368
0.981934 0.437500 0.034332
1.000000 0.436768 0.029831
0.000000 0.486084 0.000000
0.004719 0.482666 0.000000
0.043732 0.479980 0.000000
0.082458 0.477295 0.000000
0.120850 0.474365 0.000000
0.159180 0.470947 0.000361
0.197021 0.466797 0.005955
0.233398 0.463867 0.019104
0.265137 0.465088 0.023560
0.295654 0.467529 0.023804
0.326416 0.469971 0.024139
0.356934 0.472412 0.024139
0.387451 0.474609 0.024033
0.417725 0.477295 0.024445
0.449707 0.476562 0.026978
0.481445 0.475586 0.029434
0.512695 0.475342 0.032288
0.543457 0.475342 0.035187
0.574219 0.475098 0.038330
0.604980 0.475098 0.041718
0.635254 0.475098 0.044922
0.665039 0.475342 0.048340
0.694336 0.475342 0.052155
0.723633 0.476074 0.055939
0.752930 0.477051 0.059937
0.781250 0.477295 0.063660
0.809082 0.478516 0.067871
0.840820 0.478516 0.067200
0.872070 0.479248 0.066467
0.904785 0.479248 0.064270
0.939453 0.478027 0.057159
0.974609 0.477295 0.051178
1.000000 0.476318 0.045776
0.000000 0.525391 0.000000
0.005463 0.521973 0.000000
0.042969 0.519043 0.000000
0.081726 0.516602 0.000000
0.120300 0.513184 0.000000
0.158691 0.510254 0.000729
0.196411 0.506836 0.005840
0.233887 0.502441 0.015198
0.268799 0.500977 0.027252
0.299316 0.503418 0.027496
0.329590 0.505859 0.027573
0.360352 0.508301 0.027832
0.390869 0.510742 0.027740
0.421143 0.512695 0.027832
0.451416 0.515625 0.027969
0.483154 0.514648 0.030289
0.515137 0.514160 0.033112
0.546387 0.513672 0.035736
0.576660 0.513184 0.038910
0.608398 0.512695 0.041443
0.638672 0.512695 0.044769
0.669434 0.512207 0.047913
0.698730 0.512695 0.051147
0.728516 0.512695 0.054657
0.758301 0.512695 0.058136
0.787109 0.513672 0.061798
0.815430 0.513672 0.065430
0.844238 0.514648 0.069519
0.872559 0.515137 0.073425
0.903809 0.516113 0.072754
0.934082 0.516113 0.071960
0.965820 0.516113 0.070557
1.000000 0.514648 0.063477
0.000000 0.564941 0.000000
0.006771 0.561523 0.000000
0.042572 0.558594 0.000000
0.081116 0.556152 0.000000
0.119812 0.552734 0.000000
0.158203 0.549316 0.000822
0.196045 0.545898 0.005367
0.233643 0.541992 0.011238
0.270264 0.539062 0.025223
0.302979 0.539062 0.031174
0.333252 0.541504 0.030991
0.363525 0.544434 0.031403
0.394287 0.546387 0.031204
0.424316 0.548828 0.031403
0.455078 0.550781 0.031433
0.484863 0.553223 0.031281
0.516113 0.552246 0.033752
0.547852 0.551270 0.036194
0.579102 0.550781 0.038696
0.609863 0.550781 0.041260
0.641113 0.549805 0.044037
0.671875 0.549805 0.047272
0.702148 0.549316 0.050140
0.731934 0.549316 0.053528
0.762207 0.549316 0.056610
0.791504 0.549805 0.060059
0.820312 0.549316 0.063232
0.849609 0.550293 0.067017
0.877441 0.550293 0.070557
0.906250 0.550781 0.074341
0.934570 0.551270 0.078186
0.964844 0.551270 0.077026
0.995605 0.551758 0.076294
0.000000 0.604492 0.000000
0.007835 0.600586 0.000000
0.041962 0.597656 0.000000
0.080444 0.595215 0.000000
0.119080 0.591797 0.000000
0.157471 0.588867 0.001486
0.195557 0.585449 0.005482
0.233398 0.582031 0.010704
0.270508 0.577148 0.020767
0.306396 0.575195 0.034760
0.336426 0.577148 0.034668
0.366699 0.579590 0.034515
0.397217 0.582031 0.034576
0.427490 0.583984 0.034576
0.457520 0.586914 0.034332
0.488037 0.588379 0.034546
0.517578 0.591309 0.034149
0.549805 0.589844 0.036591
0.581543 0.588867 0.038910
0.612305 0.587891 0.041046
0.643066 0.587402 0.043823
0.673828 0.586914 0.046326
0.705078 0.586914 0.049286
0.734863 0.586426 0.052032
0.765137 0.585938 0.055023
0.795410 0.585938 0.058075
0.824219 0.585938 0.061340
0.853516 0.584961 0.064514
0.882324 0.585938 0.068115
0.911133 0.585938 0.071533
0.939453 0.586426 0.074951
0.967285 0.586426 0.078735
0.994629 0.587402 0.082458
0.000000 0.643555 0.000000
0.008842 0.639648 0.000000
0.041138 0.636719 0.000000
0.079712 0.633789 0.000000
0.118164 0.630371 0.000000
0.156372 0.627930 0.001957
0.194458 0.624023 0.005146
0.232422 0.620117 0.009941
0.269775 0.616699 0.015884
0.306396 0.613770 0.030243
0.339355 0.612793 0.037750
0.369629 0.614746 0.037567
0.400146 0.618164 0.037567
0.430420 0.620117 0.037567
0.460205 0.621582 0.036987
0.489990 0.623535 0.036621
0.520020 0.625488 0.036438
0.550293 0.627930 0.036377
0.581543 0.626953 0.038696
0.614258 0.625977 0.040833
0.644531 0.625488 0.043365
0.675293 0.624023 0.045532
0.706543 0.623535 0.048096
0.736328 0.623535 0.050659
0.767090 0.622070 0.053131
0.797363 0.622070 0.056244
0.827637 0.621582 0.059326
0.855957 0.621094 0.062195
0.885742 0.621582 0.065186
0.915039 0.620117 0.068115
0.943359 0.620605 0.071472
0.971680 0.620605 0.074951
1.000000 0.621582 0.078552
0.000000 0.682617 0.000000
0.009102 0.678223 0.000000
0.039917 0.675293 0.000000
0.078308 0.672852 0.000000
0.117249 0.669922 0.000000
0.155396 0.666504 0.001875
0.193481 0.663574 0.005394
0.231445 0.660156 0.009560
0.269043 0.655273 0.014885
0.305908 0.651367 0.025162
0.342041 0.648438 0.039978
0.372559 0.650879 0.040558
0.402344 0.652344 0.040375
0.432861 0.654785 0.040161
0.462402 0.656738 0.039368
0.492920 0.658691 0.039368
0.522461 0.660645 0.038513
0.551758 0.662109 0.038330
0.582031 0.665039 0.038116
0.613770 0.663086 0.039978
0.644531 0.662109 0.042145
0.676270 0.661133 0.044556
0.706543 0.660645 0.046936
0.738281 0.659668 0.049042
0.768555 0.658691 0.051514
0.799316 0.658203 0.054230
0.829102 0.656738 0.056580
0.859375 0.656738 0.059753
0.888184 0.656738 0.062561
0.917969 0.656250 0.065308
0.946289 0.655762 0.068481
0.975586 0.655762 0.071655
1.000000 0.655762 0.074951
0.000000 0.720703 0.000000
0.009750 0.717285 0.000000
0.038330 0.713867 0.000000
0.077087 0.711426 0.000000
0.115417 0.708008 0.000000
0.153809 0.705078 0.001666
0.191895 0.701660 0.004261
0.229980 0.698242 0.008675
0.267578 0.693848 0.013481
0.304932 0.689941 0.019104
0.341064 0.686523 0.033569
0.375000 0.685547 0.043030
0.404785 0.687988 0.042511
0.434814 0.689941 0.042358
0.464355 0.691406 0.041443
0.494141 0.692871 0.040894
0.524414 0.695312 0.040802
0.553711 0.696777 0.040375
0.583984 0.698730 0.039764
0.613770 0.700684 0.039215
0.644531 0.699219 0.041046
0.676270 0.697754 0.043030
0.707520 0.696289 0.045288
0.738281 0.696289 0.047516
0.769531 0.694824 0.049835
0.799316 0.694336 0.051910
0.829590 0.693359 0.054596
0.860352 0.692871 0.057251
0.889648 0.691895 0.059845
0.918945 0.691895 0.062622
0.948242 0.691406 0.065491
0.977539 0.690430 0.068054
1.000000 0.690430 0.071472
0.000000 0.759277 0.000000
0.009544 0.755371 0.000000
0.036835 0.752441 0.000000
0.075378 0.749512 0.000000
0.113586 0.746094 0.000000
0.151978 0.743164 0.001104
0.189819 0.739746 0.003302
0.228027 0.736328 0.007339
0.265625 0.731934 0.011627
0.302734 0.728516 0.016724
0.340332 0.723145 0.028381
0.375244 0.720703 0.041779
0.406250 0.721680 0.044281
0.436279 0.724121 0.043823
0.466309 0.726074 0.043365
0.496094 0.727539 0.042816
0.524902 0.729004 0.042328
0.555176 0.730469 0.041504
0.584961 0.732422 0.041077
0.614746 0.734375 0.040558
0.644531 0.736328 0.039978
0.675781 0.734863 0.041504
0.707520 0.733398 0.043701
0.738770 0.731934 0.045776
0.769531 0.730957 0.047821
0.799805 0.729980 0.049927
0.830566 0.729004 0.052246
0.860352 0.728516 0.054596
0.890625 0.727539 0.057190
0.920898 0.726562 0.059753
0.950684 0.726074 0.062378
0.979980 0.725098 0.064880
1.000000 0.725586 0.067871
0.000000 0.797363 0.000000
0.009354 0.793945 0.000000
0.034790 0.790527 0.000000
0.073181 0.787598 0.000000
0.111328 0.784180 0.000000
0.149658 0.780762 0.000000
0.187988 0.777344 0.003155
0.225464 0.773438 0.005596
0.262939 0.769531 0.009819
0.301025 0.766113 0.014984
0.338135 0.762207 0.020889
0.374023 0.757812 0.035370
0.408203 0.756348 0.046082
0.437744 0.758301 0.045349
0.467529 0.759766 0.044586
0.497559 0.761230 0.044250
0.526855 0.763184 0.043610
0.556641 0.764648 0.042816
0.585449 0.766602 0.042145
0.615723 0.768555 0.041504
0.645508 0.770020 0.041046
0.674805 0.770996 0.039978
0.707031 0.770020 0.041962
0.737793 0.768066 0.043701
0.769043 0.767090 0.045776
0.799805 0.766113 0.048035
0.830078 0.765137 0.049927
0.860840 0.763672 0.052063
0.891602 0.763184 0.054840
0.921387 0.762207 0.056824
0.951172 0.761719 0.059509
0.981445 0.760742 0.061981
1.000000 0.760254 0.064392
0.000000 0.834473 0.000000
0.008583 0.831055 0.000000
0.032074 0.827637 0.000000
0.070557 0.824707 0.000000
0.109009 0.821289 0.000000
0.147095 0.818848 0.000000
0.185181 0.814941 0.001473
0.223022 0.811523 0.004044
0.260986 0.808105 0.008072
0.297607 0.803223 0.012039
0.335205 0.798828 0.017319
0.372070 0.794434 0.028915
0.407715 0.791504 0.042603
0.439209 0.791992 0.046875
0.468994 0.793945 0.045807
0.498535 0.795410 0.045288
0.527832 0.796387 0.044556
0.557129 0.798340 0.044067
0.586914 0.800293 0.043335
0.616211 0.801758 0.042358
0.646484 0.802734 0.041931
0.675781 0.804199 0.040833
0.705566 0.806641 0.040161
0.736328 0.804199 0.041931
0.768066 0.803223 0.043701
0.798828 0.801758 0.045349
0.830078 0.799805 0.047455
0.859863 0.799805 0.049591
0.891113 0.798340 0.051514
0.921875 0.797363 0.053772
0.951172 0.796387 0.055969
0.980957 0.794922 0.058380
1.000000 0.794434 0.060974
0.000000 0.872070 0.000000
0.007496 0.868652 0.000000
0.029755 0.865234 0.000000
0.067993 0.862305 0.000000
0.106323 0.858887 0.000000
0.144165 0.855469 0.000000
0.182007 0.851562 0.000000
0.219849 0.848145 0.002350
0.257812 0.844727 0.005955
0.295166 0.840820 0.009926
0.332275 0.836426 0.014397
0.369873 0.831543 0.021347
0.405762 0.828125 0.035553
0.439941 0.825684 0.047577
0.469727 0.827148 0.047119
0.499268 0.828125 0.046295
0.527832 0.830078 0.045441
0.557617 0.832031 0.044769
0.587891 0.833496 0.044037
0.617188 0.834473 0.043091
0.646973 0.835938 0.042358
0.675781 0.837402 0.041260
0.705566 0.838867 0.040558
0.735352 0.840820 0.039764
0.766602 0.838867 0.041443
0.798340 0.837891 0.043304
0.829102 0.835938 0.044830
0.859375 0.834961 0.047119
0.890137 0.833984 0.049042
0.920898 0.832520 0.051086
0.950684 0.831543 0.052979
0.980957 0.830566 0.055176
1.000000 0.829590 0.057587
0.000000 0.908691 0.000000
0.006207 0.905273 0.000000
0.026520 0.901855 0.000000
0.064758 0.898926 0.000000
0.103149 0.895508 0.000000
0.140869 0.892578 0.000000
0.178955 0.888672 0.000000
0.216919 0.885254 0.000358
0.254395 0.881348 0.003567
0.292236 0.876953 0.007233
0.329102 0.872559 0.011360
0.366455 0.868652 0.016861
0.403564 0.863770 0.028900
0.438477 0.860840 0.042145
0.470459 0.860352 0.047729
0.499756 0.861816 0.047119
0.529297 0.863281 0.046295
0.559082 0.865234 0.045441
0.587891 0.866699 0.044403
0.617676 0.868164 0.043610
0.647461 0.869141 0.043030
0.677246 0.870605 0.041931
0.706055 0.872070 0.040894
0.735840 0.873535 0.040161
0.764648 0.874023 0.038910
0.796387 0.873535 0.040802
0.827148 0.871582 0.042328
0.857910 0.870605 0.044281
0.889648 0.868652 0.046295
0.919434 0.867676 0.048035
0.950195 0.866211 0.049866
0.980469 0.865234 0.052032
1.000000 0.864746 0.054077
0.000000 0.945801 0.000000
0.004536 0.942383 0.000000
0.023300 0.938965 0.000000
0.061279 0.935547 0.000000
0.099609 0.932129 0.000000
0.137695 0.928711 0.000000
0.175537 0.924805 0.000000
0.213501 0.921387 0.000000
0.250977 0.917969 0.001094
0.288574 0.913574 0.004154
0.325928 0.909668 0.008438
0.363281 0.905273 0.013168
0.400146 0.900879 0.020447
0.436279 0.896973 0.034576
0.471191 0.894043 0.048553
0.500000 0.895020 0.047577
0.529785 0.895996 0.046753
0.558594 0.897949 0.045624
0.589355 0.899902 0.045044
0.617676 0.900879 0.043884
0.647461 0.901855 0.043030
0.676758 0.903320 0.042145
0.706055 0.904785 0.041046
0.735840 0.906250 0.039978
0.764648 0.906738 0.038910
0.794922 0.908691 0.038330
0.825684 0.907715 0.039581
0.856934 0.905273 0.041260
0.887695 0.904297 0.043304
0.918457 0.902344 0.044739
0.948242 0.901367 0.046631
0.979980 0.900391 0.048615
1.000000 0.898926 0.050720
0.000000 0.981934 0.000000
0.002882 0.978027 0.000000
0.019852 0.975098 0.000000
0.057739 0.972168 0.000000
0.096191 0.968750 0.000000
0.134155 0.965332 0.000000
0.171875 0.961914 0.000000
0.209961 0.958008 0.000000
0.247681 0.954590 0.000000
0.285156 0.950684 0.001666
0.322510 0.945801 0.005505
0.359375 0.941895 0.009926
0.396973 0.936523 0.015053
0.433594 0.932617 0.027435
0.468262 0.929199 0.040375
0.500977 0.928223 0.048035
0.529785 0.929199 0.046936
0.559082 0.930664 0.046082
