RED_IPP2_Creative/RED_FLASH.cube
# RED Digital Cinema Output Transform LUT for IPP2
# Creatives by Eric Weidt
# BMD cube from Truelight v4.0
# Settings used in creation of this LUT are:
# Development Color Space = USER SELECTABLE
# Output Gamma Curve = USER SELECTABLE
# Output Tonemap = USER SELECTABLE
# Highlight Rolloff = USER SELECTABLE
LUT_3D_SIZE 9
0.072144 0.069275 0.070068
0.164673 0.060883 0.059967
0.222656 0.084778 0.081055
0.302979 0.129150 0.117737
0.415039 0.182617 0.149414
0.537598 0.251953 0.188721
0.672852 0.340820 0.246826
0.817871 0.447266 0.332031
0.909668 0.519043 0.393555
0.061951 0.144531 0.062042
0.145874 0.145264 0.055878
0.239624 0.155640 0.083679
0.328369 0.199707 0.142212
0.451904 0.261719 0.190918
0.589844 0.337891 0.250244
0.736328 0.427979 0.324219
0.889648 0.531738 0.410400
0.910645 0.550781 0.429932
0.159668 0.262207 0.149536
0.231812 0.285156 0.169189
0.321533 0.314209 0.196045
0.424072 0.353271 0.246094
0.541992 0.406982 0.301514
0.677734 0.473633 0.361816
0.821777 0.548828 0.425293
0.915039 0.603516 0.471924
0.915039 0.607910 0.477051
0.310791 0.448242 0.281982
0.375732 0.475098 0.314453
0.454102 0.503418 0.349854
0.542480 0.533691 0.386719
0.640137 0.566406 0.423340
0.749512 0.604492 0.459717
0.867676 0.648438 0.496094
0.922852 0.670898 0.514648
0.922852 0.671875 0.515625
0.470703 0.645508 0.430176
0.514160 0.660645 0.448975
0.565430 0.669922 0.465088
0.626953 0.678223 0.481934
0.699219 0.688965 0.501465
0.783691 0.703613 0.521973
0.880371 0.726074 0.543457
0.934570 0.739746 0.554688
0.934082 0.737793 0.552734
0.588379 0.796875 0.534180
0.609863 0.796875 0.537598
0.640137 0.795410 0.541016
0.681641 0.792480 0.546387
0.737305 0.790527 0.556152
0.805664 0.793457 0.570801
0.885742 0.802246 0.587402
0.950684 0.812012 0.598145
0.949707 0.808594 0.595215
0.679688 0.913086 0.613281
0.688477 0.907227 0.609863
0.705078 0.901367 0.607910
0.732910 0.895020 0.607422
0.773926 0.888672 0.610840
0.828613 0.884277 0.619141
0.896973 0.884277 0.632812
0.972168 0.889160 0.646973
0.970703 0.883301 0.642090
0.731445 0.977051 0.658203
0.741211 0.977539 0.658691
0.755859 0.977539 0.660156
0.778809 0.978027 0.662598
0.812500 0.979004 0.667480
0.855469 0.974609 0.672363
0.910645 0.967773 0.678711
0.979004 0.965332 0.691406
0.995117 0.960449 0.690918
0.730469 0.977051 0.656250
0.739258 0.977051 0.656250
0.752441 0.977539 0.657227
0.773438 0.978027 0.659180
0.803711 0.978516 0.663574
0.845703 0.979980 0.670898
0.900391 0.982910 0.682617
0.966309 0.987793 0.699219
1.000000 0.992188 0.709961
0.070679 0.068604 0.161011
0.150024 0.064758 0.147583
0.216309 0.088440 0.144043
0.299805 0.131714 0.167603
0.409668 0.186523 0.203125
0.533203 0.258545 0.249146
0.671875 0.350342 0.311279
0.820801 0.457031 0.387451
0.907227 0.523438 0.438232
0.045502 0.147461 0.146973
0.145874 0.145874 0.145874
0.254150 0.155029 0.152832
0.343262 0.202393 0.195190
0.452637 0.272461 0.255615
0.590820 0.349365 0.316895
0.740234 0.439941 0.385986
0.895508 0.542969 0.463623
0.908203 0.556152 0.478760
0.149780 0.273193 0.202026
0.219849 0.298828 0.216919
0.326172 0.324951 0.234497
0.441650 0.358887 0.284912
0.545898 0.418945 0.362549
0.681641 0.485107 0.420410
0.824219 0.558594 0.479248
0.912109 0.608887 0.519043
0.912109 0.612305 0.523926
0.320801 0.456787 0.343018
0.384277 0.483887 0.373535
0.459717 0.512207 0.404785
0.545410 0.540039 0.436035
0.641113 0.572266 0.472656
0.747070 0.608887 0.505859
0.864746 0.651367 0.539062
0.919434 0.673828 0.555664
0.919434 0.673828 0.556152
0.478027 0.650391 0.479736
0.518555 0.663086 0.495605
0.566895 0.671387 0.508789
0.626465 0.679199 0.523438
0.696777 0.688477 0.540039
0.779297 0.704102 0.559082
0.875000 0.726562 0.577637
0.931152 0.740234 0.587402
0.931152 0.737793 0.585449
0.589844 0.796387 0.569336
0.609863 0.795898 0.571777
0.639160 0.793457 0.574219
0.680664 0.790527 0.578613
0.735352 0.789062 0.586914
0.802246 0.791992 0.599609
0.882324 0.800781 0.614258
0.948242 0.811035 0.623535
0.947266 0.807617 0.620605
0.679199 0.911621 0.637207
0.687012 0.905273 0.633301
0.703125 0.898926 0.630371
0.730469 0.892090 0.629883
0.770996 0.885742 0.632324
0.825195 0.881348 0.639648
0.893066 0.880859 0.651367
0.970215 0.886719 0.664551
0.968262 0.881348 0.660156
0.731445 0.977051 0.677246
0.740723 0.977051 0.676758
0.755371 0.977539 0.677246
0.778320 0.978027 0.679199
0.811523 0.979004 0.683105
0.852051 0.971191 0.685059
0.906738 0.964355 0.690918
0.974121 0.960938 0.702148
0.993164 0.956543 0.701660
0.730469 0.977051 0.673340
0.738770 0.977051 0.672852
0.751953 0.977539 0.672852
0.772461 0.978027 0.674316
0.802734 0.978516 0.677734
0.843750 0.979980 0.684082
0.897461 0.982422 0.694336
0.962402 0.987305 0.709473
1.000000 0.992188 0.720215
0.096558 0.075195 0.195679
0.144775 0.078796 0.193481
0.210815 0.100525 0.204712
0.300293 0.137573 0.230347
0.406738 0.192139 0.265625
0.530762 0.266846 0.314209
0.672852 0.361572 0.377441
0.823730 0.468506 0.449463
0.904297 0.528809 0.492676
0.075745 0.145874 0.229980
0.150879 0.148926 0.235962
0.249146 0.167114 0.246460
0.346924 0.214111 0.271729
0.457275 0.284424 0.322021
0.593262 0.361328 0.382812
0.743164 0.452881 0.451416
0.900879 0.555664 0.525391
0.904785 0.562988 0.537109
0.127808 0.286865 0.285889
0.208008 0.311279 0.310547
0.335205 0.334229 0.334473
0.462891 0.364258 0.362305
0.557129 0.428711 0.423096
0.683594 0.496582 0.482666
0.825684 0.568359 0.539062
0.908203 0.614746 0.574707
0.908203 0.618164 0.579590
0.330811 0.467285 0.406006
0.385742 0.495361 0.431641
0.454102 0.523926 0.452148
0.550781 0.549316 0.468994
0.648438 0.576172 0.514648
0.743652 0.613281 0.557617
0.862305 0.656250 0.590820
0.915527 0.677246 0.605957
0.915527 0.677246 0.605469
0.487305 0.654785 0.536133
0.525391 0.666016 0.549805
0.569336 0.672363 0.560059
0.625977 0.679688 0.572266
0.693848 0.689453 0.586914
0.773926 0.704102 0.603516
0.869141 0.727051 0.621582
0.927246 0.741699 0.630859
0.926758 0.738770 0.627930
0.593750 0.795898 0.615723
0.612793 0.794922 0.617188
0.639160 0.791016 0.617188
0.679688 0.788574 0.620605
0.731934 0.786621 0.627441
0.797852 0.789551 0.638184
0.875977 0.799316 0.650879
0.944336 0.810547 0.659180
0.943359 0.806152 0.654785
0.678223 0.908691 0.671387
0.686035 0.902832 0.666992
0.701660 0.895508 0.663574
0.728516 0.889160 0.662598
0.768066 0.882812 0.664062
0.821777 0.878418 0.669922
0.888672 0.878906 0.680664
0.967285 0.884277 0.692383
0.965332 0.878906 0.687012
0.731934 0.977051 0.705078
0.740723 0.977051 0.703613
0.755371 0.977539 0.703613
0.777344 0.978027 0.704102
0.809082 0.976074 0.706055
0.848633 0.967773 0.706055
0.902344 0.960449 0.710938
0.969727 0.957520 0.721191
0.990723 0.953125 0.720703
0.730469 0.977051 0.699707
0.738770 0.977051 0.698242
0.751953 0.977539 0.697266
0.771484 0.977539 0.697266
0.801270 0.978516 0.699707
0.841797 0.979980 0.704102
0.895020 0.982422 0.713379
0.958496 0.987305 0.726562
1.000000 0.992188 0.736328
0.127808 0.087708 0.273438
0.165039 0.092468 0.270996
0.226440 0.111145 0.280762
0.309570 0.146362 0.301758
0.411133 0.200195 0.334229
0.534180 0.277100 0.383789
0.675293 0.373779 0.446777
0.826660 0.480957 0.517090
0.900879 0.535645 0.555176
0.131470 0.152954 0.274414
0.177246 0.162476 0.282715
0.250488 0.189697 0.306641
0.349121 0.235840 0.344238
0.467041 0.297852 0.394043
0.600586 0.375000 0.453369
0.748535 0.466797 0.520996
0.901367 0.566406 0.591797
0.901367 0.571289 0.602539
0.177124 0.293945 0.372559
0.247314 0.317383 0.401611
0.346924 0.345215 0.430908
0.460693 0.383789 0.458496
0.563477 0.443359 0.494873
0.688965 0.508789 0.549316
0.827148 0.579102 0.604980
0.904297 0.622070 0.638184
0.904297 0.625000 0.642090
0.323242 0.482910 0.481689
0.370117 0.511230 0.510254
0.440674 0.537109 0.537598
0.557617 0.556152 0.556641
0.664551 0.576660 0.574707
0.742188 0.619141 0.614258
0.857422 0.661133 0.647949
0.911133 0.681641 0.662109
0.911133 0.681152 0.661621
0.502930 0.659668 0.598145
0.535156 0.668457 0.608398
0.574707 0.675293 0.616211
0.622070 0.683105 0.620117
0.693848 0.691895 0.621582
0.770996 0.704590 0.649414
0.862305 0.729004 0.672363
0.921875 0.743164 0.681152
0.921875 0.741211 0.679199
0.601562 0.795898 0.670410
0.618164 0.793457 0.670410
0.643066 0.789551 0.669434
0.680176 0.786133 0.670898
0.729980 0.784668 0.675293
0.792480 0.788086 0.684082
0.869629 0.798828 0.696289
0.939453 0.810547 0.704102
0.938477 0.807129 0.700195
0.680664 0.906738 0.717285
0.687988 0.899902 0.712891
0.702148 0.892578 0.708496
0.728027 0.886230 0.706055
0.766602 0.879395 0.706055
0.818848 0.875488 0.710938
0.883301 0.875488 0.719727
0.959961 0.882324 0.729492
0.961426 0.876953 0.724121
0.733398 0.976562 0.744141
0.742188 0.977051 0.741699
0.755859 0.977051 0.740234
0.777832 0.977539 0.740234
0.805664 0.972168 0.738281
0.845215 0.963379 0.737793
0.898438 0.957031 0.742188
0.963867 0.954590 0.750488
0.987793 0.949707 0.749512
0.731934 0.977051 0.736816
0.739746 0.977051 0.733887
0.751953 0.977051 0.731934
0.771484 0.977539 0.730957
0.800293 0.978516 0.730957
0.840332 0.979492 0.734375
0.891602 0.981934 0.740723
0.955078 0.986816 0.751953
1.000000 0.992676 0.760742
0.171875 0.109070 0.375732
0.203247 0.112488 0.370850
0.255859 0.128784 0.375488
0.330078 0.160767 0.389404
0.424805 0.212524 0.415771
0.543945 0.289795 0.461670
0.682617 0.387207 0.521973
0.831055 0.494385 0.590332
0.897949 0.544434 0.625000
0.175293 0.169189 0.364990
0.215210 0.181152 0.373779
0.281738 0.209961 0.397461
0.374268 0.254883 0.433594
0.484863 0.313965 0.478027
0.613770 0.390381 0.533203
0.758789 0.482422 0.599121
0.898926 0.575684 0.665039
0.898926 0.580566 0.674805
0.255127 0.307861 0.435059
0.307617 0.333252 0.459717
0.378174 0.365479 0.490479
0.469482 0.408691 0.529297
0.577637 0.460205 0.573730
0.699219 0.520996 0.623535
0.831055 0.589355 0.676270
0.902832 0.629883 0.706543
0.902832 0.631836 0.709473
0.375977 0.493896 0.559570
0.424805 0.520020 0.587891
0.485840 0.543457 0.615723
0.565918 0.564453 0.639160
0.655273 0.589844 0.653809
0.745117 0.625977 0.676758
0.855957 0.666992 0.709473
0.908203 0.687012 0.724609
0.908203 0.686035 0.723633
0.520996 0.665527 0.663086
0.542969 0.673828 0.672852
0.565430 0.682617 0.681641
0.603027 0.690918 0.691406
0.694336 0.693848 0.694336
0.782715 0.701660 0.699707
0.856934 0.731445 0.727051
0.917480 0.746582 0.737305
0.917480 0.744141 0.735352
0.616211 0.794922 0.730469
0.629883 0.791992 0.729004
0.651367 0.788086 0.726562
0.684570 0.785156 0.726074
0.728516 0.785156 0.726562
0.791016 0.788086 0.724609
0.863281 0.799316 0.745605
0.933594 0.812012 0.755371
0.933105 0.808105 0.750977
0.688477 0.904297 0.773438
0.694824 0.897461 0.767578
0.708008 0.890137 0.762695
0.731445 0.883301 0.759277
0.767090 0.876465 0.757812
0.816406 0.872559 0.760742
0.877441 0.873047 0.767090
0.953125 0.880859 0.775879
0.956055 0.876465 0.770996
0.738281 0.976562 0.794922
0.746094 0.976562 0.791016
0.759277 0.977051 0.789062
0.779785 0.977539 0.787109
0.805176 0.968750 0.783203
0.843262 0.959961 0.781250
0.894531 0.953125 0.783691
0.958008 0.950195 0.790039
0.983887 0.947266 0.789062
0.735840 0.976562 0.784668
0.743164 0.976562 0.781250
0.754883 0.977051 0.777832
0.773438 0.977539 0.775391
0.800781 0.978027 0.774414
0.839355 0.979492 0.774902
0.889648 0.981934 0.779785
0.950684 0.986816 0.787598
1.000000 0.992676 0.794922
0.235107 0.141724 0.493652
0.258057 0.143555 0.486572
0.300049 0.156616 0.486328
0.362793 0.183838 0.493896
0.449951 0.232178 0.514648
0.563477 0.306885 0.554199
0.695312 0.401611 0.607910
0.838867 0.508301 0.669922
0.897461 0.553223 0.701660
0.234131 0.194946 0.477295
0.269775 0.208984 0.487549
0.329102 0.237915 0.510254
0.411621 0.279785 0.541016
0.513672 0.334717 0.579102
0.634766 0.407227 0.626953
0.773438 0.497803 0.686035
0.900391 0.584961 0.743164
0.901367 0.589355 0.754395
0.310303 0.331543 0.542480
0.357178 0.357178 0.566895
0.420166 0.388916 0.595215
0.503906 0.429688 0.630859
0.604004 0.477783 0.669434
0.718262 0.534180 0.711914
0.841797 0.600098 0.756836
0.905762 0.636719 0.782715
0.905762 0.638672 0.785156
0.432861 0.510742 0.645508
0.476074 0.535156 0.668945
0.528320 0.557617 0.690430
0.590820 0.579102 0.708984
0.666016 0.603027 0.729492
0.755371 0.632812 0.751465
0.859863 0.672363 0.781250
0.910156 0.691895 0.793945
0.910156 0.691406 0.792969
0.552246 0.674316 0.736328
0.574707 0.680664 0.742676
0.602539 0.685547 0.747559
0.641602 0.691406 0.756348
0.699219 0.697754 0.764648
0.771484 0.711426 0.770508
0.856934 0.734863 0.787109
0.916992 0.750488 0.799805
0.916504 0.748047 0.796387
0.638672 0.796387 0.794434
0.648438 0.792480 0.790039
0.665039 0.788574 0.787109
0.683594 0.788086 0.787109
0.708496 0.790527 0.791016
0.790039 0.789551 0.790039
0.870605 0.795898 0.793945
0.929688 0.814453 0.811035
0.929199 0.811035 0.806641
0.704590 0.901367 0.833984
0.708984 0.894531 0.828125
0.720215 0.887695 0.822754
0.740234 0.880371 0.817871
0.771973 0.874512 0.814453
0.814941 0.870605 0.812988
0.874023 0.872559 0.812988
0.944824 0.880371 0.827148
0.950684 0.876465 0.822266
0.750000 0.976074 0.854492
0.756348 0.976074 0.850098
0.767578 0.976562 0.846191
0.785156 0.974121 0.842773
0.807617 0.964355 0.836914
0.843262 0.956055 0.833984
0.891602 0.949219 0.834473
0.951660 0.947266 0.838867
0.979004 0.944336 0.837402
0.746094 0.976074 0.843262
0.751953 0.976074 0.838379
0.762207 0.976562 0.833496
0.778809 0.977051 0.830078
0.804199 0.977539 0.827148
0.840820 0.979004 0.826660
0.888672 0.981445 0.828125
0.946777 0.986328 0.833984
1.000000 0.993164 0.838867
0.312988 0.187866 0.619141
0.328125 0.187988 0.610840
0.359131 0.197266 0.607910
0.410156 0.219360 0.611816
0.488037 0.262695 0.629395
0.592773 0.331299 0.662598
0.716797 0.420166 0.707031
0.852539 0.522949 0.760742
0.902832 0.562988 0.789062
0.309326 0.232422 0.603027
0.340576 0.248047 0.615234
0.391846 0.275635 0.636719
0.463379 0.313721 0.665039
0.554199 0.363281 0.696289
0.666016 0.430420 0.736816
0.796387 0.516113 0.787109
0.908691 0.595215 0.834473
0.910156 0.599609 0.845703
0.380371 0.362549 0.666016
0.422363 0.388672 0.691406
0.478516 0.419434 0.720215
0.551758 0.457031 0.751953
0.641602 0.500000 0.783691
0.745117 0.550781 0.817383
0.858398 0.611328 0.851074
0.915527 0.644531 0.869629
0.916504 0.646484 0.873535
0.489258 0.534668 0.761230
0.526855 0.557129 0.784180
0.571289 0.577148 0.801758
0.625977 0.595703 0.816895
0.692871 0.615234 0.829590
0.775391 0.641602 0.845703
0.872559 0.678223 0.866211
0.919434 0.697266 0.875488
0.919434 0.696289 0.874023
0.587891 0.686523 0.829590
0.606934 0.692383 0.833496
0.632324 0.696289 0.836426
0.668457 0.700195 0.838867
0.717285 0.705566 0.840332
0.783203 0.717773 0.848633
0.865234 0.738281 0.861816
0.923828 0.754395 0.872559
0.922852 0.751953 0.868652
0.664551 0.800781 0.865234
0.671387 0.796875 0.860352
0.685547 0.793457 0.856934
0.708496 0.790039 0.852539
0.743164 0.789551 0.852539
0.794434 0.792480 0.855957
0.861816 0.803223 0.860840
0.932129 0.817871 0.872070
0.930664 0.813477 0.867676
0.729004 0.899902 0.897461
0.731445 0.893555 0.891602
0.739258 0.886719 0.884277
0.754883 0.879883 0.878418
0.777832 0.875000 0.874023
0.798828 0.874512 0.875000
0.874023 0.872559 0.873047
0.948242 0.878906 0.876953
0.950684 0.876465 0.874512
0.771484 0.975586 0.918945
0.775879 0.976074 0.914062
0.785645 0.976074 0.910645
0.797363 0.970215 0.903809
0.816895 0.961426 0.896973
0.848145 0.952637 0.891113
0.891113 0.946289 0.889160
0.946777 0.944824 0.887695
0.975098 0.942383 0.888184
0.765625 0.975586 0.906738
0.769531 0.976074 0.901367
0.777832 0.976074 0.896484
0.791504 0.976562 0.891113
0.813477 0.977539 0.886719
0.846191 0.978516 0.884277
0.890625 0.981445 0.884766
0.944336 0.986816 0.887695
0.998535 0.994141 0.891113
0.403320 0.249023 0.746582
0.412109 0.247803 0.739258
0.433350 0.253662 0.735352
0.472900 0.270996 0.738281
0.540527 0.309082 0.755859
0.633301 0.368408 0.783691
0.745117 0.446289 0.819336
0.873535 0.542480 0.864258
0.915039 0.576660 0.889648
0.399170 0.284424 0.734863
0.427490 0.301514 0.750488
0.470459 0.327637 0.771973
0.528809 0.360596 0.795898
0.606934 0.404785 0.824219
0.707520 0.465088 0.860352
0.822754 0.539062 0.890137
0.919434 0.606445 0.911133
0.919434 0.608887 0.911133
0.467041 0.404541 0.800293
0.502930 0.429443 0.824219
0.551758 0.460205 0.853027
0.604004 0.488281 0.861328
0.674805 0.521484 0.870117
0.766113 0.564941 0.883789
0.870605 0.619629 0.903320
0.922363 0.649902 0.915039
0.922852 0.650879 0.915039
0.546387 0.558594 0.862305
0.569336 0.575684 0.865234
0.602539 0.591309 0.868652
0.647949 0.605469 0.873535
0.709473 0.623047 0.880859
0.787109 0.646973 0.892578
0.879883 0.681152 0.910156
0.926758 0.700195 0.920410
0.926758 0.698730 0.919922
0.608887 0.694824 0.880371
0.625000 0.698730 0.881836
0.647949 0.701660 0.883301
0.682129 0.705078 0.886230
0.729980 0.709961 0.891602
0.793457 0.720703 0.900391
0.873535 0.740234 0.914551
0.932617 0.756348 0.927246
0.932129 0.754395 0.927246
0.676758 0.803711 0.905273
0.684082 0.800293 0.904297
0.697266 0.796875 0.903809
0.720215 0.793945 0.904785
0.754883 0.792969 0.906738
0.805176 0.796387 0.912598
0.870117 0.805664 0.922852
0.941406 0.820312 0.937988
0.940918 0.815918 0.937500
0.745605 0.900879 0.940918
0.747559 0.894043 0.937988
0.754883 0.888184 0.936035
0.769043 0.882324 0.934082
0.792480 0.876953 0.933105
0.828613 0.874512 0.934570
0.876953 0.874512 0.936523
0.942383 0.883301 0.941406
0.952148 0.880371 0.937012
0.796387 0.977051 0.974609
0.802246 0.977051 0.975098
0.811035 0.977539 0.975586
0.817383 0.968750 0.966309
0.831543 0.958984 0.957520
0.856934 0.951660 0.950684
0.878906 0.948730 0.949219
0.946289 0.945312 0.945312
0.988770 0.937988 0.937500
0.794434 0.977051 0.972656
0.796875 0.977051 0.966797
0.802246 0.977051 0.960449
0.812988 0.977051 0.954590
0.831055 0.978027 0.949219
0.858398 0.979492 0.945312
0.896484 0.982422 0.942871
0.944336 0.987793 0.942871
0.997559 0.996094 0.943359
0.477051 0.304199 0.842285
0.488037 0.307129 0.842773
0.506348 0.313721 0.844238
0.537109 0.327881 0.847168
0.588379 0.354980 0.852539
0.664551 0.399902 0.861816
0.764648 0.465820 0.877441
0.885254 0.554199 0.901367
0.917969 0.580566 0.908691
0.482422 0.339355 0.844238
0.496338 0.349121 0.845703
0.520996 0.364502 0.847656
0.562012 0.386475 0.852051
0.625488 0.420898 0.859375
0.716309 0.472900 0.871582
0.828125 0.543945 0.891113
0.919434 0.606934 0.911133
0.919922 0.609863 0.911133
0.503418 0.426025 0.850098
0.522949 0.442627 0.852539
0.556152 0.465332 0.856445
0.606934 0.492432 0.861816
0.677734 0.524902 0.870605
0.768555 0.567871 0.884277
0.872070 0.621582 0.903809
0.922852 0.650391 0.915039
0.922852 0.651367 0.915039
0.547852 0.562988 0.862793
0.571289 0.579102 0.865723
0.603516 0.593262 0.869141
0.648926 0.606445 0.873535
0.710449 0.624023 0.880859
0.788086 0.647461 0.892578
0.880371 0.681641 0.910156
0.926758 0.699707 0.920410
0.926758 0.698242 0.919922
0.609863 0.695801 0.880371
0.625000 0.699219 0.881836
0.647949 0.702148 0.883301
0.681152 0.703613 0.886230
0.729492 0.709961 0.891113
0.793457 0.720215 0.900391
0.873047 0.739258 0.914551
0.932617 0.755859 0.927246
0.932129 0.752930 0.926758
0.676270 0.803223 0.904785
0.683594 0.799805 0.904297
0.696777 0.796387 0.903809
0.719238 0.792969 0.904297
0.753906 0.791992 0.906738
0.803223 0.794922 0.912109
0.869141 0.804199 0.922363
0.941406 0.818848 0.937988
0.940430 0.813965 0.937012
0.744629 0.899902 0.940430
0.746582 0.893066 0.937500
0.753418 0.886230 0.935059
0.767090 0.879883 0.933105
0.790527 0.875000 0.932129
0.826172 0.872070 0.933594
0.875977 0.873535 0.938965
0.941406 0.881836 0.950684
0.954102 0.878906 0.952148
0.796387 0.977051 0.974609
0.801758 0.977051 0.975098
0.809570 0.975098 0.974609
0.817871 0.966309 0.970703
0.833496 0.958008 0.967773
0.858398 0.950195 0.965820
0.884766 0.947266 0.973145
0.942383 0.942871 0.982910
0.979492 0.940430 0.979004
0.795410 0.977051 0.974609
0.800293 0.977051 0.975098
0.808105 0.977539 0.975098
0.820801 0.978027 0.976074
0.839355 0.979004 0.977539
0.866211 0.980957 0.979492
0.900391 0.984375 0.983398
0.929199 0.993652 0.993652
1.000000 0.999512 1.000000
