RED_IPP2_Creative/RED_BW_0500.cube
# RED Digital Cinema Output Transform LUT for IPP2
# Creatives by Eric Weidt
# BMD cube from Truelight v4.0
# Settings used in creation of this LUT are:
# Development Color Space = USER SELECTABLE
# Output Gamma Curve = USER SELECTABLE
# Output Tonemap = USER SELECTABLE
# Highlight Rolloff = USER SELECTABLE
LUT_3D_SIZE 9
0.000082 0.000086 0.000098
0.039703 0.039703 0.039734
0.116760 0.116760 0.116760
0.222900 0.222900 0.222900
0.341797 0.341797 0.341797
0.465088 0.465088 0.465088
0.589355 0.589355 0.589355
0.714355 0.714355 0.714355
0.839355 0.839355 0.839355
0.075806 0.075806 0.075806
0.096008 0.096008 0.096008
0.146362 0.146362 0.146362
0.233887 0.233887 0.233887
0.345215 0.345215 0.345215
0.466064 0.466064 0.466064
0.589844 0.589844 0.589844
0.714355 0.714355 0.714355
0.839355 0.839355 0.839355
0.181152 0.181152 0.181152
0.188477 0.188477 0.188477
0.211182 0.211182 0.211182
0.265625 0.265625 0.265381
0.356445 0.356445 0.356445
0.469482 0.469482 0.469482
0.590820 0.590820 0.590820
0.714844 0.714844 0.714844
0.839355 0.839355 0.839355
0.299805 0.299805 0.299805
0.302002 0.302002 0.302002
0.309814 0.309814 0.309814
0.333252 0.333252 0.333252
0.388916 0.388916 0.388916
0.480713 0.480713 0.480713
0.594238 0.594238 0.594238
0.715820 0.715820 0.715820
0.839844 0.839844 0.839844
0.423096 0.423096 0.423096
0.423828 0.423828 0.423584
0.426025 0.426025 0.426025
0.433594 0.433594 0.433594
0.457275 0.457275 0.457275
0.513184 0.513184 0.513184
0.605469 0.605469 0.605469
0.719238 0.719238 0.719238
0.840820 0.840820 0.840820
0.547363 0.547363 0.547363
0.547852 0.547852 0.547852
0.548340 0.548340 0.548340
0.550293 0.550293 0.550293
0.558105 0.558105 0.558105
0.582031 0.582031 0.582031
0.638184 0.638184 0.638184
0.730469 0.730469 0.730469
0.844238 0.844238 0.844238
0.672363 0.672363 0.672363
0.672363 0.672363 0.672363
0.672363 0.672363 0.672363
0.673340 0.673340 0.673340
0.675293 0.675293 0.675293
0.683105 0.683105 0.683105
0.707031 0.707031 0.707031
0.763184 0.763184 0.763184
0.855469 0.855469 0.855469
0.797363 0.797363 0.797363
0.797363 0.797363 0.797363
0.797363 0.797363 0.797363
0.797363 0.797363 0.797363
0.798340 0.798340 0.798340
0.800293 0.800293 0.800293
0.808105 0.808105 0.808105
0.832031 0.832031 0.832031
0.888184 0.888184 0.888184
0.922363 0.922363 0.922363
0.922363 0.922363 0.922363
0.922363 0.922363 0.922363
0.922363 0.922363 0.922363
0.922363 0.922363 0.922363
0.923340 0.923340 0.923340
0.925293 0.925293 0.925293
0.933105 0.933105 0.933105
0.957031 0.957031 0.957031
0.063965 0.063965 0.063965
0.086487 0.086487 0.086487
0.140747 0.140747 0.140747
0.231567 0.231567 0.231567
0.344482 0.344482 0.344482
0.465820 0.465820 0.465820
0.589844 0.589844 0.589844
0.714355 0.714355 0.714355
0.839355 0.839355 0.839355
0.110352 0.110352 0.110352
0.124939 0.124939 0.124939
0.164551 0.164551 0.164551
0.241699 0.241699 0.241699
0.347656 0.347656 0.347656
0.466797 0.466797 0.466797
0.589844 0.589844 0.589844
0.714355 0.714355 0.714355
0.839355 0.839355 0.839355
0.194214 0.194214 0.194214
0.200684 0.200684 0.200684
0.220947 0.220947 0.220947
0.271240 0.271240 0.271240
0.358643 0.358643 0.358643
0.470215 0.470215 0.470215
0.590820 0.590820 0.590820
0.714844 0.714844 0.714844
0.839355 0.839355 0.839355
0.303955 0.303955 0.303955
0.306152 0.306152 0.306152
0.313477 0.313477 0.313477
0.335938 0.335938 0.335938
0.390381 0.390381 0.390381
0.481445 0.481445 0.481445
0.594238 0.594238 0.594238
0.715820 0.715820 0.715820
0.839844 0.839844 0.839844
0.424316 0.424316 0.424316
0.424805 0.424805 0.424805
0.427246 0.427246 0.427246
0.434814 0.434814 0.434814
0.458252 0.458252 0.458252
0.513672 0.513672 0.513672
0.605469 0.605469 0.605469
0.719238 0.719238 0.719238
0.840820 0.840820 0.840820
0.547852 0.547852 0.547852
0.547852 0.547852 0.547852
0.548340 0.548340 0.548340
0.550781 0.550781 0.550781
0.558594 0.558594 0.558594
0.582031 0.582031 0.582031
0.638184 0.638184 0.638184
0.730469 0.730469 0.730469
0.844238 0.844238 0.844238
0.672363 0.672363 0.672363
0.672363 0.672363 0.672363
0.672852 0.672852 0.672852
0.673340 0.673340 0.673340
0.675293 0.675293 0.675293
0.683105 0.683105 0.683105
0.707031 0.707031 0.707031
0.763184 0.763184 0.763184
0.855469 0.855469 0.855469
0.797363 0.797363 0.797363
0.797363 0.797363 0.797363
0.797363 0.797363 0.797363
0.797363 0.797363 0.797363
0.798340 0.798340 0.798340
0.800293 0.800293 0.800293
0.808105 0.808105 0.808105
0.832031 0.832031 0.832031
0.888184 0.888184 0.888184
0.922363 0.922363 0.922363
0.922363 0.922363 0.922363
0.922363 0.922363 0.922363
0.922363 0.922363 0.922363
0.922363 0.922363 0.922363
0.923340 0.923340 0.923340
0.925293 0.925293 0.925293
0.933105 0.933105 0.933105
0.957031 0.957031 0.957031
0.161987 0.161865 0.161865
0.170776 0.170776 0.170776
0.197388 0.197388 0.197388
0.257812 0.257812 0.257812
0.353516 0.353516 0.353516
0.468506 0.468506 0.468506
0.590332 0.590332 0.590332
0.714844 0.714844 0.714844
0.839355 0.839355 0.839355
0.181519 0.181519 0.181519
0.188843 0.188843 0.188843
0.211426 0.211426 0.211426
0.265625 0.265625 0.265625
0.356445 0.356445 0.356445
0.469482 0.469482 0.469482
0.590820 0.590820 0.590820
0.714844 0.714844 0.714844
0.839355 0.839355 0.839355
0.230835 0.230835 0.230835
0.235352 0.235352 0.235229
0.249878 0.249878 0.249878
0.289551 0.289551 0.289551
0.366699 0.366699 0.366455
0.472656 0.472656 0.472656
0.591797 0.591797 0.591797
0.714844 0.714844 0.714844
0.839355 0.839355 0.839355
0.317383 0.317383 0.317383
0.319092 0.319092 0.319092
0.325684 0.325684 0.325684
0.345947 0.345947 0.345947
0.396240 0.396240 0.396240
0.483643 0.483643 0.483643
0.595215 0.595215 0.595215
0.715820 0.715820 0.715820
0.839844 0.839844 0.839844
0.428223 0.428223 0.428223
0.428955 0.428955 0.428955
0.431152 0.431152 0.431152
0.438477 0.438477 0.438477
0.461182 0.460938 0.460938
0.515137 0.515137 0.515137
0.606445 0.606445 0.606445
0.719238 0.719238 0.719238
0.840820 0.840820 0.840820
0.548828 0.548828 0.548828
0.549316 0.549316 0.549316
0.549805 0.549805 0.549805
0.551758 0.551758 0.551758
0.559570 0.559570 0.559570
0.583008 0.583008 0.583008
0.638672 0.638672 0.638672
0.730469 0.730469 0.730469
0.844238 0.844238 0.844238
0.672852 0.672852 0.672852
0.672852 0.672852 0.672852
0.672852 0.672852 0.672852
0.673340 0.673340 0.673340
0.675781 0.675781 0.675781
0.683594 0.683594 0.683594
0.707031 0.707031 0.707031
0.763184 0.763184 0.763184
0.855469 0.855469 0.855469
0.797363 0.797363 0.797363
0.797363 0.797363 0.797363
0.797363 0.797363 0.797363
0.797852 0.797852 0.797852
0.798340 0.798340 0.798340
0.800781 0.800781 0.800293
0.808105 0.808105 0.808105
0.832031 0.832031 0.832031
0.888184 0.888184 0.888184
0.922363 0.922363 0.922363
0.922363 0.922363 0.922363
0.922363 0.922363 0.922363
0.922363 0.922363 0.922363
0.922363 0.922363 0.922363
0.923340 0.923340 0.923340
0.925293 0.925293 0.925293
0.933105 0.933105 0.933105
0.957031 0.957031 0.957031
0.277832 0.277832 0.277832
0.280518 0.280518 0.280518
0.290039 0.290039 0.290039
0.318115 0.318115 0.318115
0.380615 0.380615 0.380615
0.477783 0.477783 0.477783
0.593262 0.593262 0.593262
0.715332 0.715332 0.715332
0.839844 0.839844 0.839844
0.284180 0.284180 0.284180
0.286865 0.286865 0.286865
0.295654 0.295654 0.295654
0.322266 0.322266 0.322266
0.382812 0.382812 0.382812
0.478516 0.478516 0.478516
0.593262 0.593262 0.593262
0.715332 0.715332 0.715332
0.839844 0.839844 0.839844
0.304443 0.304443 0.304443
0.306396 0.306396 0.306396
0.313721 0.313721 0.313721
0.336426 0.336426 0.336426
0.390625 0.390625 0.390625
0.481445 0.481445 0.481445
0.594238 0.594238 0.594238
0.715820 0.715820 0.715820
0.839844 0.839844 0.839844
0.354492 0.354492 0.354492
0.355713 0.355713 0.355713
0.360107 0.360107 0.360107
0.374756 0.374756 0.374756
0.414551 0.414551 0.414551
0.491699 0.491699 0.491699
0.597656 0.597656 0.597656
0.716797 0.716797 0.716797
0.839844 0.839844 0.839844
0.441895 0.441895 0.441895
0.442383 0.442383 0.442383
0.444092 0.444092 0.444092
0.450684 0.450684 0.450684
0.470947 0.470947 0.470947
0.520996 0.520996 0.520996
0.608887 0.608887 0.608398
0.720215 0.720215 0.720215
0.840820 0.840820 0.840820
0.553223 0.553223 0.553223
0.553223 0.553223 0.553223
0.553711 0.553711 0.553711
0.556152 0.556152 0.556152
0.563477 0.563477 0.563477
0.585938 0.585938 0.585938
0.640137 0.640137 0.640137
0.731445 0.731445 0.731445
0.844238 0.844238 0.844238
0.673828 0.673828 0.673828
0.673828 0.673828 0.673828
0.674316 0.674316 0.674316
0.674805 0.674805 0.674805
0.676758 0.676758 0.676758
0.684570 0.684570 0.684570
0.708008 0.708008 0.708008
0.763672 0.763672 0.763672
0.855469 0.855469 0.855469
0.797852 0.797852 0.797852
0.797852 0.797852 0.797852
0.797852 0.797852 0.797852
0.797852 0.797852 0.797852
0.798828 0.798828 0.798828
0.800781 0.800781 0.800781
0.808594 0.808594 0.808594
0.832031 0.832031 0.832031
0.888184 0.888184 0.888184
0.922363 0.922363 0.922363
0.922363 0.922363 0.922363
0.922363 0.922363 0.922363
0.922363 0.922363 0.922363
0.922363 0.922363 0.922363
0.923340 0.923340 0.923340
0.925293 0.925293 0.925293
0.933105 0.933105 0.933105
0.957031 0.957031 0.957031
0.400146 0.400146 0.400146
0.400879 0.400879 0.400879
0.403809 0.403809 0.403809
0.413330 0.413330 0.413330
0.441650 0.441650 0.441650
0.504883 0.504883 0.504883
0.602539 0.602539 0.602539
0.718262 0.718262 0.718262
0.840332 0.840332 0.840332
0.402100 0.402100 0.402100
0.402832 0.402832 0.402832
0.405518 0.405518 0.405518
0.415039 0.415039 0.415039
0.443115 0.442871 0.442871
0.505371 0.505371 0.505371
0.602539 0.602539 0.602539
0.718262 0.718262 0.718262
0.840332 0.840332 0.840332
0.408447 0.408447 0.408447
0.409180 0.409180 0.409180
0.411865 0.411865 0.411865
0.420654 0.420654 0.420654
0.447266 0.447266 0.447266
0.507812 0.507812 0.507812
0.603516 0.603516 0.603516
0.718262 0.718262 0.718262
0.840332 0.840332 0.840332
0.428711 0.428711 0.428711
0.429443 0.429443 0.429443
0.431396 0.431396 0.431396
0.438721 0.438721 0.438721
0.461426 0.461426 0.461426
0.515625 0.515625 0.515625
0.606445 0.606445 0.606445
0.719238 0.719238 0.719238
0.840820 0.840820 0.840820
0.479004 0.479004 0.479004
0.479492 0.479492 0.479492
0.480713 0.480713 0.480713
0.485107 0.485107 0.485107
0.499756 0.499756 0.499756
0.539551 0.539551 0.539551
0.616211 0.616211 0.616211
0.722656 0.722656 0.722656
0.841797 0.841797 0.841797
0.566406 0.566406 0.566406
0.566895 0.566895 0.566895
0.567383 0.567383 0.567383
0.568848 0.568848 0.568848
0.575684 0.575684 0.575684
0.595703 0.595703 0.595703
0.645996 0.645996 0.645996
0.733398 0.733398 0.733398
0.845215 0.845215 0.845215
0.677734 0.677734 0.677734
0.678223 0.678223 0.678223
0.678223 0.678223 0.678223
0.678711 0.678711 0.678711
0.680664 0.680664 0.680664
0.688477 0.688477 0.688477
0.710938 0.710938 0.710938
0.765137 0.765137 0.765137
0.856445 0.856445 0.856445
0.798828 0.798828 0.798828
0.798828 0.798828 0.798828
0.798828 0.798828 0.798828
0.799316 0.799316 0.799316
0.799805 0.799805 0.799805
0.801758 0.801758 0.801758
0.809570 0.809570 0.809570
0.833008 0.833008 0.833008
0.888672 0.888672 0.888672
0.922852 0.922852 0.922852
0.922852 0.922852 0.922852
0.922852 0.922852 0.922852
0.922852 0.922852 0.922852
0.922852 0.922852 0.922852
0.923340 0.923340 0.923340
0.925781 0.925781 0.925781
0.933594 0.933594 0.933594
0.957031 0.957031 0.957031
0.524414 0.524414 0.524414
0.524414 0.524414 0.524414
0.525391 0.525391 0.525391
0.528320 0.528320 0.528320
0.537598 0.537598 0.537598
0.566406 0.566406 0.566406
0.629883 0.629883 0.629883
0.727051 0.727051 0.727051
0.843262 0.843262 0.843262
0.524902 0.524902 0.524902
0.524902 0.524902 0.524902
0.525879 0.525879 0.525879
0.528809 0.528809 0.528809
0.538086 0.538086 0.538086
0.566895 0.566895 0.566895
0.629883 0.629883 0.629883
0.727539 0.727539 0.727539
0.843262 0.843262 0.843262
0.526855 0.526855 0.526855
0.526855 0.526855 0.526855
0.527832 0.527832 0.527832
0.530273 0.530273 0.530273
0.540039 0.540039 0.540039
0.567871 0.567871 0.567871
0.630371 0.630371 0.630371
0.727539 0.727539 0.727539
0.843262 0.843262 0.843262
0.533203 0.533203 0.533203
0.533203 0.533203 0.533203
0.534180 0.534180 0.534180
0.536621 0.536621 0.536621
0.545410 0.545410 0.545410
0.572266 0.572266 0.572266
0.632812 0.632812 0.632812
0.728516 0.728516 0.728516
0.843262 0.843262 0.843262
0.553223 0.553223 0.553223
0.553711 0.553711 0.553711
0.554199 0.554199 0.554199
0.556152 0.556152 0.556152
0.563477 0.563477 0.563477
0.586426 0.586426 0.586426
0.640625 0.640625 0.640625
0.731445 0.731445 0.731445
0.844238 0.844238 0.844238
0.604004 0.604004 0.604004
0.604004 0.604004 0.604004
0.604492 0.604492 0.604492
0.605469 0.605469 0.605469
0.609863 0.609863 0.609863
0.624512 0.624512 0.624512
0.664551 0.664551 0.664551
0.741699 0.741699 0.741699
0.847656 0.847656 0.847656
0.691406 0.691406 0.691406
0.691406 0.691406 0.691406
0.691895 0.691895 0.691895
0.692383 0.692383 0.692383
0.693848 0.693848 0.693848
0.700684 0.700684 0.700684
0.720703 0.720703 0.720703
0.770996 0.770996 0.770996
0.858398 0.858398 0.858398
0.803223 0.803223 0.803223
0.803223 0.803223 0.803223
0.803223 0.803223 0.803223
0.803223 0.803223 0.803223
0.803711 0.803711 0.803711
0.806152 0.806152 0.806152
0.813477 0.813477 0.813477
0.835938 0.835938 0.835938
0.890137 0.890137 0.890137
0.923828 0.923828 0.923828
0.923828 0.923828 0.923828
0.923828 0.923828 0.923828
0.923828 0.923828 0.923828
0.924316 0.924316 0.924316
0.924805 0.924805 0.924805
0.926758 0.926758 0.926758
0.934570 0.934570 0.934570
0.958008 0.958008 0.958008
0.648926 0.648926 0.648926
0.648926 0.648926 0.648926
0.649414 0.649414 0.649414
0.650391 0.650391 0.650391
0.652832 0.652832 0.652832
0.662598 0.662598 0.662598
0.691406 0.691406 0.691406
0.754395 0.754395 0.754395
0.852051 0.852051 0.852051
0.649414 0.649414 0.649414
0.649414 0.649414 0.649414
0.649414 0.649414 0.649414
0.650391 0.650391 0.650391
0.653320 0.653320 0.653320
0.662598 0.662598 0.662598
0.691406 0.691406 0.691406
0.754395 0.754395 0.754395
0.852051 0.852051 0.852051
0.649902 0.649902 0.649902
0.649902 0.649902 0.649902
0.649902 0.649902 0.649902
0.650879 0.650879 0.650879
0.653809 0.653809 0.653809
0.663086 0.663086 0.663086
0.691895 0.691895 0.691895
0.754883 0.754883 0.754883
0.852539 0.852539 0.852539
0.651855 0.651855 0.651367
0.651855 0.651855 0.651367
0.651855 0.651855 0.651855
0.652832 0.652832 0.652832
0.655273 0.655273 0.655273
0.665039 0.665039 0.665039
0.692871 0.692871 0.692871
0.755371 0.755371 0.755371
0.852539 0.852539 0.852539
0.658203 0.658203 0.658203
0.658203 0.658203 0.658203
0.658203 0.658203 0.658203
0.659180 0.659180 0.659180
0.661621 0.661621 0.661621
0.670410 0.670410 0.670410
0.697266 0.697266 0.697266
0.757812 0.757812 0.757812
0.853516 0.853516 0.853516
0.678223 0.678223 0.678223
0.678223 0.678223 0.678223
0.678711 0.678711 0.678711
0.679199 0.679199 0.679199
0.681152 0.681152 0.681152
0.688477 0.688477 0.688477
0.711426 0.711426 0.711426
0.765625 0.765625 0.765625
0.856445 0.856445 0.856445
0.729004 0.729004 0.729004
0.729004 0.729004 0.729004
0.729004 0.729004 0.729004
0.729492 0.729492 0.729492
0.730469 0.730469 0.730469
0.735352 0.735352 0.734863
0.749512 0.749512 0.749512
0.789551 0.789551 0.789551
0.866699 0.866699 0.866699
0.816406 0.816406 0.816406
0.816406 0.816406 0.816406
0.816406 0.816406 0.816406
0.816895 0.816895 0.816895
0.817383 0.817383 0.817383
0.818848 0.818848 0.818848
0.825684 0.825684 0.825684
0.845703 0.845703 0.845703
0.895996 0.895996 0.895996
0.927734 0.927734 0.927734
0.927734 0.927734 0.927734
0.928223 0.928223 0.928223
0.928223 0.928223 0.928223
0.928223 0.928223 0.928223
0.928711 0.928711 0.928711
0.931152 0.931152 0.931152
0.938477 0.938477 0.938477
0.960938 0.960938 0.960938
0.773926 0.773926 0.773926
0.773926 0.773926 0.773926
0.773926 0.773926 0.773926
0.774414 0.774414 0.774414
0.775391 0.775391 0.775391
0.777832 0.777832 0.777832
0.787598 0.787598 0.787598
0.816406 0.816406 0.816406
0.879395 0.879395 0.879395
0.773926 0.773926 0.773926
0.773926 0.773926 0.773926
0.773926 0.773926 0.773926
0.774414 0.774414 0.774414
0.775391 0.775391 0.775391
0.777832 0.777832 0.777832
0.787598 0.787598 0.787598
0.816406 0.816406 0.816406
0.879395 0.879395 0.879395
0.774414 0.774414 0.774414
0.774414 0.774414 0.774414
0.774414 0.774414 0.774414
0.774414 0.774414 0.774414
0.775391 0.775391 0.775391
0.778320 0.778320 0.778320
0.787598 0.787598 0.787598
0.816406 0.816406 0.816406
0.879395 0.879395 0.879395
0.774902 0.774902 0.774902
0.774902 0.774902 0.774902
0.774902 0.774902 0.774902
0.774902 0.774902 0.774902
0.775879 0.775879 0.775879
0.778809 0.778809 0.778809
0.788086 0.788086 0.788086
0.816406 0.816406 0.816406
0.879883 0.879883 0.879883
0.776855 0.776855 0.776855
0.776855 0.776855 0.776855
0.776855 0.776855 0.776855
0.776855 0.776855 0.776855
0.777832 0.777832 0.777832
0.780273 0.780273 0.780273
0.790039 0.790039 0.790039
0.817871 0.817871 0.817871
0.880371 0.880371 0.880371
0.783203 0.783203 0.783203
0.783203 0.783203 0.783203
0.783203 0.783203 0.783203
0.783203 0.783203 0.783203
0.784180 0.784180 0.784180
0.786621 0.786621 0.786621
0.795410 0.795410 0.795410
0.822266 0.822266 0.822266
0.882812 0.882812 0.882812
0.803223 0.803223 0.803223
0.803223 0.803223 0.803223
0.803223 0.803223 0.803223
0.803711 0.803711 0.803711
0.804199 0.804199 0.804199
0.806152 0.806152 0.806152
0.813477 0.813477 0.813477
0.836426 0.836426 0.836426
0.890625 0.890625 0.890625
0.854004 0.854004 0.854004
0.854004 0.854004 0.854004
0.854004 0.854004 0.854004
0.854004 0.854004 0.854004
0.854492 0.854492 0.854492
0.855469 0.855469 0.855469
0.860352 0.860352 0.859863
0.874512 0.874512 0.874512
0.914551 0.914551 0.914551
0.941406 0.941406 0.941406
0.941406 0.941406 0.941406
0.941406 0.941406 0.941406
0.941406 0.941406 0.941406
0.941895 0.941895 0.941895
0.942383 0.942383 0.942383
0.943848 0.943848 0.943848
0.950684 0.950684 0.950684
0.970703 0.970703 0.970703
0.898926 0.898926 0.898926
0.898926 0.898926 0.898926
0.898926 0.898926 0.898926
0.898926 0.898926 0.898926
0.899414 0.899414 0.899414
0.900391 0.900391 0.900391
0.902832 0.902832 0.902832
0.912598 0.912598 0.912598
0.941406 0.941406 0.941406
0.898926 0.898926 0.898926
0.898926 0.898926 0.898926
0.898926 0.898926 0.898926
0.898926 0.898926 0.898926
0.899414 0.899414 0.899414
0.900391 0.900391 0.900391
0.902832 0.902832 0.902832
0.912598 0.912598 0.912598
0.941406 0.941406 0.941406
0.898926 0.898926 0.898926
0.898926 0.898926 0.898926
0.898926 0.898926 0.898926
0.899414 0.899414 0.898926
0.899414 0.899414 0.899414
0.900391 0.900391 0.900391
0.902832 0.902832 0.902832
0.912598 0.912598 0.912598
0.941406 0.941406 0.941406
0.899414 0.899414 0.898926
0.899414 0.899414 0.898926
0.899414 0.899414 0.899414
0.899414 0.899414 0.899414
0.899414 0.899414 0.899414
0.900391 0.900391 0.900391
0.903320 0.903320 0.903320
0.912598 0.912598 0.912598
0.941406 0.941406 0.941406
0.899902 0.899902 0.899902
0.899902 0.899902 0.899902
0.899902 0.899902 0.899902
0.899902 0.899902 0.899902
0.899902 0.899902 0.899902
0.900879 0.900879 0.900879
0.903809 0.903809 0.903809
0.913086 0.913086 0.913086
0.941895 0.941895 0.941895
0.901367 0.901367 0.901367
0.901367 0.901367 0.901367
0.901855 0.901855 0.901855
0.901855 0.901855 0.901855
0.901855 0.901855 0.901855
0.902832 0.902832 0.902832
0.905273 0.905273 0.905273
0.915039 0.915039 0.915039
0.942871 0.942871 0.942871
0.908203 0.908203 0.908203
0.908203 0.908203 0.908203
0.908203 0.908203 0.908203
0.908203 0.908203 0.908203
0.908203 0.908203 0.908203
0.909180 0.909180 0.909180
0.911621 0.911621 0.911621
0.920410 0.920410 0.920410
0.947266 0.947266 0.947266
0.928223 0.928223 0.928223
0.928223 0.928223 0.928223
0.928223 0.928223 0.928223
0.928223 0.928223 0.928223
0.928711 0.928711 0.928711
0.929199 0.929199 0.929199
0.931152 0.931152 0.931152
0.938477 0.938477 0.938477
0.961426 0.961426 0.961426
0.979004 0.979004 0.979004
0.979004 0.979004 0.979004
0.979004 0.979004 0.979004
0.979004 0.979004 0.979004
0.979004 0.979004 0.979004
0.979492 0.979492 0.979492
0.980469 0.980469 0.980469
0.984863 0.984863 0.984863
0.999512 0.999512 0.999512
