RED_IPP2_Creative/RED_BW_0600.cube
# RED Digital Cinema Output Transform LUT for IPP2
# Creatives by Eric Weidt
# BMD cube from Truelight v4.0
# Settings used in creation of this LUT are:
# Development Color Space = USER SELECTABLE
# Output Gamma Curve = USER SELECTABLE
# Output Tonemap = USER SELECTABLE
# Highlight Rolloff = USER SELECTABLE
LUT_3D_SIZE 9
0.127441 0.127441 0.127441
0.127441 0.127441 0.127441
0.129883 0.129883 0.129883
0.168579 0.168579 0.168579
0.374756 0.374756 0.374756
0.491943 0.491943 0.491943
0.609863 0.609863 0.609863
0.722168 0.722168 0.722168
0.829590 0.829590 0.829590
0.127441 0.127441 0.127441
0.128296 0.128296 0.128296
0.133057 0.133057 0.133057
0.183838 0.183838 0.183838
0.379150 0.379150 0.379150
0.492920 0.492920 0.492920
0.610352 0.610352 0.610352
0.722168 0.722168 0.722168
0.829590 0.829590 0.829590
0.140747 0.140747 0.140747
0.143555 0.143555 0.143433
0.156982 0.156982 0.156860
0.252686 0.252686 0.252441
0.391846 0.391846 0.391846
0.495850 0.495850 0.495850
0.610840 0.610840 0.610840
0.722168 0.722168 0.722168
0.829590 0.829590 0.829590
0.312256 0.312256 0.312256
0.315674 0.315674 0.315674
0.327393 0.327393 0.327393
0.362793 0.362793 0.362793
0.422119 0.422119 0.422119
0.506348 0.506348 0.506348
0.614258 0.614258 0.614746
0.723145 0.723145 0.723145
0.830078 0.830078 0.830078
0.453369 0.453369 0.453369
0.453857 0.453857 0.453613
0.455811 0.455811 0.455811
0.462891 0.462891 0.462891
0.484619 0.484619 0.484619
0.537109 0.537109 0.537109
0.625000 0.625000 0.625000
0.726074 0.726074 0.726074
0.831055 0.831055 0.831055
0.569824 0.569824 0.569824
0.569824 0.569824 0.569824
0.570312 0.570312 0.570312
0.572754 0.572754 0.572754
0.580078 0.580078 0.580078
0.602539 0.602539 0.602539
0.654785 0.654785 0.654785
0.735840 0.735840 0.735840
0.833496 0.833496 0.833496
0.685059 0.685059 0.685059
0.685059 0.685059 0.685059
0.685059 0.685059 0.685059
0.686035 0.686035 0.686035
0.687988 0.687988 0.687988
0.694824 0.694824 0.694824
0.715820 0.715820 0.715820
0.764160 0.764160 0.764160
0.843262 0.843262 0.843262
0.793457 0.793457 0.793457
0.793457 0.793457 0.793457
0.793457 0.793457 0.793457
0.793457 0.793457 0.793457
0.794434 0.794434 0.794434
0.796387 0.796387 0.796387
0.802734 0.802734 0.802734
0.822754 0.822754 0.822754
0.871094 0.871094 0.871094
0.899902 0.899902 0.899902
0.899902 0.899902 0.899902
0.899902 0.899902 0.899902
0.899902 0.899902 0.899902
0.899902 0.899902 0.899902
0.900391 0.900391 0.900391
0.902344 0.902344 0.902344
0.908691 0.908691 0.908691
0.929199 0.929199 0.929199
0.127441 0.127441 0.127441
0.127686 0.127686 0.127686
0.132324 0.132324 0.132324
0.180176 0.180176 0.180176
0.378174 0.378174 0.378174
0.492432 0.492432 0.492432
0.610352 0.610352 0.610352
0.722168 0.722168 0.722168
0.829590 0.829590 0.829590
0.129272 0.129272 0.129272
0.130615 0.130615 0.130615
0.136353 0.136353 0.136353
0.197388 0.197388 0.197388
0.382080 0.382080 0.382080
0.493164 0.493164 0.493164
0.610352 0.610352 0.610352
0.722168 0.722168 0.722168
0.829590 0.829590 0.829590
0.146118 0.146118 0.146118
0.149536 0.149536 0.149536
0.166382 0.166382 0.166382
0.266357 0.266357 0.266357
0.393799 0.393799 0.393799
0.496826 0.496826 0.496826
0.610840 0.610840 0.610840
0.722168 0.722168 0.722168
0.829590 0.829590 0.829590
0.318604 0.318604 0.318604
0.321777 0.321777 0.321777
0.333008 0.333008 0.333008
0.366699 0.366699 0.366455
0.423584 0.423584 0.423584
0.506836 0.506836 0.506836
0.614258 0.614258 0.614746
0.723145 0.723145 0.723145
0.830078 0.830078 0.830078
0.454346 0.454346 0.454346
0.454834 0.454834 0.454834
0.457275 0.457275 0.457275
0.464111 0.464111 0.464111
0.485596 0.485596 0.485596
0.537598 0.537598 0.537598
0.625000 0.625000 0.625000
0.726074 0.726074 0.726074
0.831055 0.831055 0.831055
0.569824 0.569824 0.569824
0.569824 0.569824 0.569824
0.570312 0.570312 0.570312
0.573242 0.573242 0.573242
0.580566 0.580566 0.580566
0.602539 0.602539 0.602539
0.654785 0.654785 0.654785
0.735840 0.735840 0.735840
0.833496 0.833496 0.833496
0.685059 0.685059 0.685059
0.685059 0.685059 0.685059
0.685547 0.685547 0.685547
0.686035 0.686035 0.686035
0.687988 0.687988 0.687988
0.694824 0.694824 0.694824
0.715820 0.715820 0.715820
0.764160 0.764160 0.764160
0.843262 0.843262 0.843262
0.793457 0.793457 0.793457
0.793457 0.793457 0.793457
0.793457 0.793457 0.793457
0.793457 0.793457 0.793457
0.794434 0.794434 0.794434
0.796387 0.796387 0.796387
0.802734 0.802734 0.802734
0.822754 0.822754 0.822754
0.871094 0.871094 0.871094
0.899902 0.899902 0.899902
0.899902 0.899902 0.899902
0.899902 0.899902 0.899902
0.899902 0.899902 0.899902
0.899902 0.899902 0.899902
0.900391 0.900391 0.900391
0.902344 0.902344 0.902344
0.908691 0.908691 0.908691
0.929199 0.929199 0.929199
0.135742 0.135742 0.135742
0.137817 0.137817 0.137817
0.147705 0.147705 0.147705
0.233276 0.233276 0.233276
0.388672 0.388672 0.388672
0.495117 0.494873 0.494873
0.610840 0.610840 0.610352
0.722168 0.722168 0.722168
0.829590 0.829590 0.829590
0.140869 0.140869 0.140869
0.143677 0.143677 0.143677
0.157104 0.157104 0.157227
0.252686 0.252686 0.252686
0.391846 0.391846 0.391846
0.495850 0.495850 0.495850
0.610840 0.610840 0.610840
0.722168 0.722168 0.722168
0.829590 0.829590 0.829590
0.179077 0.179077 0.179077
0.186157 0.186157 0.186035
0.214478 0.214478 0.214478
0.297363 0.297363 0.297363
0.401611 0.401611 0.401367
0.499023 0.499023 0.499023
0.612305 0.612305 0.612305
0.722168 0.722168 0.722168
0.829590 0.829590 0.829590
0.338867 0.338867 0.338867
0.341553 0.341553 0.341553
0.351562 0.351562 0.351562
0.379883 0.379883 0.379883
0.428955 0.428955 0.428955
0.509277 0.509277 0.509277
0.615234 0.615234 0.615234
0.723145 0.723145 0.723145
0.830078 0.830078 0.830078
0.457764 0.457764 0.458008
0.458252 0.458740 0.458740
0.460693 0.460693 0.460693
0.467285 0.467285 0.467285
0.488037 0.488037 0.488037
0.538574 0.538574 0.538574
0.625977 0.625977 0.625977
0.726074 0.726074 0.726074
0.831055 0.831055 0.831055
0.570801 0.570801 0.570801
0.571289 0.571289 0.571289
0.572266 0.572266 0.571777
0.573730 0.573730 0.573730
0.581543 0.581543 0.581543
0.604004 0.604004 0.604004
0.655273 0.655273 0.655273
0.735840 0.735840 0.735840
0.833496 0.833496 0.833496
0.685547 0.685547 0.685547
0.685547 0.685547 0.685547
0.685547 0.685547 0.685547
0.686035 0.686035 0.686035
0.688477 0.688477 0.688477
0.695312 0.695312 0.695312
0.715820 0.715820 0.715820
0.764160 0.764160 0.764160
0.843262 0.843262 0.843262
0.793457 0.793457 0.793457
0.793457 0.793457 0.793457
0.793457 0.793457 0.793457
0.793945 0.793945 0.793945
0.794434 0.794434 0.794434
0.796875 0.796875 0.796387
0.802734 0.802734 0.802734
0.822754 0.822754 0.822754
0.871094 0.871094 0.871094
0.899902 0.899902 0.899902
0.899902 0.899902 0.899902
0.899902 0.899902 0.899902
0.899902 0.899902 0.899902
0.899902 0.899902 0.899902
0.900391 0.900391 0.900391
0.902344 0.902344 0.902344
0.908691 0.908691 0.908691
0.929199 0.929199 0.929199
0.280029 0.280029 0.280029
0.284424 0.284424 0.284424
0.297852 0.297852 0.297852
0.340088 0.339844 0.339844
0.414551 0.414551 0.414551
0.503418 0.503418 0.503418
0.613770 0.613770 0.613770
0.722656 0.722656 0.722656
0.830078 0.830078 0.830078
0.289551 0.289551 0.289551
0.293457 0.293457 0.293457
0.306152 0.306152 0.306152
0.346436 0.346436 0.346436
0.416504 0.416504 0.416504
0.504395 0.504395 0.504395
0.613770 0.613770 0.613770
0.722656 0.722656 0.722656
0.830078 0.830078 0.830078
0.319092 0.319092 0.319092
0.322266 0.322266 0.322021
0.333496 0.333496 0.333496
0.367432 0.367432 0.367188
0.423828 0.423828 0.423828
0.506836 0.506836 0.506836
0.614258 0.614258 0.614746
0.723145 0.723145 0.723145
0.830078 0.830078 0.830078
0.389648 0.389648 0.389893
0.391113 0.391113 0.391113
0.395020 0.395020 0.395020
0.408936 0.408936 0.408936
0.445557 0.445557 0.445557
0.516602 0.516602 0.516602
0.617676 0.617676 0.617676
0.724121 0.724121 0.724121
0.830078 0.830078 0.830078
0.470703 0.470703 0.470703
0.470947 0.470947 0.470947
0.472656 0.472656 0.472412
0.478516 0.478516 0.478516
0.497070 0.497070 0.497070
0.544434 0.544434 0.544434
0.627930 0.627930 0.627441
0.727051 0.727051 0.727051
0.831055 0.831055 0.831055
0.575195 0.575195 0.575195
0.575195 0.575195 0.575195
0.575684 0.575684 0.575684
0.578125 0.578125 0.578125
0.585449 0.585449 0.585449
0.606445 0.606445 0.606445
0.656250 0.656250 0.656250
0.736816 0.736816 0.736816
0.833496 0.833496 0.833496
0.686523 0.686523 0.686523
0.686523 0.686523 0.686523
0.687012 0.687012 0.687012
0.687500 0.687500 0.687500
0.688965 0.688965 0.688965
0.696289 0.696289 0.696289
0.716797 0.716797 0.716797
0.764648 0.764648 0.764648
0.843262 0.843262 0.843262
0.793945 0.793945 0.793945
0.793945 0.793945 0.793945
0.793945 0.793945 0.793945
0.793945 0.793945 0.793945
0.794922 0.794922 0.794922
0.796387 0.796387 0.796875
0.803223 0.803223 0.803223
0.822754 0.822754 0.822754
0.871094 0.871094 0.871094
0.899902 0.899902 0.899902
0.899902 0.899902 0.899902
0.899902 0.899902 0.899902
0.899902 0.899902 0.899902
0.899902 0.899902 0.899902
0.900391 0.900391 0.900391
0.902344 0.902344 0.902344
0.908691 0.908691 0.908691
0.929199 0.929199 0.929199
0.432617 0.432373 0.432373
0.433350 0.433350 0.433350
0.435791 0.435791 0.435791
0.444580 0.444580 0.444580
0.470459 0.470459 0.470459
0.529297 0.529297 0.529297
0.622559 0.622559 0.622559
0.725586 0.725586 0.725586
0.830566 0.830566 0.830566
0.434326 0.434326 0.434326
0.435059 0.435059 0.435059
0.437256 0.437256 0.437256
0.446045 0.446045 0.445801
0.471680 0.471436 0.471436
0.529785 0.529785 0.529785
0.622559 0.622559 0.622559
0.725586 0.725586 0.725586
0.830566 0.830566 0.830566
0.440186 0.440186 0.440186
0.440918 0.440918 0.440918
0.443115 0.443115 0.443115
0.451172 0.451172 0.451172
0.475586 0.475586 0.475342
0.531738 0.531738 0.531738
0.623047 0.623047 0.623047
0.725586 0.725586 0.725586
0.830566 0.830566 0.830566
0.458496 0.458496 0.458496
0.459229 0.459229 0.459229
0.460938 0.460938 0.460938
0.467529 0.467529 0.467529
0.488525 0.488525 0.488525
0.539551 0.539551 0.539062
0.625977 0.625977 0.625977
0.726074 0.726074 0.726074
0.831055 0.831055 0.831055
0.504883 0.504883 0.504883
0.505371 0.505371 0.505371
0.506348 0.506348 0.506348
0.510254 0.510254 0.510254
0.524414 0.524414 0.524414
0.562012 0.562012 0.562012
0.635254 0.635254 0.635254
0.729492 0.729492 0.729492
0.831055 0.831543 0.831055
0.587891 0.587891 0.587891
0.588379 0.588379 0.588379
0.588867 0.588867 0.588867
0.590332 0.590332 0.590332
0.597168 0.597168 0.597168
0.615723 0.615723 0.615723
0.661621 0.661621 0.661621
0.738770 0.738770 0.738770
0.834473 0.834473 0.834473
0.689941 0.689941 0.689941
0.690430 0.690430 0.690430
0.690430 0.690430 0.690430
0.690918 0.690918 0.690918
0.692871 0.692871 0.692871
0.699707 0.699707 0.699707
0.719238 0.719238 0.719238
0.766113 0.766113 0.766113
0.843750 0.843750 0.843750
0.794922 0.794922 0.794922
0.794922 0.794922 0.794922
0.794922 0.794922 0.794922
0.795410 0.795410 0.795410
0.795898 0.795898 0.795898
0.796875 0.797363 0.797363
0.804199 0.804199 0.804199
0.823730 0.823730 0.823730
0.871094 0.871094 0.871094
0.900391 0.900391 0.900391
0.900391 0.900391 0.900391
0.900391 0.900391 0.900391
0.900391 0.900391 0.900391
0.900391 0.900391 0.900391
0.900391 0.900391 0.900391
0.902344 0.902344 0.902344
0.909180 0.909180 0.909180
0.929199 0.929199 0.929199
0.547852 0.547852 0.547852
0.547852 0.547852 0.547852
0.548828 0.548828 0.548828
0.551270 0.551270 0.551270
0.560547 0.560547 0.560547
0.587891 0.587891 0.587891
0.647461 0.647461 0.647461
0.733398 0.733398 0.733398
0.832520 0.832520 0.832520
0.548340 0.548340 0.548340
0.548340 0.548340 0.548340
0.549316 0.549316 0.549316
0.551758 0.551758 0.551758
0.561035 0.561035 0.561035
0.588379 0.588379 0.588379
0.647461 0.647461 0.647461
0.733887 0.733887 0.733887
0.832520 0.832520 0.832520
0.550293 0.550293 0.550293
0.550293 0.550293 0.550293
0.550781 0.550781 0.550781
0.553711 0.553711 0.553711
0.562500 0.562500 0.562500
0.589355 0.589355 0.589355
0.647949 0.647949 0.647461
0.733887 0.733887 0.733887
0.832520 0.832520 0.832520
0.556152 0.556152 0.556152
0.556152 0.556152 0.556152
0.557129 0.557129 0.557129
0.559082 0.559082 0.559082
0.567871 0.567871 0.567871
0.593750 0.593750 0.593750
0.649902 0.649902 0.649902
0.734375 0.734375 0.734375
0.832520 0.832520 0.832520
0.575195 0.575195 0.575195
0.575684 0.575684 0.575684
0.576172 0.576172 0.576172
0.578125 0.578125 0.578125
0.585449 0.585449 0.585449
0.606934 0.606934 0.606934
0.656738 0.656738 0.656738
0.736816 0.736816 0.736816
0.833496 0.833496 0.833496
0.623535 0.623535 0.623535
0.623535 0.623535 0.623535
0.624023 0.624023 0.624023
0.625000 0.625000 0.625000
0.628906 0.628906 0.628906
0.642578 0.642578 0.642578
0.678223 0.678223 0.678223
0.746094 0.746094 0.746094
0.836426 0.836426 0.836426
0.702148 0.702148 0.702148
0.702148 0.702148 0.702148
0.702637 0.702637 0.702637
0.702637 0.702637 0.702637
0.704102 0.704590 0.704102
0.709961 0.709961 0.709961
0.727539 0.727539 0.727539
0.770996 0.770996 0.770996
0.845703 0.845703 0.845703
0.798340 0.798340 0.798340
0.798340 0.798340 0.798340
0.798340 0.798340 0.798340
0.798340 0.798340 0.798340
0.798828 0.798828 0.798828
0.801270 0.801270 0.801270
0.807129 0.807129 0.807129
0.826660 0.826660 0.826660
0.872559 0.872559 0.872559
0.900879 0.900879 0.900879
0.900879 0.900879 0.900879
0.900879 0.900879 0.900879
0.900879 0.900879 0.900879
0.901367 0.901367 0.901367
0.901855 0.901855 0.901855
0.903320 0.903320 0.903320
0.910156 0.910156 0.910156
0.929688 0.929688 0.929688
0.664062 0.664062 0.664062
0.664062 0.664062 0.664062
0.664551 0.664551 0.664551
0.665527 0.665527 0.665527
0.667969 0.667969 0.667969
0.676270 0.676270 0.676270
0.702148 0.702148 0.702148
0.756836 0.756836 0.756836
0.839844 0.839844 0.839844
0.664551 0.664551 0.664551
0.664551 0.664551 0.664551
0.664551 0.664551 0.664551
0.665527 0.665527 0.665527
0.668457 0.668457 0.668457
0.676270 0.676270 0.676270
0.702148 0.702148 0.702148
0.756836 0.756836 0.756836
0.839844 0.839844 0.839844
0.665039 0.665039 0.665039
0.665039 0.665039 0.665039
0.665039 0.665039 0.665039
0.666016 0.666016 0.666016
0.668457 0.668457 0.668457
0.676758 0.676758 0.676758
0.702637 0.702637 0.702637
0.757324 0.757324 0.757324
0.840332 0.840332 0.840332
0.666992 0.666992 0.666504
0.666992 0.666992 0.666504
0.666992 0.666992 0.666992
0.667969 0.667969 0.667969
0.669922 0.669922 0.669922
0.678711 0.678711 0.678711
0.703125 0.703125 0.703125
0.757324 0.757324 0.757324
0.840332 0.840332 0.840332
0.672363 0.672363 0.672363
0.672363 0.672363 0.672363
0.672363 0.672363 0.672363
0.673340 0.673340 0.673340
0.675781 0.675781 0.675781
0.683594 0.683594 0.683594
0.707031 0.707031 0.707031
0.759766 0.759766 0.759766
0.841309 0.841309 0.841309
0.690430 0.690430 0.690430
0.690430 0.690430 0.690430
0.690918 0.690918 0.690918
0.691406 0.691406 0.691406
0.693359 0.693359 0.692871
0.699707 0.699707 0.699707
0.719727 0.719727 0.719727
0.766602 0.766602 0.766602
0.843750 0.843750 0.843750
0.734375 0.734375 0.734375
0.734375 0.734375 0.734375
0.734375 0.734375 0.734375
0.734863 0.734863 0.734863
0.735840 0.735840 0.735840
0.740234 0.740234 0.739746
0.752441 0.752441 0.752441
0.787109 0.787109 0.787109
0.852539 0.852539 0.852539
0.810059 0.810059 0.810059
0.810059 0.810059 0.810059
0.810059 0.810059 0.810059
0.810547 0.810547 0.810059
0.810547 0.810547 0.810547
0.812012 0.812012 0.812012
0.817871 0.817871 0.817871
0.834961 0.834961 0.834961
0.877441 0.877441 0.877441
0.904297 0.904297 0.904297
0.904297 0.904297 0.904297
0.904785 0.904785 0.904785
0.904785 0.904785 0.904785
0.904785 0.904785 0.904785
0.905273 0.905273 0.905273
0.907227 0.907227 0.907227
0.913574 0.913574 0.913574
0.932129 0.932129 0.932129
0.773438 0.773438 0.773438
0.773438 0.773438 0.773438
0.773438 0.773438 0.773438
0.773926 0.773926 0.773926
0.774902 0.774902 0.774902
0.776367 0.776367 0.776855
0.785156 0.785156 0.785156
0.810059 0.810059 0.810059
0.863281 0.863281 0.863281
0.773438 0.773438 0.773438
0.773438 0.773438 0.773438
0.773438 0.773438 0.773438
0.773926 0.773926 0.773926
0.774902 0.774902 0.774902
0.776367 0.776367 0.776855
0.785156 0.785156 0.785156
0.810059 0.810059 0.810059
0.863281 0.863281 0.863281
0.773926 0.773926 0.773926
0.773926 0.773926 0.773926
0.773926 0.773926 0.773926
0.773926 0.773926 0.773926
0.774902 0.774902 0.774902
0.776855 0.776855 0.776855
0.785156 0.785156 0.785156
0.810059 0.810059 0.810059
0.863281 0.863281 0.863281
0.774414 0.774414 0.774414
0.774414 0.774414 0.774414
0.774414 0.774414 0.774414
0.774414 0.774414 0.774414
0.775391 0.775391 0.775391
0.777344 0.777344 0.777344
0.785645 0.785645 0.785645
0.810059 0.810059 0.810059
0.863770 0.863770 0.863770
0.776367 0.776367 0.776367
0.776367 0.776367 0.776367
0.776367 0.776367 0.776367
0.776367 0.776367 0.776367
0.776367 0.776367 0.776855
0.778809 0.778809 0.778809
0.787109 0.787109 0.787109
0.811035 0.811035 0.811035
0.864258 0.864258 0.864258
0.781250 0.781250 0.781250
0.781250 0.781250 0.781250
0.781250 0.781250 0.781250
0.781250 0.781250 0.781250
0.782227 0.782227 0.782227
0.784668 0.784668 0.784668
0.791992 0.791992 0.791992
0.814453 0.814453 0.814453
0.866211 0.866211 0.866211
0.798340 0.798340 0.798340
0.798340 0.798340 0.798340
0.798340 0.798340 0.798340
0.798828 0.798828 0.798828
0.799316 0.799316 0.799316
0.801270 0.801270 0.801270
0.807129 0.807129 0.807129
0.827148 0.827148 0.827148
0.873047 0.873047 0.873047
0.841797 0.841797 0.841797
0.841797 0.841797 0.841797
0.841797 0.841797 0.841797
0.841797 0.841797 0.841797
0.842285 0.842285 0.842285
0.843262 0.843262 0.843262
0.847656 0.847168 0.846680
0.859375 0.859375 0.859375
0.893555 0.893555 0.893555
0.915527 0.915527 0.915527
0.915527 0.915527 0.915527
0.915527 0.915527 0.915527
0.915527 0.915527 0.915527
0.916016 0.916016 0.916016
0.916504 0.916504 0.916504
0.917969 0.917969 0.917969
0.923340 0.923340 0.923340
0.940430 0.940430 0.940430
0.879883 0.879883 0.879883
0.879883 0.879883 0.879883
0.879883 0.879883 0.879883
0.879883 0.879883 0.879883
0.880371 0.880371 0.880371
0.881348 0.881348 0.881348
0.883301 0.883301 0.883301
0.891602 0.891602 0.891602
0.915527 0.915527 0.915527
0.879883 0.879883 0.879883
0.879883 0.879883 0.879883
0.879883 0.879883 0.879883
0.879883 0.879883 0.879883
0.880371 0.880371 0.880371
0.881348 0.881348 0.881348
0.883301 0.883301 0.883301
0.891602 0.891602 0.891602
0.915527 0.915527 0.915527
0.879883 0.879883 0.879883
0.879883 0.879883 0.879883
0.879883 0.879883 0.879883
0.880371 0.880371 0.879883
0.880371 0.880371 0.880371
0.881348 0.881348 0.881348
0.883301 0.883301 0.883301
0.891602 0.891602 0.891602
0.915527 0.915527 0.915527
0.880371 0.880371 0.879883
0.880371 0.880371 0.879883
0.880371 0.880371 0.880371
0.880371 0.880371 0.880371
0.880371 0.880371 0.880371
0.881348 0.881348 0.881348
0.883789 0.883789 0.883789
0.891602 0.891602 0.891602
0.915527 0.915527 0.915527
0.880859 0.880859 0.880859
0.880859 0.880859 0.880859
0.880859 0.880859 0.880859
0.880859 0.880859 0.880859
0.880859 0.880859 0.880859
0.881348 0.881836 0.881836
0.884277 0.884277 0.884277
0.892090 0.892090 0.892090
0.916016 0.916016 0.916016
0.881836 0.881836 0.881836
0.881836 0.881836 0.881836
0.882324 0.882324 0.882324
0.882324 0.882324 0.882324
0.882324 0.882324 0.882324
0.883301 0.883301 0.883301
0.885254 0.885742 0.885742
0.893555 0.893555 0.893555
0.916992 0.916992 0.916992
0.887695 0.887695 0.887695
0.887695 0.887695 0.887695
0.887695 0.887695 0.887695
0.887695 0.887695 0.887695
0.887695 0.887695 0.887695
0.888672 0.888672 0.888672
0.890625 0.890625 0.890625
0.897949 0.897949 0.897949
0.920898 0.920898 0.920898
0.904785 0.904785 0.904785
0.904785 0.904785 0.904785
0.904785 0.904785 0.904785
0.904785 0.904785 0.904785
0.905273 0.905273 0.905273
0.905762 0.905762 0.905762
0.907227 0.907227 0.907227
0.913574 0.913574 0.913574
0.932129 0.932129 0.932129
0.947266 0.947266 0.947266
0.947266 0.947266 0.947266
0.947266 0.947266 0.947266
0.947266 0.947266 0.947266
0.947266 0.947266 0.947266
0.948242 0.948242 0.948242
0.949219 0.949219 0.948730
0.952637 0.952637 0.952637
0.964844 0.964844 0.964844
