RED_IPP2_Creative/RED_PROCESS.cube
# RED Digital Cinema Output Transform LUT for IPP2
# Creatives by Eric Weidt
# BMD cube from Truelight v4.0
# Settings used in creation of this LUT are:
# Development Color Space = USER SELECTABLE
# Output Gamma Curve = USER SELECTABLE
# Output Tonemap = USER SELECTABLE
# Highlight Rolloff = USER SELECTABLE 
LUT_3D_SIZE 9
0.033539 0.038483 0.039185
0.206421 0.015205 0.019516
0.345459 0.017807 0.024643
0.461914 0.018845 0.035950
0.552734 0.020782 0.050873
0.606934 0.048859 0.053101
0.618652 0.110291 0.055573
0.634766 0.138306 0.055939
0.649414 0.142334 0.063477
0.000000 0.171631 0.000000
0.141357 0.141602 0.009842
0.257080 0.136353 0.042664
0.402832 0.106567 0.020279
0.515137 0.089417 0.028534
0.582031 0.098145 0.044189
0.618164 0.134399 0.047943
0.637207 0.152588 0.058014
0.645020 0.162109 0.069580
0.008507 0.267822 0.000000
0.107178 0.250000 0.000000
0.247192 0.248413 0.021347
0.348633 0.242310 0.073303
0.436523 0.235107 0.084839
0.531738 0.219849 0.062561
0.602539 0.194458 0.058777
0.638184 0.181030 0.067200
0.640137 0.203003 0.083923
0.057068 0.335693 0.001084
0.140259 0.329834 0.028229
0.242798 0.354492 0.046600
0.367920 0.363525 0.056427
0.457520 0.364990 0.106506
0.517578 0.362305 0.146362
0.552246 0.349609 0.168823
0.603516 0.315186 0.143188
0.624512 0.297363 0.135620
0.092285 0.419434 0.041443
0.168701 0.414062 0.057465
0.287842 0.416992 0.112366
0.381104 0.461914 0.113464
0.497314 0.490479 0.121521
0.565918 0.489502 0.161621
0.603027 0.470459 0.207275
0.605469 0.444824 0.243042
0.612305 0.428467 0.255859
0.120056 0.496094 0.072937
0.177124 0.491455 0.086731
0.315186 0.482910 0.162231
0.400391 0.517090 0.179810
0.504395 0.548340 0.187256
0.608398 0.597168 0.207031
0.649902 0.591309 0.251953
0.666504 0.560059 0.284668
0.673340 0.545898 0.304932
0.144043 0.561035 0.097107
0.180054 0.564941 0.113037
0.300537 0.557617 0.158203
0.410156 0.555176 0.226196
0.506348 0.582031 0.234131
0.611816 0.627441 0.255127
0.697266 0.678223 0.307861
0.732910 0.685547 0.342773
0.744141 0.683105 0.354736
0.132080 0.624512 0.113281
0.183105 0.625977 0.129761
0.271729 0.618652 0.158569
0.408447 0.590820 0.240967
0.511719 0.616211 0.267334
0.615723 0.658691 0.294189
0.715820 0.721680 0.347656
0.778809 0.770508 0.399414
0.801270 0.778809 0.413818
0.141479 0.677734 0.113770
0.175415 0.677734 0.131958
0.251465 0.672363 0.159912
0.410400 0.641113 0.236084
0.531738 0.663574 0.301025
0.633789 0.705078 0.329834
0.734375 0.759277 0.373047
0.800293 0.807617 0.425049
0.838379 0.833984 0.453857
0.012985 0.021225 0.230591
0.165771 0.045380 0.166016
0.305176 0.041748 0.130005
0.445068 0.032013 0.111755
0.550293 0.024429 0.099060
0.611816 0.049347 0.087585
0.637207 0.094666 0.091797
0.658203 0.117615 0.103088
0.669434 0.123657 0.103516
0.000000 0.155762 0.156250
0.122742 0.121704 0.125000
0.279785 0.101746 0.098633
0.422119 0.080566 0.077515
0.530762 0.073975 0.073242
0.609375 0.079163 0.075623
0.636719 0.113403 0.081787
0.655273 0.138306 0.095886
0.659668 0.152100 0.099304
0.000000 0.275391 0.068237
0.027435 0.274170 0.023819
0.230347 0.231079 0.083679
0.329834 0.232788 0.131958
0.452881 0.217529 0.100830
0.551270 0.200073 0.089966
0.620605 0.180176 0.084290
0.649414 0.182129 0.087646
0.648926 0.202515 0.098022
0.019531 0.359131 0.050354
0.047058 0.371338 0.019684
0.221436 0.349365 0.089539
0.354492 0.354492 0.107117
0.452881 0.360596 0.149170
0.506836 0.358643 0.188721
0.565918 0.343750 0.171753
0.611816 0.321777 0.151855
0.631836 0.298340 0.145386
0.053772 0.452393 0.069519
0.077454 0.461670 0.068848
0.258057 0.432861 0.117798
0.375732 0.472900 0.143188
0.489258 0.487793 0.158936
0.568848 0.488525 0.194824
0.606445 0.474365 0.225098
0.610352 0.450439 0.258789
0.620117 0.437744 0.267334
0.106323 0.515137 0.094910
0.142822 0.521973 0.105408
0.279785 0.510742 0.144653
0.403564 0.539062 0.201660
0.513184 0.574219 0.216187
0.617188 0.608398 0.233765
0.664551 0.603027 0.272949
0.676758 0.569824 0.301514
0.681152 0.555664 0.323975
0.135010 0.579590 0.124512
0.165649 0.584473 0.139282
0.263184 0.583008 0.163208
0.412354 0.565918 0.250000
0.510742 0.594727 0.261719
0.618652 0.640137 0.279785
0.708496 0.691895 0.326416
0.743652 0.700684 0.359375
0.751953 0.689453 0.378174
0.141357 0.634277 0.140869
0.167969 0.640625 0.159668
0.235107 0.643066 0.180176
0.400635 0.609863 0.243408
0.521484 0.632324 0.302490
0.625488 0.675781 0.328125
0.728027 0.733398 0.369385
0.790527 0.781250 0.420898
0.808594 0.790039 0.439697
0.146240 0.682129 0.145874
0.172852 0.683105 0.160278
0.234497 0.682129 0.184937
0.402588 0.655762 0.245972
0.539062 0.670898 0.328369
0.642090 0.713867 0.356934
0.740723 0.762695 0.392822
0.812500 0.815918 0.451904
0.844238 0.840332 0.479980
0.017380 0.022217 0.389893
0.118652 0.066345 0.317627
0.264404 0.075134 0.257080
0.338379 0.094055 0.225098
0.490479 0.056000 0.238403
0.605469 0.046448 0.232056
0.652344 0.059662 0.213989
0.674805 0.082581 0.212036
0.680176 0.087646 0.208984
0.000000 0.127075 0.327637
0.091248 0.105652 0.306152
0.259277 0.090210 0.258301
0.349121 0.109436 0.220459
0.497314 0.082458 0.221558
0.600098 0.077515 0.204102
0.646484 0.089905 0.191406
0.675781 0.101562 0.197021
0.679199 0.112183 0.195801
0.000000 0.260010 0.276611
0.003252 0.250000 0.250000
0.213867 0.214600 0.213745
0.363525 0.201538 0.196411
0.484863 0.189087 0.184082
0.576172 0.169556 0.162109
0.644043 0.155151 0.150391
0.665527 0.167969 0.161743
0.675293 0.181763 0.170044
0.000000 0.364258 0.197876
0.011032 0.370850 0.175903
0.155396 0.369873 0.142578
0.343750 0.343506 0.206665
0.432129 0.346191 0.231567
0.512695 0.338379 0.215332
0.591797 0.319336 0.195557
0.638184 0.297363 0.182739
0.651367 0.291016 0.182861
0.032990 0.473145 0.152100
0.041779 0.491455 0.145752
0.114136 0.509277 0.116211
0.356445 0.465820 0.217651
0.471436 0.470947 0.223267
0.551758 0.471436 0.259766
0.597168 0.467041 0.288330
0.620117 0.457764 0.301514
0.641602 0.441895 0.279053
0.089600 0.544922 0.160278
0.116760 0.563965 0.163574
0.140259 0.594238 0.161377
0.371582 0.558594 0.227295
0.507812 0.593750 0.274170
0.609375 0.604980 0.294922
0.674805 0.607422 0.325684
0.692383 0.583984 0.343750
0.702637 0.575684 0.364502
0.121887 0.604492 0.184814
0.149780 0.616699 0.192139
0.184204 0.641113 0.208618
0.354492 0.622559 0.238281
0.520020 0.634277 0.319336
0.637695 0.688477 0.349854
0.733398 0.729004 0.376221
0.759277 0.712402 0.399170
0.765625 0.693359 0.416260
0.137817 0.647949 0.197876
0.160522 0.655762 0.207520
0.204102 0.665527 0.220947
0.353516 0.651855 0.253418
0.535645 0.662598 0.355957
0.642090 0.709961 0.385498
0.742676 0.758789 0.414307
0.819336 0.812012 0.461182
0.832031 0.815918 0.478027
0.129272 0.684570 0.203979
0.173706 0.686035 0.213257
0.221069 0.693359 0.223877
0.371582 0.687012 0.264160
0.545898 0.687012 0.374268
0.653320 0.736328 0.410889
0.754395 0.785645 0.444580
0.834473 0.837402 0.484619
0.862305 0.858398 0.513184
0.000000 0.087708 0.474121
0.080383 0.104797 0.432373
0.208252 0.124756 0.322021
0.334229 0.115234 0.317139
0.388428 0.134155 0.303711
0.494141 0.112793 0.323486
0.572266 0.095459 0.322998
0.613770 0.092712 0.318848
0.630859 0.094238 0.312988
0.000000 0.108276 0.480957
0.064453 0.121155 0.438721
0.209839 0.136475 0.357178
0.341553 0.134155 0.330078
0.391113 0.147217 0.308838
0.490723 0.132935 0.324463
0.576660 0.118591 0.320068
0.627441 0.109009 0.313477
0.641602 0.110474 0.306885
0.000000 0.240601 0.429443
0.027557 0.216675 0.403320
0.190063 0.199341 0.385010
0.354004 0.186157 0.353516
0.411377 0.198486 0.315186
0.527832 0.176270 0.314941
0.629883 0.161987 0.294434
0.666016 0.163940 0.280762
0.677734 0.169678 0.275391
0.000000 0.352295 0.382812
0.004799 0.346924 0.373047
0.127686 0.355225 0.356934
0.328369 0.328125 0.327637
0.453369 0.319336 0.312256
0.554199 0.300049 0.296387
0.627441 0.278076 0.275879
0.666016 0.266846 0.255615
0.678223 0.270264 0.250244
0.011627 0.452637 0.325684
0.045166 0.463623 0.318848
0.100220 0.493652 0.310059
0.292969 0.477539 0.291016
0.456787 0.456055 0.338867
0.531250 0.458740 0.360840
0.597168 0.454102 0.345215
0.645996 0.434326 0.316650
0.665039 0.424805 0.309082
0.069580 0.538086 0.283447
0.095825 0.557129 0.280518
0.123169 0.598145 0.275879
0.282227 0.611816 0.273193
0.493164 0.582520 0.370361
0.593262 0.592285 0.375732
0.662598 0.595215 0.392090
0.700684 0.593262 0.415283
0.709961 0.585449 0.421631
0.107788 0.612305 0.269043
0.138428 0.627930 0.275146
0.162842 0.656738 0.281982
0.283447 0.679199 0.294434
0.505859 0.661621 0.378662
0.645020 0.716309 0.426270
0.730469 0.731445 0.444336
0.775391 0.724121 0.469727
0.784180 0.709473 0.477783
0.126099 0.648926 0.277344
0.138062 0.654297 0.283936
0.195068 0.665527 0.295166
0.308594 0.679199 0.300781
0.519043 0.682617 0.389404
0.657227 0.742676 0.454346
0.770996 0.807617 0.499512
0.842285 0.839355 0.522461
0.856934 0.836426 0.536621
0.127319 0.683105 0.287354
0.142578 0.684082 0.293945
0.218506 0.691406 0.302002
0.332275 0.703613 0.308838
0.523438 0.710449 0.394531
0.665039 0.758789 0.474854
0.772949 0.815918 0.514160
0.855469 0.862793 0.545898
0.893066 0.888672 0.574219
0.000000 0.124695 0.554688
0.063843 0.137329 0.523926
0.196289 0.137695 0.489746
0.298828 0.151611 0.369629
0.395996 0.150269 0.373535
0.447998 0.164307 0.365234
0.499023 0.163452 0.372070
0.547852 0.152954 0.378662
0.559570 0.151001 0.375977
0.000000 0.137451 0.564453
0.051758 0.147583 0.537109
0.187622 0.153809 0.499756
0.302734 0.166870 0.379883
0.400146 0.155518 0.384766
0.454590 0.171997 0.377197
0.500488 0.174683 0.380859
0.549805 0.163818 0.383545
0.561035 0.163208 0.379395
0.000000 0.208252 0.537109
0.033264 0.203857 0.534668
0.172119 0.189819 0.516602
0.306396 0.198486 0.397461
0.415771 0.187622 0.407227
0.455566 0.211060 0.388184
0.524902 0.211548 0.392822
0.573242 0.207642 0.387939
0.603027 0.203491 0.383301
0.000000 0.345215 0.516602
0.000000 0.347412 0.511719
0.122925 0.326660 0.489746
0.307373 0.311035 0.465820
0.444092 0.292236 0.442383
0.486084 0.307617 0.406494
0.583984 0.282715 0.405518
0.650391 0.265137 0.390137
0.677734 0.264648 0.374268
0.000000 0.446777 0.484863
0.001034 0.464355 0.487061
0.081909 0.469482 0.472412
0.266113 0.459473 0.457520
0.440918 0.439453 0.438965
0.550781 0.432861 0.429443
0.633301 0.416260 0.416016
0.680176 0.403076 0.396973
0.696777 0.400391 0.385010
0.026733 0.517578 0.440918
0.047455 0.531738 0.439941
0.131958 0.559082 0.437500
0.252930 0.599609 0.442871
0.438232 0.590332 0.434814
0.582520 0.582520 0.483643
0.649902 0.585938 0.503906
0.695801 0.583496 0.492920
0.713867 0.576172 0.477539
0.056976 0.586914 0.411621
0.088562 0.598145 0.413086
0.167358 0.624023 0.423096
0.284424 0.656738 0.431396
0.450195 0.707031 0.442383
0.636230 0.709473 0.532715
0.730957 0.729980 0.543457
0.784668 0.732422 0.553711
0.796387 0.722656 0.558594
0.058502 0.636719 0.403809
0.118042 0.643066 0.409912
0.188843 0.655273 0.421143
0.309814 0.673340 0.429199
0.464600 0.714355 0.440674
0.653320 0.747559 0.546387
0.779297 0.823730 0.588867
0.851562 0.848633 0.604980
0.874512 0.847168 0.615234
0.081299 0.678223 0.409912
0.131714 0.682617 0.416992
0.202393 0.685547 0.427002
0.318115 0.700684 0.435303
0.477539 0.742188 0.452881
0.665527 0.769531 0.562988
0.781250 0.831055 0.601562
0.865234 0.876465 0.625000
0.911621 0.908691 0.649414
0.000000 0.135864 0.623047
0.072144 0.145996 0.596680
0.186035 0.156616 0.553223
0.291016 0.173462 0.401123
0.392090 0.171753 0.405273
0.451904 0.184326 0.407227
0.494385 0.189819 0.409180
0.516602 0.203857 0.416992
0.524414 0.209106 0.414551
0.000000 0.134766 0.641113
0.057159 0.154663 0.610840
0.177734 0.175903 0.564941
0.298096 0.186890 0.427002
0.395020 0.186279 0.417236
0.457520 0.197510 0.419678
0.500488 0.202515 0.421387
0.523926 0.215332 0.426758
0.528809 0.220459 0.422607
0.000000 0.199097 0.639160
0.033142 0.189819 0.632324
0.162842 0.199341 0.590820
0.304443 0.224243 0.519531
0.400391 0.232788 0.448975
0.461914 0.223877 0.445557
0.512207 0.227539 0.450684
0.535645 0.238403 0.446777
0.535645 0.245239 0.435791
0.000000 0.334229 0.612793
0.001607 0.327148 0.606445
0.114990 0.305176 0.586426
0.283691 0.289062 0.572754
0.406250 0.302490 0.486328
0.501953 0.286377 0.493896
0.520020 0.296387 0.462891
0.560059 0.305176 0.462402
0.585938 0.306396 0.462402
0.000000 0.446289 0.596680
0.000000 0.462158 0.599121
0.075684 0.452148 0.587891
0.256836 0.430420 0.568848
0.418457 0.419922 0.551758
0.541992 0.407715 0.539551
0.583496 0.421143 0.510254
0.637207 0.399414 0.500977
0.673828 0.394775 0.496338
0.000000 0.533203 0.568848
0.021393 0.541992 0.575684
0.093567 0.563477 0.581055
0.229248 0.570801 0.574707
0.414551 0.573242 0.574219
0.568359 0.566895 0.566895
0.667969 0.563965 0.562500
0.729980 0.555664 0.553711
0.746094 0.545410 0.537598
0.018539 0.593262 0.546875
0.059937 0.594238 0.553223
0.141602 0.608398 0.562500
0.259521 0.658691 0.573730
0.421875 0.701172 0.580078
0.593262 0.717773 0.585938
0.725098 0.724609 0.638672
0.780762 0.731934 0.657715
0.796875 0.731934 0.662109
0.034302 0.636719 0.537598
0.058411 0.644043 0.540527
0.164551 0.657227 0.550781
0.295166 0.681641 0.566895
0.444824 0.727539 0.574219
0.613281 0.783203 0.598633
0.781250 0.830566 0.691895
0.863281 0.862793 0.712891
0.897949 0.866211 0.719238
0.033661 0.682129 0.537598
0.112122 0.688965 0.542480
0.193970 0.693848 0.553223
0.309082 0.707520 0.570312
0.462158 0.749512 0.582520
0.625977 0.802246 0.607910
0.792480 0.847656 0.699707
0.878906 0.895508 0.727051
0.940430 0.938965 0.755859
0.000000 0.168579 0.644531
0.067810 0.173828 0.627441
0.180908 0.172607 0.594727
0.297852 0.178833 0.485596
0.372803 0.197266 0.422852
0.452148 0.198730 0.438965
0.501465 0.208618 0.445557
0.527344 0.219116 0.451904
0.539062 0.225830 0.454102
0.000000 0.192993 0.651367
0.048065 0.197754 0.636719
0.167847 0.197754 0.598145
0.297852 0.199463 0.535645
0.376221 0.218750 0.439697
0.455811 0.218140 0.448486
0.509277 0.227295 0.457520
0.533691 0.236694 0.460938
0.544922 0.243774 0.464111
0.000000 0.230835 0.668945
0.031921 0.233154 0.659180
0.147095 0.244385 0.610352
0.283447 0.245117 0.583496
0.380127 0.262207 0.466797
0.468994 0.244385 0.476562
0.514160 0.252686 0.473145
0.547852 0.261719 0.481201
0.555176 0.264893 0.481201
0.000000 0.318115 0.672852
0.008148 0.307861 0.671387
0.122192 0.317139 0.632812
0.265137 0.307617 0.609375
0.395020 0.312744 0.543945
0.490479 0.312500 0.520996
0.532227 0.305420 0.507324
0.563965 0.312256 0.509766
0.572266 0.319336 0.507324
0.000000 0.447021 0.685059
0.000000 0.446777 0.684082
0.096313 0.425537 0.664551
0.233276 0.416016 0.639648
0.395752 0.407959 0.630859
0.514648 0.414307 0.577637
0.595215 0.396484 0.578125
0.610840 0.396729 0.560059
0.616211 0.408936 0.551270
0.000000 0.565918 0.685547
0.000000 0.561523 0.681152
0.085693 0.563965 0.680176
0.213623 0.555176 0.673340
0.402344 0.551270 0.667480
0.549316 0.547363 0.663086
0.664062 0.543945 0.658691
0.699707 0.548828 0.638184
0.709961 0.546875 0.625977
0.000000 0.627930 0.668457
0.014236 0.630859 0.670410
0.123047 0.630859 0.672852
0.236328 0.645996 0.679199
0.404053 0.683105 0.691406
0.572266 0.706055 0.708984
0.716309 0.714844 0.715332
0.797363 0.721191 0.719238
0.837402 0.712891 0.712891
0.023514 0.662109 0.655273
0.030457 0.674805 0.659180
0.140381 0.687988 0.668945
0.268555 0.695312 0.677246
0.426270 0.723145 0.691895
0.588379 0.764648 0.708496
0.750977 0.826660 0.743164
0.866699 0.865723 0.800781
0.901855 0.872559 0.814453
0.050690 0.698730 0.656738
0.103088 0.706543 0.663574
0.160767 0.714844 0.672852
0.291016 0.723633 0.682617
0.444580 0.748047 0.699707
0.606934 0.803223 0.719238
0.765625 0.864258 0.755371
0.897461 0.917969 0.830566
0.971680 0.969727 0.860840
0.000000 0.190674 0.668945
0.058655 0.193848 0.656250
0.181030 0.186646 0.625488
0.297607 0.185425 0.556641
0.363037 0.210205 0.440674
0.447510 0.207642 0.462158
0.504395 0.215454 0.469971
0.533203 0.228394 0.477051
0.548340 0.235229 0.481445
0.000000 0.221313 0.668945
0.046570 0.220703 0.657715
0.166870 0.215576 0.625977
0.294678 0.211426 0.597656
0.365723 0.236572 0.449707
0.449951 0.228027 0.465332
0.508789 0.234131 0.474609
0.539062 0.248779 0.482666
0.553223 0.254150 0.486328
0.000000 0.271973 0.674805
0.027649 0.269531 0.666016
0.149292 0.267578 0.633301
0.277588 0.261230 0.605469
0.377197 0.272949 0.484375
0.460938 0.260498 0.489014
0.514648 0.266846 0.489014
0.547852 0.275879 0.493408
0.559570 0.280273 0.495850
0.000000 0.337891 0.687500
0.004295 0.328857 0.680176
0.127930 0.333740 0.652832
0.249756 0.333008 0.628906
0.389893 0.323975 0.609863
0.475342 0.326660 0.533691
0.544434 0.316650 0.533691
0.569824 0.336670 0.529297
0.583496 0.344727 0.530762
0.000000 0.422607 0.712891
0.007099 0.424561 0.716797
0.101746 0.426270 0.687988
0.224609 0.414795 0.667969
0.371094 0.407227 0.659180
0.493408 0.418457 0.583008
0.593262 0.405029 0.602051
0.626465 0.409180 0.595215
0.633789 0.418457 0.589355
0.000000 0.557617 0.733398
0.000000 0.562500 0.745605
0.095337 0.549805 0.735840
0.211792 0.541016 0.718262
0.381836 0.534180 0.704102
0.523926 0.534668 0.704590
0.641602 0.540039 0.684082
0.712402 0.535645 0.688965
0.723145 0.530762 0.681641
0.000000 0.659180 0.747559
0.004276 0.674805 0.759766
0.096436 0.676270 0.766602
0.227539 0.664551 0.761719
0.387207 0.674316 0.767090
0.562988 0.695801 0.783691
0.702148 0.703613 0.782715
0.799316 0.705078 0.793945
0.832520 0.711426 0.783691
0.021759 0.698730 0.751953
0.052124 0.714355 0.762207
0.113708 0.722656 0.771484
0.252686 0.707520 0.763672
0.417969 0.740234 0.782715
0.579590 0.793457 0.818848
0.745117 0.836426 0.845215
0.866699 0.866699 0.866699
0.921875 0.873535 0.871582
0.008247 0.726074 0.755859
0.067444 0.729980 0.761719
0.127075 0.738281 0.767578
0.280518 0.748535 0.772461
0.436768 0.766602 0.789551
0.599609 0.814941 0.822754
0.762207 0.875977 0.858887
0.892090 0.929688 0.889160
0.984863 0.983887 0.939941
0.004478 0.193604 0.694824
0.061279 0.191406 0.683105
0.176147 0.184692 0.654785
0.298828 0.181030 0.592773
0.356445 0.210083 0.454102
0.440918 0.205200 0.476807
0.503906 0.210938 0.489746
0.535645 0.225708 0.495605
0.552246 0.231323 0.499023
0.000000 0.230469 0.689453
0.051056 0.227539 0.678223
0.164917 0.220703 0.651367
0.292236 0.210327 0.625000
0.361816 0.236206 0.464844
0.442627 0.227661 0.479248
0.507324 0.233154 0.492920
0.539551 0.246582 0.497070
0.555664 0.251953 0.500488
0.000000 0.276855 0.686523
0.032806 0.272217 0.679688
0.150391 0.269531 0.654297
0.269287 0.266357 0.630371
0.379639 0.270264 0.535156
0.447021 0.270508 0.495850
0.513672 0.269531 0.504395
0.550781 0.284424 0.511719
0.565430 0.288574 0.513672
0.000000 0.332520 0.690430
0.026901 0.334961 0.686035
0.128906 0.340088 0.664551
0.241577 0.335938 0.647949
0.379883 0.324463 0.636230
0.460693 0.329346 0.537598
0.543945 0.322266 0.550293
0.571777 0.345703 0.542480
0.588867 0.354736 0.547852
0.000000 0.417480 0.718262
0.008232 0.421631 0.718262
0.107544 0.423828 0.694824
0.223267 0.416748 0.672852
0.366211 0.408691 0.664551
0.489502 0.415283 0.609375
0.582520 0.412354 0.612305
0.631348 0.414795 0.608887
0.645996 0.428711 0.610352
0.000000 0.539062 0.745117
0.016693 0.541504 0.750977
0.081848 0.541504 0.744629
0.217407 0.535156 0.726562
0.375488 0.528320 0.710449
0.521484 0.536133 0.717285
0.629883 0.540527 0.687500
0.712402 0.538086 0.702148
0.730469 0.540527 0.696289
0.000000 0.656250 0.764160
0.008423 0.661133 0.770508
0.119995 0.664551 0.782715
0.233154 0.650879 0.778320
0.389648 0.649414 0.776367
0.552246 0.683105 0.794434
0.685547 0.692383 0.794434
0.791016 0.699707 0.803223
0.838379 0.709473 0.815430
0.031555 0.710449 0.784668
0.069824 0.721191 0.790527
0.130371 0.721191 0.794434
0.262939 0.712891 0.791992
0.420898 0.742676 0.806152
0.583496 0.781738 0.837891
0.741211 0.828613 0.887695
0.859375 0.858887 0.898438
0.913574 0.864258 0.911621
0.040527 0.729980 0.790527
0.065247 0.734863 0.794922
0.134644 0.743652 0.799805
0.281738 0.754395 0.805664
0.440430 0.774902 0.819336
0.600586 0.822266 0.852539
0.757812 0.871094 0.894531
0.893066 0.936035 0.953125
0.992188 0.992188 0.992188
