RED_IPP2_Creative/RED_FilmBiasOffset.cube
#RED_IPP2_CREATIVE_LUT
# RED_FilmBiasOffset - Color inspired by motion picture film with a highlight and shadow offset
# created by Phil Holland - phfx.com
# Settings used in creation of this LUT are:
# Development Color Space = USER SELECTABLE
# Output Gamma Curve = USER SELECTABLE
# Output Tonemap = USER SELECTABLE
# Highlight Rolloff = USER SELECTABLE
LUT_3D_SIZE 9
0 0.00531014 0.0137789
0.0872358 0.0500343 0.0586252
0.189609 0.0838331 0.0942855
0.267659 0.12813 0.13814
0.312673 0.188098 0.195148
0.335927 0.255848 0.2598
0.358724 0.324453 0.325887
0.395697 0.39205 0.392172
0.445579 0.445579 0.445579
0.0577401 0.11043 0.0764477
0.128573 0.117983 0.0713817
0.223636 0.124758 0.0808881
0.272251 0.158862 0.131548
0.301778 0.214511 0.200351
0.324392 0.277134 0.271183
0.3552 0.340856 0.339498
0.404639 0.404639 0.404639
0.448524 0.448524 0.448524
0.104921 0.222126 0.118761
0.175082 0.219699 0.109026
0.268711 0.229145 0.114794
0.327932 0.24799 0.171099
0.334508 0.281498 0.252537
0.344869 0.326543 0.319692
0.378912 0.378164 0.377951
0.438849 0.438849 0.438849
0.461143 0.461143 0.461143
0.175616 0.316136 0.179706
0.24033 0.313359 0.167376
0.293126 0.310307 0.161837
0.384802 0.342367 0.232517
0.414618 0.368704 0.317128
0.428229 0.407431 0.391867
0.442832 0.442832 0.442832
0.483528 0.483528 0.483528
0.495033 0.495033 0.495033
0.244465 0.392248 0.250614
0.303731 0.398657 0.236469
0.347021 0.390326 0.228687
0.397589 0.393927 0.259007
0.487877 0.45597 0.384192
0.505882 0.488136 0.467048
0.529625 0.527047 0.52491
0.560723 0.560723 0.560723
0.559777 0.559777 0.559777
0.319661 0.454994 0.322271
0.362692 0.474525 0.310582
0.406683 0.464729 0.301137
0.432502 0.455116 0.310307
0.499596 0.487694 0.397314
0.586404 0.570764 0.538888
0.609064 0.607248 0.605051
0.637461 0.637461 0.637461
0.647608 0.647608 0.647608
0.396826 0.508629 0.397757
0.425574 0.536904 0.383551
0.465827 0.536858 0.378256
0.486686 0.517159 0.382681
0.512886 0.517098 0.419028
0.607935 0.598657 0.555261
0.690242 0.687297 0.681773
0.713924 0.713924 0.713924
0.714977 0.714977 0.714977
0.475944 0.559335 0.475914
0.49041 0.589731 0.458579
0.524392 0.59733 0.454383
0.54609 0.584176 0.459129
0.557549 0.571527 0.479011
0.611658 0.609567 0.562066
0.720729 0.7178 0.707485
0.787778 0.787717 0.787564
0.784817 0.784802 0.784772
0.558816 0.612802 0.558434
0.557595 0.637583 0.535134
0.58381 0.651148 0.531029
0.604685 0.644312 0.536461
0.617411 0.634485 0.554437
0.645167 0.648844 0.600443
0.723033 0.721691 0.710094
0.811795 0.811795 0.81178
0.810849 0.810849 0.810849
0.022446 0.0426184 0.0647288
0.0847639 0.0633402 0.10515
0.190692 0.0906233 0.150027
0.284352 0.134676 0.192569
0.351583 0.191394 0.236133
0.387991 0.258274 0.28481
0.409445 0.328573 0.341314
0.432166 0.398611 0.402792
0.467918 0.464149 0.464515
0.054551 0.117144 0.121538
0.114855 0.127459 0.135042
0.228229 0.139406 0.147738
0.312825 0.172732 0.181918
0.368353 0.223102 0.230076
0.397681 0.284321 0.288884
0.416114 0.349889 0.352148
0.439506 0.4159 0.416587
0.476326 0.474968 0.474998
0.0936294 0.227146 0.167636
0.146731 0.236698 0.159228
0.260243 0.240589 0.163195
0.354391 0.251102 0.189624
0.391852 0.285039 0.253574
0.409628 0.335088 0.321279
0.428031 0.391608 0.386908
0.457664 0.450095 0.449363
0.497353 0.497353 0.497353
0.159609 0.320912 0.222004
0.205402 0.330022 0.207675
0.291554 0.332097 0.202411
0.394614 0.351919 0.237644
0.454795 0.375204 0.301747
0.458183 0.409979 0.3841
0.466484 0.452476 0.447364
0.4981 0.497978 0.497932
0.524666 0.524666 0.524666
0.235813 0.397955 0.282567
0.270604 0.410651 0.266606
0.344884 0.417517 0.262562
0.401404 0.413779 0.264454
0.511269 0.463432 0.358724
0.541375 0.494499 0.446296
0.551461 0.532906 0.519966
0.570047 0.570047 0.570047
0.575753 0.575753 0.575753
0.314427 0.46096 0.346792
0.338613 0.478752 0.331151
0.40058 0.493477 0.327321
0.448203 0.485847 0.325765
0.500633 0.491951 0.364202
0.610361 0.576333 0.508858
0.631434 0.614008 0.594934
0.654429 0.653025 0.651926
0.657923 0.657282 0.656764
0.395315 0.515007 0.416526
0.409094 0.53579 0.400824
0.457877 0.558877 0.39527
0.501793 0.553826 0.395361
0.525963 0.543664 0.406867
0.600366 0.586755 0.504616
0.706737 0.6916 0.663523
0.730602 0.727855 0.724498
0.733745 0.730755 0.727077
0.477684 0.565911 0.490135
0.481712 0.585504 0.474205
0.51667 0.614191 0.466346
0.555642 0.615183 0.46804
0.575113 0.600793 0.476844
0.601846 0.603738 0.515267
0.711406 0.702434 0.665858
0.804486 0.80061 0.792721
0.804807 0.801205 0.793759
0.56257 0.620066 0.568902
0.556741 0.633448 0.550774
0.577661 0.662547 0.539803
0.61033 0.669856 0.541985
0.62945 0.659251 0.551446
0.643793 0.65478 0.573373
0.704387 0.701793 0.66247
0.821622 0.819516 0.812604
0.822217 0.820569 0.815259
0.0583505 0.0809339 0.126329
0.0949264 0.099855 0.145327
0.192844 0.112291 0.210147
0.282612 0.132113 0.243549
0.356664 0.190356 0.27895
0.405127 0.256962 0.315892
0.434913 0.327276 0.360479
0.457282 0.398535 0.412741
0.486244 0.468284 0.471748
0.0741283 0.132006 0.182406
0.116655 0.142641 0.199084
0.219471 0.153567 0.235203
0.318639 0.179278 0.257435
0.391516 0.228412 0.284459
0.439109 0.287251 0.323293
0.464485 0.352758 0.372396
0.482185 0.42063 0.428779
0.506462 0.48423 0.486473
0.103136 0.233433 0.230793
0.144457 0.243305 0.243397
0.247089 0.250614 0.253758
0.365148 0.258686 0.260105
0.436332 0.290364 0.293996
0.472236 0.338903 0.341909
0.488899 0.396826 0.398642
0.504265 0.457511 0.458259
0.52723 0.511437 0.511589
0.166476 0.327047 0.277165
0.197086 0.339925 0.273228
0.268833 0.355947 0.267994
0.3888 0.363485 0.2851
0.483879 0.378164 0.318563
0.51191 0.411673 0.382589
0.520851 0.458442 0.446616
0.535332 0.50985 0.50634
0.559869 0.554192 0.553567
0.239414 0.406256 0.325856
0.26006 0.4215 0.315633
0.3149 0.439628 0.307698
0.410391 0.445472 0.309758
0.524041 0.472831 0.362799
0.579705 0.500038 0.432059
0.579568 0.536126 0.513985
0.586831 0.577661 0.574441
0.602319 0.596841 0.595132
0.317205 0.471077 0.37969
0.329519 0.488853 0.368902
0.371344 0.509804 0.360403
0.456107 0.522591 0.362158
0.513146 0.517632 0.37052
0.634211 0.583597 0.485908
0.66392 0.619989 0.577295
0.672877 0.658854 0.649454
0.672496 0.665019 0.660304
0.399084 0.52575 0.44097
0.403937 0.544442 0.430564
0.433204 0.568017 0.421042
0.503883 0.590204 0.422614
0.551431 0.582483 0.426459
0.602518 0.589868 0.4701
0.728542 0.696315 0.63711
0.753613 0.739803 0.725277
0.759091 0.745724 0.731304
0.483482 0.575936 0.509071
0.481437 0.592874 0.49839
0.498817 0.616709 0.487465
0.55407 0.647013 0.487556
0.598077 0.643244 0.492714
0.619837 0.633127 0.505776
0.699367 0.685222 0.613138
0.82269 0.810315 0.787884
0.829541 0.817243 0.793637
0.571252 0.62948 0.584878
0.561669 0.640833 0.571191
0.566796 0.660639 0.557351
0.607233 0.694911 0.5561
0.646525 0.698329 0.562387
0.664454 0.685359 0.57351
0.691325 0.691325 0.613275
0.813092 0.805356 0.777142
0.837354 0.830335 0.808927
0.0943313 0.120287 0.192157
0.119661 0.131518 0.207874
0.191821 0.158816 0.247715
0.292866 0.167452 0.302617
0.34551 0.19234 0.309239
0.399969 0.257542 0.339712
0.438804 0.327337 0.377539
0.467887 0.398611 0.423606
0.497978 0.469047 0.477562
0.101167 0.157 0.238239
0.134905 0.16733 0.249119
0.201221 0.193057 0.277699
0.313176 0.201617 0.32105
0.393668 0.229709 0.339178
0.450599 0.288289 0.364111
0.486076 0.353185 0.399008
0.508492 0.421408 0.444511
0.531762 0.487587 0.496941
0.129992 0.243626 0.286503
0.166079 0.249149 0.309911
0.237522 0.263584 0.331716
0.353674 0.270604 0.354818
0.448188 0.295201 0.365393
0.503944 0.342077 0.386969
0.532372 0.399115 0.423987
0.547845 0.460716 0.472374
0.563851 0.521981 0.526192
0.184146 0.332769 0.325429
0.208057 0.345281 0.338247
0.268238 0.362753 0.356664
0.381903 0.3729 0.367514
0.500389 0.382528 0.373846
0.556283 0.413489 0.410346
0.575113 0.4607 0.458869
0.583124 0.515053 0.514076
0.596582 0.567147 0.566735
0.253559 0.41352 0.371023
0.267445 0.429938 0.372885
0.310674 0.452811 0.376669
0.394553 0.474144 0.376471
0.523598 0.484215 0.400916
0.608484 0.503029 0.443687
0.626032 0.537697 0.510643
0.629511 0.583017 0.573205
0.642618 0.618097 0.61384
0.327886 0.480735 0.416968
0.334432 0.50071 0.41355
0.365148 0.525597 0.411215
0.429679 0.549706 0.407584
0.533791 0.558694 0.417243
0.64918 0.592782 0.484367
0.698421 0.625284 0.562844
0.696483 0.662455 0.644739
0.70106 0.676158 0.664698
0.408347 0.537774 0.469963
0.408698 0.558099 0.463737
0.428382 0.583444 0.459373
0.477607 0.609934 0.454749
0.569924 0.62742 0.463752
0.623835 0.621286 0.477775
0.751369 0.703182 0.614954
0.781308 0.745663 0.710933
0.788235 0.758999 0.73164
0.49276 0.58912 0.531167
0.487511 0.606592 0.522988
0.497734 0.630503 0.517647
0.532433 0.658427 0.512001
0.609186 0.685939 0.520546
0.654475 0.678676 0.529961
0.702358 0.687129 0.577295
0.842695 0.815747 0.768231
0.858244 0.832914 0.788037
0.581125 0.64242 0.601831
0.569741 0.6533 0.590387
0.570596 0.672831 0.58262
0.592493 0.699596 0.576104
0.652277 0.734157 0.582788
0.694606 0.732006 0.593164
0.713481 0.722683 0.60679
0.795575 0.78233 0.722591
0.85684 0.841825 0.798886
0.128359 0.159365 0.255482
0.151186 0.166705 0.265782
0.205692 0.192706 0.29305
0.29102 0.218952 0.33785
0.378454 0.232334 0.374166
0.385657 0.263462 0.353735
0.428305 0.330373 0.388144
0.464973 0.400473 0.431449
0.500648 0.470756 0.482612
0.129335 0.189609 0.284733
0.158923 0.198566 0.295552
0.212222 0.219638 0.324987
0.298375 0.248371 0.354086
0.40058 0.25977 0.393149
0.444816 0.292363 0.395254
0.486946 0.355703 0.423117
0.517235 0.423255 0.461234
0.54493 0.489357 0.507683
0.164736 0.259174 0.331502
0.190692 0.263554 0.351492
0.247456 0.281147 0.374456
0.324681 0.305501 0.400824
0.443976 0.313161 0.427039
0.510765 0.343877 0.436851
0.550347 0.400351 0.459236
0.573541 0.462058 0.49485
0.591073 0.525719 0.540749
0.212757 0.342214 0.368505
0.233188 0.350927 0.390372
0.28368 0.365255 0.421897
0.365469 0.384466 0.444419
0.493019 0.391058 0.461067
0.575982 0.415961 0.469001
0.613046 0.462089 0.492546
0.626627 0.517403 0.532372
0.636133 0.575357 0.581369
0.274342 0.418555 0.406058
0.28307 0.435126 0.419959
0.318654 0.458091 0.439872
0.394446 0.48191 0.459709
0.523415 0.493507 0.470451
0.629267 0.506096 0.482475
0.668254 0.538231 0.526741
0.676234 0.585107 0.57966
0.681682 0.632944 0.630594
0.344808 0.490242 0.451972
0.347768 0.509789 0.457786
0.371954 0.536431 0.466377
0.429145 0.566995 0.473564
0.527947 0.592081 0.477867
0.656016 0.604547 0.512367
0.727199 0.628168 0.568368
0.737118 0.664454 0.639261
0.744259 0.689403 0.673899
0.422965 0.54902 0.49984
0.419791 0.570459 0.500404
0.434226 0.598703 0.502434
0.475395 0.631251 0.503822
0.550301 0.659663 0.505562
0.656611 0.671489 0.525017
0.770184 0.712139 0.606683
0.813367 0.750668 0.696468
0.813733 0.76376 0.726726
0.506157 0.602609 0.555795
0.498054 0.621515 0.552026
0.504128 0.647608 0.550118
0.531029 0.679622 0.549111
0.587701 0.709957 0.550118
0.683803 0.731258 0.568353
0.732937 0.724804 0.587747
0.866056 0.82211 0.744717
0.888548 0.846601 0.780026
0.594125 0.657176 0.62182
0.580621 0.669062 0.612985
0.578332 0.689479 0.607141
0.593698 0.718532 0.604883
0.634256 0.749096 0.605173
0.714534 0.780835 0.621653
0.756863 0.774487 0.636851
0.799527 0.783398 0.68632
0.889174 0.863722 0.796979
0.163027 0.199847 0.309483
0.183536 0.204059 0.316976
0.224689 0.225711 0.342809
0.29929 0.255253 0.373434
0.387747 0.280797 0.416068
0.453529 0.302419 0.435431
0.417258 0.338689 0.395377
0.455238 0.405173 0.434989
0.496529 0.474266 0.485313
0.163653 0.224186 0.327535
0.18854 0.230655 0.338979
0.235935 0.248737 0.363912
0.302235 0.279683 0.393164
0.396216 0.305974 0.429282
0.479362 0.3243 0.456886
0.478096 0.363012 0.440711
0.512428 0.427863 0.473686
0.546029 0.492988 0.516747
0.199084 0.279973 0.366079
0.216434 0.285039 0.382223
0.265156 0.302983 0.408103
0.326314 0.327459 0.441123
0.42475 0.354269 0.463203
0.522728 0.367498 0.491371
0.549325 0.404944 0.491203
0.579767 0.46508 0.517876
0.603387 0.528405 0.555901
0.245243 0.354788 0.405585
0.261357 0.360601 0.427924
0.3019 0.37496 0.461036
0.368246 0.397955 0.488197
0.457649 0.421012 0.515755
0.577523 0.429679 0.532113
0.626261 0.463188 0.539834
0.650477 0.518334 0.562585
0.664469 0.577783 0.599695
0.301259 0.428016 0.440543
0.309117 0.442161 0.462898
0.340459 0.46157 0.494102
0.404623 0.482429 0.530922
0.502541 0.503609 0.55288
0.630655 0.511116 0.566125
0.698634 0.538277 0.576577
0.719265 0.585367 0.604654
0.723827 0.639155 0.647303
0.369024 0.495003 0.480156
0.367666 0.514733 0.495216
0.385504 0.541421 0.516335
0.433417 0.572793 0.540887
0.528328 0.601556 0.561151
0.66302 0.614343 0.575555
0.753796 0.630762 0.59556
0.778515 0.664805 0.64802
0.785702 0.697871 0.688258
0.441611 0.56141 0.530022
0.436881 0.581567 0.53756
0.446662 0.609735 0.548867
0.480659 0.645106 0.561257
0.553338 0.682048 0.571878
0.661891 0.709453 0.582742
0.78529 0.724956 0.627436
0.843015 0.753521 0.697093
0.853147 0.770092 0.728923
0.52343 0.616449 0.581872
0.513329 0.635218 0.583413
0.514977 0.662837 0.587777
0.53666 0.699016 0.593057
0.589319 0.738064 0.598825
0.671809 0.768811 0.606806
0.778073 0.784253 0.637003
0.888502 0.830976 0.731487
0.916823 0.856764 0.775402
0.609033 0.67187 0.643046
0.594537 0.684825 0.638331
0.588754 0.707164 0.636362
0.600778 0.739666 0.637827
0.636164 0.77731 0.641474
0.698177 0.809384 0.648005
0.796628 0.834623 0.676539
0.84097 0.828595 0.700557
0.930022 0.892943 0.802533
0.200504 0.237659 0.355718
0.218128 0.241047 0.362951
0.254154 0.258183 0.385107
0.314809 0.28809 0.412238
0.395682 0.31783 0.448783
0.480919 0.345312 0.487663
0.515877 0.376287 0.491234
0.464347 0.417792 0.450553
0.49247 0.480293 0.487465
0.200275 0.258366 0.365484
0.220981 0.263752 0.37818
0.262959 0.279911 0.400931
0.313085 0.308522 0.433814
0.399344 0.33991 0.463325
0.492287 0.366842 0.501534
0.545357 0.393957 0.515007
0.506355 0.436942 0.483604
0.540764 0.499245 0.522591
0.23154 0.304219 0.393973
0.245762 0.310201 0.411917
0.287587 0.327886 0.440436
0.343175 0.351354 0.47245
0.419608 0.382681 0.502251
0.520714 0.407599 0.531182
0.588937 0.429572 0.550057
0.575753 0.472221 0.536492
0.603311 0.533135 0.568521
0.278569 0.370016 0.434928
0.291539 0.375463 0.457038
0.321904 0.390921 0.488045
0.379889 0.414816 0.521263
0.450889 0.43975 0.558053
0.559518 0.465141 0.573739
0.645029 0.481346 0.593439
0.654429 0.522545 0.593042
0.674922 0.580941 0.619898
0.33225 0.441276 0.47451
0.339529 0.451041 0.497139
0.36643 0.467658 0.532662
0.417929 0.488624 0.573205
0.498085 0.514778 0.602502
0.594461 0.537118 0.629511
0.707988 0.548547 0.638209
0.738994 0.585534 0.64683
0.751812 0.639918 0.671946
0.396674 0.505943 0.509697
0.394903 0.523552 0.531518
0.410483 0.54725 0.561868
0.452216 0.574884 0.600015
0.532494 0.600763 0.639582
0.641794 0.62295 0.658534
0.764843 0.632654 0.672053
0.817121 0.662745 0.687541
0.828382 0.704234 0.71664
0.469673 0.567239 0.553658
0.461143 0.586786 0.56759
0.46566 0.61471 0.588403
0.491157 0.650263 0.614542
0.553399 0.688853 0.641688
0.665064 0.720546 0.662028
0.800031 0.735637 0.683635
0.87454 0.756161 0.713176
0.89102 0.774395 0.74519
0.543099 0.632105 0.608713
0.532708 0.649287 0.615076
0.531243 0.675547 0.626184
0.547829 0.712505 0.641703
0.592844 0.755123 0.657145
0.679835 0.796475 0.671183
0.795392 0.82649 0.691127
0.911406 0.845396 0.746105
0.942046 0.862058 0.779065
0.626734 0.687648 0.665782
0.611322 0.699916 0.664744
0.601663 0.721996 0.667308
0.611215 0.758129 0.676646
0.641642 0.800916 0.685405
0.70489 0.844587 0.695399
0.793469 0.877317 0.711101
0.89807 0.896971 0.752529
0.965347 0.924025 0.808423
0.238087 0.275013 0.396643
0.253056 0.278202 0.404166
0.285618 0.292638 0.424445
0.333272 0.320256 0.453071
0.409293 0.351034 0.484627
0.492485 0.381888 0.52285
0.562722 0.412863 0.552819
0.56939 0.452232 0.54432
0.517769 0.496101 0.510979
0.238102 0.292226 0.401709
0.254475 0.297688 0.415305
0.291936 0.312474 0.438071
0.337087 0.336996 0.469749
0.408927 0.370367 0.501137
0.497719 0.401419 0.535683
0.578393 0.430716 0.568765
0.600168 0.467109 0.568795
0.55169 0.510506 0.53817
0.266087 0.331411 0.421897
0.27744 0.337789 0.441062
0.313237 0.355016 0.472038
0.363867 0.377401 0.503822
0.421805 0.407416 0.540719
0.518944 0.438499 0.567071
0.608255 0.465461 0.597436
0.643473 0.497597 0.603906
0.601205 0.541711 0.579461
0.312917 0.388846 0.460563
0.321538 0.394324 0.479393
0.346578 0.410574 0.51223
0.397131 0.434562 0.550134
0.46273 0.459953 0.587396
0.547433 0.490578 0.616281
0.64918 0.515496 0.63682
0.699443 0.542138 0.648402
0.675151 0.587732 0.637675
0.365759 0.455299 0.500664
0.371786 0.463111 0.522652
0.394553 0.47863 0.559564
0.433417 0.50071 0.598978
0.50341 0.528695 0.637201
0.580438 0.553689 0.67509
0.694636 0.579141 0.684047
0.765423 0.599527 0.698161
0.760449 0.643534 0.699672
0.426062 0.52195 0.541176
0.426337 0.534066 0.562249
0.440177 0.554009 0.59675
0.475975 0.578485 0.641352
0.539773 0.604425 0.686763
0.630655 0.632166 0.714519
0.731334 0.654398 0.740963
0.835004 0.669841 0.745525
0.852308 0.704112 0.756863
0.498085 0.581018 0.580102
0.489418 0.598215 0.598581
0.492332 0.623316 0.626368
0.514839 0.655711 0.663798
0.568124 0.689845 0.706355
0.663203 0.718914 0.745647
0.781369 0.742489 0.761898
0.895567 0.755306 0.779736
0.929381 0.776776 0.793393
0.575555 0.641932 0.631449
0.561593 0.656672 0.640711
0.555383 0.681437 0.658
0.565026 0.717861 0.683879
0.599619 0.76083 0.713405
0.676188 0.804608 0.741131
0.803479 0.839002 0.764141
0.934173 0.857404 0.794965
0.968826 0.869841 0.804669
0.645823 0.704982 0.689448
0.629953 0.716152 0.691676
0.620661 0.737697 0.700374
0.626551 0.772671 0.71696
0.65037 0.816281 0.735195
0.706935 0.864729 0.753094
0.807965 0.910307 0.772107
0.927764 0.94342 0.803113
0.989456 0.954955 0.835279
0.275959 0.312245 0.435782
0.287755 0.314641 0.443107
0.315496 0.325353 0.460395
0.354009 0.34789 0.487083
0.422339 0.3776 0.516182
0.501366 0.407462 0.549569
0.577111 0.437797 0.582528
0.617044 0.473396 0.594141
0.582895 0.515984 0.565667
0.276005 0.326726 0.436316
0.289189 0.332097 0.45095
0.321599 0.345022 0.47361
0.362081 0.365393 0.501625
0.419379 0.395819 0.534478
0.50425 0.426841 0.56492
0.587579 0.456779 0.597742
0.642359 0.489693 0.616617
0.618875 0.532204 0.594781
0.301823 0.360662 0.449699
0.310765 0.367086 0.469505
0.341222 0.383703 0.502678
0.386984 0.403693 0.534051
0.439261 0.429725 0.569528
0.52047 0.462364 0.599588
0.611505 0.491508 0.627115
0.678614 0.521202 0.649104
0.666545 0.561471 0.634226
0.347341 0.410925 0.482826
0.352819 0.416541 0.499321
0.373999 0.433005 0.53547
0.418402 0.456748 0.577188
0.477714 0.481163 0.614282
0.540063 0.510689 0.651087
0.64477 0.540047 0.669917
0.724651 0.566491 0.690349
0.726131 0.602747 0.683055
0.40029 0.472389 0.523003
0.404822 0.479118 0.543572
0.422049 0.493874 0.577722
0.454612 0.51667 0.619928
0.515297 0.545205 0.664775
0.586648 0.570489 0.70248
0.678798 0.599878 0.726329
0.77705 0.624216 0.737758
0.796857 0.654871 0.738872
0.459388 0.537392 0.566094
0.459876 0.546624 0.586053
0.471504 0.563836 0.621378
0.502403 0.586862 0.668406
0.549935 0.613565 0.713405
0.629694 0.643565 0.75198
0.711452 0.667872 0.78854
0.829465 0.693278 0.78854
0.875975 0.717098 0.797024
0.526009 0.600366 0.609812
0.520745 0.612177 0.627207
0.523339 0.633143 0.658076
0.543862 0.66125 0.70132
0.588754 0.691402 0.751827
0.664103 0.72047 0.798657
0.765286 0.749493 0.823194
0.869413 0.771832 0.845792
0.948394 0.783352 0.849821
0.603174 0.660975 0.658244
0.590936 0.671916 0.668818
0.583444 0.693919 0.690791
0.591806 0.727321 0.725155
0.621424 0.76611 0.766796
0.686366 0.804898 0.8112
0.796445 0.836759 0.849241
0.919661 0.86244 0.863706
0.991409 0.869764 0.880446
0.682734 0.720882 0.714397
0.663478 0.727398 0.716213
0.648936 0.744991 0.727031
0.649149 0.778241 0.750469
0.664332 0.821164 0.77969
0.709026 0.870268 0.811307
0.801862 0.919051 0.839841
0.941939 0.956985 0.868757
0.999664 0.976608 0.889891
