RED_IPP2_Creative/RED_BW_0200.cube
# RED Digital Cinema Output Transform LUT for IPP2
# Creatives by Eric Weidt
# BMD cube from Truelight v4.0
# Settings used in creation of this LUT are:
# Development Color Space = USER SELECTABLE
# Output Gamma Curve = USER SELECTABLE
# Output Tonemap = USER SELECTABLE
# Highlight Rolloff = USER SELECTABLE
LUT_3D_SIZE 33
0.064026 0.064026 0.064026
0.064880 0.064880 0.064880
0.065491 0.065491 0.065491
0.066040 0.066040 0.066040
0.067078 0.067078 0.067078
0.069397 0.069397 0.069397
0.073975 0.073975 0.073975
0.082092 0.082092 0.082092
0.094666 0.094666 0.094666
0.113281 0.113281 0.113281
0.138550 0.138550 0.138550
0.167236 0.167236 0.167114
0.198975 0.198975 0.198975
0.234009 0.234009 0.234009
0.281006 0.281006 0.281006
0.331787 0.331787 0.331787
0.382080 0.382080 0.382080
0.431641 0.431641 0.431641
0.480469 0.480469 0.480469
0.527832 0.527832 0.527832
0.573730 0.573730 0.573730
0.617676 0.617676 0.617676
0.660645 0.660645 0.660645
0.701660 0.701660 0.701660
0.741211 0.741211 0.741211
0.779297 0.779297 0.779297
0.815918 0.815918 0.815918
0.846680 0.846680 0.846680
0.872070 0.872070 0.872070
0.893066 0.893066 0.893066
0.910645 0.910645 0.910645
0.926270 0.926270 0.926270
0.939453 0.939453 0.939453
0.065430 0.065430 0.065430
0.065247 0.065247 0.065247
0.065674 0.065674 0.065674
0.066162 0.066162 0.066162
0.067200 0.067200 0.067200
0.069275 0.069275 0.069275
0.073364 0.073364 0.073364
0.080505 0.080505 0.080505
0.091858 0.091858 0.091858
0.108276 0.108276 0.108276
0.131958 0.131958 0.131958
0.159424 0.159424 0.159424
0.189819 0.189819 0.189819
0.223511 0.223511 0.223511
0.265869 0.265869 0.265869
0.317139 0.317139 0.317139
0.367188 0.367188 0.367188
0.416748 0.416748 0.416748
0.465576 0.465576 0.465576
0.513184 0.513184 0.513184
0.559570 0.559570 0.559570
0.604492 0.604492 0.604492
0.647461 0.647461 0.647461
0.689453 0.689453 0.689453
0.729004 0.729004 0.729004
0.767578 0.767578 0.767578
0.805176 0.805176 0.805176
0.837891 0.837891 0.837891
0.864746 0.864746 0.864746
0.886719 0.886719 0.886719
0.905762 0.905762 0.905762
0.921387 0.921387 0.921387
0.935547 0.935547 0.935547
0.066406 0.066406 0.066406
0.066162 0.066162 0.066162
0.065979 0.065979 0.065979
0.066528 0.066528 0.066528
0.067566 0.067566 0.067566
0.069580 0.069580 0.069580
0.073364 0.073364 0.073364
0.079834 0.079834 0.079834
0.089966 0.089966 0.089966
0.104675 0.104675 0.104675
0.126587 0.126587 0.126587
0.152710 0.152710 0.152710
0.181885 0.181885 0.181885
0.214355 0.214355 0.214355
0.252686 0.252686 0.252197
0.302490 0.302490 0.302490
0.353027 0.353027 0.353027
0.402588 0.402588 0.402588
0.451660 0.451660 0.451660
0.499756 0.499756 0.499756
0.545898 0.545898 0.545898
0.591309 0.591309 0.591309
0.634766 0.634766 0.634766
0.677246 0.677246 0.677246
0.717285 0.717285 0.717285
0.756348 0.756348 0.756348
0.793945 0.793945 0.793945
0.829102 0.829102 0.829102
0.857422 0.857422 0.857422
0.880371 0.880371 0.880371
0.900391 0.900391 0.900391
0.916992 0.916992 0.916992
0.931641 0.931641 0.931641
0.068848 0.068848 0.068848
0.068054 0.068054 0.068054
0.067505 0.067505 0.067505
0.067139 0.067139 0.067139
0.068359 0.068359 0.068359
0.070374 0.070374 0.070374
0.073975 0.073975 0.073975
0.079895 0.079895 0.079895
0.089050 0.089050 0.089050
0.102417 0.102417 0.102417
0.122253 0.122253 0.122253
0.146851 0.146851 0.146851
0.174561 0.174561 0.174561
0.205688 0.205688 0.205566
0.240967 0.240967 0.240967
0.288330 0.288330 0.288330
0.338623 0.338623 0.338623
0.388428 0.388428 0.388428
0.437500 0.437500 0.437500
0.485596 0.485596 0.485596
0.532715 0.532715 0.532715
0.578125 0.578125 0.578125
0.622070 0.622070 0.622070
0.664551 0.664551 0.664551
0.706055 0.706055 0.706055
0.744629 0.744629 0.744629
0.782715 0.782715 0.782715
0.819336 0.819336 0.819336
0.849609 0.849609 0.849609
0.874023 0.874023 0.874023
0.895020 0.895020 0.895020
0.912109 0.912109 0.912109
0.927246 0.927246 0.927246
0.074219 0.074219 0.074219
0.072510 0.072510 0.072510
0.071167 0.071167 0.071167
0.070312 0.070312 0.070312
0.069763 0.069763 0.069763
0.071899 0.071899 0.071899
0.075439 0.075439 0.075439
0.080994 0.080994 0.080994
0.089355 0.089355 0.089355
0.101562 0.101562 0.101562
0.119568 0.119446 0.119446
0.142456 0.142456 0.142456
0.168823 0.168823 0.168823
0.198242 0.198242 0.198242
0.231567 0.231567 0.231567
0.275391 0.275391 0.275391
0.324951 0.324951 0.324951
0.374512 0.374512 0.374512
0.423828 0.423828 0.423828
0.471924 0.471924 0.471924
0.519043 0.519043 0.519043
0.564941 0.564941 0.564941
0.609863 0.609863 0.609863
0.652344 0.652344 0.652344
0.693848 0.693848 0.693848
0.733887 0.733887 0.733887
0.771973 0.771973 0.771973
0.809082 0.809082 0.809082
0.841309 0.841309 0.841309
0.867188 0.867188 0.867188
0.889160 0.889160 0.889160
0.907227 0.907227 0.907227
0.923340 0.923340 0.923340
0.084045 0.084045 0.084045
0.080933 0.080933 0.080933
0.078491 0.078491 0.078491
0.076538 0.076538 0.076538
0.075256 0.075256 0.075256
0.074524 0.074524 0.074524
0.078003 0.078003 0.078003
0.083252 0.083252 0.083252
0.091064 0.091064 0.091064
0.102173 0.102173 0.102173
0.118591 0.118591 0.118591
0.139526 0.139526 0.139526
0.164307 0.164307 0.164307
0.192017 0.192017 0.192017
0.223755 0.223755 0.223755
0.263428 0.263428 0.263428
0.312500 0.312500 0.312500
0.361084 0.361084 0.361084
0.410156 0.410156 0.410156
0.458496 0.458496 0.458496
0.505859 0.505859 0.505859
0.552246 0.552246 0.552246
0.596680 0.596680 0.596680
0.639648 0.639648 0.639648
0.681641 0.681641 0.681641
0.722168 0.722168 0.722168
0.761230 0.761230 0.761230
0.798340 0.798340 0.798340
0.832520 0.832520 0.832520
0.859863 0.859863 0.859863
0.882812 0.882812 0.882812
0.902344 0.902344 0.902344
0.918945 0.918945 0.918945
0.099243 0.099243 0.099243
0.094482 0.094482 0.094482
0.090454 0.090454 0.090454
0.087219 0.087219 0.087219
0.084717 0.084717 0.084717
0.082947 0.082947 0.082947
0.082092 0.082092 0.082092
0.087036 0.087036 0.087036
0.094238 0.094238 0.094238
0.104431 0.104431 0.104431
0.119324 0.119324 0.119324
0.138550 0.138550 0.138550
0.161255 0.161255 0.161255
0.187256 0.187256 0.187256
0.216797 0.216797 0.216797
0.252197 0.252197 0.252197
0.299561 0.299561 0.299561
0.348145 0.348145 0.348145
0.396484 0.396484 0.396484
0.444580 0.444580 0.444580
0.492188 0.492188 0.492188
0.538086 0.538086 0.538086
0.583008 0.583008 0.583008
0.626953 0.626953 0.626953
0.668457 0.668457 0.668457
0.709473 0.709473 0.709473
0.749023 0.749023 0.749023
0.787109 0.787109 0.786621
0.822266 0.822266 0.822266
0.852051 0.852051 0.852051
0.875977 0.875977 0.875977
0.896484 0.896484 0.896484
0.914062 0.914062 0.914062
0.121887 0.121887 0.121887
0.114685 0.114685 0.114685
0.108337 0.108337 0.108337
0.103149 0.103149 0.103149
0.099182 0.099182 0.099182
0.096008 0.096008 0.096008
0.093811 0.093811 0.093811
0.092834 0.092834 0.092834
0.099426 0.099426 0.099426
0.108887 0.108887 0.108887
0.122498 0.122498 0.122498
0.139771 0.139771 0.139771
0.160400 0.160400 0.160400
0.184326 0.184326 0.184326
0.211914 0.211914 0.211914
0.244385 0.244385 0.244385
0.289307 0.289307 0.289307
0.336426 0.336426 0.336426
0.384033 0.384033 0.384033
0.431641 0.431641 0.431641
0.478760 0.478760 0.478760
0.525391 0.525391 0.525391
0.570312 0.570312 0.570312
0.614258 0.614258 0.614258
0.656738 0.656738 0.656738
0.698242 0.698242 0.698242
0.737305 0.737305 0.737305
0.775879 0.775879 0.775879
0.812012 0.812012 0.812012
0.843750 0.843750 0.843750
0.869629 0.869629 0.869629
0.890625 0.890625 0.890625
0.909180 0.909180 0.909180
0.149536 0.149536 0.149536
0.141479 0.141479 0.141479
0.133667 0.133667 0.133667
0.126709 0.126709 0.126709
0.120483 0.120483 0.120483
0.115173 0.115173 0.115173
0.111084 0.111084 0.111084
0.108337 0.108337 0.108337
0.106995 0.106995 0.106995
0.116150 0.116150 0.116150
0.128174 0.128174 0.128174
0.143311 0.143311 0.143311
0.161743 0.161743 0.161743
0.183228 0.183228 0.183228
0.208618 0.208618 0.208618
0.238647 0.238647 0.238647
0.279541 0.279541 0.279541
0.325684 0.325684 0.325684
0.372070 0.372070 0.372070
0.419434 0.419434 0.419434
0.466309 0.466309 0.466309
0.512695 0.512695 0.512695
0.558105 0.558105 0.558105
0.602051 0.602051 0.602051
0.645020 0.645020 0.645020
0.686035 0.686035 0.686035
0.726562 0.726562 0.726562
0.764648 0.764648 0.764648
0.802246 0.802246 0.802246
0.835449 0.835449 0.835449
0.862305 0.862305 0.862305
0.884766 0.884766 0.884766
0.903809 0.903809 0.903809
0.180054 0.180054 0.180054
0.171265 0.171265 0.171265
0.162598 0.162598 0.162598
0.154541 0.154541 0.154419
0.147339 0.147339 0.147339
0.140625 0.140625 0.140625
0.135010 0.135010 0.135010
0.130615 0.130615 0.130615
0.127563 0.127563 0.127563
0.126099 0.126099 0.126099
0.136475 0.136475 0.136475
0.149536 0.149536 0.149536
0.165527 0.165527 0.165527
0.184937 0.184937 0.184937
0.207886 0.207886 0.207886
0.235229 0.235229 0.235229
0.272949 0.272949 0.272949
0.316650 0.316650 0.316650
0.361816 0.361816 0.361816
0.407959 0.407959 0.407959
0.454346 0.454346 0.454346
0.500488 0.500488 0.500488
0.545898 0.545898 0.545410
0.589844 0.589844 0.589844
0.632812 0.632812 0.632812
0.674316 0.674316 0.674316
0.714844 0.714844 0.714844
0.753418 0.753418 0.753418
0.791016 0.791016 0.791016
0.826172 0.826172 0.826172
0.854980 0.854980 0.854980
0.878418 0.878418 0.878418
0.898438 0.898438 0.898438
0.213623 0.213623 0.213623
0.203613 0.203613 0.203613
0.194214 0.194214 0.194214
0.185303 0.185303 0.185303
0.176880 0.176880 0.176880
0.169189 0.169189 0.169189
0.162354 0.162354 0.162354
0.156616 0.156616 0.156616
0.151978 0.151978 0.151978
0.148926 0.148926 0.148804
0.147705 0.147705 0.147705
0.158691 0.158691 0.158569
0.172363 0.172363 0.172363
0.189331 0.189331 0.189087
0.209839 0.209839 0.209839
0.234619 0.234619 0.234619
0.268799 0.268799 0.268799
0.310059 0.310059 0.310059
0.353271 0.353271 0.353271
0.398193 0.398193 0.398193
0.443359 0.443359 0.443359
0.488770 0.488770 0.488770
0.533691 0.533691 0.533691
0.578125 0.578125 0.578125
0.621094 0.621094 0.621094
0.662598 0.662598 0.662598
0.703125 0.703125 0.703125
0.742188 0.742188 0.742188
0.780273 0.780273 0.780273
0.816406 0.816406 0.816406
0.847168 0.847168 0.847168
0.872070 0.872070 0.872070
0.893066 0.893066 0.893066
0.252686 0.252686 0.252686
0.239868 0.239868 0.239868
0.229004 0.229004 0.229004
0.218994 0.218994 0.218994
0.209351 0.209351 0.209351
0.200439 0.200439 0.200439
0.192627 0.192627 0.192505
0.185669 0.185669 0.185669
0.179443 0.179443 0.179443
0.174805 0.174805 0.174805
0.171631 0.171631 0.171631
0.170410 0.170410 0.170410
0.181885 0.181885 0.181885
0.196289 0.196289 0.196289
0.214355 0.214355 0.214355
0.236572 0.236572 0.236572
0.267578 0.267578 0.267578
0.305420 0.305420 0.305420
0.345947 0.345947 0.345947
0.388916 0.388916 0.388916
0.432373 0.432373 0.432373
0.476807 0.476807 0.476807
0.521484 0.521484 0.521484
0.565430 0.565430 0.565430
0.608398 0.608398 0.608398
0.650391 0.650391 0.650391
0.691406 0.691406 0.691406
0.730957 0.730957 0.730957
0.769043 0.769043 0.769043
0.805664 0.805664 0.805664
0.838379 0.838379 0.838379
0.864746 0.864746 0.864746
0.887207 0.887207 0.887207
0.303467 0.303467 0.303467
0.288330 0.288330 0.288330
0.274170 0.274170 0.274170
0.259521 0.259521 0.259521
0.246338 0.246338 0.246338
0.235962 0.235962 0.235962
0.226196 0.226196 0.226196
0.217651 0.217529 0.217529
0.210205 0.210205 0.210205
0.203613 0.203613 0.203613
0.198975 0.198975 0.198975
0.195557 0.195557 0.195557
0.194458 0.194458 0.194458
0.206543 0.206543 0.206543
0.222046 0.222046 0.222046
0.241943 0.241943 0.241943
0.270508 0.270508 0.270508
0.304443 0.304443 0.304443
0.342529 0.342529 0.342529
0.382568 0.382568 0.382568
0.424316 0.424316 0.424316
0.467285 0.467285 0.467285
0.510742 0.510742 0.510742
0.554199 0.554199 0.554199
0.597168 0.597168 0.597168
0.638672 0.638672 0.638672
0.679688 0.679688 0.679688
0.719727 0.719727 0.719727
0.758301 0.758301 0.758301
0.795410 0.795410 0.795410
0.829102 0.829102 0.829102
0.857422 0.857422 0.857422
0.880859 0.880859 0.880859
0.354004 0.354004 0.354004
0.339600 0.339600 0.339600
0.324951 0.324951 0.324951
0.310303 0.310303 0.310303
0.295898 0.295898 0.295898
0.282227 0.282227 0.282227
0.268799 0.268799 0.268799
0.256348 0.256348 0.256348
0.245728 0.245728 0.245728
0.236938 0.236938 0.236572
0.229858 0.229858 0.229858
0.224487 0.224487 0.224487
0.220947 0.220947 0.220947
0.219849 0.219849 0.219849
0.233032 0.233032 0.233032
0.250977 0.250977 0.250977
0.276855 0.276855 0.276855
0.307129 0.307129 0.307129
0.341064 0.341064 0.341064
0.378174 0.378174 0.378174
0.417969 0.417969 0.417969
0.459229 0.459229 0.459229
0.501465 0.501465 0.501465
0.543945 0.543945 0.543945
0.586426 0.586426 0.586426
0.627441 0.627441 0.627441
0.668457 0.668457 0.668457
0.708496 0.708496 0.708496
0.747070 0.747070 0.747070
0.784668 0.784668 0.784668
0.820312 0.820312 0.820312
0.849609 0.849609 0.849609
0.874512 0.874512 0.874512
0.404053 0.404053 0.404053
0.389404 0.389404 0.389404
0.374756 0.374756 0.374756
0.360596 0.360596 0.360596
0.346924 0.346924 0.346924
0.332520 0.332520 0.332520
0.318604 0.318604 0.318604
0.305664 0.305664 0.305664
0.292969 0.292969 0.292969
0.281250 0.281250 0.281250
0.270508 0.270508 0.270508
0.261719 0.261719 0.261719
0.254395 0.254395 0.254395
0.250000 0.250000 0.250000
0.248901 0.248901 0.248901
0.266357 0.266357 0.266357
0.287842 0.287842 0.287842
0.314209 0.314209 0.314209
0.343994 0.343994 0.343994
0.377686 0.377686 0.377686
0.414307 0.414307 0.414307
0.453125 0.453125 0.453125
0.493652 0.493652 0.493652
0.534668 0.534668 0.534668
0.576172 0.576172 0.576172
0.617676 0.617676 0.617188
0.658203 0.658203 0.657715
0.697754 0.697754 0.697754
0.736328 0.736328 0.736328
0.773926 0.773926 0.773926
0.810547 0.810547 0.810547
0.841797 0.841797 0.841797
0.867676 0.867676 0.867676
0.452637 0.452637 0.452637
0.438721 0.438721 0.438721
0.424316 0.424316 0.424316
0.410400 0.410400 0.410400
0.396484 0.396484 0.396484
0.382080 0.382080 0.382080
0.368408 0.368408 0.368408
0.354980 0.354980 0.354980
0.342041 0.342041 0.342041
0.329834 0.329834 0.329834
0.318115 0.318115 0.318115
0.307373 0.307373 0.307373
0.298340 0.298340 0.298340
0.291260 0.291260 0.291260
0.286865 0.286865 0.286865
0.285889 0.285889 0.285889
0.303711 0.303711 0.303711
0.325195 0.325195 0.325195
0.351074 0.351074 0.351074
0.380371 0.380371 0.380371
0.413574 0.413574 0.413574
0.449707 0.449707 0.449219
0.487549 0.487549 0.487549
0.526855 0.526855 0.526855
0.567383 0.567383 0.567383
0.607422 0.607422 0.607422
0.647461 0.647461 0.647461
0.687500 0.687500 0.687500
0.725586 0.725586 0.725586
0.763672 0.763672 0.763672
0.800293 0.800293 0.800293
0.833496 0.833496 0.833496
0.860840 0.860840 0.860840
0.500488 0.500488 0.500488
0.486572 0.486572 0.486572
0.473145 0.473145 0.473145
0.459229 0.459229 0.459229
0.444824 0.444824 0.444824
0.431152 0.431152 0.431152
0.417480 0.417480 0.417480
0.404053 0.404053 0.404053
0.390625 0.390625 0.390625
0.377686 0.377686 0.377686
0.365967 0.365967 0.365967
0.354736 0.354736 0.354736
0.343994 0.343994 0.343994
0.335449 0.335449 0.335449
0.328369 0.328369 0.328369
0.323975 0.323975 0.323975
0.322754 0.322754 0.322754
0.340332 0.340332 0.340332
0.361816 0.361816 0.361572
0.386963 0.386963 0.386963
0.416016 0.416016 0.416016
0.448242 0.448242 0.448242
0.483398 0.483398 0.483398
0.520508 0.520508 0.520508
0.559082 0.559082 0.559082
0.598145 0.598145 0.598145
0.637695 0.637695 0.637695
0.676270 0.676270 0.676270
0.715332 0.715332 0.715332
0.752930 0.752930 0.752930
0.789551 0.789551 0.789551
0.824219 0.824219 0.824219
0.853027 0.853027 0.853027
0.545898 0.545898 0.545898
0.532715 0.532715 0.532715
0.520020 0.520020 0.520020
0.506348 0.506348 0.506348
0.492920 0.492920 0.492920
0.479492 0.479492 0.479492
0.465820 0.465820 0.465820
0.452393 0.452393 0.452393
0.439209 0.439209 0.439209
0.426270 0.426270 0.426270
0.413574 0.413574 0.413574
0.401611 0.401611 0.401611
0.390625 0.390625 0.390625
0.380371 0.380371 0.380371
0.371582 0.371582 0.371582
0.365234 0.365234 0.365234
0.360596 0.360596 0.360596
0.359375 0.359375 0.359375
0.376953 0.376953 0.376953
0.397705 0.397705 0.397705
0.422607 0.422607 0.422607
0.451172 0.451172 0.451172
0.482666 0.482666 0.482666
0.517090 0.517090 0.517090
0.553223 0.553223 0.553223
0.590820 0.590820 0.590820
0.628906 0.628906 0.628906
0.667480 0.667480 0.667480
0.705078 0.705078 0.705078
0.743164 0.743164 0.743164
0.779297 0.779297 0.779297
0.814941 0.814941 0.814941
0.845703 0.845703 0.845703
0.590820 0.590820 0.590820
0.578125 0.578125 0.578125
0.565430 0.565430 0.565430
0.552246 0.552246 0.551758
0.539062 0.539062 0.539062
0.526367 0.526367 0.526367
0.512695 0.512695 0.512695
0.499756 0.499756 0.499756
0.486816 0.486816 0.486816
0.473389 0.473389 0.473389
0.460938 0.460938 0.460938
0.448975 0.448975 0.448975
0.437256 0.437256 0.437256
0.425781 0.425781 0.425781
0.416260 0.416260 0.416016
0.407715 0.407715 0.407715
0.400879 0.400879 0.400879
0.396484 0.396484 0.396484
0.395264 0.395264 0.395264
0.412598 0.412598 0.412598
0.433350 0.433350 0.433350
0.457764 0.457764 0.457764
0.485596 0.485596 0.485596
0.516113 0.516113 0.516113
0.550293 0.550293 0.549805
0.585449 0.585449 0.585449
0.622070 0.622070 0.622070
0.658691 0.658691 0.658691
0.696289 0.696289 0.696289
0.733398 0.733398 0.733398
0.770020 0.770020 0.770020
0.805664 0.805664 0.805664
0.837402 0.837402 0.837402
0.634277 0.634277 0.634277
0.621582 0.621582 0.621582
0.609863 0.609863 0.609863
0.597168 0.597168 0.597168
0.583984 0.583984 0.583984
0.571289 0.571289 0.571289
0.558105 0.558105 0.558105
0.545410 0.545410 0.545410
0.532715 0.532715 0.532715
0.519043 0.519043 0.519043
0.507324 0.507324 0.507324
0.495117 0.495117 0.495117
0.482910 0.482910 0.482910
0.471924 0.471924 0.471924
0.460938 0.460938 0.460938
0.451172 0.451172 0.451172
0.443115 0.443115 0.443115
0.436279 0.436279 0.436279
0.432129 0.432129 0.432129
0.430908 0.430908 0.430908
0.447754 0.447754 0.447754
0.468262 0.468262 0.468262
0.492188 0.492188 0.492188
0.519043 0.519043 0.519043
0.549316 0.549316 0.549316
0.582031 0.582031 0.582031
0.616699 0.616699 0.616699
0.652344 0.652344 0.652344
0.687988 0.687988 0.687988
0.724609 0.724609 0.724609
0.760254 0.760254 0.760254
0.796387 0.795898 0.795898
0.829102 0.829102 0.829102
0.675781 0.675781 0.675781
0.663574 0.663574 0.663574
0.651367 0.651367 0.651367
0.639648 0.639648 0.639648
0.627441 0.627441 0.627441
0.615234 0.615234 0.615234
0.602539 0.602539 0.602539
0.589844 0.589844 0.589844
0.577637 0.577637 0.577637
0.564453 0.564453 0.564453
0.552246 0.552246 0.552246
0.540527 0.540527 0.540527
0.528320 0.528320 0.528320
0.516113 0.516113 0.516113
0.505859 0.505859 0.505859
0.495117 0.495117 0.495117
0.485596 0.485596 0.485596
0.477295 0.477295 0.477295
0.470703 0.470703 0.470703
0.467041 0.467041 0.467041
0.465820 0.465820 0.465820
0.482666 0.482666 0.482178
0.502441 0.502441 0.502441
0.525391 0.525391 0.525391
0.552246 0.552246 0.552246
0.581543 0.581543 0.581543
0.613281 0.613281 0.613281
0.646973 0.646973 0.646973
0.681641 0.681641 0.681641
0.716309 0.716309 0.716309
0.751953 0.751953 0.751953
0.787109 0.787109 0.787109
0.821289 0.821289 0.820801
0.715820 0.715820 0.715820
0.704102 0.704102 0.704102
0.692383 0.692383 0.692383
0.681152 0.681152 0.681152
0.668457 0.668457 0.668457
0.657715 0.657715 0.657715
0.645508 0.645508 0.645508
0.632812 0.632812 0.632812
0.621094 0.621094 0.621094
0.608887 0.608887 0.608887
0.596191 0.596191 0.596191
0.584473 0.584473 0.584473
0.572754 0.572754 0.572754
0.561035 0.561035 0.561035
0.549316 0.549316 0.549316
0.538574 0.538574 0.538574
0.527832 0.527832 0.527832
0.519043 0.519043 0.519043
0.511230 0.511230 0.511230
0.504883 0.504883 0.504883
0.500977 0.500977 0.500977
0.500000 0.500000 0.500000
0.516113 0.516113 0.516113
0.535156 0.535156 0.535156
0.558105 0.558105 0.558105
0.583496 0.583496 0.583496
0.612305 0.612305 0.612305
0.643066 0.643066 0.643066
0.675781 0.675781 0.675781
0.709473 0.709473 0.709473
0.743652 0.743652 0.743652
0.778320 0.778320 0.778320
0.812012 0.812012 0.812012
0.754395 0.754395 0.754395
0.743652 0.743652 0.743652
0.731934 0.731934 0.731934
0.720703 0.720703 0.720703
0.708984 0.708984 0.708984
0.697754 0.697754 0.697754
0.686035 0.686035 0.686035
0.674316 0.674316 0.674316
0.662598 0.662598 0.662598
0.650879 0.650879 0.650879
0.638672 0.638672 0.638672
0.626953 0.626953 0.626953
0.615723 0.615723 0.615723
0.604004 0.604004 0.604004
0.592773 0.592773 0.592773
0.581543 0.581543 0.581543
0.571289 0.571289 0.571289
0.560547 0.560547 0.560547
0.551758 0.551758 0.551758
0.543945 0.543945 0.543945
0.538086 0.538086 0.538086
0.534180 0.534180 0.534180
0.533203 0.533203 0.533203
0.548828 0.548828 0.548828
0.567871 0.567871 0.567871
0.589844 0.589844 0.589844
0.614746 0.614746 0.614746
0.643066 0.643066 0.643066
0.672363 0.672363 0.672363
0.704590 0.704590 0.704590
0.737305 0.737305 0.737305
0.770508 0.770508 0.770508
0.804199 0.804199 0.804199
0.791992 0.791992 0.791992
0.781250 0.781250 0.781250
0.770020 0.770020 0.770020
0.759277 0.759277 0.759277
0.748535 0.748535 0.748535
0.736816 0.736816 0.736816
0.725586 0.725586 0.725586
0.713867 0.713867 0.713867
0.703125 0.703125 0.703125
0.691895 0.691895 0.691895
0.679688 0.679688 0.679688
0.668457 0.668457 0.668457
0.656738 0.656738 0.656738
0.645508 0.645508 0.645508
0.634277 0.634277 0.634277
0.623535 0.623535 0.623535
0.612793 0.612793 0.612793
0.602051 0.602051 0.602051
0.592285 0.592285 0.592285
0.583984 0.583984 0.583984
0.576172 0.576172 0.576172
0.570312 0.570312 0.570312
0.566406 0.566406 0.566406
0.565430 0.565430 0.565430
0.580566 0.580566 0.580566
0.599121 0.599121 0.599121
0.620605 0.620605 0.620605
0.645020 0.645020 0.645020
0.672363 0.672363 0.672363
0.701660 0.701660 0.701660
0.732422 0.732422 0.732422
0.764648 0.764648 0.764648
0.796875 0.796875 0.796875
0.826172 0.826172 0.826172
0.817383 0.817383 0.817383
0.806641 0.806641 0.806641
0.796387 0.796387 0.796387
0.785645 0.785645 0.785645
0.774902 0.774902 0.774902
0.764160 0.764160 0.764160
0.753418 0.753418 0.753418
0.741699 0.741699 0.741699
0.730957 0.730957 0.730957
0.720215 0.720215 0.720215
0.708496 0.708496 0.708496
0.697754 0.697754 0.697754
0.686035 0.686035 0.686035
0.675293 0.675293 0.675293
0.664062 0.664062 0.664062
0.653809 0.653809 0.653809
0.643066 0.643066 0.643066
0.632812 0.632812 0.632812
0.623535 0.623535 0.623535
0.615234 0.615234 0.615234
0.607422 0.607422 0.607422
0.602051 0.602051 0.602051
0.598145 0.598145 0.598145
0.597656 0.597656 0.597656
0.611816 0.611816 0.611816
0.630371 0.630371 0.630371
0.650879 0.650879 0.650879
0.674316 0.674316 0.674316
0.701660 0.701660 0.701660
0.729492 0.729492 0.729492
0.759766 0.759766 0.759766
0.791016 0.791016 0.791016
0.854980 0.854980 0.854980
0.847168 0.847168 0.847168
0.839355 0.839355 0.839355
0.830078 0.830078 0.830078
0.821289 0.821289 0.821289
0.811035 0.811035 0.811035
0.800781 0.800781 0.800781
0.790527 0.790527 0.790527
0.779297 0.779297 0.779297
0.769043 0.769043 0.769043
0.758789 0.758789 0.758789
0.747070 0.747070 0.747070
0.736328 0.736328 0.736328
0.725586 0.725586 0.725586
0.714844 0.714844 0.714844
0.704102 0.704102 0.704102
0.693359 0.693359 0.693359
0.683105 0.683105 0.683105
0.671875 0.671875 0.671875
0.662598 0.662598 0.662598
0.653809 0.653809 0.653809
0.645020 0.645020 0.645020
0.637695 0.637695 0.637695
0.632324 0.632324 0.632324
0.628906 0.628906 0.628906
0.627930 0.627930 0.627930
0.643066 0.643066 0.643066
0.660156 0.660156 0.660156
0.680176 0.680176 0.680176
0.703125 0.703125 0.703125
0.729492 0.729492 0.729492
0.756836 0.756836 0.756836
0.786621 0.786621 0.786621
0.878418 0.878418 0.878418
0.872070 0.872070 0.872070
0.865234 0.865234 0.865234
0.857910 0.857910 0.857910
0.850586 0.850586 0.850586
0.842773 0.842773 0.842773
0.833984 0.833984 0.833984
0.825195 0.825195 0.825195
0.815430 0.815430 0.815430
0.805664 0.805664 0.805664
0.795410 0.795410 0.795410
0.784180 0.784180 0.784180
0.773926 0.773926 0.773926
0.763672 0.763672 0.763672
0.753418 0.753418 0.753418
0.742188 0.742188 0.742188
0.731934 0.731934 0.731934
0.721680 0.721680 0.721680
