RED_IPP2_Creative/RED_AWASH.cube
# RED Digital Cinema Output Transform LUT for IPP2
# Creatives by Eric Weidt
# BMD cube from Truelight v4.0
# Settings used in creation of this LUT are:
# Development Color Space = USER SELECTABLE
# Output Gamma Curve = USER SELECTABLE
# Output Tonemap = USER SELECTABLE
# Highlight Rolloff = USER SELECTABLE
LUT_3D_SIZE 33
0.029160 0.025482 0.025909
0.046722 0.024597 0.024185
0.063904 0.025070 0.025070
0.079041 0.026215 0.027496
0.096191 0.028152 0.030624
0.112122 0.031982 0.036102
0.126465 0.038177 0.044006
0.139160 0.047516 0.054718
0.152466 0.059296 0.067932
0.168701 0.073608 0.084351
0.190186 0.091431 0.101685
0.215088 0.112000 0.119446
0.243042 0.133301 0.135864
0.269531 0.154907 0.152832
0.295410 0.174805 0.168457
0.319336 0.195068 0.183350
0.341797 0.213989 0.198364
0.363037 0.233643 0.213745
0.385498 0.254150 0.230957
0.411133 0.279541 0.253174
0.438965 0.307129 0.278076
0.467285 0.334473 0.302979
0.498535 0.363037 0.328613
0.532715 0.391846 0.354004
0.569824 0.422119 0.380127
0.608887 0.453857 0.408203
0.647949 0.487061 0.438477
0.687988 0.521484 0.469971
0.728027 0.556641 0.502441
0.768555 0.593262 0.537109
0.806641 0.629395 0.571777
0.843750 0.665527 0.606934
0.877441 0.699707 0.641113
0.023560 0.042480 0.024109
0.040741 0.041748 0.021515
0.063232 0.040741 0.022461
0.081543 0.041809 0.027939
0.100037 0.044464 0.033234
0.118225 0.048645 0.040833
0.134277 0.055573 0.051178
0.150513 0.064453 0.063599
0.167236 0.075806 0.079285
0.186401 0.090759 0.095764
0.207153 0.109070 0.112671
0.230225 0.128662 0.128784
0.254639 0.148804 0.145020
0.279053 0.168335 0.160522
0.302979 0.187134 0.175171
0.325684 0.205444 0.189331
0.347656 0.223389 0.203491
0.368896 0.241943 0.218750
0.391602 0.262695 0.236450
0.418457 0.289062 0.260498
0.444092 0.314453 0.283203
0.471924 0.341309 0.308105
0.502441 0.369141 0.333496
0.536133 0.397461 0.358643
0.573242 0.427246 0.384766
0.610840 0.458252 0.412109
0.650391 0.491211 0.441895
0.689941 0.524902 0.472900
0.729492 0.559570 0.505371
0.769043 0.594727 0.538574
0.808105 0.631836 0.573730
0.844727 0.666992 0.608398
0.878418 0.701660 0.642578
0.024368 0.061218 0.030609
0.039459 0.062317 0.030365
0.059418 0.062988 0.030243
0.081665 0.064331 0.032745
0.104065 0.066589 0.039551
0.124451 0.070740 0.049011
0.144409 0.076538 0.060577
0.165161 0.085022 0.075134
0.186157 0.096741 0.091248
0.205444 0.112061 0.107178
0.225464 0.129028 0.122864
0.246338 0.146851 0.138062
0.267090 0.165039 0.153564
0.289062 0.183228 0.168457
0.311035 0.199951 0.182129
0.332275 0.216797 0.195801
0.353760 0.233276 0.209229
0.375244 0.251221 0.224365
0.398926 0.273193 0.243896
0.424805 0.297852 0.266602
0.449463 0.321777 0.288818
0.476318 0.348145 0.313477
0.505371 0.375000 0.337891
0.539062 0.403564 0.363525
0.576172 0.433105 0.389648
0.613770 0.463379 0.416504
0.653320 0.495850 0.446045
0.692383 0.528809 0.476562
0.731445 0.563477 0.508301
0.770996 0.598633 0.541504
0.809082 0.633789 0.575684
0.845703 0.668945 0.609863
0.879883 0.703613 0.644043
0.034546 0.083618 0.044952
0.048920 0.085571 0.045929
0.066345 0.087891 0.047302
0.086914 0.090088 0.049316
0.108459 0.093140 0.054260
0.132812 0.097107 0.061920
0.158325 0.102783 0.073730
0.182495 0.111389 0.088013
0.203491 0.122620 0.102295
0.223633 0.135864 0.117188
0.242798 0.150513 0.131836
0.260742 0.166382 0.146973
0.279541 0.182617 0.162231
0.299316 0.198364 0.176270
0.318848 0.214233 0.190063
0.339600 0.229370 0.202515
0.361084 0.244995 0.216064
0.383057 0.263184 0.231689
0.407715 0.284668 0.252197
0.430176 0.306396 0.271973
0.454834 0.330322 0.294678
0.481201 0.355713 0.318848
0.509766 0.382080 0.343262
0.543945 0.410645 0.369385
0.579102 0.438965 0.394531
0.616211 0.469238 0.421631
0.655273 0.500977 0.450439
0.694336 0.533691 0.480713
0.734375 0.567871 0.512207
0.772949 0.602051 0.544922
0.810059 0.636230 0.578125
0.847656 0.671875 0.612305
0.880371 0.705078 0.645508
0.054810 0.109009 0.067444
0.066772 0.112183 0.069092
0.080322 0.116150 0.070923
0.097290 0.120667 0.073181
0.118591 0.125488 0.076477
0.143311 0.130493 0.081848
0.170532 0.135498 0.090271
0.195923 0.142456 0.101013
0.218628 0.151367 0.113403
0.238770 0.161865 0.127075
0.256592 0.173950 0.140625
0.273926 0.187134 0.156128
0.291016 0.201294 0.170532
0.308594 0.215210 0.184937
0.327637 0.229126 0.197876
0.347656 0.243286 0.210449
0.368896 0.258789 0.224243
0.392334 0.276855 0.241455
0.415039 0.296875 0.259766
0.437744 0.316650 0.279053
0.461426 0.339600 0.301025
0.486816 0.364258 0.324707
0.515625 0.390625 0.349854
0.547363 0.417725 0.374756
0.582031 0.445801 0.400146
0.619629 0.475586 0.427002
0.658203 0.506348 0.455322
0.697266 0.538574 0.485107
0.735840 0.572266 0.516113
0.774414 0.605957 0.548340
0.812500 0.640625 0.581543
0.848145 0.674316 0.614746
0.882324 0.708008 0.647949
0.079590 0.141846 0.096558
0.089600 0.146118 0.098083
0.101746 0.150635 0.099121
0.116272 0.155273 0.100525
0.134521 0.160645 0.102173
0.157837 0.165161 0.104797
0.182983 0.169678 0.109985
0.207153 0.175049 0.118103
0.229858 0.181885 0.128052
0.250488 0.189453 0.138550
0.268799 0.198975 0.151978
0.286133 0.209473 0.166504
0.302002 0.220703 0.180176
0.319092 0.233032 0.194214
0.336914 0.245117 0.206299
0.357422 0.259033 0.219971
0.378662 0.274658 0.234985
0.401611 0.291992 0.251465
0.422607 0.308105 0.266846
0.444580 0.328125 0.286621
0.468262 0.349854 0.308350
0.493408 0.374023 0.332031
0.521484 0.399658 0.357178
0.552734 0.426270 0.381836
0.586914 0.453857 0.407227
0.623047 0.482666 0.433105
0.661133 0.512695 0.461182
0.699219 0.543945 0.489990
0.738281 0.577148 0.520508
0.776855 0.610352 0.552246
0.814941 0.644043 0.584473
0.850098 0.677246 0.617188
0.882812 0.709961 0.649414
0.109009 0.177979 0.126221
0.117859 0.182007 0.127197
0.128296 0.186157 0.127930
0.140747 0.190186 0.128418
0.157593 0.194336 0.129517
0.177002 0.198364 0.130981
0.197876 0.202271 0.133667
0.219849 0.206665 0.138184
0.240723 0.211548 0.145142
0.260742 0.217285 0.154541
0.279053 0.224243 0.165283
0.296387 0.232178 0.177612
0.312744 0.241333 0.191284
0.329102 0.252197 0.204712
0.348145 0.263916 0.217651
0.368652 0.277588 0.231812
0.389404 0.291992 0.246094
0.409424 0.305420 0.259033
0.430664 0.322266 0.276367
0.453125 0.340820 0.295410
0.476074 0.362305 0.316895
0.500488 0.385010 0.340088
0.527832 0.409912 0.364746
0.558105 0.435791 0.389893
0.591797 0.462646 0.414795
0.626953 0.490723 0.440186
0.664551 0.520020 0.467529
0.702637 0.550781 0.495850
0.741211 0.583008 0.525879
0.779297 0.615723 0.556641
0.816406 0.648438 0.588379
0.851562 0.680664 0.619629
0.883789 0.712402 0.651367
0.140381 0.212036 0.154419
0.148315 0.215210 0.154907
0.157471 0.218018 0.155151
0.168457 0.221313 0.155396
0.182251 0.224487 0.155640
0.197998 0.228027 0.156738
0.215332 0.231323 0.158569
0.233521 0.234985 0.161743
0.252441 0.239136 0.166626
0.271240 0.243774 0.172974
0.288574 0.249023 0.181152
0.306641 0.255615 0.192383
0.323730 0.263916 0.204468
0.341797 0.273682 0.218018
0.360352 0.285400 0.231934
0.379395 0.296143 0.243652
0.398193 0.307373 0.255127
0.418701 0.321533 0.270020
0.439941 0.337158 0.286133
0.461182 0.354980 0.304688
0.484375 0.375000 0.325684
0.508789 0.397705 0.349609
0.535156 0.420898 0.373535
0.564453 0.446289 0.398682
0.596680 0.472168 0.423096
0.632324 0.499756 0.448486
0.669434 0.528809 0.475098
0.707031 0.558594 0.502441
0.744141 0.589355 0.531738
0.782227 0.621582 0.562012
0.818359 0.652832 0.592285
0.853516 0.685059 0.623047
0.884766 0.715332 0.653809
0.169800 0.242798 0.178833
0.177002 0.244385 0.179565
0.185913 0.246826 0.180176
0.195923 0.249268 0.180664
0.206665 0.252197 0.181152
0.219482 0.255127 0.181885
0.233398 0.258301 0.183228
0.249023 0.261475 0.185425
0.265381 0.264893 0.189209
0.282959 0.269775 0.194946
0.300293 0.274414 0.201660
0.318604 0.280762 0.210571
0.336426 0.288818 0.221680
0.354004 0.297119 0.233643
0.371094 0.304932 0.243896
0.388428 0.314453 0.255127
0.408203 0.325684 0.267578
0.428223 0.338379 0.281006
0.449951 0.353760 0.297363
0.471436 0.370361 0.315430
0.493896 0.389893 0.336914
0.517578 0.410889 0.359619
0.542969 0.433838 0.384033
0.571289 0.458008 0.408447
0.603027 0.483643 0.432861
0.637695 0.509766 0.457520
0.673828 0.538086 0.483154
0.710449 0.566406 0.509766
0.747070 0.596191 0.537598
0.785645 0.627441 0.567383
0.821289 0.658203 0.596680
0.855957 0.689453 0.627441
0.886719 0.719238 0.657227
0.197998 0.270508 0.200806
0.204834 0.272461 0.202271
0.212891 0.274658 0.203369
0.221680 0.276367 0.204468
0.231567 0.279053 0.205566
0.242188 0.281738 0.206909
0.253906 0.284668 0.208374
0.266846 0.288574 0.210327
0.282715 0.292969 0.214600
0.298340 0.296631 0.218994
0.315430 0.302002 0.225464
0.331543 0.306885 0.232422
0.347900 0.311279 0.238892
0.364014 0.318115 0.247314
0.381836 0.325684 0.257324
0.398926 0.334473 0.268555
0.418457 0.345459 0.281006
0.439453 0.357666 0.294189
0.460693 0.371826 0.310303
0.481689 0.387207 0.328125
0.503906 0.405029 0.347900
0.526855 0.425293 0.370850
0.551758 0.447510 0.394775
0.579102 0.471191 0.419678
0.609863 0.495605 0.443604
0.643066 0.520508 0.467041
0.678711 0.547852 0.492188
0.714844 0.575684 0.518066
0.751953 0.604492 0.545410
0.788574 0.634277 0.573242
0.824219 0.664551 0.602051
0.857910 0.694336 0.631348
0.889160 0.723145 0.660645
0.226318 0.299316 0.223511
0.232544 0.300781 0.224731
0.239746 0.302490 0.226440
0.248169 0.304688 0.228271
0.256836 0.307373 0.230347
0.266602 0.310303 0.232422
0.277832 0.313965 0.235229
0.289062 0.316406 0.236816
0.301270 0.319336 0.239136
0.314209 0.322021 0.241577
0.327881 0.325684 0.245239
0.343750 0.329834 0.250488
0.359863 0.334961 0.257568
0.376221 0.340820 0.265137
0.393311 0.348389 0.274414
0.411377 0.356445 0.283447
0.431396 0.366455 0.296143
0.450439 0.378174 0.309814
0.471436 0.391357 0.324707
0.492676 0.405762 0.341553
0.514648 0.422607 0.361572
0.537598 0.441406 0.383057
0.562012 0.462891 0.406982
0.588867 0.485352 0.431396
0.617676 0.508301 0.454834
0.650391 0.533203 0.478760
0.685059 0.559082 0.502441
0.720215 0.585938 0.527344
0.756348 0.613770 0.553711
0.792480 0.642578 0.580566
0.827637 0.671387 0.608398
0.859863 0.699707 0.635742
0.891602 0.728516 0.665039
0.255859 0.329102 0.248535
0.261719 0.330566 0.249878
0.266846 0.331299 0.249878
0.273438 0.332764 0.250977
0.280518 0.334473 0.252197
0.289307 0.336182 0.253906
0.297852 0.338135 0.255859
0.308105 0.340820 0.258057
0.319092 0.343750 0.260742
0.330811 0.346924 0.263428
0.344238 0.350586 0.267090
0.358154 0.354980 0.271484
0.374023 0.360107 0.277832
0.389648 0.365234 0.284180
0.407715 0.372559 0.293213
0.425049 0.380371 0.302734
0.443604 0.389404 0.312988
0.464111 0.400146 0.326416
0.484131 0.412598 0.341064
0.504883 0.426025 0.357422
0.526855 0.441895 0.376953
0.549316 0.459961 0.397705
0.573242 0.479492 0.420898
0.598633 0.500488 0.444580
0.626465 0.522949 0.467529
0.657715 0.546875 0.490723
0.691895 0.571777 0.514160
0.726074 0.597168 0.537598
0.761230 0.624023 0.562500
0.796387 0.650879 0.587891
0.830078 0.678223 0.614258
0.863281 0.706055 0.641602
0.894043 0.732910 0.668457
0.283203 0.355957 0.270996
0.288086 0.357422 0.272217
0.292480 0.358398 0.273193
0.298828 0.359863 0.274414
0.305420 0.361572 0.275879
0.312500 0.363525 0.277588
0.321045 0.365479 0.279541
0.330078 0.367920 0.281494
0.340332 0.370850 0.284180
0.351318 0.374268 0.287109
0.363281 0.377441 0.290283
0.376465 0.381592 0.294678
0.390381 0.386475 0.299805
0.406738 0.392090 0.307129
0.422852 0.398193 0.314697
0.440674 0.405762 0.323242
0.458496 0.414062 0.333496
0.478027 0.423828 0.345215
0.498291 0.435303 0.359863
0.518555 0.447998 0.375488
0.539551 0.462646 0.393066
0.562012 0.479492 0.414307
0.584961 0.498047 0.436035
0.609863 0.518066 0.459229
0.636230 0.539062 0.481689
0.666504 0.562012 0.504395
0.698242 0.584961 0.525879
0.732422 0.609863 0.549316
0.766602 0.634766 0.572754
0.800293 0.660156 0.596680
0.834473 0.687500 0.622070
0.866211 0.712891 0.647461
0.896484 0.739258 0.673828
0.313232 0.385254 0.298096
0.317139 0.386230 0.298584
0.321533 0.387695 0.299561
0.326904 0.389404 0.301025
0.332520 0.390625 0.301758
0.339355 0.392822 0.303955
0.346191 0.394287 0.304932
0.354492 0.396484 0.307373
0.363525 0.399170 0.309814
0.373779 0.402344 0.313232
0.384766 0.406006 0.316406
0.396973 0.409912 0.320312
0.410156 0.414307 0.324707
0.424316 0.419434 0.330078
0.440674 0.425537 0.338135
0.457031 0.432373 0.346924
0.474854 0.440430 0.356201
0.492920 0.449463 0.366943
0.512207 0.459717 0.380127
0.532715 0.471680 0.395508
0.553711 0.484863 0.412354
0.575684 0.500000 0.431396
0.598145 0.517578 0.453369
0.621582 0.536621 0.474854
0.647461 0.556641 0.497559
0.675293 0.577148 0.518066
0.707031 0.600098 0.540039
0.739746 0.623047 0.561523
0.772949 0.646973 0.583496
0.806152 0.672363 0.606934
0.837891 0.695312 0.629395
0.870117 0.720703 0.653809
0.899902 0.746094 0.679199
0.345215 0.416260 0.327881
0.348877 0.417480 0.328613
0.352295 0.418213 0.329346
0.356934 0.419678 0.330322
0.362061 0.421387 0.331787
0.368164 0.423340 0.333252
0.374023 0.424805 0.334473
0.381592 0.427246 0.336670
0.389404 0.429443 0.338379
0.398926 0.432373 0.341064
0.408691 0.436035 0.344727
0.419678 0.439209 0.348145
0.431885 0.444092 0.353027
0.445312 0.448975 0.357910
0.459961 0.454102 0.364258
0.476074 0.460449 0.371826
0.492188 0.467773 0.381348
0.509766 0.476074 0.391357
0.528809 0.485840 0.402832
0.548340 0.497070 0.417480
0.568359 0.508789 0.433594
0.590332 0.523438 0.451416
0.611816 0.539062 0.471191
0.634766 0.556641 0.492432
0.659668 0.575195 0.513672
0.686035 0.594727 0.534180
0.716797 0.616699 0.554688
0.747070 0.637207 0.574219
0.778809 0.659668 0.594727
0.811523 0.682617 0.616699
0.843262 0.706543 0.638672
0.873047 0.729492 0.661621
0.902344 0.752930 0.685059
0.379150 0.448730 0.359619
0.382324 0.449707 0.360596
0.385742 0.450928 0.361816
0.389648 0.452148 0.362549
0.393799 0.453613 0.363770
0.398682 0.455322 0.365234
0.404297 0.456787 0.366455
0.410400 0.458740 0.368164
0.417725 0.461426 0.370605
0.426025 0.463623 0.372559
0.434814 0.467041 0.375488
0.445068 0.470703 0.379150
0.456055 0.474854 0.383057
0.468018 0.479248 0.387939
0.481689 0.484619 0.393799
0.497070 0.490723 0.401367
0.512207 0.496826 0.408447
0.528809 0.503906 0.417969
0.546387 0.513184 0.428955
0.565918 0.523926 0.442139
0.585449 0.534668 0.456543
0.605469 0.547363 0.473389
0.626465 0.561523 0.490723
0.648438 0.577637 0.510742
0.672852 0.595215 0.531250
0.698242 0.613770 0.551270
0.726562 0.633301 0.570312
0.755859 0.653320 0.588867
0.786621 0.674316 0.608398
0.816406 0.694824 0.627441
0.847656 0.716797 0.648438
0.877441 0.739258 0.669922
0.905762 0.761230 0.692383
0.414551 0.482910 0.394287
0.416992 0.483887 0.395020
0.419922 0.484863 0.395752
0.423828 0.486328 0.397217
0.427246 0.486816 0.397705
0.431641 0.488770 0.399170
0.436279 0.490234 0.400635
0.442383 0.492432 0.402588
0.448486 0.494629 0.404541
0.456055 0.497314 0.407227
0.463623 0.499756 0.409424
0.472412 0.502930 0.412598
0.482178 0.506348 0.415771
0.493652 0.511230 0.419922
0.505371 0.515137 0.424805
0.519043 0.520996 0.431641
0.533691 0.526855 0.438965
0.549805 0.534180 0.447510
0.566406 0.541992 0.456543
0.583008 0.550781 0.467773
0.603027 0.561523 0.481934
0.622070 0.572754 0.496338
0.641602 0.585449 0.512207
0.664551 0.600098 0.531738
0.685547 0.616211 0.549805
0.710938 0.633301 0.568848
0.737305 0.651367 0.586426
0.765137 0.669434 0.604004
0.793457 0.688477 0.621582
0.822754 0.708008 0.639648
0.852539 0.728516 0.658691
0.881348 0.749023 0.678223
0.909668 0.770020 0.699707
0.450195 0.518066 0.429199
0.452637 0.519043 0.430176
0.455078 0.519531 0.431152
0.458740 0.520996 0.432373
0.461914 0.521973 0.433350
0.466309 0.523926 0.435303
0.470215 0.524902 0.436523
0.474854 0.526367 0.437500
0.480957 0.528320 0.439697
0.486328 0.530273 0.441406
0.493652 0.532715 0.443604
0.501465 0.536133 0.447021
0.510742 0.540039 0.450684
0.520508 0.543457 0.454102
0.531250 0.547852 0.458740
0.543945 0.552734 0.464355
0.557617 0.558594 0.470947
0.571777 0.564941 0.478271
0.586914 0.572266 0.486816
0.603516 0.580078 0.496094
0.621582 0.588867 0.507812
0.640137 0.599609 0.521484
0.659180 0.611816 0.536621
0.680176 0.624512 0.553223
0.700684 0.638672 0.570312
0.723633 0.654297 0.587891
0.748535 0.670898 0.604492
0.774414 0.687012 0.619629
0.801758 0.704102 0.635742
0.830078 0.722656 0.652832
0.858398 0.741211 0.669922
0.886230 0.760254 0.688477
0.913574 0.779297 0.707520
0.486572 0.554688 0.464600
0.488770 0.555664 0.465820
0.491211 0.556152 0.466797
0.493896 0.556641 0.467529
0.497314 0.558105 0.469238
0.500488 0.559082 0.470459
0.504395 0.560059 0.471924
0.508789 0.561523 0.473389
0.514648 0.563965 0.476562
0.520020 0.565918 0.478271
0.526367 0.568359 0.480957
0.533203 0.570801 0.483154
0.540527 0.573730 0.485840
0.549805 0.577148 0.489014
0.559570 0.581543 0.493652
0.570312 0.585449 0.498047
0.582520 0.590820 0.503906
0.595703 0.596191 0.510742
0.610352 0.603027 0.518066
0.625000 0.610840 0.526855
0.642090 0.619141 0.537598
0.659668 0.628418 0.549316
0.677246 0.638184 0.562012
0.696777 0.649414 0.576172
0.717285 0.663086 0.592285
0.738281 0.676270 0.607422
0.759766 0.689941 0.622070
0.784668 0.705566 0.636719
0.811035 0.721680 0.651855
0.837402 0.737793 0.666992
0.864258 0.754883 0.682617
0.891602 0.772461 0.699219
0.917480 0.789551 0.716309
0.523438 0.593262 0.500488
0.524902 0.592773 0.500977
0.527832 0.594238 0.502441
0.529297 0.593750 0.502441
0.533203 0.595703 0.504883
0.536133 0.596680 0.506348
0.540039 0.597656 0.508301
0.543945 0.599121 0.510254
0.547852 0.600098 0.511230
0.553711 0.602051 0.513672
0.559570 0.604492 0.516602
0.564941 0.605957 0.518066
0.572266 0.608887 0.521484
0.580078 0.611816 0.524414
0.588867 0.615234 0.528320
0.598145 0.618652 0.532227
0.609375 0.623535 0.537598
0.621582 0.628906 0.543945
0.634277 0.634766 0.550781
0.647461 0.641113 0.558105
0.663086 0.648438 0.566406
0.679688 0.656250 0.576660
0.696289 0.665527 0.588379
0.713379 0.674805 0.600098
0.732422 0.686035 0.613281
0.752441 0.698242 0.627441
0.772949 0.710449 0.640137
0.795898 0.724609 0.653809
0.819824 0.738281 0.666992
0.845703 0.753906 0.681641
0.870605 0.769043 0.695801
0.896484 0.785156 0.710449
0.922363 0.801270 0.726562
0.559570 0.631836 0.535156
0.561035 0.631836 0.535645
0.562988 0.632324 0.537109
0.565430 0.632812 0.538086
0.567871 0.633301 0.538574
0.570801 0.633789 0.540527
0.574707 0.635742 0.542480
0.578125 0.636719 0.544434
0.582031 0.637207 0.545898
0.586426 0.638672 0.547852
0.591797 0.640137 0.550293
0.597168 0.642090 0.552734
0.604492 0.645508 0.556152
0.611328 0.647461 0.559082
0.619141 0.649902 0.562500
0.627930 0.653809 0.566895
0.637695 0.657715 0.571777
0.647949 0.661621 0.577148
0.659180 0.666016 0.583008
0.671387 0.671875 0.589844
0.685547 0.678223 0.596191
0.699707 0.684570 0.604492
0.715332 0.692871 0.614746
0.731445 0.700684 0.624512
0.748535 0.709961 0.635742
0.766602 0.720215 0.646973
0.786621 0.732422 0.660156
0.808105 0.744141 0.671875
0.830078 0.756836 0.683594
0.853516 0.770020 0.696289
0.877930 0.784180 0.709473
0.902344 0.798340 0.722656
0.926758 0.812500 0.736328
0.594727 0.669434 0.569336
0.596680 0.670410 0.570312
0.598145 0.669922 0.570312
0.600098 0.670898 0.571777
0.602539 0.671387 0.572754
0.605469 0.671875 0.573730
0.608398 0.672363 0.575684
0.611816 0.673340 0.577148
0.615234 0.674316 0.578613
0.619141 0.675781 0.581055
0.624023 0.677246 0.583496
0.628906 0.678223 0.585449
0.635254 0.680176 0.588379
0.641113 0.682129 0.591309
0.648438 0.685059 0.595215
0.656738 0.687500 0.599121
0.665527 0.690918 0.603516
0.674316 0.693359 0.607422
0.684570 0.697754 0.613281
0.695312 0.701660 0.619141
0.707520 0.708008 0.625488
0.720215 0.712891 0.631836
0.733887 0.719238 0.639160
0.749512 0.726562 0.648438
0.765137 0.735352 0.658691
0.782715 0.744629 0.668945
0.800781 0.753418 0.679199
0.820312 0.764648 0.689941
0.840820 0.775391 0.700684
0.862793 0.787598 0.711914
0.885254 0.799316 0.723145
0.908691 0.812500 0.735352
0.931641 0.825195 0.747559
0.629883 0.707520 0.603027
0.631348 0.707520 0.603027
0.632812 0.707520 0.604004
0.634277 0.707520 0.604492
0.636719 0.708496 0.605469
0.638672 0.708496 0.606445
0.641602 0.709473 0.607910
0.643555 0.709473 0.608887
0.646973 0.710938 0.610840
0.650879 0.711426 0.612305
0.655273 0.712402 0.614258
0.660156 0.713867 0.616699
0.665039 0.714844 0.618652
0.670410 0.715820 0.621582
0.676758 0.717773 0.624512
0.684082 0.720215 0.628418
0.691406 0.722656 0.631836
0.700195 0.725586 0.636719
0.709473 0.728516 0.641113
0.719238 0.731934 0.646484
0.729980 0.736328 0.652832
0.741699 0.741211 0.658691
0.754395 0.747070 0.665039
0.768066 0.752441 0.672363
0.783203 0.759766 0.680664
0.798828 0.767578 0.689941
0.814941 0.775879 0.698730
0.833008 0.784668 0.708496
0.851562 0.794922 0.717773
0.872070 0.804688 0.727051
0.894043 0.815918 0.737793
0.915039 0.827637 0.748535
0.937012 0.838867 0.759277
0.662109 0.741699 0.633789
0.663574 0.742188 0.634766
0.665527 0.743164 0.635254
0.666504 0.742676 0.635742
0.667969 0.742676 0.636230
0.670410 0.743652 0.637695
0.672852 0.743652 0.638672
0.674805 0.743652 0.639160
0.677734 0.744629 0.640625
0.681152 0.745605 0.642090
0.685059 0.746094 0.643555
0.688965 0.747070 0.645508
0.693359 0.747559 0.647949
0.698730 0.749023 0.650391
0.704102 0.750000 0.652344
0.710449 0.752441 0.656250
0.717773 0.754395 0.659668
0.725098 0.756348 0.663574
0.733398 0.758789 0.667480
0.742676 0.761719 0.671875
0.752441 0.765137 0.677246
0.762695 0.769043 0.683105
0.774902 0.773926 0.689941
0.786621 0.778809 0.695801
0.800293 0.784668 0.702637
0.814453 0.791016 0.709961
0.830078 0.798828 0.718750
0.846191 0.805664 0.726562
0.863770 0.814453 0.735352
0.881836 0.823242 0.743652
0.901367 0.832520 0.752441
0.921875 0.842285 0.761230
0.942383 0.853027 0.771484
0.694336 0.775879 0.664551
0.694824 0.775879 0.665039
0.696289 0.775879 0.665039
0.697266 0.776367 0.665527
0.699219 0.776367 0.666016
0.701172 0.776855 0.666992
0.702637 0.776855 0.667969
0.705078 0.777344 0.668945
0.707520 0.778320 0.669922
0.709961 0.777832 0.670898
0.713379 0.778809 0.672363
0.717285 0.779785 0.673828
0.721191 0.780273 0.675781
0.725586 0.781250 0.677734
0.730957 0.782227 0.680176
0.736328 0.783691 0.682617
0.742676 0.785156 0.686035
0.749023 0.786621 0.688965
0.756836 0.788574 0.692871
0.764648 0.790527 0.696777
0.773926 0.792969 0.701172
0.783691 0.796387 0.706055
0.794922 0.801270 0.712402
0.805664 0.804688 0.717773
0.817871 0.809082 0.723633
0.830566 0.814453 0.729980
0.844727 0.820801 0.737305
0.859375 0.826660 0.744141
0.875000 0.833496 0.751465
0.892090 0.840820 0.758789
0.910645 0.849121 0.767090
0.929199 0.858398 0.775391
0.948242 0.867188 0.784180
0.724121 0.807129 0.693359
0.725586 0.808105 0.693848
0.725586 0.807617 0.693848
0.727051 0.808105 0.694336
0.728027 0.808105 0.694824
0.730469 0.809082 0.695801
0.731445 0.809082 0.695801
0.733887 0.809082 0.696777
0.735352 0.809082 0.697754
0.738770 0.810059 0.699219
0.741211 0.810547 0.700195
0.744141 0.810547 0.701172
0.748047 0.811523 0.702637
0.751465 0.812012 0.704102
0.756348 0.812988 0.706055
0.761230 0.813965 0.708496
0.766602 0.814453 0.710449
0.772949 0.815918 0.713867
0.779785 0.817871 0.717285
0.787598 0.819824 0.720703
0.794922 0.821289 0.723633
0.803711 0.823730 0.728516
0.813477 0.826660 0.733398
0.823242 0.829102 0.737793
0.834473 0.833008 0.743652
0.846191 0.837402 0.749023
0.858887 0.842285 0.755371
0.872559 0.847656 0.761719
0.887207 0.853027 0.768066
0.902344 0.859863 0.774902
0.919434 0.866699 0.781738
0.937012 0.874512 0.789551
0.955078 0.882812 0.797363
0.752441 0.837891 0.721191
0.753418 0.837891 0.721680
0.754883 0.837891 0.721680
0.755371 0.837891 0.722168
0.756836 0.838867 0.722656
0.757324 0.838379 0.722656
0.758789 0.838379 0.723145
0.760742 0.838379 0.723633
0.762695 0.839355 0.724609
0.764648 0.839355 0.725098
0.767090 0.839844 0.726074
0.769531 0.839844 0.727051
0.772461 0.839844 0.727539
0.776367 0.840820 0.729492
0.780273 0.841309 0.730469
0.784668 0.842285 0.732422
0.790039 0.843262 0.734863
0.795410 0.844238 0.737305
