RED_IPP2_Creative/RED_FilmBiasBleachBypass.cube
#RED_IPP2_CREATIVE_LUT
# RED_FilmBiasBleachBypass - Color inspired by motion picture film with Bleach Bypass Development Process
# created by Phil Holland - phfx.com
# Settings used in creation of this LUT are:
# Development Color Space = USER SELECTABLE
# Output Gamma Curve = USER SELECTABLE
# Output Tonemap = USER SELECTABLE
# Highlight Rolloff = USER SELECTABLE
LUT_3D_SIZE 5
0.0928664 0.0928664 0.0928664
0.133684 0.095613 0.0968948
0.313191 0.149401 0.155718
0.552148 0.241443 0.256626
0.71783 0.391287 0.407126
0.121401 0.174655 0.117327
0.228244 0.197711 0.10901
0.42945 0.235309 0.107637
0.665507 0.313466 0.182361
0.728634 0.437415 0.365423
0.222843 0.427665 0.220645
0.369375 0.426734 0.225498
0.589395 0.524651 0.350256
0.704356 0.575982 0.431296
0.737881 0.604959 0.483177
0.419577 0.614206 0.417929
0.539452 0.623377 0.459785
0.586389 0.609583 0.423865
0.73344 0.716548 0.619974
0.73959 0.723461 0.640238
0.562982 0.709422 0.561578
0.642649 0.713588 0.596536
0.669108 0.706111 0.573999
0.73022 0.730785 0.639673
0.739345 0.738018 0.677867
0.0922103 0.0940871 0.102602
0.144228 0.109743 0.147234
0.31783 0.164309 0.249134
0.582483 0.280293 0.400885
0.711818 0.449897 0.540887
0.118379 0.190295 0.187564
0.222644 0.222324 0.222965
0.433753 0.284535 0.288334
0.640467 0.404517 0.412497
0.722377 0.5243 0.533776
0.22739 0.451637 0.336721
0.376791 0.488411 0.371328
0.576806 0.55079 0.457435
0.703075 0.595239 0.513069
0.737682 0.638743 0.581872
0.428779 0.629938 0.485527
0.526116 0.649409 0.519005
0.625223 0.660105 0.545281
0.731487 0.72166 0.659953
0.740017 0.730159 0.6822
0.570031 0.716167 0.602152
0.623926 0.720134 0.617761
0.693034 0.725902 0.645258
0.716182 0.724117 0.636301
0.73962 0.738857 0.703288
0.125765 0.136858 0.177874
0.175463 0.166522 0.217563
0.350851 0.213352 0.363287
0.599084 0.270985 0.529351
0.712169 0.454994 0.627985
0.153765 0.227863 0.300771
0.239551 0.263294 0.341634
0.446494 0.330724 0.45919
0.635981 0.438743 0.555566
0.72108 0.564324 0.637385
0.270634 0.48043 0.471763
0.401144 0.519234 0.516197
0.579736 0.579187 0.58027
0.699107 0.621607 0.621912
0.73669 0.673625 0.676463
0.464973 0.650126 0.58526
0.549554 0.672145 0.610941
0.656397 0.704601 0.654261
0.730343 0.727016 0.703395
0.740261 0.733516 0.715724
0.596475 0.724392 0.663676
0.636393 0.728099 0.670863
0.694316 0.734325 0.691157
0.729732 0.73608 0.702312
0.740032 0.739742 0.72845
0.183688 0.207263 0.309697
0.236332 0.23743 0.347814
0.399847 0.3346 0.47483
0.609827 0.401572 0.625895
0.717571 0.447379 0.692271
0.200519 0.295918 0.432609
0.292119 0.333669 0.466682
0.456443 0.435035 0.557565
0.63772 0.501106 0.649073
0.724651 0.570291 0.700648
0.348165 0.519707 0.597086
0.440848 0.543862 0.627237
0.582162 0.603006 0.664714
0.697643 0.648005 0.702373
0.736889 0.690272 0.724666
0.500938 0.669398 0.663539
0.575204 0.687266 0.68426
0.675761 0.717205 0.716762
0.732189 0.732082 0.73228
0.740261 0.73579 0.73547
0.626551 0.730938 0.71342
0.659602 0.733501 0.717998
0.707698 0.737774 0.728588
0.736156 0.73994 0.735988
0.740505 0.740475 0.739544
0.267933 0.310277 0.471977
0.322255 0.333852 0.501366
0.458549 0.428229 0.576776
0.614115 0.522789 0.658961
0.717205 0.548867 0.72079
0.273732 0.39089 0.598016
0.37464 0.425818 0.595132
0.499886 0.501991 0.639033
0.640726 0.591684 0.683955
0.725536 0.62182 0.727733
0.420294 0.564797 0.677165
0.489052 0.581598 0.689754
0.605447 0.633753 0.706905
0.696193 0.686366 0.726955
0.737133 0.705257 0.737667
0.560327 0.692485 0.717556
0.612131 0.702495 0.725902
0.686793 0.721523 0.735866
0.730861 0.733989 0.739208
0.740185 0.737362 0.740261
0.65156 0.735653 0.734798
0.675196 0.736339 0.735836
0.714351 0.738796 0.738674
0.738338 0.740353 0.740353
0.740642 0.740642 0.740642
