RED_IPP2_Creative/RED_ST4.cube
# RED Digital Cinema Output Transform LUT for IPP2
# Creatives by Eric Weidt
# BMD cube from Truelight v4.0
# Settings used in creation of this LUT are:
# Development Color Space = USER SELECTABLE
# Output Gamma Curve = USER SELECTABLE
# Output Tonemap = USER SELECTABLE
# Highlight Rolloff = USER SELECTABLE 
LUT_3D_SIZE 33
0.010475 0.010475 0.010475
0.045990 0.008110 0.008202
0.074097 0.007309 0.007309
0.099976 0.007462 0.007462
0.124756 0.008751 0.008553
0.148560 0.011101 0.010391
0.173462 0.014717 0.013222
0.200317 0.020111 0.017700
0.226929 0.027420 0.023544
0.251221 0.035767 0.029816
0.275635 0.044891 0.036255
0.298828 0.053711 0.042572
0.321289 0.062317 0.048553
0.342041 0.070557 0.054230
0.362305 0.079163 0.059509
0.383545 0.088196 0.064941
0.406494 0.097107 0.071045
0.430420 0.106689 0.077637
0.455078 0.117065 0.085266
0.480469 0.127930 0.093628
0.506836 0.140015 0.103149
0.533203 0.152344 0.113403
0.561035 0.165649 0.124756
0.589844 0.179565 0.136963
0.619141 0.193970 0.150024
0.648926 0.208984 0.163940
0.680176 0.224731 0.178833
0.711914 0.240845 0.194336
0.744141 0.257080 0.210693
0.777832 0.274170 0.227661
0.812012 0.291992 0.245361
0.846680 0.310059 0.263184
0.883789 0.329346 0.282227
0.009270 0.035736 0.008904
0.039673 0.036530 0.005199
0.069275 0.035736 0.004848
0.097534 0.035034 0.004757
0.123901 0.035278 0.006973
0.148438 0.036896 0.010239
0.173950 0.039764 0.014450
0.201172 0.044373 0.019806
0.228027 0.050659 0.026459
0.252930 0.057983 0.033417
0.277588 0.065857 0.040222
0.300781 0.073730 0.046661
0.323486 0.081848 0.052917
0.343750 0.089844 0.058228
0.363525 0.097961 0.063721
0.384521 0.106628 0.069275
0.407227 0.115234 0.074890
0.431152 0.124390 0.081909
0.455078 0.134155 0.088928
0.480469 0.144897 0.097351
0.506348 0.156250 0.106995
0.533203 0.168579 0.116943
0.560547 0.181519 0.128418
0.588867 0.194824 0.140015
0.618652 0.209229 0.153564
0.647949 0.223755 0.166870
0.679199 0.239380 0.182129
0.710938 0.255127 0.197144
0.742676 0.271240 0.213013
0.775879 0.288330 0.230103
0.810059 0.305664 0.247192
0.844727 0.323730 0.265137
0.881836 0.342773 0.283936
0.013367 0.060699 0.013367
0.037567 0.064392 0.006721
0.065735 0.064392 0.005615
0.093994 0.064209 0.006248
0.120789 0.064392 0.009277
0.146606 0.065247 0.012360
0.173340 0.067261 0.017212
0.201416 0.070801 0.023483
0.228882 0.076111 0.030289
0.254639 0.082275 0.037872
0.279541 0.089111 0.044861
0.302979 0.096313 0.051514
0.325439 0.103882 0.057831
0.345703 0.111450 0.063049
0.365234 0.119263 0.068665
0.385742 0.127563 0.074036
0.408447 0.135620 0.079956
0.431641 0.144287 0.086487
0.455811 0.153687 0.094238
0.480713 0.163818 0.102417
0.506836 0.175049 0.111694
0.533203 0.186646 0.121216
0.560547 0.199219 0.132324
0.588379 0.212524 0.144287
0.616699 0.226074 0.157349
0.646973 0.240723 0.171143
0.677246 0.255371 0.185059
0.708984 0.270996 0.200684
0.741699 0.287354 0.216675
0.773438 0.303955 0.232666
0.808105 0.321045 0.250000
0.842773 0.339355 0.267822
0.878906 0.357910 0.286133
0.022400 0.084778 0.022400
0.038818 0.092285 0.010330
0.065796 0.092041 0.011864
0.092407 0.092529 0.011467
0.119812 0.092773 0.012802
0.145752 0.093689 0.017319
0.171875 0.095459 0.023453
0.200806 0.098450 0.029480
0.229492 0.102539 0.035797
0.256348 0.107605 0.043365
0.281494 0.113647 0.050232
0.305176 0.120178 0.057037
0.327148 0.127197 0.063416
0.347412 0.134277 0.069092
0.366455 0.141724 0.074402
0.387207 0.149536 0.080139
0.409424 0.157104 0.085999
0.432617 0.165527 0.092407
0.456787 0.174438 0.099731
0.481201 0.183960 0.107727
0.506836 0.194458 0.116699
0.532715 0.205688 0.126587
0.560059 0.217773 0.137207
0.588379 0.230591 0.149170
0.616699 0.243774 0.161621
0.646484 0.258057 0.174927
0.676758 0.272705 0.189209
0.707520 0.287842 0.204102
0.739746 0.303955 0.219971
0.772461 0.320068 0.236084
0.806152 0.337402 0.252930
0.840820 0.355225 0.270508
0.876465 0.373535 0.288818
0.034821 0.109314 0.034821
0.043365 0.120544 0.017410
0.069275 0.119812 0.020782
0.093872 0.120667 0.020996
0.119934 0.121399 0.021393
0.145874 0.122192 0.023834
0.173218 0.123718 0.029434
0.201538 0.126465 0.036682
0.229736 0.130249 0.044830
0.256592 0.134644 0.051575
0.282471 0.139648 0.058014
0.306641 0.145752 0.064453
0.328613 0.152100 0.070557
0.349121 0.158813 0.076294
0.368652 0.165771 0.081848
0.388672 0.173096 0.087402
0.410889 0.180298 0.093018
0.433838 0.187988 0.099304
0.457520 0.196533 0.106384
0.481934 0.205566 0.114197
0.507324 0.215454 0.122986
0.533203 0.226196 0.132446
0.559570 0.237671 0.142822
0.587402 0.250000 0.154419
0.616699 0.263184 0.166992
0.645020 0.276367 0.179688
0.675781 0.291016 0.194092
0.707031 0.306152 0.208740
0.738281 0.321533 0.223877
0.770508 0.337646 0.239990
0.804688 0.354492 0.256592
0.838379 0.372070 0.273682
0.874512 0.390381 0.292236
0.050323 0.134277 0.050323
0.054413 0.146729 0.032593
0.074646 0.148682 0.030396
0.098389 0.148682 0.033722
0.121948 0.149902 0.034027
0.146851 0.151001 0.036133
0.173706 0.152466 0.039490
0.203369 0.154907 0.045074
0.232300 0.158447 0.053009
0.257812 0.162842 0.061768
0.282471 0.168091 0.069275
0.307129 0.173462 0.074951
0.329834 0.179077 0.080383
0.350586 0.185303 0.085693
0.369873 0.191895 0.091064
0.390137 0.198608 0.096497
0.412354 0.205078 0.101746
0.435059 0.212524 0.107788
0.458496 0.220337 0.114502
0.482910 0.228882 0.122009
0.507812 0.238403 0.130371
0.533691 0.248535 0.139648
0.560059 0.259277 0.149780
0.587891 0.271240 0.161011
0.616211 0.283691 0.173096
0.644531 0.296631 0.185669
0.674805 0.310791 0.199463
0.705566 0.325439 0.213989
0.736816 0.340576 0.228760
0.769043 0.356689 0.244629
0.802246 0.373047 0.260742
0.836426 0.390137 0.277832
0.872559 0.408691 0.295898
0.068604 0.160889 0.068787
0.072205 0.172119 0.054779
0.082336 0.179443 0.042480
0.104370 0.178955 0.045776
0.127197 0.179443 0.048340
0.150757 0.180664 0.049652
0.176758 0.182373 0.052063
0.206177 0.184814 0.056213
0.235840 0.187988 0.062347
0.262695 0.192017 0.069763
0.287598 0.196777 0.077881
0.310059 0.202271 0.086060
0.330811 0.208374 0.093689
0.351562 0.214355 0.098633
0.371094 0.220581 0.103394
0.391602 0.226807 0.108276
0.413818 0.233032 0.112976
0.436279 0.239624 0.118408
0.459473 0.246826 0.124634
0.483887 0.254639 0.131592
0.509277 0.263672 0.139648
0.534668 0.273193 0.148438
0.561035 0.283447 0.158081
0.588379 0.294678 0.168945
0.616699 0.306641 0.180664
0.644531 0.318848 0.192749
0.674316 0.332520 0.206055
0.705078 0.346436 0.219971
0.735840 0.361084 0.234375
0.768066 0.376953 0.249878
0.800781 0.393311 0.265869
0.834473 0.409912 0.282227
0.869629 0.427490 0.300049
0.088501 0.189697 0.089417
0.091919 0.199585 0.078308
0.091370 0.212891 0.055115
0.112671 0.212280 0.057465
0.135498 0.211426 0.062561
0.157837 0.212646 0.064697
0.182495 0.214233 0.066528
0.211304 0.216553 0.069458
0.240845 0.219604 0.074036
0.268066 0.223389 0.079834
0.293701 0.227783 0.086670
0.317139 0.232788 0.093994
0.337891 0.238037 0.101746
0.356445 0.244019 0.109863
0.373535 0.250244 0.118225
0.392578 0.256348 0.123962
0.415039 0.261963 0.127197
0.437744 0.267822 0.131592
0.461182 0.274170 0.136963
0.485107 0.281494 0.143188
0.510254 0.289795 0.150635
0.536133 0.298340 0.158691
0.562012 0.307861 0.167969
0.588867 0.318115 0.177856
0.616211 0.329102 0.188843
0.645020 0.341064 0.200806
0.674316 0.354248 0.213501
0.703613 0.367432 0.226807
0.734863 0.381592 0.240967
0.766602 0.396729 0.255859
0.798828 0.412109 0.270996
0.832520 0.428711 0.287354
0.868164 0.446289 0.304932
0.109863 0.217651 0.109436
0.108765 0.229980 0.094116
0.105103 0.244629 0.068909
0.123352 0.245361 0.068787
0.145142 0.244385 0.073120
0.167603 0.243774 0.078552
0.191528 0.245728 0.080444
0.219116 0.248047 0.082947
0.247681 0.250488 0.086243
0.274902 0.253906 0.091003
0.300537 0.257812 0.096802
0.323730 0.262207 0.103271
0.345215 0.266846 0.110413
0.363525 0.271973 0.117920
0.381348 0.277344 0.125732
0.399658 0.283447 0.133911
0.417969 0.289307 0.141479
0.439209 0.295166 0.147339
0.462402 0.301270 0.151611
0.486084 0.307861 0.156982
0.511230 0.315186 0.163208
0.537109 0.323242 0.170532
0.562988 0.331787 0.178833
0.589844 0.341309 0.188232
0.617188 0.352051 0.198730
0.644531 0.362793 0.209595
0.673828 0.375000 0.221924
0.703125 0.388184 0.234741
0.733887 0.401855 0.248291
0.765137 0.415771 0.262451
0.797852 0.430908 0.277588
0.831543 0.447021 0.293457
0.866211 0.463867 0.310059
0.132690 0.243896 0.130005
0.124084 0.260010 0.106873
0.120728 0.273926 0.083618
0.135132 0.276611 0.079224
0.155762 0.275635 0.083496
0.178345 0.273926 0.090393
0.201538 0.275146 0.093933
0.228271 0.277588 0.096313
0.255615 0.280273 0.099304
0.281982 0.282959 0.103088
0.307373 0.286621 0.108154
0.330566 0.290527 0.114014
0.351807 0.294922 0.120361
0.371094 0.299072 0.127075
0.389404 0.303955 0.134521
0.407715 0.309082 0.141968
0.427002 0.314697 0.149170
0.446777 0.320557 0.156982
0.466553 0.326660 0.165161
0.487793 0.333252 0.172363
0.512207 0.339844 0.177979
0.537598 0.346924 0.183960
0.563965 0.355225 0.191162
0.590332 0.364258 0.199707
0.617676 0.373779 0.209229
0.645020 0.384033 0.219604
0.673828 0.395264 0.230957
0.703125 0.407715 0.243042
0.733887 0.420654 0.256104
0.765137 0.434814 0.270020
0.796875 0.449219 0.284180
0.829590 0.464844 0.299561
0.864258 0.481201 0.316162
0.147583 0.273438 0.142700
0.139648 0.289307 0.120361
0.135864 0.302246 0.097656
0.146973 0.306396 0.090210
0.166748 0.305176 0.094116
0.188354 0.303955 0.100281
0.212524 0.302979 0.107727
0.238159 0.305420 0.110168
0.264648 0.308105 0.112976
0.290283 0.311035 0.116333
0.315186 0.313965 0.120361
0.338135 0.317627 0.125610
0.359131 0.321533 0.131226
0.377930 0.325439 0.137207
0.396729 0.329346 0.143921
0.415283 0.334473 0.150757
0.435303 0.339600 0.157715
0.455078 0.344482 0.164917
0.475098 0.350342 0.172852
0.495117 0.356445 0.181274
0.516602 0.363037 0.190430
0.538086 0.370361 0.199097
0.563965 0.377686 0.205444
0.590820 0.385986 0.212646
0.618652 0.394775 0.221191
0.645996 0.405029 0.230713
0.673828 0.415283 0.240967
0.703125 0.427002 0.252441
0.732910 0.439209 0.264648
0.763672 0.452393 0.277832
0.795898 0.466553 0.291748
0.828613 0.481201 0.306396
0.862793 0.497559 0.322266
0.162354 0.301025 0.155762
0.154785 0.316162 0.134155
0.151489 0.328369 0.113525
0.158569 0.334473 0.101379
0.177612 0.333496 0.105225
0.198486 0.331787 0.110718
0.223022 0.330078 0.120117
0.248779 0.331787 0.124084
0.274414 0.334473 0.126831
0.299316 0.337158 0.130005
0.323242 0.340332 0.133545
0.345459 0.343262 0.137573
0.366211 0.346680 0.142456
0.385010 0.350098 0.147827
0.403564 0.353760 0.153687
0.423096 0.358398 0.160278
0.442871 0.363281 0.166626
0.462891 0.367920 0.173584
0.483887 0.373047 0.181030
0.503906 0.378906 0.189209
0.525391 0.385010 0.198120
0.546875 0.391846 0.207397
0.568848 0.398926 0.217407
0.591797 0.406738 0.227051
0.618652 0.415039 0.234131
0.645508 0.423828 0.242432
0.674316 0.434082 0.252197
0.703125 0.444824 0.262695
0.732422 0.456543 0.274170
0.762695 0.469238 0.286377
0.794922 0.482910 0.299805
0.827148 0.497314 0.314209
0.861328 0.512207 0.329346
0.176880 0.326660 0.168945
0.170166 0.340820 0.148682
0.166504 0.352539 0.128906
0.169678 0.361084 0.112915
0.188232 0.359863 0.116333
0.208618 0.358398 0.121521
0.232788 0.356689 0.129883
0.259521 0.356445 0.137939
0.284424 0.359131 0.140747
0.308350 0.361816 0.143555
0.331543 0.364746 0.146973
0.353271 0.367676 0.150391
0.373291 0.370605 0.154297
0.392090 0.373779 0.159058
0.410889 0.377441 0.164307
0.429932 0.381104 0.169800
0.450195 0.385498 0.175903
0.470703 0.389648 0.182373
0.491455 0.394531 0.189453
0.512207 0.399902 0.197266
0.534180 0.405762 0.205811
0.555176 0.411865 0.214722
0.577637 0.418945 0.224731
0.599609 0.426270 0.235107
0.622559 0.434570 0.245850
0.645996 0.442383 0.255371
0.674316 0.452393 0.264404
0.703613 0.462402 0.273926
0.732422 0.473633 0.284668
0.762695 0.485840 0.296143
0.793457 0.498535 0.308838
0.826172 0.512695 0.322266
0.859863 0.527832 0.336670
0.191406 0.350342 0.182617
0.184570 0.364014 0.162720
0.181030 0.375000 0.144043
0.180298 0.385986 0.123535
0.198364 0.384521 0.127197
0.218384 0.383057 0.132080
0.242188 0.381592 0.139771
0.269775 0.379883 0.150879
0.294189 0.382080 0.154175
0.317871 0.385010 0.157104
0.340332 0.387695 0.159912
0.361572 0.390137 0.163086
0.381104 0.393311 0.166504
0.398926 0.395508 0.170044
0.417969 0.399170 0.174683
0.437500 0.403076 0.179932
0.457520 0.406982 0.185425
0.478027 0.411133 0.191406
0.498779 0.416016 0.198364
0.520020 0.421143 0.205688
0.541504 0.426514 0.213989
0.563477 0.432861 0.222900
0.585938 0.439453 0.232178
0.608887 0.446533 0.242676
0.632324 0.454346 0.253418
0.654785 0.462646 0.264648
0.679199 0.471924 0.275391
0.703613 0.481201 0.286377
0.732422 0.491699 0.296631
0.762207 0.502930 0.307129
0.792969 0.515625 0.318848
0.825195 0.529297 0.331787
0.858398 0.543945 0.345703
0.201294 0.378662 0.191284
0.200317 0.387695 0.178345
0.196899 0.398193 0.160767
0.195435 0.408936 0.140869
0.209106 0.410156 0.138916
0.229004 0.408691 0.143555
0.251953 0.406494 0.150513
0.279785 0.404297 0.161621
0.304688 0.405273 0.168335
0.327637 0.407959 0.170898
0.349365 0.410889 0.173828
0.369873 0.413574 0.176636
0.388916 0.416504 0.179565
0.406738 0.419189 0.182739
0.425537 0.421875 0.186157
0.444824 0.425781 0.190918
0.464844 0.429688 0.196045
0.485107 0.433594 0.201660
0.506836 0.438477 0.208008
0.527832 0.443359 0.215088
0.550293 0.448730 0.223022
0.572754 0.454590 0.231445
0.595215 0.460938 0.240601
0.618164 0.468018 0.250732
0.640625 0.475342 0.261230
0.664551 0.483643 0.272461
0.687988 0.492676 0.284424
0.712402 0.501953 0.296143
0.738281 0.511719 0.307617
0.764160 0.522461 0.319336
0.792969 0.533691 0.330811
0.824219 0.546875 0.342529
0.857422 0.560547 0.355469
0.202026 0.414307 0.190063
0.215698 0.413330 0.193359
0.213013 0.423096 0.177124
0.211914 0.432617 0.159546
0.220825 0.437012 0.151489
0.239868 0.435059 0.155762
0.262695 0.433105 0.162231
0.290039 0.430664 0.171997
0.316162 0.429199 0.182739
0.338623 0.432129 0.185303
0.359863 0.434814 0.187988
0.379639 0.437988 0.190552
0.397949 0.440674 0.193359
0.415283 0.443359 0.196167
0.433594 0.446289 0.199219
0.452637 0.449463 0.202759
0.472656 0.452881 0.207397
0.493164 0.457031 0.212769
0.514160 0.461426 0.218628
0.535645 0.466309 0.225220
0.558105 0.471680 0.232666
0.580078 0.477295 0.240845
0.603516 0.483643 0.249756
0.626465 0.489990 0.259277
0.649902 0.497559 0.269531
0.673340 0.504883 0.280518
0.698242 0.513672 0.292480
0.722168 0.522949 0.304443
0.746094 0.532715 0.317139
0.771973 0.542969 0.328857
0.799316 0.554199 0.341064
0.826172 0.565918 0.353760
0.856445 0.579590 0.367188
0.201050 0.451904 0.187622
0.215698 0.450439 0.190796
0.229126 0.448975 0.194336
0.228882 0.457764 0.178101
0.233398 0.464600 0.164429
0.252197 0.462891 0.168579
0.274414 0.460693 0.174316
0.301270 0.458496 0.183105
0.327393 0.455811 0.194092
0.349854 0.456787 0.199463
0.370850 0.459961 0.202148
0.389893 0.462646 0.204590
0.407471 0.465576 0.207275
0.424805 0.468262 0.210083
0.442627 0.471191 0.212769
0.461182 0.474121 0.216064
0.480957 0.477295 0.219727
0.500488 0.481201 0.224609
0.521973 0.485352 0.230225
0.543945 0.489990 0.236206
0.566406 0.495361 0.243286
0.588867 0.500977 0.250977
0.611816 0.506348 0.259277
0.635254 0.513184 0.268555
0.659180 0.519531 0.278564
0.682617 0.527344 0.289062
0.706543 0.535156 0.300537
0.730957 0.544434 0.312744
0.755859 0.554688 0.325195
0.781738 0.564941 0.338135
0.808105 0.576172 0.351074
0.835449 0.587402 0.363770
0.864258 0.600098 0.377197
0.199097 0.491699 0.184082
0.214478 0.489990 0.186523
0.228516 0.488281 0.189453
0.243408 0.486816 0.192993
0.247070 0.493896 0.178711
0.265381 0.491943 0.182373
0.287109 0.489746 0.187622
0.313232 0.486816 0.195190
0.339355 0.484131 0.205688
0.362061 0.482666 0.214478
0.382324 0.486084 0.217163
0.400879 0.488770 0.219482
0.418457 0.492188 0.222290
0.434570 0.494141 0.224609
0.452393 0.496826 0.227417
0.470947 0.499512 0.230469
0.490234 0.503418 0.234131
0.509766 0.506836 0.237793
0.530762 0.510742 0.242920
0.552734 0.514648 0.248413
0.574707 0.519531 0.254883
0.597168 0.524902 0.261719
0.620605 0.531250 0.270020
0.644043 0.537109 0.278564
0.667480 0.543457 0.288330
0.691406 0.551270 0.298584
0.716309 0.559082 0.309570
0.741211 0.567383 0.321533
0.766113 0.577148 0.333740
0.791504 0.587402 0.346924
0.817383 0.598145 0.360107
0.844238 0.609863 0.374023
0.873047 0.622070 0.387451
0.201538 0.530273 0.185669
0.216553 0.528320 0.187378
0.230469 0.526855 0.188965
0.244873 0.524414 0.190796
0.260986 0.522949 0.193359
0.279053 0.520996 0.196777
0.300293 0.518555 0.201538
0.325928 0.516113 0.208496
0.351318 0.513184 0.217651
0.374512 0.510742 0.227783
0.394287 0.512207 0.232422
0.412354 0.514648 0.234741
0.429199 0.517578 0.237427
0.445557 0.520020 0.239868
0.462646 0.522949 0.242554
0.480469 0.525879 0.245239
0.499756 0.529297 0.248779
0.519531 0.532715 0.252197
0.540039 0.536133 0.256104
0.561035 0.540527 0.261475
0.583496 0.545410 0.267578
0.605957 0.550293 0.273926
0.628906 0.556152 0.281250
0.652344 0.562012 0.289551
0.676758 0.568359 0.298828
0.700684 0.575195 0.308350
0.725586 0.583008 0.319336
0.750000 0.590332 0.330566
0.775391 0.600098 0.342529
0.800781 0.609863 0.355225
0.826660 0.620117 0.368408
0.853516 0.631348 0.382080
0.881836 0.644043 0.396729
0.217041 0.561035 0.201538
0.231934 0.559570 0.203003
0.245728 0.557617 0.204346
0.259766 0.555664 0.206299
0.275879 0.553711 0.208862
0.293457 0.551758 0.212158
0.314697 0.549316 0.216553
0.339600 0.546387 0.222778
0.364502 0.543945 0.231079
0.387939 0.541016 0.241577
0.408203 0.540039 0.249023
0.425537 0.542969 0.251221
0.441650 0.545898 0.253906
0.457520 0.548340 0.256104
0.474365 0.550781 0.258545
0.491943 0.553711 0.261230
0.510254 0.557129 0.264404
0.529297 0.560547 0.267578
0.549805 0.562988 0.271240
0.570801 0.566895 0.275146
0.592773 0.571289 0.280762
0.615234 0.576172 0.286865
0.637695 0.581543 0.293701
0.661621 0.586914 0.301270
0.685547 0.593262 0.309814
0.709961 0.600098 0.319092
0.734375 0.607422 0.329102
0.760254 0.615234 0.340576
0.784668 0.623535 0.351807
0.811035 0.633301 0.364502
0.836914 0.643555 0.377197
0.864258 0.654785 0.390869
0.892090 0.666504 0.405273
0.232910 0.593262 0.217651
0.247803 0.590820 0.219116
0.261230 0.589355 0.220459
0.275391 0.586914 0.222290
0.291260 0.585449 0.224854
0.308594 0.583496 0.227783
0.328857 0.580566 0.231812
0.354004 0.577637 0.237915
0.378174 0.574707 0.245483
0.401123 0.571777 0.254395
0.421875 0.569336 0.264404
0.438965 0.570801 0.268066
0.454590 0.573730 0.270508
0.470215 0.576172 0.272705
0.486572 0.578613 0.275146
0.503418 0.581543 0.277588
0.521973 0.584961 0.280518
0.540527 0.587402 0.283691
0.560547 0.590820 0.287109
0.580566 0.594238 0.290527
0.602051 0.598145 0.294922
0.624512 0.603027 0.300781
0.646973 0.608398 0.306885
0.670898 0.613281 0.314209
0.694824 0.619629 0.322021
0.719238 0.625977 0.330566
0.744629 0.632812 0.340332
0.768555 0.639648 0.350586
0.793945 0.648438 0.361572
0.820312 0.657715 0.373779
0.846680 0.666992 0.386230
0.873535 0.677734 0.399414
0.902344 0.689941 0.414062
0.249390 0.625977 0.234741
0.263672 0.623535 0.235962
0.277344 0.621582 0.237427
0.291504 0.620117 0.239380
0.306885 0.617676 0.241455
0.323975 0.615234 0.244141
0.344238 0.612793 0.247925
0.369141 0.609863 0.253662
0.392822 0.606445 0.260254
0.415283 0.604004 0.268555
0.435791 0.600098 0.278320
0.452881 0.599609 0.285156
0.468018 0.602539 0.287598
0.483887 0.604980 0.290039
0.499756 0.607422 0.292480
0.516113 0.610352 0.294678
0.534180 0.613770 0.297607
0.552734 0.616211 0.300537
0.572266 0.620117 0.303955
0.591797 0.623047 0.307129
0.613281 0.626465 0.311035
0.634277 0.630859 0.315430
0.657227 0.635742 0.321289
0.680664 0.641113 0.327637
0.704590 0.646484 0.335205
0.729004 0.652832 0.343262
0.752930 0.659180 0.352051
0.778809 0.666504 0.362061
0.804199 0.674316 0.372559
0.830078 0.682617 0.383789
0.856445 0.691895 0.395996
0.883789 0.702148 0.408936
0.912109 0.713379 0.422607
0.266113 0.659668 0.251953
0.280762 0.656738 0.253174
0.294189 0.655273 0.254639
0.308350 0.653320 0.256348
0.323242 0.650879 0.258301
0.340088 0.648438 0.260986
0.360352 0.645508 0.264404
0.384521 0.642578 0.269775
0.407715 0.639648 0.275879
0.429932 0.636230 0.283447
0.450195 0.633301 0.292236
0.468262 0.630371 0.302002
0.482910 0.632324 0.305420
0.498047 0.634766 0.307617
0.513672 0.637207 0.310059
0.529785 0.640137 0.312500
0.547363 0.643066 0.315430
0.565918 0.645996 0.318115
0.584961 0.648926 0.321289
0.604004 0.652832 0.324463
0.624512 0.656250 0.327881
0.645508 0.660156 0.332031
0.667480 0.664551 0.336670
0.690430 0.668945 0.342285
0.714844 0.674805 0.349121
0.738770 0.680176 0.356689
0.763672 0.686523 0.364990
0.788574 0.693359 0.373779
0.814453 0.701172 0.384277
0.840332 0.708984 0.394775
0.866211 0.717773 0.406494
0.894531 0.728027 0.419189
0.921875 0.738281 0.432373
0.283203 0.693359 0.269043
0.297852 0.690918 0.270752
0.310791 0.688477 0.271729
0.324951 0.687012 0.273438
0.339600 0.684082 0.275391
0.356689 0.682129 0.278076
0.376465 0.679199 0.281250
0.400635 0.676270 0.286377
0.423584 0.672852 0.292236
0.445312 0.668945 0.298828
0.465088 0.666016 0.306885
0.482910 0.663086 0.316162
0.498291 0.662598 0.323486
0.512695 0.664551 0.325684
0.528320 0.666992 0.327881
0.544434 0.669922 0.330322
0.561035 0.672852 0.333252
0.578613 0.675781 0.335938
0.598145 0.679199 0.339111
0.616699 0.682617 0.342041
0.637207 0.685547 0.345215
0.657715 0.689941 0.349121
0.678711 0.693359 0.353027
0.701172 0.697754 0.357910
0.725098 0.703125 0.364014
0.749023 0.708496 0.370605
0.773438 0.714355 0.378418
0.798340 0.720703 0.386475
0.824219 0.728027 0.396240
0.850586 0.735352 0.406250
0.876953 0.744141 0.417480
0.903809 0.753418 0.429199
0.931152 0.763184 0.441162
0.300537 0.728027 0.287109
0.315186 0.725586 0.288574
0.328369 0.723145 0.289551
0.342285 0.721680 0.291504
0.356934 0.718750 0.293213
0.373779 0.716309 0.295654
0.393311 0.713379 0.298584
0.416992 0.709961 0.303467
0.439697 0.707031 0.309082
0.461426 0.703613 0.315674
0.480957 0.700684 0.322754
0.498291 0.697266 0.331055
0.513672 0.693359 0.340332
0.528320 0.695312 0.343994
0.543457 0.698242 0.346436
0.559570 0.700684 0.348633
0.576172 0.704102 0.351807
0.593262 0.706543 0.354248
0.611816 0.709473 0.356934
0.630371 0.712891 0.360107
0.650391 0.716797 0.363525
0.670410 0.720215 0.366943
0.691406 0.723633 0.370361
0.713379 0.728027 0.374756
0.736328 0.731934 0.379395
0.759766 0.737305 0.385742
0.784180 0.743164 0.392822
0.809082 0.749023 0.400146
0.834473 0.755859 0.408936
0.860352 0.763184 0.418457
0.886719 0.771484 0.428955
0.914062 0.779785 0.440186
0.940430 0.788574 0.450439
0.318604 0.763672 0.305664
0.332764 0.760742 0.306396
0.345947 0.758789 0.307861
0.359619 0.756348 0.309570
0.374512 0.754395 0.311279
0.391113 0.751465 0.313477
0.410645 0.748535 0.316650
0.433838 0.744629 0.320801
0.456543 0.741699 0.326172
0.477783 0.738281 0.332031
0.497070 0.734863 0.338623
0.513672 0.731445 0.346436
0.529297 0.728027 0.354980
0.544922 0.726562 0.362793
0.559570 0.729004 0.364990
0.575195 0.732422 0.367676
0.591797 0.734863 0.370117
0.608398 0.737793 0.373047
0.626953 0.741211 0.375732
0.644531 0.744141 0.378418
0.664062 0.748047 0.382080
0.684082 0.750977 0.385010
0.704590 0.754395 0.388672
0.726074 0.758301 0.392578
0.748535 0.762695 0.396973
0.771484 0.766602 0.401367
0.794922 0.771973 0.407715
0.819824 0.778320 0.415039
0.845215 0.785156 0.423096
0.871094 0.791992 0.431885
0.897461 0.799805 0.441406
0.925293 0.808105 0.452393
0.949219 0.814453 0.460205
0.337402 0.800293 0.324951
0.351562 0.797852 0.325439
0.364258 0.795410 0.327148
0.377930 0.793457 0.328369
0.392822 0.790527 0.330078
0.409424 0.788086 0.332275
0.428467 0.784668 0.334961
0.451904 0.781738 0.339111
0.474365 0.778320 0.344238
0.495117 0.774414 0.349609
0.514160 0.770996 0.355957
0.531250 0.767578 0.363037
0.545898 0.764160 0.370605
0.561523 0.760742 0.379639
0.577148 0.762207 0.384766
0.592773 0.765137 0.387451
0.608887 0.767578 0.389893
0.625488 0.770996 0.392334
