RED_IPP2_Creative/RED_CHROMATIC.cube
# RED Digital Cinema Output Transform LUT for IPP2
# Creatives by Eric Weidt
# BMD cube from Truelight v4.0
# Settings used in creation of this LUT are:
# Development Color Space = USER SELECTABLE
# Output Gamma Curve = USER SELECTABLE
# Output Tonemap = USER SELECTABLE
# Highlight Rolloff = USER SELECTABLE
LUT_3D_SIZE 33
0.000082 0.000086 0.000098
0.031097 0.000242 0.000073
0.062042 0.000374 0.000096
0.093079 0.000448 0.000026
0.124084 0.000628 0.000028
0.159546 0.000071 0.001928
0.203247 0.000096 0.008171
0.246826 0.000051 0.014328
0.290283 0.000043 0.020584
0.333984 0.000118 0.026810
0.365234 0.000003 0.026779
0.394531 0.000200 0.025848
0.423340 0.000093 0.024414
0.452148 0.000273 0.023315
0.481201 0.000000 0.022034
0.509766 0.000044 0.020432
0.538574 0.000000 0.018524
0.567383 0.000000 0.018234
0.596191 0.000000 0.016800
0.625488 0.000169 0.015625
0.654297 0.000060 0.015350
0.683105 0.000000 0.014297
0.711914 0.000670 0.013626
0.740723 0.000000 0.011909
0.769531 0.000000 0.012932
0.798340 0.000000 0.000000
0.827148 0.003948 0.007374
0.855469 0.003815 0.006363
0.884277 0.000000 0.000000
0.913086 0.008850 0.030609
0.942383 0.003347 0.000000
0.971191 0.000000 0.000000
1.000000 0.003637 0.057648
0.000005 0.044891 0.000898
0.031311 0.031281 0.000052
0.062622 0.031342 0.000017
0.093994 0.031311 0.000078
0.125122 0.031372 0.000056
0.156128 0.031525 0.000016
0.189209 0.029510 0.000038
0.223755 0.025894 0.000053
0.259033 0.021576 0.000009
0.294922 0.016830 0.000179
0.330078 0.012802 0.000055
0.361328 0.012817 0.000118
0.392822 0.013145 0.000185
0.423828 0.013245 0.000000
0.454590 0.014091 0.000257
0.485352 0.014473 0.000342
0.516113 0.015175 0.000105
0.546387 0.016083 0.001616
0.577148 0.016205 0.000000
0.607422 0.017166 0.000000
0.638184 0.018433 0.002218
0.668457 0.020096 0.000000
0.698730 0.021652 0.006241
0.729004 0.020065 0.001741
0.759277 0.024780 0.003904
0.789551 0.025925 0.000488
0.819336 0.013275 0.000000
0.849609 0.026764 0.012001
0.879395 0.037964 0.011536
0.909668 0.033508 0.019760
0.939941 0.046417 0.000000
0.970215 0.041626 0.000000
1.000000 0.042877 0.062805
0.000029 0.089783 0.001666
0.035767 0.079102 0.000054
0.062561 0.062561 0.000082
0.093872 0.062622 0.000000
0.125122 0.062622 0.000054
0.156494 0.062622 0.000079
0.187622 0.062500 0.000000
0.218750 0.062500 0.000108
0.250488 0.061493 0.000079
0.284424 0.058655 0.000254
0.318848 0.055054 0.000036
0.352783 0.052643 0.000098
0.385010 0.051605 0.000156
0.417480 0.050903 0.000148
0.449219 0.050537 0.000003
0.480713 0.050293 0.000000
0.511719 0.050140 0.000000
0.542969 0.050110 0.000000
0.574219 0.050598 0.000000
0.604980 0.051514 0.000000
0.635742 0.052063 0.000032
0.666504 0.051697 0.000000
0.697266 0.055328 0.001132
0.728027 0.054230 0.000277
0.758789 0.055084 0.002253
0.789062 0.060120 0.003380
0.819336 0.047729 0.000000
0.849609 0.050171 0.000000
0.879395 0.052002 0.000000
0.909668 0.063843 0.027313
0.940430 0.062927 0.003859
0.970703 0.055939 0.000000
1.000000 0.065186 0.008690
0.000085 0.134521 0.002619
0.040192 0.126831 0.000120
0.067017 0.110352 0.000018
0.093811 0.093811 0.000010
0.125122 0.093872 0.000018
0.156494 0.093933 0.000043
0.187622 0.093872 0.000122
0.218750 0.093750 0.000088
0.249756 0.093628 0.000021
0.280762 0.093628 0.000131
0.311768 0.093506 0.000030
0.342773 0.093506 0.000000
0.376221 0.091492 0.000134
0.409668 0.089478 0.000000
0.442627 0.088074 0.000000
0.475098 0.086914 0.000000
0.506836 0.086365 0.000035
0.539062 0.085815 0.000090
0.570312 0.085938 0.000000
0.602051 0.085388 0.000000
0.633301 0.086365 0.001164
0.664551 0.085022 0.000000
0.695312 0.086304 0.000000
0.726562 0.088379 0.004509
0.757324 0.088623 0.004303
0.788086 0.089539 0.002596
0.818359 0.084656 0.000000
0.849121 0.090332 0.016205
0.879395 0.088379 0.008888
0.909668 0.094543 0.001572
0.940430 0.086243 0.012703
0.970703 0.075684 0.000000
1.000000 0.087952 0.017120
0.000000 0.179443 0.003370
0.043213 0.173706 0.000000
0.071411 0.158081 0.000065
0.098267 0.141724 0.000118
0.125122 0.125000 0.000137
0.156372 0.125000 0.000049
0.187500 0.125000 0.000087
0.218628 0.124939 0.000000
0.249756 0.124878 0.000000
0.280518 0.124817 0.000000
0.311768 0.124756 0.000021
0.342773 0.124695 0.000009
0.374023 0.124817 0.000311
0.405518 0.124817 0.000266
0.437012 0.124878 0.000209
0.468506 0.124817 0.000534
0.501465 0.123108 0.000000
0.534180 0.121948 0.000000
0.566406 0.121338 0.001423
0.598145 0.120422 0.000061
0.629883 0.119446 0.000000
0.661621 0.119873 0.000000
0.693359 0.120178 0.001201
0.724609 0.119507 0.000000
0.755859 0.120667 0.000236
0.786621 0.118835 0.000000
0.817871 0.121155 0.000000
0.848145 0.116455 0.002888
0.878906 0.117188 0.000000
0.909668 0.126587 0.018890
0.939941 0.117920 0.000000
0.970703 0.113464 0.000000
1.000000 0.121948 0.032074
0.000000 0.223145 0.003633
0.042236 0.217773 0.000015
0.075806 0.205933 0.000005
0.102722 0.189453 0.000000
0.129639 0.172852 0.000015
0.156372 0.156372 0.000139
0.187500 0.156250 0.000024
0.218628 0.156250 0.000242
0.249756 0.156006 0.000161
0.280518 0.155884 0.000042
0.311768 0.155884 0.000107
0.342773 0.155884 0.000051
0.374268 0.155884 0.000189
0.405518 0.155884 0.000000
0.437012 0.156128 0.000128
0.468506 0.156006 0.000000
0.499756 0.156128 0.000068
0.530762 0.156250 0.000104
0.562500 0.156250 0.000018
0.594238 0.155884 0.000000
0.626465 0.154663 0.000000
0.658691 0.154175 0.000000
0.690430 0.153076 0.000000
0.722168 0.152100 0.000000
0.753906 0.151978 0.000000
0.785156 0.152222 0.002737
0.816406 0.151733 0.000000
0.847656 0.152222 0.011856
0.878418 0.150024 0.000000
0.909180 0.157959 0.010681
0.939941 0.148315 0.000000
0.970703 0.140625 0.000000
1.000000 0.157593 0.050903
0.000000 0.264893 0.002836
0.041687 0.260986 0.000163
0.080200 0.253662 0.000000
0.106873 0.237183 0.000000
0.133667 0.220581 0.000150
0.160645 0.203979 0.000000
0.187500 0.187500 0.000178
0.218628 0.187378 0.000000
0.249634 0.187256 0.000098
0.280518 0.187134 0.000066
0.311768 0.187012 0.000226
0.342773 0.187012 0.000253
0.374268 0.187134 0.000048
0.405518 0.187134 0.000000
0.437012 0.187256 0.000000
0.468506 0.187378 0.000000
0.499756 0.187378 0.000000
0.530762 0.187378 0.000166
0.562500 0.187500 0.000230
0.593750 0.187622 0.000578
0.625000 0.187378 0.000000
0.656250 0.187500 0.000000
0.687500 0.187988 0.000000
0.719238 0.187378 0.000000
0.751465 0.186646 0.000000
0.783203 0.186035 0.000000
0.814941 0.185059 0.000000
0.846191 0.186035 0.000000
0.877441 0.184692 0.000000
0.908203 0.187866 0.015945
0.939453 0.186768 0.000000
0.970215 0.183350 0.000000
1.000000 0.181885 0.006737
0.000105 0.306885 0.002581
0.041748 0.304199 0.000000
0.084595 0.301270 0.000000
0.110962 0.284668 0.000097
0.137939 0.268066 0.000137
0.164917 0.251465 0.000112
0.191650 0.235107 0.000192
0.218506 0.218506 0.000000
0.249634 0.218384 0.000057
0.280518 0.218384 0.000216
0.311768 0.218262 0.000128
0.343018 0.218262 0.000000
0.374268 0.218384 0.000025
0.405518 0.218384 0.000000
0.437012 0.218506 0.000120
0.468506 0.218628 0.000400
0.499756 0.218628 0.000000
0.530762 0.218628 0.000000
0.562500 0.218872 0.001109
0.593750 0.218994 0.001417
0.625000 0.218872 0.000000
0.656250 0.218872 0.000000
0.687500 0.218750 0.000000
0.718750 0.218994 0.000000
0.750488 0.219238 0.000000
0.781738 0.219482 0.002953
0.812988 0.218750 0.003017
0.844727 0.219238 0.000474
0.875977 0.221924 0.010208
0.907227 0.221313 0.030426
0.938477 0.216675 0.000000
0.969727 0.218384 0.019424
1.000000 0.214478 0.043701
0.001553 0.348877 0.001812
0.042542 0.347168 0.000081
0.085571 0.346924 0.000376
0.115479 0.332520 0.000425
0.142212 0.315918 0.000000
0.169067 0.299316 0.000000
0.195923 0.282715 0.000000
0.222778 0.266113 0.000000
0.249756 0.249634 0.000251
0.280518 0.249512 0.000102
0.311768 0.249512 0.000000
0.343262 0.249512 0.000038
0.374268 0.249634 0.000000
0.405518 0.249634 0.000169
0.437012 0.249756 0.000000
0.468506 0.249878 0.000000
0.499756 0.249878 0.000000
0.530762 0.249878 0.000000
0.562500 0.250000 0.000000
0.593750 0.250000 0.000000
0.625000 0.250000 0.000000
0.656250 0.250000 0.000000
0.687500 0.250000 0.000000
0.718750 0.250244 0.003870
0.750488 0.250000 0.000000
0.781738 0.250000 0.002071
0.812988 0.250244 0.002802
0.844238 0.250488 0.003178
0.875488 0.249634 0.000000
0.906738 0.250488 0.018433
0.937500 0.248779 0.000000
0.968750 0.249756 0.018005
1.000000 0.246338 0.028976
0.000633 0.391113 0.000536
0.041626 0.390381 0.000000
0.084778 0.390381 0.000000
0.119751 0.380615 0.000000
0.146362 0.363770 0.000000
0.173218 0.347412 0.000833
0.200073 0.330566 0.000000
0.227051 0.313721 0.000296
0.253662 0.297119 0.000223
0.280518 0.280518 0.000000
0.311768 0.280518 0.000284
0.343018 0.280518 0.000000
0.374512 0.280762 0.000385
0.405762 0.281006 0.000346
0.437012 0.281006 0.000522
0.468506 0.281006 0.000000
0.499756 0.281006 0.000393
0.530762 0.281006 0.000000
0.562500 0.281250 0.000000
0.593750 0.281250 0.000000
0.625000 0.281250 0.000000
0.656250 0.281494 0.000000
0.687500 0.281250 0.000000
0.718750 0.281494 0.000000
0.750488 0.281494 0.000000
0.781738 0.281250 0.000000
0.812988 0.281250 0.000000
0.844238 0.281982 0.007034
0.875488 0.281494 0.001930
0.906250 0.282959 0.027435
0.937500 0.282471 0.021317
0.968750 0.281494 0.024048
0.999512 0.281006 0.001563
0.000000 0.433105 0.000186
0.042419 0.433105 0.000000
0.083984 0.433594 0.001004
0.123169 0.428223 0.000000
0.150879 0.411621 0.000000
0.177368 0.395020 0.000000
0.204346 0.378418 0.000243
0.231201 0.361572 0.000000
0.257812 0.345215 0.000482
0.284668 0.328369 0.000000
0.311768 0.311768 0.000000
0.343018 0.311768 0.000000
0.374268 0.311768 0.000358
0.405762 0.312256 0.000092
0.437256 0.312256 0.000053
0.468506 0.312256 0.000000
0.499756 0.312256 0.000289
0.530762 0.312256 0.000000
0.562500 0.312500 0.000211
0.593750 0.312500 0.000000
0.625000 0.312500 0.000000
0.656250 0.312744 0.000730
0.687500 0.312500 0.000000
0.718750 0.312500 0.000000
0.750488 0.312256 0.000000
0.781738 0.312744 0.000000
0.812988 0.312012 0.000000
0.844238 0.312988 0.000666
0.875488 0.312012 0.000000
0.906250 0.313477 0.019516
0.937500 0.312256 0.000000
0.968750 0.311523 0.000000
0.999512 0.311035 0.000000
0.000000 0.475342 0.000922
0.041382 0.476074 0.001600
0.084106 0.476807 0.001173
0.126587 0.476074 0.002180
0.154419 0.459473 0.000622
0.182007 0.442871 0.000330
0.208862 0.426270 0.000000
0.235474 0.409668 0.000424
0.262695 0.393066 0.000000
0.289307 0.376465 0.000251
0.316406 0.359619 0.000000
0.343262 0.343262 0.000232
0.374268 0.343262 0.000000
0.405762 0.343506 0.000000
0.437256 0.343506 0.000197
0.468506 0.343506 0.001117
0.499756 0.343506 0.000495
0.530762 0.343506 0.000000
0.562500 0.343750 0.000143
0.593750 0.343750 0.000000
0.625000 0.343750 0.001279
0.656250 0.343994 0.000000
0.687500 0.343750 0.000000
0.718750 0.343994 0.000957
0.750488 0.343750 0.000000
0.781738 0.343994 0.004875
0.812988 0.343994 0.000000
0.844238 0.344482 0.000000
0.875488 0.343506 0.000000
0.906250 0.344238 0.014206
0.937500 0.343262 0.000000
0.968750 0.343750 0.043793
0.999512 0.343262 0.025848
0.000000 0.518066 0.000057
0.038239 0.519043 0.000533
0.084839 0.519531 0.001946
0.127563 0.520020 0.000198
0.159058 0.507324 0.000000
0.186890 0.490723 0.000000
0.212769 0.474121 0.000000
0.240112 0.457520 0.000817
0.266846 0.440918 0.000135
0.293457 0.424316 0.000000
0.320557 0.407715 0.000006
0.347412 0.391113 0.000000
0.374268 0.374512 0.000153
0.405518 0.374756 0.000096
0.437012 0.374756 0.000000
0.468506 0.374756 0.000000
0.499756 0.374756 0.000000
0.530762 0.374756 0.000000
0.562500 0.375000 0.000511
0.593750 0.375000 0.000067
0.625000 0.375000 0.000000
0.656250 0.375244 0.000463
0.687500 0.375244 0.000371
0.718750 0.375244 0.000000
0.750488 0.375000 0.000000
0.781738 0.375244 0.000000
0.812988 0.375488 0.000000
0.844238 0.375732 0.013809
0.875488 0.375488 0.009048
0.906250 0.375732 0.031219
0.937500 0.375000 0.000000
0.968262 0.375732 0.038391
0.999512 0.374023 0.003902
0.023346 0.560547 0.000000
0.051025 0.562012 0.000000
0.091492 0.562500 0.000000
0.130371 0.563477 0.000000
0.166138 0.555176 0.004257
0.190063 0.538574 0.000000
0.216797 0.521973 0.000000
0.245117 0.505371 0.000000
0.271240 0.488770 0.000000
0.298096 0.472168 0.001913
0.325195 0.455566 0.000000
0.352051 0.438965 0.000767
0.378906 0.422363 0.000000
0.405762 0.405762 0.000000
0.437012 0.406006 0.000000
0.468506 0.406006 0.000924
0.499756 0.406006 0.000000
0.530762 0.406006 0.000000
0.562500 0.406250 0.000130
0.593750 0.406250 0.000000
0.625000 0.406494 0.000000
0.656250 0.406494 0.007267
0.687500 0.406494 0.000000
0.718750 0.406494 0.000000
0.750488 0.406250 0.000000
0.781738 0.406738 0.000000
0.812988 0.406494 0.000000
0.844238 0.406738 0.012550
0.875000 0.406250 0.000000
0.906250 0.406738 0.043030
0.937500 0.406738 0.008400
0.968262 0.406494 0.014091
0.999512 0.405762 0.000000
0.017960 0.599121 0.000073
0.044250 0.604492 0.005310
0.089905 0.605469 0.001295
0.132324 0.606445 0.000000
0.170654 0.603027 0.000000
0.194702 0.586426 0.003904
0.221191 0.569824 0.001963
0.249512 0.553223 0.002920
0.275879 0.536621 0.000000
0.302734 0.520020 0.000000
0.329590 0.503418 0.002197
0.356445 0.487061 0.000000
0.383301 0.470459 0.000000
0.410156 0.453857 0.002264
0.437256 0.437256 0.000000
0.468506 0.437256 0.000233
0.499756 0.437256 0.000000
0.530762 0.437256 0.001044
0.562500 0.437500 0.000000
0.593750 0.437500 0.000000
0.625000 0.437744 0.000799
0.656250 0.437744 0.000000
0.687500 0.437744 0.000000
0.718750 0.437744 0.000000
0.750488 0.437744 0.001186
0.781738 0.437988 0.000530
0.812988 0.437744 0.000000
0.844238 0.437988 0.003042
0.875000 0.437744 0.000000
0.906250 0.437988 0.021347
0.937500 0.437500 0.000000
0.968262 0.437500 0.000000
0.999512 0.437988 0.058685
0.014015 0.626953 0.006191
0.042633 0.635742 0.000000
0.071411 0.647949 0.006355
0.129150 0.649414 0.000000
0.164795 0.650391 0.000000
0.199341 0.634277 0.000000
0.229248 0.617676 0.000000
0.252197 0.601074 0.004036
0.279785 0.584473 0.000488
0.306885 0.567871 0.000000
0.334473 0.551270 0.000000
0.361084 0.534668 0.000649
0.387695 0.518066 0.000000
0.414795 0.501465 0.000000
0.441650 0.484863 0.000000
0.468506 0.468506 0.000411
0.499756 0.468506 0.000000
0.530762 0.468506 0.000000
0.562500 0.468994 0.000860
0.593750 0.468994 0.000000
0.625000 0.468994 0.003794
0.656250 0.468994 0.000000
0.687500 0.468994 0.001061
0.718750 0.468994 0.012207
0.750000 0.469238 0.000000
0.781738 0.469238 0.000000
0.812988 0.469238 0.000000
0.844238 0.468994 0.023087
0.875000 0.468750 0.000000
0.906250 0.468994 0.000000
0.937500 0.468994 0.000000
0.968262 0.468750 0.000000
0.999512 0.468506 0.000000
0.000000 0.656738 0.008850
0.040405 0.659668 0.005032
0.075623 0.670410 0.000000
0.128052 0.683594 0.000000
0.180420 0.693848 0.002718
0.207520 0.682129 0.000885
0.228760 0.665527 0.000760
0.256348 0.648926 0.000358
0.283447 0.630371 0.000000
0.311035 0.612305 0.006477
0.337646 0.594727 0.000000
0.364014 0.577637 0.000000
0.390869 0.561035 0.000000
0.417725 0.544922 0.003922
0.445068 0.529297 0.000000
0.472412 0.514160 0.000000
0.499756 0.499756 0.001113
0.530762 0.499756 0.000000
0.562500 0.500000 0.001164
0.593750 0.500000 0.003147
0.625000 0.500000 0.000077
0.656250 0.500000 0.000000
0.687500 0.500000 0.000885
0.718750 0.500000 0.007019
0.750000 0.500000 0.000000
0.781738 0.500000 0.000000
0.812988 0.500000 0.000000
0.844238 0.500000 0.002108
0.875000 0.500000 0.000000
0.906250 0.500000 0.002485
0.937500 0.499756 0.000000
0.968262 0.499756 0.000000
0.999512 0.500000 0.083313
0.000000 0.686035 0.015518
0.038116 0.684082 0.000000
0.102173 0.693359 0.000000
0.118835 0.704590 0.005638
0.158691 0.717773 0.000000
0.204590 0.717285 0.000000
0.231812 0.699219 0.000000
0.259766 0.681152 0.000000
0.284668 0.664062 0.000000
0.310059 0.647461 0.002918
0.338135 0.631348 0.002098
0.365479 0.615234 0.000000
0.392822 0.600098 0.005646
0.420166 0.585449 0.000000
0.447998 0.571289 0.000000
0.475342 0.557129 0.000000
0.502930 0.543945 0.004078
0.530762 0.530762 0.001731
0.562500 0.531250 0.000000
0.593750 0.531250 0.003189
0.625000 0.531250 0.000121
0.656250 0.531250 0.000000
0.687500 0.531250 0.003765
0.718750 0.531250 0.004566
0.750000 0.531250 0.005898
0.781738 0.531250 0.000000
0.812988 0.531250 0.000000
0.843750 0.531250 0.000000
0.875000 0.531250 0.000000
0.906250 0.531250 0.000000
0.937012 0.530762 0.000000
0.968262 0.530762 0.000000
0.999512 0.531250 0.058380
0.015106 0.715820 0.000000
0.000000 0.708984 0.010422
0.063965 0.716797 0.000000
0.114929 0.726074 0.005447
0.156982 0.737305 0.015221
0.209473 0.745117 0.000000
0.226440 0.728027 0.007103
0.254150 0.711914 0.014809
0.285156 0.695801 0.001111
0.313965 0.680664 0.000000
0.338867 0.666016 0.000000
0.366211 0.651367 0.000000
0.394531 0.637207 0.000000
0.422363 0.624023 0.007664
0.449707 0.610840 0.000000
0.477783 0.598145 0.007599
0.505859 0.585938 0.000000
0.534180 0.573730 0.000000
0.562500 0.562500 0.000000
0.593750 0.562500 0.000000
0.625000 0.562500 0.003111
0.656250 0.562500 0.011345
0.687500 0.562500 0.004593
0.718750 0.562500 0.000000
0.750000 0.562500 0.005779
0.781738 0.562500 0.000029
0.812988 0.562500 0.000000
0.843750 0.562500 0.000000
0.875000 0.562500 0.004738
0.906250 0.562500 0.032227
0.937012 0.562012 0.000000
0.968262 0.562012 0.000000
0.999512 0.562012 0.020706
0.000000 0.738770 0.023453
0.008499 0.733398 0.000000
0.067749 0.740234 0.044647
0.078247 0.748047 0.035278
0.174805 0.757812 0.000000
0.192749 0.769043 0.000000
0.234619 0.756348 0.003164
0.259521 0.741211 0.039398
0.282715 0.726562 0.000000
0.310059 0.712402 0.001832
0.343018 0.698730 0.000000
0.367432 0.685547 0.003674
0.395752 0.672852 0.021652
0.423340 0.660645 0.002180
0.451904 0.648438 0.000000
0.479980 0.636719 0.000842
0.508301 0.625488 0.004925
0.536621 0.614258 0.000000
0.564941 0.604004 0.000228
0.593750 0.593750 0.007195
0.625000 0.593750 0.000000
0.656250 0.593750 0.000000
0.687500 0.593750 0.002226
0.718750 0.593750 0.000000
0.750000 0.593750 0.000000
0.781738 0.593750 0.000502
0.812988 0.593750 0.000000
0.843750 0.593750 0.000000
0.875000 0.593750 0.002293
0.906250 0.593750 0.000000
0.937012 0.593262 0.000000
0.968262 0.593262 0.000000
0.999512 0.593262 0.041077
0.031113 0.759277 0.034180
0.082275 0.754395 0.016190
0.107605 0.762695 0.000000
0.111816 0.770508 0.013664
0.121155 0.778809 0.000000
0.199829 0.788574 0.003790
0.224609 0.783203 0.000000
0.248657 0.769531 0.000000
0.286133 0.756348 0.006222
0.312012 0.743164 0.010735
0.339600 0.730957 0.000000
0.368896 0.718750 0.000000
0.395752 0.707031 0.000000
0.424805 0.695312 0.002645
0.452881 0.684570 0.006546
0.481445 0.673828 0.016052
0.509766 0.663086 0.000000
0.538574 0.653320 0.000000
0.567383 0.643555 0.002899
0.596191 0.633789 0.000000
0.625000 0.625000 0.011414
0.656250 0.625000 0.000000
0.687500 0.625000 0.007103
0.718750 0.625000 0.002876
0.750000 0.625000 0.000000
0.781738 0.625000 0.000800
0.812500 0.625000 0.000000
0.843750 0.625000 0.006908
0.875000 0.625000 0.014481
0.906250 0.625000 0.003885
0.937012 0.624512 0.042816
0.968262 0.624512 0.000000
0.999512 0.624512 0.000000
0.000000 0.779297 0.000000
0.058319 0.775391 0.017761
0.000000 0.783203 0.000000
0.081665 0.791504 0.017075
0.144409 0.799805 0.000000
0.191650 0.808594 0.037750
0.235474 0.809570 0.000000
0.255615 0.796875 0.000000
0.286377 0.784668 0.000000
0.314697 0.772949 0.000000
0.343994 0.761230 0.000000
0.365967 0.750488 0.010117
0.396729 0.739258 0.018188
0.425049 0.729004 0.000000
0.454102 0.718750 0.000000
0.482178 0.708984 0.022690
0.511230 0.699219 0.003750
0.540039 0.690430 0.023178
0.568848 0.681152 0.000000
0.598145 0.672852 0.000000
0.626953 0.664062 0.000000
0.656250 0.656250 0.000409
0.687500 0.656250 0.000000
0.718750 0.656250 0.004444
0.750000 0.656250 0.003881
0.781738 0.656250 0.000000
0.812500 0.656250 0.000000
0.843750 0.656250 0.011818
0.875000 0.656250 0.000000
0.906250 0.655762 0.041382
0.937012 0.655762 0.000000
0.968262 0.655762 0.003260
0.999512 0.655762 0.046326
0.000000 0.799316 0.000000
0.000000 0.796387 0.000000
0.000000 0.803711 0.000000
0.106506 0.812012 0.032928
0.169067 0.820312 0.055298
0.198486 0.828613 0.014221
0.228394 0.835449 0.000000
0.258057 0.823730 0.000000
0.288574 0.812500 0.000000
0.304443 0.801758 0.030563
0.337891 0.791016 0.000000
0.367188 0.780762 0.008217
0.395996 0.770996 0.014542
0.423340 0.761230 0.000000
0.454102 0.751953 0.000000
0.483154 0.743164 0.000000
0.511719 0.734375 0.000000
0.541016 0.725586 0.003805
0.570312 0.717773 0.000000
0.599609 0.709473 0.000000
0.628906 0.702148 0.000000
0.658203 0.694824 0.000000
0.687500 0.687500 0.010399
0.718750 0.687500 0.000000
0.750000 0.687500 0.000000
0.781738 0.687500 0.000000
0.812500 0.687500 0.000000
0.843750 0.687500 0.000000
0.875000 0.687500 0.000000
0.905762 0.687012 0.000000
0.937012 0.687012 0.008072
0.968262 0.687012 0.000000
0.999512 0.687012 0.064392
0.060883 0.819824 0.016495
0.000000 0.817383 0.031158
0.100525 0.824707 0.056366
0.000000 0.832520 0.000000
0.130493 0.840332 0.047394
0.167236 0.848633 0.000000
0.220093 0.857422 0.000000
0.236206 0.849609 0.000000
0.268799 0.839355 0.044403
0.314453 0.829590 0.000000
0.340088 0.819824 0.026779
0.366699 0.810547 0.000000
0.394531 0.801270 0.000000
0.425781 0.792480 0.000780
0.455322 0.784180 0.000000
0.483154 0.775879 0.011292
0.513184 0.767578 0.000000
0.541992 0.760254 0.020447
0.571777 0.752441 0.018890
0.600586 0.745117 0.000000
0.629883 0.738281 0.020950
0.659668 0.731445 0.017731
0.688965 0.725098 0.050385
0.718750 0.718750 0.005573
0.750000 0.718750 0.005913
0.781250 0.718750 0.023865
0.812500 0.718750 0.000000
0.843750 0.718750 0.012024
0.875000 0.718750 0.048920
0.905762 0.718262 0.000000
0.937012 0.718262 0.000000
0.968262 0.718262 0.000000
0.999512 0.718262 0.034119
0.000000 0.839844 0.060547
0.000000 0.838379 0.052277
0.087280 0.845703 0.000000
0.000000 0.853027 0.028687
0.139771 0.860840 0.000000
0.137939 0.869141 0.021088
0.241699 0.876953 0.000000
0.237061 0.875488 0.038605
0.289062 0.865723 0.000000
0.314697 0.856934 0.008392
0.333252 0.847656 0.000000
0.366943 0.839355 0.038971
0.393799 0.831055 0.000000
0.427734 0.822754 0.050751
0.452637 0.814941 0.057983
0.483398 0.807617 0.019470
0.512695 0.800293 0.000000
0.542480 0.792969 0.000000
0.571777 0.786133 0.000000
0.601562 0.779785 0.000000
0.630859 0.773438 0.000000
0.660645 0.767090 0.000000
0.690430 0.761230 0.000000
0.720215 0.755859 0.022705
0.750000 0.750000 0.000000
0.781250 0.750000 0.000000
0.812500 0.750000 0.000000
0.843750 0.750000 0.000000
0.875000 0.750000 0.000925
0.905762 0.749512 0.038147
0.937012 0.749512 0.049408
0.968262 0.749512 0.000000
0.999512 0.749512 0.036285
0.026123 0.859863 0.041595
0.091187 0.859375 0.009094
0.108826 0.866699 0.000000
0.132324 0.874023 0.070923
0.126465 0.881348 0.044617
0.225586 0.889160 0.000000
0.217896 0.896973 0.000000
0.280518 0.900391 0.000000
0.285645 0.891602 0.106995
0.304199 0.883301 0.043152
0.339111 0.875000 0.000000
0.366455 0.867188 0.000000
0.397217 0.859863 0.038361
0.423096 0.852539 0.000000
0.455566 0.845215 0.014992
0.483887 0.838379 0.000000
0.513184 0.831543 0.000000
0.542480 0.825195 0.004269
0.572266 0.818848 0.000000
0.602051 0.812988 0.016220
0.631836 0.807129 0.029587
0.661621 0.801758 0.074219
0.691406 0.796387 0.000000
0.721191 0.791016 0.000000
0.751465 0.786133 0.000000
0.781250 0.781250 0.016678
0.812500 0.781250 0.010063
0.843750 0.781250 0.039246
0.875000 0.781250 0.011673
0.905762 0.780762 0.035400
0.937012 0.780762 0.000000
0.968262 0.780762 0.032837
0.999512 0.780762 0.025421
0.041656 0.879883 0.000000
0.125122 0.880371 0.000000
0.178467 0.887695 0.000000
0.122314 0.894531 0.086182
0.187500 0.901855 0.000000
0.207031 0.909668 0.000000
0.195068 0.917480 0.000000
0.213867 0.924805 0.044464
0.280518 0.916992 0.000000
0.322021 0.909180 0.000000
0.344482 0.901855 0.000000
0.374512 0.894531 0.033264
0.400635 0.887695 0.000000
0.425049 0.880859 0.000000
0.453613 0.874512 0.000000
0.481445 0.868164 0.036469
0.513184 0.862305 0.000000
0.542480 0.856445 0.000000
