RED_IPP2_Creative/RED_FilmBiasBleachBypass.cube
#RED_IPP2_CREATIVE_LUT
# RED_FilmBiasBleachBypass - Color inspired by motion picture film with Bleach Bypass Development Process
# created by Phil Holland - phfx.com
# Settings used in creation of this LUT are:
# Development Color Space = USER SELECTABLE
# Output Gamma Curve = USER SELECTABLE
# Output Tonemap = USER SELECTABLE
# Highlight Rolloff = USER SELECTABLE
LUT_3D_SIZE 33
0.0928664 0.0928664 0.0928664
0.0915999 0.0921035 0.0920729
0.090837 0.0913558 0.0913405
0.0912032 0.0908064 0.0908217
0.0936446 0.0905623 0.0906233
0.0990768 0.0907301 0.0909285
0.107668 0.0915084 0.0919509
0.119249 0.0930495 0.0938277
0.133684 0.095613 0.0968948
0.149157 0.0990921 0.100999
0.165759 0.103716 0.106371
0.184771 0.109255 0.112551
0.207263 0.115999 0.120226
0.231495 0.123491 0.128511
0.258106 0.131991 0.137407
0.285176 0.140505 0.14638
0.313191 0.149401 0.155718
0.34136 0.158312 0.165072
0.36965 0.167636 0.175586
0.397864 0.177905 0.186999
0.42649 0.189242 0.199603
0.455406 0.201144 0.212619
0.485954 0.214023 0.226719
0.518364 0.227344 0.241291
0.552148 0.241443 0.256626
0.588998 0.255848 0.272251
0.633768 0.270985 0.288365
0.671366 0.291005 0.308736
0.684108 0.315267 0.332494
0.695262 0.337713 0.354513
0.705043 0.359121 0.375479
0.71342 0.379339 0.395422
0.71783 0.391287 0.407126
0.0914778 0.0912947 0.0914931
0.0911116 0.0911574 0.0913252
0.0909438 0.0909438 0.0909438
0.0918593 0.0906996 0.0904402
0.0948806 0.0906233 0.090074
0.100862 0.0909743 0.0900587
0.109773 0.0918898 0.0905776
0.121721 0.0936599 0.0918898
0.136416 0.096437 0.0942245
0.151919 0.10016 0.0975967
0.168643 0.105013 0.102144
0.187976 0.110719 0.107683
0.210483 0.117662 0.114534
0.234974 0.125444 0.122301
0.261479 0.133852 0.131075
0.288792 0.142397 0.140078
0.316793 0.151293 0.149447
0.344884 0.160067 0.158816
0.373037 0.169665 0.168643
0.401053 0.179995 0.1794
0.429557 0.191333 0.191241
0.458534 0.20322 0.203616
0.489097 0.216037 0.217029
0.52137 0.229206 0.230884
0.555032 0.243076 0.245624
0.591806 0.257252 0.2607
0.636728 0.272129 0.27628
0.67306 0.29221 0.297093
0.685603 0.31632 0.321569
0.696544 0.338704 0.344182
0.706157 0.359991 0.365591
0.714305 0.380163 0.385931
0.718303 0.391257 0.397406
0.0905165 0.0910964 0.090486
0.0908827 0.0911116 0.0903334
0.0918288 0.0912642 0.0899062
0.0943313 0.0914473 0.0894331
0.0991379 0.091722 0.0889601
0.106203 0.092256 0.0887007
0.115801 0.0934462 0.0888685
0.128161 0.0954757 0.089662
0.142443 0.0984665 0.0913558
0.157671 0.102373 0.0939803
0.174365 0.107362 0.0976577
0.194629 0.113451 0.10248
0.217029 0.120302 0.108309
0.241962 0.128313 0.11548
0.267918 0.136431 0.1234
0.295323 0.145022 0.132692
0.322774 0.153628 0.142031
0.350759 0.162493 0.151675
0.378454 0.172091 0.160891
0.406516 0.182788 0.171267
0.434775 0.194171 0.182437
0.463951 0.206531 0.19472
0.494591 0.21944 0.207706
0.527199 0.233158 0.221607
0.561181 0.247166 0.235904
0.599222 0.261936 0.250843
0.647105 0.276921 0.266285
0.674907 0.299199 0.28983
0.687053 0.322606 0.314595
0.697795 0.344778 0.337957
0.707134 0.365515 0.359716
0.715236 0.38555 0.380636
0.718853 0.395789 0.391562
0.0906081 0.0940414 0.0904097
0.0920882 0.0940108 0.0902419
0.0941329 0.0947738 0.0898146
0.0985275 0.0955673 0.0890364
0.10573 0.0964523 0.0884108
0.115282 0.0979477 0.0879377
0.126406 0.0990158 0.0873274
0.138796 0.100816 0.08748
0.152392 0.103716 0.0884718
0.166979 0.107591 0.090425
0.184329 0.112474 0.0933394
0.204898 0.118608 0.097322
0.227573 0.125582 0.102419
0.252293 0.133074 0.108583
0.27837 0.14107 0.115938
0.304967 0.149187 0.124147
0.332219 0.157733 0.133303
0.359457 0.166384 0.143145
0.386908 0.176257 0.153063
0.414481 0.186877 0.162692
0.442664 0.198535 0.173449
0.471885 0.21088 0.185061
0.502831 0.223896 0.197513
0.5355 0.23772 0.210819
0.569207 0.251591 0.224552
0.608774 0.266392 0.239307
0.66009 0.281346 0.254414
0.677897 0.305318 0.281163
0.689647 0.328145 0.306538
0.700069 0.349798 0.330312
0.709072 0.370184 0.352438
0.716823 0.389899 0.373831
0.719905 0.398825 0.383841
0.0924086 0.102388 0.0918288
0.0956893 0.10222 0.0918441
0.099321 0.103273 0.0912795
0.105074 0.105272 0.0903334
0.1149 0.107134 0.0892653
0.125628 0.108568 0.088365
0.137514 0.111666 0.0884871
0.150973 0.113771 0.0877241
0.164691 0.115404 0.0871748
0.180499 0.118379 0.087892
0.198947 0.122683 0.0898299
0.219699 0.127947 0.0929427
0.242222 0.133883 0.0970321
0.266804 0.14078 0.102296
0.292393 0.148135 0.108598
0.318227 0.155642 0.115908
0.345068 0.163699 0.124468
0.37174 0.172686 0.133913
0.398489 0.182422 0.144045
0.425742 0.19324 0.154299
0.453437 0.204669 0.164172
0.482597 0.21706 0.175097
0.51368 0.229969 0.186969
0.545998 0.243565 0.199756
0.58143 0.257832 0.213428
0.622415 0.272251 0.227497
0.668849 0.289326 0.245472
0.681529 0.31284 0.273259
0.692866 0.335149 0.299351
0.702724 0.355947 0.323415
0.71136 0.376043 0.346258
0.718669 0.395132 0.367697
0.721309 0.403494 0.377142
0.0965286 0.117067 0.0953689
0.102174 0.11664 0.0958267
0.107958 0.117678 0.0950027
0.114412 0.119738 0.0941939
0.124071 0.122499 0.0924086
0.136904 0.125368 0.0912795
0.149523 0.127199 0.0900282
0.162554 0.130327 0.0899672
0.177844 0.134508 0.0905623
0.196323 0.136416 0.0891737
0.216449 0.138766 0.0889448
0.238132 0.142306 0.0902876
0.261311 0.146868 0.0932174
0.285161 0.152285 0.0972152
0.310109 0.158434 0.102495
0.335271 0.165148 0.108751
0.361166 0.173098 0.116335
0.386984 0.181964 0.124926
0.413092 0.191562 0.134173
0.439994 0.202274 0.144305
0.467903 0.213779 0.155016
0.497185 0.225757 0.165209
0.528191 0.238605 0.176577
0.560571 0.251804 0.188586
0.596689 0.265827 0.201526
0.642298 0.280446 0.215305
0.673548 0.300175 0.238712
0.68571 0.322911 0.267491
0.696361 0.343984 0.29369
0.705791 0.364202 0.318257
0.713863 0.383444 0.341192
0.720775 0.402152 0.362997
0.722942 0.409186 0.371511
0.103029 0.134936 0.101091
0.111315 0.134066 0.102098
0.119158 0.134859 0.101305
0.126635 0.136767 0.099855
0.134722 0.139162 0.0983444
0.146609 0.142702 0.0962234
0.161303 0.146441 0.0952163
0.176471 0.148699 0.0936599
0.193393 0.151629 0.0932479
0.212482 0.156512 0.0949111
0.234226 0.159838 0.0944228
0.258061 0.161715 0.0927138
0.28188 0.164492 0.0929732
0.306264 0.168429 0.0949264
0.330938 0.173602 0.0986191
0.355642 0.179858 0.103471
0.380804 0.187228 0.109712
0.405798 0.195346 0.116915
0.431617 0.204776 0.125261
0.457984 0.214939 0.134615
0.486183 0.226093 0.144823
0.515679 0.237629 0.155459
0.546441 0.250034 0.166079
0.580179 0.263249 0.177478
0.618891 0.276631 0.189639
0.665995 0.291798 0.205142
0.678737 0.313771 0.235431
0.690181 0.334859 0.26389
0.700328 0.3552 0.290684
0.709072 0.374243 0.315114
0.71667 0.392874 0.338094
0.723003 0.410697 0.359777
0.724804 0.416785 0.367483
0.111452 0.154025 0.108385
0.123079 0.153429 0.110903
0.131945 0.153796 0.110018
0.139864 0.155108 0.108049
0.147463 0.157473 0.106523
0.157198 0.159716 0.103334
0.17171 0.164675 0.101854
0.191073 0.169238 0.101122
0.210864 0.172229 0.0995041
0.231464 0.175463 0.0986954
0.253666 0.180636 0.0998398
0.277241 0.187579 0.103243
0.302922 0.189975 0.100206
0.328786 0.192752 0.0986954
0.353948 0.196399 0.0993668
0.378714 0.201343 0.101884
0.40354 0.207507 0.106035
0.428672 0.214771 0.111681
0.454322 0.223178 0.118471
0.480995 0.232395 0.126467
0.509209 0.242527 0.135271
0.538766 0.253559 0.145174
0.570245 0.265309 0.155932
0.605692 0.277546 0.166613
0.651148 0.290639 0.178378
0.672053 0.310262 0.206165
0.684077 0.330312 0.23595
0.694835 0.349783 0.264088
0.70428 0.368399 0.289876
0.712428 0.386297 0.314031
0.719463 0.403876 0.336919
0.725368 0.421286 0.358923
0.726696 0.426154 0.365454
0.121401 0.174655 0.117327
0.135943 0.174029 0.121324
0.145556 0.174502 0.120912
0.153872 0.175631 0.118547
0.161181 0.177371 0.115862
0.169848 0.180255 0.114076
0.182757 0.183642 0.109483
0.203601 0.191318 0.109331
0.228244 0.197711 0.10901
0.251392 0.201511 0.107195
0.274784 0.205402 0.106035
0.298924 0.210864 0.106737
0.323934 0.218616 0.110414
0.350134 0.225269 0.111788
0.377295 0.227497 0.10782
0.403769 0.230961 0.106661
0.42945 0.235309 0.107637
0.455085 0.24094 0.110567
0.481483 0.24773 0.11516
0.509361 0.255573 0.121309
0.538003 0.264515 0.128542
0.568307 0.274418 0.137377
0.601526 0.284779 0.146609
0.643503 0.296391 0.156695
0.665507 0.313466 0.182361
0.678279 0.331945 0.212604
0.68954 0.349706 0.240833
0.699535 0.367071 0.267491
0.708324 0.384161 0.292729
0.715892 0.400931 0.316503
0.722301 0.417243 0.33872
0.727657 0.43357 0.360128
0.728634 0.437415 0.365423
0.13286 0.199649 0.127428
0.149248 0.199176 0.1337
0.159228 0.199283 0.133486
0.168109 0.200397 0.131075
0.176913 0.201862 0.127565
0.185382 0.204181 0.124819
0.197055 0.20705 0.121172
0.214786 0.212619 0.116823
0.241688 0.223377 0.118441
0.270466 0.23151 0.118639
0.296696 0.236515 0.116976
0.321523 0.240421 0.11519
0.347463 0.246326 0.115557
0.373663 0.253986 0.118563
0.400504 0.263188 0.122988
0.428717 0.267811 0.120729
0.457176 0.270512 0.117144
0.485832 0.274449 0.116289
0.514519 0.279286 0.117617
0.54345 0.285206 0.120958
0.573526 0.292332 0.125887
0.606897 0.300679 0.132265
0.643626 0.310735 0.143664
0.658717 0.325887 0.170275
0.672206 0.341024 0.197208
0.684138 0.356329 0.224353
0.694804 0.371801 0.250843
0.704158 0.387076 0.275776
0.712291 0.402594 0.299763
0.719158 0.417563 0.321859
0.725032 0.432975 0.343633
0.729854 0.448173 0.364111
0.730541 0.451255 0.368704
0.144442 0.227863 0.138262
0.162387 0.227665 0.14638
0.174029 0.228031 0.147036
0.18468 0.22887 0.144991
0.1944 0.229801 0.141207
0.20412 0.231525 0.136904
0.21416 0.234485 0.1346
0.228946 0.23714 0.128237
0.251911 0.24593 0.12604
0.284306 0.25951 0.128847
0.316548 0.269566 0.129854
0.345006 0.275425 0.128328
0.371679 0.279789 0.126207
0.398749 0.285237 0.125978
0.426886 0.293065 0.128313
0.455772 0.30277 0.133318
0.487114 0.311116 0.135958
0.519844 0.314214 0.131167
0.552132 0.317311 0.128038
0.585397 0.321645 0.127489
0.61529 0.327932 0.135546
0.634028 0.337377 0.155474
0.650507 0.347951 0.175265
0.665263 0.359304 0.197055
0.678294 0.371313 0.219928
0.689738 0.383902 0.243107
0.69984 0.396902 0.266621
0.708537 0.410086 0.289143
0.715923 0.423377 0.310536
0.722301 0.437171 0.331685
0.727581 0.450996 0.351812
0.731853 0.465202 0.371435
0.73228 0.467018 0.374502
0.160403 0.258518 0.154147
0.176165 0.258762 0.158297
0.18996 0.259098 0.159335
0.202258 0.2598 0.158236
0.213764 0.260716 0.15491
0.22417 0.261662 0.150744
0.234073 0.263218 0.146792
0.246433 0.265766 0.142489
0.264866 0.270222 0.13579
0.293156 0.282475 0.136141
0.330159 0.298924 0.140475
0.365713 0.310658 0.142138
0.396887 0.317449 0.141176
0.425574 0.32192 0.138796
0.455161 0.327443 0.137835
0.486442 0.334676 0.139162
0.520836 0.344396 0.143557
0.549661 0.356771 0.159609
0.575296 0.364599 0.171756
0.599771 0.368338 0.177523
0.621195 0.373388 0.187579
0.640085 0.379782 0.200626
0.65658 0.386877 0.215427
0.670939 0.39501 0.231998
0.683604 0.404074 0.249744
0.694697 0.413916 0.268589
0.704234 0.424445 0.287663
0.712428 0.435554 0.307149
0.719356 0.447272 0.32639
0.725185 0.459388 0.345418
0.729854 0.471504 0.363409
0.733654 0.484413 0.38172
0.733898 0.485817 0.384176
0.173678 0.290745 0.165972
0.191867 0.291386 0.171023
0.207721 0.291951 0.172976
0.221576 0.292607 0.171954
0.234043 0.293355 0.168826
0.24509 0.293538 0.164004
0.255467 0.294347 0.159213
0.266087 0.296635 0.156481
0.281086 0.298314 0.149691
0.303319 0.305135 0.143389
0.33753 0.321828 0.147311
0.379065 0.340734 0.153002
0.418418 0.35378 0.155383
0.454185 0.362219 0.154955
0.48658 0.367346 0.154467
0.514809 0.373587 0.164782
0.540764 0.381552 0.178927
0.564172 0.391241 0.196902
0.585168 0.402655 0.218448
0.604578 0.41445 0.239994
0.626017 0.418265 0.244694
0.644877 0.421912 0.25124
0.661479 0.426627 0.260655
0.675914 0.432593 0.272404
0.68835 0.439109 0.285222
0.698985 0.446525 0.299336
0.708171 0.454826 0.314366
0.715862 0.463966 0.330251
0.722301 0.473762 0.346517
0.727611 0.484108 0.36286
0.731868 0.495186 0.3794
0.73521 0.506752 0.396048
0.735286 0.507362 0.397421
0.180362 0.324102 0.178912
0.208499 0.324956 0.184909
0.226169 0.325872 0.187839
0.241245 0.326528 0.187015
0.254932 0.32697 0.183764
0.267048 0.327169 0.178866
0.277867 0.326909 0.173083
0.288151 0.327565 0.168002
0.300099 0.329702 0.16437
0.317586 0.331868 0.156344
0.344533 0.342535 0.152087
0.384756 0.363256 0.159075
0.431815 0.385473 0.170672
0.470481 0.40029 0.194873
0.502983 0.409186 0.209232
0.530541 0.415137 0.219165
0.554757 0.42031 0.227955
0.577142 0.427085 0.240116
0.597604 0.435325 0.255375
0.6159 0.445197 0.272953
0.632395 0.45655 0.29247
0.649058 0.464103 0.304082
0.665736 0.467399 0.308766
0.680003 0.471214 0.315358
0.692226 0.475914 0.323842
0.7028 0.481712 0.334249
0.711543 0.48806 0.34551
0.718868 0.495216 0.357733
0.724849 0.503288 0.370932
0.729686 0.511986 0.384878
0.733516 0.521019 0.399039
0.7364 0.530297 0.413214
0.736385 0.530404 0.413855
0.194537 0.357855 0.192828
0.218723 0.359884 0.200717
0.24509 0.360754 0.20322
0.261631 0.361395 0.203052
0.276204 0.361761 0.200061
0.289265 0.361639 0.194995
0.300542 0.361059 0.188602
0.310719 0.360586 0.181827
0.320836 0.361318 0.176776
0.334768 0.362142 0.169986
0.356237 0.367391 0.162509
0.389425 0.382879 0.162371
0.434058 0.407324 0.193912
0.477989 0.429755 0.230289
0.51516 0.444221 0.253666
0.544472 0.453071 0.267536
0.568261 0.458579 0.276402
0.589502 0.463676 0.284764
0.608881 0.46952 0.294545
0.626642 0.47689 0.306905
0.642618 0.485771 0.321355
0.656977 0.496056 0.337514
0.669917 0.506676 0.353368
0.683467 0.511055 0.359457
0.695766 0.514443 0.36463
0.705959 0.51838 0.371496
0.714412 0.522881 0.379355
0.721416 0.52842 0.388937
0.727001 0.534279 0.399145
0.731426 0.540734 0.410178
0.734829 0.547967 0.422232
0.73727 0.555138 0.434256
0.737255 0.555138 0.43473
0.208392 0.391943 0.206516
0.234684 0.395163 0.215381
0.258732 0.397452 0.221546
0.282063 0.397345 0.219577
0.297765 0.398032 0.216968
0.311482 0.397818 0.211887
0.32343 0.39678 0.205005
0.333944 0.395254 0.197024
0.343557 0.394202 0.189883
0.354681 0.395712 0.185672
0.371542 0.396063 0.175814
0.397238 0.404349 0.180606
0.434318 0.423758 0.208957
0.478706 0.448859 0.249378
0.521263 0.470665 0.282826
0.554604 0.48542 0.304784
0.580438 0.494423 0.3178
0.601526 0.500282 0.326741
0.619837 0.504784 0.333761
0.636774 0.510445 0.342657
0.652003 0.51693 0.352834
0.665705 0.52462 0.364935
0.677989 0.533562 0.379049
0.68867 0.543374 0.393957
0.698833 0.551156 0.405844
0.708766 0.553674 0.409796
0.716945 0.557 0.41529
0.723537 0.560739 0.422187
0.728771 0.564904 0.429862
0.73283 0.56997 0.438987
0.735882 0.575296 0.4486
0.737606 0.579889 0.456947
0.737621 0.579843 0.457328
0.222843 0.427665 0.220645
0.252766 0.43122 0.232685
0.282338 0.432959 0.245487
0.305592 0.434379 0.252811
0.325597 0.432868 0.249012
0.339086 0.431952 0.245731
0.350912 0.430564 0.240375
0.360616 0.428626 0.232959
0.369375 0.426734 0.225498
0.378622 0.426276 0.221027
0.390951 0.426429 0.217365
0.409583 0.428824 0.21416
0.437568 0.440177 0.2262
0.4766 0.462181 0.259373
0.521035 0.48838 0.298756
0.559518 0.510155 0.329549
0.589395 0.524651 0.350256
0.612284 0.533394 0.362982
0.630793 0.53875 0.371176
0.64654 0.54287 0.378012
0.66096 0.547723 0.385855
0.673945 0.553399 0.395041
0.68545 0.55996 0.4056
0.695598 0.567422 0.417731
0.704356 0.575982 0.431296
0.711955 0.584817 0.44535
0.719265 0.589349 0.452705
0.725444 0.59173 0.457053
0.730312 0.594903 0.463004
0.733974 0.598428 0.469963
0.736675 0.602319 0.477607
0.737881 0.605066 0.482933
0.737881 0.604959 0.483177
0.253498 0.459083 0.251133
0.285206 0.46183 0.267109
0.312749 0.463951 0.27982
0.334859 0.465599 0.287678
0.354055 0.464027 0.285054
0.366812 0.463401 0.282841
0.377829 0.461952 0.278355
0.386831 0.459739 0.271733
0.394659 0.45716 0.263996
0.402167 0.455253 0.257221
0.411383 0.455833 0.255711
0.424262 0.454643 0.248737
0.445106 0.459861 0.25095
0.476097 0.474861 0.269413
0.517082 0.499382 0.304982
0.558694 0.525765 0.34258
0.593515 0.546471 0.372091
0.620066 0.55993 0.391775
0.640314 0.568231 0.404379
0.656397 0.573373 0.412497
0.669749 0.577173 0.419059
0.681682 0.58117 0.425925
0.6925 0.586297 0.434546
0.701869 0.59205 0.444282
0.709957 0.59852 0.455329
0.716731 0.605798 0.467506
0.722408 0.613794 0.481147
0.727245 0.620676 0.492821
0.731594 0.623407 0.497978
0.73489 0.625742 0.502831
0.737316 0.628702 0.50901
0.73814 0.629847 0.511635
0.738155 0.629679 0.511711
0.284749 0.487526 0.282536
0.314 0.490364 0.297566
0.339681 0.492866 0.309926
0.360876 0.494881 0.318181
0.377859 0.495659 0.321645
0.392126 0.492927 0.315541
0.402335 0.491493 0.311757
0.41091 0.489189 0.305745
0.41825 0.486213 0.298466
0.424857 0.483345 0.291035
0.431785 0.481804 0.285725
0.441489 0.481605 0.282979
0.456397 0.4822 0.278965
0.480293 0.490822 0.286976
0.513863 0.509102 0.310231
0.554253 0.534905 0.347173
0.592462 0.560006 0.383429
0.623819 0.579293 0.41181
0.64715 0.591791 0.430747
0.6645 0.599344 0.442786
0.67837 0.604562 0.451514
0.689433 0.608026 0.457801
0.699123 0.611673 0.464561
0.707576 0.6159 0.472236
0.714946 0.621012 0.48159
0.721035 0.626734 0.492012
0.725978 0.633021 0.503471
0.729946 0.639841 0.515755
0.733028 0.647044 0.528496
0.735714 0.651316 0.536171
0.737804 0.653422 0.540475
0.73846 0.654078 0.541863
0.73846 0.653864 0.541817
0.312123 0.514199 0.31014
0.339574 0.517128 0.324575
0.364218 0.519875 0.337133
0.384695 0.522042 0.345571
0.401282 0.523033 0.349691
0.414939 0.523156 0.350347
0.425238 0.51931 0.341543
0.433677 0.517037 0.336446
0.440467 0.514046 0.329549
0.446479 0.510689 0.322026
0.45243 0.507958 0.315404
0.459586 0.507362 0.312367
0.470298 0.506401 0.308095
0.488075 0.509712 0.308415
0.51487 0.521355 0.321187
0.549737 0.542077 0.349767
0.587839 0.567529 0.386908
0.622843 0.591318 0.422232
0.65069 0.60914 0.44976
0.670665 0.620447 0.467994
0.685344 0.627695 0.480278
0.69659 0.632334 0.488701
0.705623 0.635859 0.495506
0.713069 0.639139 0.502251
0.719432 0.642771 0.509499
0.724681 0.646998 0.517678
0.728969 0.651911 0.526986
0.732357 0.65742 0.537285
0.73492 0.663203 0.547875
0.736812 0.669139 0.558755
0.738216 0.675181 0.56965
0.738781 0.6757 0.570703
0.738781 0.675502 0.570581
0.336568 0.538018 0.33463
0.362814 0.541131 0.349187
0.386404 0.543984 0.36144
0.406363 0.546319 0.370092
0.422782 0.547524 0.374868
0.436561 0.547997 0.376547
0.447593 0.547219 0.375036
0.455024 0.542245 0.364111
0.461692 0.539284 0.357839
0.467155 0.535882 0.350408
0.472465 0.532723 0.343343
0.478355 0.530632 0.33814
0.486152 0.531029 0.337484
0.498985 0.52987 0.332113
0.519722 0.536233 0.337789
0.547845 0.550484 0.355337
0.582483 0.572686 0.387442
0.618448 0.597604 0.424933
0.65005 0.620081 0.459998
0.673991 0.636194 0.486656
0.690684 0.646494 0.504845
0.702525 0.653056 0.516777
0.711345 0.657298 0.52491
0.71809 0.660288 0.530999
0.723568 0.66334 0.537316
0.727993 0.66656 0.543893
0.731517 0.670115 0.550988
0.734249 0.674098 0.558846
0.736339 0.678447 0.567407
0.737881 0.683268 0.576684
0.738827 0.687846 0.585565
0.738979 0.690227 0.590021
0.738979 0.690272 0.590326
0.35874 0.559396 0.356802
0.384649 0.562799 0.371878
0.407141 0.565698 0.383856
0.426902 0.568139 0.392889
0.443076 0.56968 0.398154
0.456825 0.570336 0.40061
0.467872 0.569787 0.399649
0.477043 0.5682 0.396384
0.482033 0.562341 0.383886
0.487327 0.559045 0.37702
0.492241 0.555795 0.36994
0.497002 0.552758 0.363333
0.503243 0.551568 0.359884
0.512489 0.55108 0.357488
0.52726 0.552712 0.356786
0.549722 0.561852 0.367285
0.578714 0.578408 0.38941
0.613031 0.601556 0.424552
0.646265 0.625635 0.462577
0.673884 0.64622 0.497322
0.693675 0.660334 0.522438
0.706889 0.669383 0.539101
0.715969 0.675212 0.550103
0.722438 0.678981 0.557671
0.727169 0.681636 0.563272
0.7308 0.684062 0.568551
0.733654 0.686809 0.574533
0.735821 0.689677 0.580682
0.737453 0.692821 0.587381
0.738643 0.696178 0.594537
0.739055 0.698878 0.600061
0.739086 0.700023 0.602396
0.739086 0.700038 0.60264
0.380148 0.579232 0.378439
0.404883 0.58262 0.392874
0.426963 0.585672 0.404974
0.446052 0.588022 0.413993
0.462486 0.589822 0.42005
0.47602 0.590478 0.42269
0.48748 0.590341 0.422721
0.496666 0.588998 0.420096
0.504051 0.586694 0.415396
0.506645 0.580194 0.401465
0.511147 0.576837 0.394461
0.515328 0.573495 0.387533
0.520134 0.57113 0.382376
0.526864 0.571206 0.381277
0.53753 0.570474 0.377966
0.55462 0.575143 0.382406
0.578698 0.586908 0.397543
0.608438 0.605615 0.424628
0.641154 0.628809 0.461891
0.670893 0.651301 0.500298
0.69395 0.669276 0.532723
0.709377 0.68127 0.555016
0.719249 0.68893 0.569879
0.725719 0.693736 0.579705
0.730083 0.696986 0.586786
0.733135 0.699199 0.591867
0.735363 0.700984 0.596185
0.737057 0.70312 0.601236
0.738293 0.705196 0.606195
0.739132 0.707301 0.61117
0.739223 0.708492 0.613901
0.739239 0.709224 0.615641
0.739254 0.709224 0.615824
0.40058 0.597543 0.398764
0.423835 0.600702 0.412619
0.44535 0.603693 0.424613
0.464225 0.606119 0.433753
0.480812 0.607996 0.440253
0.494606 0.60885 0.443519
0.506249 0.608911 0.444266
0.515328 0.60795 0.44239
0.522499 0.605905 0.438254
0.527687 0.603006 0.432166
0.529168 0.596353 0.418006
0.532906 0.593027 0.411261
0.536706 0.590082 0.405127
0.54168 0.588724 0.401587
0.549447 0.5888 0.400641
0.56199 0.589929 0.4
0.581292 0.597498 0.409384
0.606638 0.611643 0.429374
0.636316 0.631662 0.460838
0.666285 0.653773 0.499275
0.691798 0.673945 0.536171
0.709743 0.688823 0.56434
0.721111 0.69865 0.584115
0.727947 0.704738 0.597116
0.732097 0.708339 0.605371
0.734829 0.710857 0.611429
0.736675 0.712551 0.615824
0.737972 0.713832 0.619348
0.738903 0.71516 0.623072
0.739376 0.716243 0.626017
0.739391 0.716747 0.627405
0.739406 0.717113 0.628428
0.739406 0.717098 0.62858
0.419577 0.614206 0.417929
0.442283 0.617288 0.431525
0.463035 0.620142 0.443168
0.482033 0.622766 0.452857
0.498405 0.624613 0.459525
0.512352 0.625742 0.463462
0.52343 0.625788 0.464485
0.532418 0.625101 0.46331
0.539452 0.623377 0.459785
0.544671 0.620752 0.454337
0.545998 0.614374 0.440421
0.549249 0.611017 0.4336
0.552712 0.608011 0.427268
0.556786 0.605905 0.422461
0.5626 0.605753 0.421347
0.571405 0.605539 0.419669
0.586389 0.609583 0.423865
0.607446 0.619776 0.438315
0.633524 0.635843 0.462882
0.662013 0.655924 0.497917
0.688289 0.676417 0.535943
0.708507 0.693248 0.568551
0.721553 0.704921 0.592874
0.729152 0.7122 0.6094
0.73344 0.716548 0.619974
0.735958 0.719158 0.626886
0.73756 0.720851 0.631617
0.738643 0.722057 0.635279
0.739361 0.722866 0.637873
0.739574 0.723201 0.639033
0.739574 0.723354 0.639628
0.73959 0.723476 0.640116
0.73959 0.723461 0.640238
0.438331 0.629679 0.436576
0.459617 0.632425 0.449439
0.480262 0.635386 0.461311
0.498955 0.637858 0.470939
0.515068 0.639658 0.477867
0.528756 0.641016 0.48249
0.539864 0.641443 0.484474
0.548669 0.640909 0.483772
0.55555 0.639506 0.480797
0.560967 0.637308 0.476081
0.564721 0.634333 0.469596
0.564797 0.627741 0.455207
0.568139 0.624796 0.448936
0.571405 0.622293 0.443381
0.575891 0.621057 0.440345
0.582513 0.621576 0.440467
0.593454 0.622736 0.440833
0.610727 0.62945 0.450141
0.633341 0.642145 0.469795
0.659129 0.659236 0.498848
0.684733 0.678172 0.534752
0.706004 0.695399 0.568811
0.720775 0.708522 0.596857
0.729427 0.716945 0.616907
0.734142 0.721981 0.630365
0.73666 0.724773 0.638437
0.73814 0.726558 0.644007
0.739071 0.727703 0.647868
0.739651 0.72842 0.650568
0.739742 0.72842 0.650629
0.739742 0.728405 0.650629
0.739742 0.72842 0.650813
0.739742 0.728405 0.650935
0.456794 0.64419 0.455192
0.477104 0.646601 0.467216
0.497139 0.649287 0.478874
0.515175 0.651576 0.488334
0.530907 0.653574 0.495918
0.543908 0.65478 0.500725
0.554772 0.65536 0.503105
0.563577 0.655085 0.50309
0.570367 0.654017 0.500755
0.575677 0.652064 0.496452
0.579629 0.649531 0.490913
0.58262 0.646372 0.48394
0.582727 0.640391 0.470146
0.585733 0.637797 0.464424
0.589197 0.635981 0.460075
0.594583 0.635966 0.459358
0.602594 0.636805 0.459937
0.615915 0.640436 0.464652
0.634943 0.649744 0.479393
0.657984 0.663767 0.503655
0.682094 0.680598 0.535012
0.703197 0.696834 0.567727
