RED_IPP2_Creative/RED_PASTEL.cube
# RED Digital Cinema Output Transform LUT for IPP2
# Creatives by Eric Weidt
# BMD cube from Truelight v4.0
# Settings used in creation of this LUT are:
# Development Color Space = USER SELECTABLE
# Output Gamma Curve = USER SELECTABLE
# Output Tonemap = USER SELECTABLE
# Highlight Rolloff = USER SELECTABLE 
LUT_3D_SIZE 5
0.001226 0.000000 0.000126
0.158081 0.056152 0.065918
0.391357 0.204224 0.182617
0.614746 0.326904 0.242920
0.890625 0.572754 0.459229
0.150024 0.253418 0.171021
0.272461 0.274414 0.178101
0.416992 0.309570 0.227051
0.636230 0.407959 0.296143
0.900391 0.606445 0.485840
0.294922 0.447998 0.264648
0.356934 0.452393 0.278564
0.497559 0.488037 0.336914
0.684570 0.556641 0.413574
0.920410 0.678711 0.535156
0.538086 0.729004 0.481201
0.566406 0.730469 0.487793
0.636719 0.735840 0.506836
0.773926 0.761719 0.568359
0.951660 0.811035 0.631348
0.793945 0.975098 0.730957
0.802246 0.975586 0.731445
0.825684 0.976562 0.731934
0.885742 0.980469 0.735352
1.000000 0.992188 0.765625
0.017746 0.015884 0.116333
0.154663 0.081665 0.172607
0.371094 0.205811 0.266357
0.598633 0.335205 0.341797
0.891602 0.569824 0.510254
0.106628 0.266113 0.268555
0.260986 0.270752 0.273926
0.427246 0.308838 0.304199
0.625977 0.418701 0.389648
0.901367 0.606934 0.536621
0.303223 0.447021 0.349365
0.358643 0.452637 0.359619
0.493408 0.491455 0.401123
0.675293 0.561523 0.481445
0.917969 0.680664 0.579590
0.539551 0.728516 0.530762
0.567871 0.729980 0.536621
0.636719 0.734863 0.554688
0.770996 0.762207 0.610840
0.948730 0.812500 0.664062
0.790527 0.975586 0.743652
0.798340 0.976074 0.744141
0.822266 0.977051 0.744629
0.883301 0.980957 0.747559
1.000000 0.992676 0.778320
0.127075 0.077881 0.304443
0.244019 0.139404 0.352539
0.383545 0.214355 0.383789
0.591309 0.344971 0.451172
0.887207 0.569336 0.595703
0.213989 0.263428 0.368652
0.272949 0.272217 0.375488
0.391113 0.307129 0.396484
0.603027 0.410645 0.473145
0.895020 0.606934 0.616699
0.294678 0.457275 0.452148
0.321533 0.467529 0.463379
0.482910 0.489990 0.487305
0.670410 0.569336 0.565430
0.910645 0.687988 0.661621
0.554199 0.728516 0.616699
0.579590 0.729980 0.621094
0.642090 0.735840 0.635254
0.766602 0.764160 0.683594
0.939453 0.816895 0.731934
0.780273 0.977051 0.777832
0.788574 0.977539 0.777832
0.812500 0.978516 0.778320
0.877930 0.981934 0.783691
1.000000 0.993164 0.817871
0.295898 0.180908 0.549316
0.334717 0.196045 0.551270
0.431152 0.242798 0.562012
0.619629 0.369629 0.611816
0.887207 0.587402 0.726074
0.302734 0.285156 0.549805
0.345215 0.296875 0.554199
0.444580 0.333008 0.570801
0.629395 0.432617 0.623535
0.892090 0.615234 0.733887
0.394531 0.474609 0.587402
0.426758 0.481934 0.592285
0.505859 0.503906 0.609375
0.661621 0.566406 0.660156
0.901367 0.687012 0.755859
0.597656 0.731934 0.724609
0.613281 0.734863 0.727539
0.640137 0.746094 0.740234
0.765137 0.767578 0.764648
0.927734 0.824219 0.819824
0.774902 0.978516 0.856445
0.784180 0.979004 0.857422
0.812988 0.979492 0.861328
0.881836 0.981445 0.872559
0.999023 0.994141 0.902832
0.471436 0.331543 0.741211
0.491943 0.343994 0.746582
0.549316 0.379883 0.762695
0.680664 0.471436 0.804199
0.896484 0.641113 0.884766
0.489258 0.394287 0.762207
0.509766 0.404297 0.766602
0.565430 0.433594 0.780762
0.693359 0.510254 0.818848
0.902344 0.659668 0.891602
0.536621 0.534668 0.816406
0.555664 0.540039 0.819824
0.608398 0.558105 0.830078
0.727051 0.606934 0.856934
0.919434 0.709961 0.910645
0.659668 0.756348 0.881348
0.671875 0.758301 0.882812
0.707031 0.764648 0.886719
0.790039 0.783203 0.900391
0.941406 0.829102 0.937012
0.824219 0.978516 0.975586
0.831543 0.979004 0.976074
0.854004 0.979492 0.977051
0.905762 0.983398 0.982422
1.000000 0.998535 1.000000
