RED_IPP2_Creative/RED_Achromic.cube
#RED_IPP2_CREATIVE_LUT
# RED_Achromic - A stylized black and white look
# created by Phil Holland - phfx.com
# Settings used in creation of this LUT are:
# Development Color Space = USER SELECTABLE
# Output Gamma Curve = USER SELECTABLE
# Output Tonemap = USER SELECTABLE
# Highlight Rolloff = USER SELECTABLE
#LUT size
LUT_3D_SIZE 5
0.000000 0.000000 0.000000
0.159943 0.159943 0.159943
0.325958 0.325958 0.325958
0.457642 0.457642 0.457642
0.537079 0.537079 0.537079
0.220825 0.220825 0.220825
0.258148 0.258148 0.258148
0.358551 0.358551 0.358551
0.487701 0.487701 0.487701
0.573669 0.573669 0.573669
0.397888 0.397888 0.397888
0.397888 0.397888 0.397888
0.461670 0.461670 0.461670
0.597717 0.597717 0.597717
0.702972 0.702972 0.702972
0.634460 0.634460 0.634460
0.634460 0.634460 0.634460
0.662933 0.662933 0.662933
0.792847 0.792847 0.792847
0.888489 0.888489 0.888489
0.905243 0.905243 0.905243
0.905243 0.905243 0.905243
0.905243 0.905243 0.905243
0.939819 0.939819 0.939819
1.000000 1.000000 1.000000
0.000031 0.000031 0.000031
0.159943 0.159943 0.159943
0.325958 0.325958 0.325958
0.457642 0.457642 0.457642
0.537079 0.537079 0.537079
0.220825 0.220825 0.220825
0.258148 0.258148 0.258148
0.358551 0.358551 0.358551
0.487701 0.487701 0.487701
0.573700 0.573700 0.573700
0.397888 0.397888 0.397888
0.397888 0.397888 0.397888
0.461670 0.461670 0.461670
0.597717 0.597717 0.597717
0.702972 0.702972 0.702972
0.634460 0.634460 0.634460
0.634460 0.634460 0.634460
0.662933 0.662933 0.662933
0.792847 0.792847 0.792847
0.888489 0.888489 0.888489
0.905243 0.905243 0.905243
0.905243 0.905243 0.905243
0.905243 0.905243 0.905243
0.939819 0.939819 0.939819
1.000000 1.000000 1.000000
0.000183 0.000183 0.000183
0.159973 0.159973 0.159973
0.325958 0.325958 0.325958
0.457642 0.457642 0.457642
0.537079 0.537079 0.537079
0.220825 0.220825 0.220825
0.258148 0.258148 0.258148
0.358551 0.358551 0.358551
0.487701 0.487701 0.487701
0.573700 0.573700 0.573700
0.397888 0.397888 0.397888
0.397888 0.397888 0.397888
0.461670 0.461670 0.461670
0.597717 0.597717 0.597717
0.702972 0.702972 0.702972
0.634460 0.634460 0.634460
0.634460 0.634460 0.634460
0.662933 0.662933 0.662933
0.792847 0.792847 0.792847
0.888489 0.888489 0.888489
0.905243 0.905243 0.905243
0.905243 0.905243 0.905243
0.905243 0.905243 0.905243
0.939819 0.939819 0.939819
1.000000 1.000000 1.000000
0.000458 0.000458 0.000458
0.159973 0.159973 0.159973
0.325958 0.325958 0.325958
0.457642 0.457642 0.457642
0.537079 0.537079 0.537079
0.220825 0.220825 0.220825
0.258148 0.258148 0.258148
0.358551 0.358551 0.358551
0.487701 0.487701 0.487701
0.573700 0.573700 0.573700
0.397888 0.397888 0.397888
0.397888 0.397888 0.397888
0.461670 0.461670 0.461670
0.597717 0.597717 0.597717
0.702972 0.702972 0.702972
0.634460 0.634460 0.634460
0.634460 0.634460 0.634460
0.662933 0.662933 0.662933
0.792847 0.792847 0.792847
0.888489 0.888489 0.888489
0.905243 0.905243 0.905243
0.905243 0.905243 0.905243
0.905243 0.905243 0.905243
0.939819 0.939819 0.939819
1.000000 1.000000 1.000000
0.000854 0.000854 0.000854
0.159973 0.159973 0.159973
0.325958 0.325958 0.325958
0.457642 0.457642 0.457642
0.537079 0.537079 0.537079
0.220856 0.220856 0.220856
0.258148 0.258148 0.258148
0.358551 0.358551 0.358551
0.487701 0.487701 0.487701
0.573700 0.573700 0.573700
0.397919 0.397919 0.397919
0.397919 0.397919 0.397919
0.461670 0.461670 0.461670
0.597717 0.597717 0.597717
0.702972 0.702972 0.702972
0.634460 0.634460 0.634460
0.634460 0.634460 0.634460
0.662933 0.662933 0.662933
0.792847 0.792847 0.792847
0.888489 0.888489 0.888489
0.905243 0.905243 0.905243
0.905243 0.905243 0.905243
0.905243 0.905243 0.905243
0.939819 0.939819 0.939819
1.000000 1.000000 1.000000
