RED_IPP2_Creative/RED_PROCESS.cube
# RED Digital Cinema Output Transform LUT for IPP2
# Creatives by Eric Weidt
# BMD cube from Truelight v4.0
# Settings used in creation of this LUT are:
# Development Color Space = USER SELECTABLE
# Output Gamma Curve = USER SELECTABLE
# Output Tonemap = USER SELECTABLE
# Highlight Rolloff = USER SELECTABLE 
LUT_3D_SIZE 5
0.033539 0.038483 0.039185
0.345459 0.017807 0.024643
0.552734 0.020782 0.050873
0.618652 0.110291 0.055573
0.649414 0.142334 0.063477
0.008507 0.267822 0.000000
0.247192 0.248413 0.021347
0.436523 0.235107 0.084839
0.602539 0.194458 0.058777
0.640137 0.203003 0.083923
0.092285 0.419434 0.041443
0.287842 0.416992 0.112366
0.497314 0.490479 0.121521
0.603027 0.470459 0.207275
0.612305 0.428467 0.255859
0.144043 0.561035 0.097107
0.300537 0.557617 0.158203
0.506348 0.582031 0.234131
0.697266 0.678223 0.307861
0.744141 0.683105 0.354736
0.141479 0.677734 0.113770
0.251465 0.672363 0.159912
0.531738 0.663574 0.301025
0.734375 0.759277 0.373047
0.838379 0.833984 0.453857
0.017380 0.022217 0.389893
0.264404 0.075134 0.257080
0.490479 0.056000 0.238403
0.652344 0.059662 0.213989
0.680176 0.087646 0.208984
0.000000 0.260010 0.276611
0.213867 0.214600 0.213745
0.484863 0.189087 0.184082
0.644043 0.155151 0.150391
0.675293 0.181763 0.170044
0.032990 0.473145 0.152100
0.114136 0.509277 0.116211
0.471436 0.470947 0.223267
0.597168 0.467041 0.288330
0.641602 0.441895 0.279053
0.121887 0.604492 0.184814
0.184204 0.641113 0.208618
0.520020 0.634277 0.319336
0.733398 0.729004 0.376221
0.765625 0.693359 0.416260
0.129272 0.684570 0.203979
0.221069 0.693359 0.223877
0.545898 0.687012 0.374268
0.754395 0.785645 0.444580
0.862305 0.858398 0.513184
0.000000 0.124695 0.554688
0.196289 0.137695 0.489746
0.395996 0.150269 0.373535
0.499023 0.163452 0.372070
0.559570 0.151001 0.375977
0.000000 0.208252 0.537109
0.172119 0.189819 0.516602
0.415771 0.187622 0.407227
0.524902 0.211548 0.392822
0.603027 0.203491 0.383301
0.000000 0.446777 0.484863
0.081909 0.469482 0.472412
0.440918 0.439453 0.438965
0.633301 0.416260 0.416016
0.696777 0.400391 0.385010
0.056976 0.586914 0.411621
0.167358 0.624023 0.423096
0.450195 0.707031 0.442383
0.730957 0.729980 0.543457
0.796387 0.722656 0.558594
0.081299 0.678223 0.409912
0.202393 0.685547 0.427002
0.477539 0.742188 0.452881
0.781250 0.831055 0.601562
0.911621 0.908691 0.649414
0.000000 0.168579 0.644531
0.180908 0.172607 0.594727
0.372803 0.197266 0.422852
0.501465 0.208618 0.445557
0.539062 0.225830 0.454102
0.000000 0.230835 0.668945
0.147095 0.244385 0.610352
0.380127 0.262207 0.466797
0.514160 0.252686 0.473145
0.555176 0.264893 0.481201
0.000000 0.447021 0.685059
0.096313 0.425537 0.664551
0.395752 0.407959 0.630859
0.595215 0.396484 0.578125
0.616211 0.408936 0.551270
0.000000 0.627930 0.668457
0.123047 0.630859 0.672852
0.404053 0.683105 0.691406
0.716309 0.714844 0.715332
0.837402 0.712891 0.712891
0.050690 0.698730 0.656738
0.160767 0.714844 0.672852
0.444580 0.748047 0.699707
0.765625 0.864258 0.755371
0.971680 0.969727 0.860840
0.004478 0.193604 0.694824
0.176147 0.184692 0.654785
0.356445 0.210083 0.454102
0.503906 0.210938 0.489746
0.552246 0.231323 0.499023
0.000000 0.276855 0.686523
0.150391 0.269531 0.654297
0.379639 0.270264 0.535156
0.513672 0.269531 0.504395
0.565430 0.288574 0.513672
0.000000 0.417480 0.718262
0.107544 0.423828 0.694824
0.366211 0.408691 0.664551
0.582520 0.412354 0.612305
0.645996 0.428711 0.610352
0.000000 0.656250 0.764160
0.119995 0.664551 0.782715
0.389648 0.649414 0.776367
0.685547 0.692383 0.794434
0.838379 0.709473 0.815430
0.040527 0.729980 0.790527
0.134644 0.743652 0.799805
0.440430 0.774902 0.819336
0.757812 0.871094 0.894531
0.992188 0.992188 0.992188
