RED_IPP2_Creative/RED_PASTEL.cube
# RED Digital Cinema Output Transform LUT for IPP2
# Creatives by Eric Weidt
# BMD cube from Truelight v4.0
# Settings used in creation of this LUT are:
# Development Color Space = USER SELECTABLE
# Output Gamma Curve = USER SELECTABLE
# Output Tonemap = USER SELECTABLE
# Highlight Rolloff = USER SELECTABLE 
LUT_3D_SIZE 33
0.001226 0.000000 0.000126
0.019516 0.000000 0.000000
0.037872 0.001793 0.002354
0.057343 0.005005 0.006912
0.078796 0.009705 0.012840
0.100098 0.016678 0.021332
0.120361 0.026642 0.032898
0.139282 0.039917 0.047852
0.158081 0.056152 0.065918
0.181519 0.073730 0.086060
0.210938 0.094238 0.106750
0.244629 0.117065 0.126709
0.278076 0.140137 0.144409
0.309326 0.160767 0.159058
0.338623 0.177979 0.170044
0.365723 0.192505 0.177612
0.391357 0.204224 0.182617
0.415527 0.214722 0.185913
0.439453 0.224976 0.188721
0.463623 0.236450 0.192993
0.489746 0.250488 0.199341
0.518555 0.266846 0.207764
0.549316 0.284912 0.217651
0.581543 0.305176 0.229248
0.614746 0.326904 0.242920
0.649902 0.350830 0.259277
0.684570 0.376953 0.278809
0.719727 0.405029 0.301514
0.755371 0.435059 0.327393
0.790527 0.467285 0.356445
0.825195 0.500977 0.387939
0.858887 0.536621 0.422607
0.890625 0.572754 0.459229
0.001191 0.022018 0.002838
0.019485 0.023987 0.002161
0.044800 0.025970 0.005917
0.067688 0.029633 0.013908
0.091125 0.035034 0.022278
0.114014 0.042328 0.032654
0.135498 0.052246 0.045929
0.156738 0.064636 0.062134
0.180420 0.078430 0.080994
0.206909 0.095886 0.100708
0.234619 0.116821 0.120239
0.262939 0.138916 0.138550
0.291016 0.159546 0.154419
0.317871 0.177490 0.167236
0.343750 0.192383 0.176392
0.368896 0.204956 0.182861
0.393311 0.215332 0.186890
0.417480 0.224609 0.189697
0.441162 0.234131 0.192383
0.465820 0.245361 0.196655
0.492432 0.259521 0.203491
0.520996 0.275635 0.211914
0.551270 0.293213 0.221924
0.583984 0.312988 0.233643
0.617188 0.334229 0.247681
0.650879 0.357666 0.263672
0.686523 0.383057 0.282959
0.721680 0.410889 0.305664
0.756836 0.440186 0.331299
0.791992 0.471680 0.359863
0.826172 0.504883 0.391113
0.859375 0.539551 0.425293
0.892090 0.575684 0.461670
0.009186 0.048920 0.016830
0.025604 0.051575 0.018463
0.050049 0.056946 0.022003
0.076660 0.061920 0.027802
0.102539 0.066833 0.035828
0.127319 0.073425 0.046906
0.152222 0.081726 0.060944
0.179199 0.091736 0.078003
0.206421 0.105469 0.096375
0.233032 0.122620 0.114319
0.257812 0.141846 0.131958
0.280518 0.161255 0.148804
0.302734 0.179077 0.163208
0.325684 0.194214 0.174438
0.348877 0.207153 0.182617
0.372559 0.217651 0.187988
0.395508 0.226685 0.191406
0.419189 0.235107 0.193726
0.443359 0.244141 0.196411
0.468506 0.255127 0.200806
0.494873 0.269043 0.208008
0.523438 0.284668 0.216797
0.553711 0.302002 0.226929
0.585938 0.321289 0.238525
0.619141 0.342285 0.252441
0.653320 0.364990 0.268799
0.688477 0.390137 0.287842
0.723633 0.416992 0.310059
0.758301 0.445801 0.335693
0.793457 0.476807 0.363770
0.827637 0.509277 0.394531
0.860840 0.543457 0.428467
0.893066 0.579102 0.464355
0.023941 0.079590 0.037292
0.039642 0.082825 0.039520
0.058594 0.086365 0.042480
0.086670 0.094971 0.048828
0.114624 0.102112 0.056549
0.142090 0.108276 0.066345
0.171997 0.115906 0.079407
0.202759 0.125488 0.094604
0.230469 0.137817 0.110168
0.254883 0.152710 0.125977
0.276367 0.168091 0.141724
0.295654 0.183472 0.156982
0.314209 0.198242 0.170410
0.333496 0.210938 0.180908
0.354004 0.221680 0.188354
0.375732 0.230469 0.192993
0.397949 0.238647 0.196167
0.421143 0.246338 0.198120
0.445312 0.255127 0.200928
0.470947 0.265869 0.205688
0.497559 0.279297 0.213013
0.525879 0.294678 0.222046
0.556641 0.311768 0.232056
0.588379 0.330322 0.244141
0.621582 0.350830 0.257812
0.655273 0.373291 0.274170
0.690430 0.397461 0.293213
0.725098 0.423828 0.315186
0.759766 0.452148 0.340088
0.794922 0.482178 0.367920
0.828613 0.513672 0.398438
0.862305 0.547852 0.431641
0.893555 0.582520 0.467285
0.046692 0.112000 0.065369
0.060059 0.116150 0.067688
0.075623 0.121033 0.070435
0.094727 0.126587 0.073853
0.126953 0.139526 0.082275
0.159424 0.149170 0.090576
0.190918 0.155884 0.099426
0.221313 0.163696 0.110291
0.247681 0.172729 0.122681
0.270508 0.182861 0.136108
0.290283 0.193848 0.150146
0.307617 0.205444 0.163818
0.323730 0.216919 0.176514
0.340332 0.227173 0.186646
0.358887 0.236206 0.193604
0.378906 0.243896 0.198120
0.400391 0.250977 0.201050
0.423340 0.258301 0.203247
0.447754 0.266846 0.206177
0.473877 0.277588 0.211182
0.500488 0.290771 0.218628
0.528809 0.305908 0.227783
0.559570 0.322510 0.238281
0.590820 0.340576 0.250000
0.623535 0.360352 0.263916
0.657715 0.382080 0.280029
0.692383 0.405762 0.298828
0.727051 0.431396 0.320801
0.761719 0.458984 0.345215
0.796387 0.488281 0.372314
0.830078 0.519043 0.402344
0.863281 0.552246 0.435059
0.895020 0.586426 0.470459
0.071472 0.151855 0.097168
0.082947 0.156738 0.098755
0.096924 0.161987 0.100464
0.114258 0.167603 0.102295
0.137207 0.173828 0.105042
0.172729 0.186279 0.112610
0.206543 0.194946 0.119934
0.234131 0.199951 0.126709
0.258789 0.205444 0.135742
0.280518 0.211914 0.146362
0.299561 0.218994 0.158081
0.316162 0.226929 0.170288
0.331055 0.235107 0.182007
0.346436 0.243286 0.191772
0.363770 0.250732 0.198730
0.382568 0.257568 0.203247
0.403320 0.264160 0.206177
0.426270 0.271240 0.208740
0.450928 0.279785 0.212280
0.477295 0.290283 0.217529
0.504395 0.303223 0.225098
0.532715 0.317627 0.234375
0.562500 0.333740 0.244995
0.594238 0.351318 0.256836
0.626465 0.370850 0.270508
0.660156 0.391846 0.286621
0.694336 0.414795 0.305176
0.729004 0.439697 0.326660
0.764160 0.466309 0.350586
0.798340 0.494629 0.377441
0.832031 0.524902 0.406738
0.864746 0.557129 0.438965
0.895996 0.590332 0.473877
0.099854 0.192871 0.128052
0.109863 0.196655 0.128540
0.122009 0.200684 0.128906
0.137085 0.204590 0.128906
0.155762 0.208008 0.128662
0.181396 0.213623 0.130981
0.214600 0.223511 0.137695
0.244141 0.230957 0.144409
0.266602 0.234009 0.150269
0.287354 0.237793 0.157837
0.305664 0.242188 0.166992
0.322266 0.247314 0.177246
0.337158 0.253174 0.187744
0.351807 0.259277 0.196899
0.368164 0.265625 0.203857
0.386475 0.271729 0.208618
0.406982 0.278076 0.212158
0.429688 0.285156 0.215332
0.454590 0.293945 0.219360
0.481201 0.304443 0.224731
0.508301 0.316650 0.232178
0.536133 0.330566 0.241821
0.565430 0.346436 0.252197
0.596680 0.363525 0.264404
0.629395 0.382080 0.278320
0.662598 0.402588 0.294189
0.696777 0.424561 0.312500
0.730957 0.448730 0.333252
0.765625 0.474609 0.356934
0.799805 0.501953 0.382812
0.833496 0.531250 0.411621
0.866211 0.562500 0.443115
0.897461 0.595215 0.477295
0.127441 0.226685 0.153564
0.136597 0.229004 0.153564
0.147339 0.231323 0.152832
0.160156 0.233398 0.151611
0.175781 0.235474 0.150391
0.193359 0.237549 0.149536
0.217773 0.243286 0.152588
0.246704 0.251709 0.159058
0.272705 0.258545 0.166016
0.291992 0.260986 0.170776
0.309814 0.263428 0.177368
0.326172 0.266846 0.185425
0.341553 0.270752 0.194458
0.356689 0.275635 0.202637
0.373047 0.280762 0.209473
0.391113 0.286621 0.214722
0.411377 0.292969 0.218872
0.434082 0.300537 0.223022
0.458984 0.309570 0.227539
0.485352 0.319580 0.233032
0.512207 0.331299 0.240356
0.540527 0.344727 0.249756
0.569824 0.359863 0.260742
0.600586 0.376465 0.272949
0.632812 0.394531 0.286621
0.665527 0.414062 0.302490
0.699707 0.435791 0.320557
0.733398 0.458740 0.341064
0.768066 0.483643 0.363525
0.801758 0.510254 0.388672
0.835449 0.538574 0.416992
0.868164 0.568848 0.447754
0.898926 0.600586 0.481445
0.150024 0.253418 0.171021
0.159546 0.254395 0.171143
0.169678 0.255371 0.170776
0.181274 0.256592 0.170166
0.193726 0.257812 0.169067
0.207764 0.259033 0.167847
0.222900 0.260254 0.166992
0.246460 0.266602 0.171387
0.272461 0.274414 0.178101
0.296387 0.281494 0.185181
0.313477 0.283203 0.189697
0.329834 0.285645 0.195801
0.345459 0.288574 0.202759
0.361572 0.292725 0.209839
0.377930 0.297363 0.216187
0.396484 0.302979 0.222046
0.416992 0.309570 0.227051
0.439697 0.317383 0.231812
0.464355 0.325928 0.236572
0.490479 0.335938 0.242432
0.517578 0.347168 0.249634
0.544922 0.360107 0.259033
0.573730 0.374756 0.270264
0.604492 0.390625 0.282471
0.636230 0.407959 0.296143
0.668945 0.427002 0.311768
0.702637 0.447510 0.329346
0.736328 0.469727 0.349121
0.770508 0.493408 0.371094
0.804688 0.519043 0.395752
0.837402 0.546387 0.422852
0.870117 0.575684 0.452881
0.900391 0.606445 0.485840
0.168457 0.275391 0.181885
0.177612 0.275879 0.182495
0.187378 0.276123 0.182983
0.197632 0.276611 0.183105
0.208618 0.277344 0.182983
0.220581 0.277832 0.182617
0.233154 0.278564 0.182129
0.247681 0.280029 0.182495
0.270752 0.287354 0.188232
0.294678 0.294678 0.195435
0.318604 0.302002 0.203491
0.334473 0.304443 0.207642
0.350586 0.307129 0.212891
0.367188 0.310791 0.218872
0.384521 0.315430 0.224976
0.403320 0.321045 0.230957
0.423828 0.327881 0.236694
0.446289 0.335205 0.241821
0.470703 0.343750 0.247070
0.496094 0.353271 0.252930
0.522949 0.364014 0.260010
0.550293 0.376465 0.269531
0.579102 0.390625 0.280762
0.608887 0.405762 0.293213
0.640137 0.422607 0.306885
0.672363 0.440674 0.322021
0.705566 0.460449 0.339111
0.739258 0.481445 0.358398
0.773438 0.504395 0.379395
0.806641 0.528809 0.403076
0.839844 0.555176 0.429199
0.872070 0.583496 0.458496
0.902832 0.612793 0.490234
0.183350 0.295410 0.189209
0.191895 0.295410 0.190186
0.201050 0.295410 0.191040
0.210693 0.295410 0.191772
0.220703 0.295898 0.192627
0.231689 0.296143 0.193115
0.243042 0.296875 0.193604
0.255615 0.297607 0.194214
0.271484 0.300293 0.196777
0.293701 0.307373 0.203613
0.317383 0.315430 0.211426
0.340576 0.323486 0.219971
0.357910 0.326904 0.224976
0.374756 0.330811 0.230225
0.392578 0.335449 0.236084
0.411621 0.340820 0.241943
0.431885 0.347412 0.247681
0.454102 0.354736 0.253174
0.477783 0.363037 0.258789
0.502441 0.372070 0.264893
0.528809 0.382568 0.271973
0.556152 0.394043 0.281250
0.583984 0.407715 0.292725
0.613770 0.422363 0.305176
0.644531 0.438232 0.318848
0.676270 0.455566 0.333740
0.709473 0.474365 0.350098
0.742676 0.494629 0.368408
0.776367 0.516113 0.388672
0.809570 0.539551 0.411133
0.842285 0.564941 0.436279
0.874023 0.591797 0.464600
0.904297 0.620117 0.495361
0.196655 0.315186 0.195190
0.204590 0.315186 0.196411
0.213257 0.315186 0.197632
0.222534 0.315186 0.198975
0.232178 0.315430 0.200317
0.242798 0.315674 0.201782
0.253906 0.316162 0.203003
0.265625 0.316895 0.204590
0.278320 0.318115 0.206299
0.296387 0.322754 0.211182
0.319092 0.330322 0.219360
0.342529 0.338623 0.228149
0.366211 0.347412 0.237671
0.384766 0.352539 0.243530
0.402344 0.356934 0.248779
0.421387 0.362305 0.254395
0.441162 0.368408 0.260010
0.462891 0.375488 0.265869
0.485840 0.383301 0.271973
0.510254 0.392090 0.278320
0.536133 0.401855 0.285645
0.562988 0.413086 0.294434
0.590332 0.425781 0.305664
0.619141 0.439697 0.318359
0.649414 0.455322 0.331787
0.680664 0.471680 0.346191
0.713379 0.489502 0.361816
0.746094 0.508789 0.379395
0.779297 0.529297 0.398682
0.812012 0.551270 0.420166
0.844727 0.575195 0.444336
0.876465 0.601074 0.471191
0.906738 0.627441 0.500488
0.211426 0.336914 0.202637
0.218994 0.336914 0.204102
0.226929 0.337158 0.205566
0.235840 0.337402 0.207153
0.245361 0.337646 0.208984
0.255615 0.338135 0.210815
0.266357 0.338867 0.213013
0.278076 0.339600 0.215210
0.290527 0.340820 0.217529
0.303711 0.342529 0.220215
0.323730 0.348633 0.227539
0.346924 0.356445 0.236572
0.370361 0.365234 0.246216
0.394287 0.374268 0.256104
0.413818 0.379883 0.262939
0.432373 0.385254 0.268555
0.452148 0.390869 0.274170
0.472900 0.397461 0.280273
0.495117 0.405029 0.286621
0.518555 0.413330 0.293213
0.543945 0.422852 0.300537
0.570312 0.433350 0.309570
0.597168 0.445312 0.320557
0.625488 0.458740 0.332764
0.654785 0.473145 0.345947
0.685547 0.488770 0.359863
0.717773 0.505371 0.374756
0.750000 0.523438 0.391357
0.782715 0.542969 0.409668
0.815918 0.564453 0.430176
0.847656 0.586914 0.453125
0.879395 0.610352 0.478760
0.909180 0.636230 0.506836
0.228516 0.361816 0.213135
0.235596 0.361816 0.214600
0.243286 0.362061 0.216064
0.251465 0.362305 0.217773
0.260742 0.362793 0.219727
0.270508 0.363525 0.221924
0.281250 0.363770 0.224365
0.292480 0.364746 0.226929
0.304688 0.365967 0.229736
0.317383 0.367188 0.232910
0.331543 0.369141 0.236206
0.353271 0.376465 0.245483
0.376221 0.384766 0.255127
0.400146 0.393555 0.265869
0.423828 0.402588 0.276367
0.444824 0.409424 0.284180
0.463867 0.414795 0.290283
0.484375 0.421143 0.296143
0.505371 0.427979 0.302734
0.528809 0.436279 0.309570
0.552734 0.444824 0.317383
0.578613 0.454834 0.326172
0.604980 0.466064 0.336670
0.632324 0.478760 0.348877
0.661621 0.492432 0.361572
0.691406 0.506836 0.375000
0.722656 0.522949 0.388916
0.754395 0.540039 0.404541
0.786621 0.558105 0.421875
0.819336 0.578125 0.441162
0.851074 0.599609 0.462646
0.881836 0.621582 0.487061
0.912109 0.645996 0.513672
0.248291 0.388672 0.226929
0.254639 0.388916 0.228149
0.261719 0.389160 0.229614
0.269531 0.389404 0.231201
0.278076 0.389893 0.233154
0.287598 0.390625 0.235352
0.297607 0.391113 0.237793
0.308594 0.391846 0.240356
0.320312 0.392822 0.243530
0.333008 0.394043 0.246948
0.346191 0.395996 0.250244
0.362061 0.398926 0.255859
0.384277 0.406738 0.265625
0.407227 0.414551 0.276367
0.431152 0.423584 0.287354
0.455322 0.432617 0.298584
0.477051 0.440186 0.307617
0.496826 0.446045 0.313965
0.517578 0.452637 0.320801
0.539551 0.460205 0.327637
0.562988 0.468262 0.335205
0.587891 0.477783 0.343994
0.613770 0.488281 0.354004
0.640625 0.500000 0.365723
0.668457 0.512695 0.378174
0.697754 0.526367 0.390869
0.728027 0.541504 0.404541
0.759277 0.557617 0.418945
0.790527 0.574707 0.435059
0.822754 0.593262 0.452881
0.854492 0.612793 0.472656
0.884766 0.633301 0.494873
0.914551 0.655762 0.520020
0.270264 0.417480 0.244019
0.276367 0.417725 0.245239
0.282471 0.417969 0.246460
0.289795 0.418457 0.247925
0.297607 0.418945 0.249878
0.306641 0.419434 0.251709
0.315918 0.419922 0.253906
0.326416 0.420654 0.256592
0.337646 0.421875 0.259521
0.349609 0.423096 0.262939
0.362549 0.424316 0.266602
0.376221 0.426270 0.270752
0.394287 0.430664 0.277832
0.416748 0.438232 0.288574
0.439697 0.446533 0.299561
0.463867 0.455078 0.311279
0.487793 0.464355 0.322754
0.510742 0.472412 0.332764
0.530762 0.478271 0.339844
0.551758 0.485352 0.346924
0.574219 0.493164 0.354736
0.598145 0.501465 0.363037
0.623047 0.511719 0.372559
0.648926 0.521973 0.383789
0.676270 0.534180 0.395752
0.705078 0.547363 0.408203
0.734375 0.561035 0.420410
0.764648 0.575684 0.433838
0.795410 0.591309 0.448486
0.826660 0.608398 0.464600
0.857422 0.626465 0.482910
0.888184 0.645996 0.503418
0.916992 0.666504 0.526855
0.294922 0.447998 0.264648
0.300293 0.448242 0.265625
0.305908 0.448486 0.266846
0.312500 0.448975 0.268066
0.319824 0.449219 0.269775
0.327881 0.449707 0.271484
0.336914 0.450439 0.273438
0.346436 0.451416 0.275879
0.356934 0.452393 0.278564
0.368408 0.453369 0.281738
0.380615 0.454590 0.285156
0.394043 0.456543 0.289062
0.408203 0.458252 0.293457
0.427979 0.464111 0.302246
0.450195 0.471191 0.313232
0.473633 0.479248 0.324707
0.497559 0.488037 0.336914
0.521484 0.496826 0.348877
0.544922 0.505371 0.359863
0.565430 0.511719 0.367188
0.586914 0.519043 0.374756
0.609863 0.526855 0.383301
0.634277 0.536133 0.392334
0.658691 0.545898 0.402588
0.684570 0.556641 0.413574
0.711914 0.568359 0.425049
0.740234 0.581055 0.436768
0.769531 0.594727 0.449219
0.799805 0.609375 0.462646
0.830566 0.625000 0.477539
0.861328 0.641602 0.494385
0.891113 0.659668 0.513184
0.920410 0.678711 0.535156
0.321289 0.479736 0.287109
0.326172 0.480225 0.288330
0.331543 0.480225 0.289307
0.337646 0.480713 0.290771
0.344482 0.481201 0.292236
0.351807 0.481934 0.293945
0.359863 0.482422 0.295654
0.368652 0.482910 0.297852
0.378662 0.483887 0.300293
0.389404 0.484863 0.302979
0.400879 0.486572 0.306152
0.413330 0.487549 0.309570
0.427002 0.489746 0.313965
0.441406 0.491699 0.318359
0.462891 0.498047 0.328613
0.485107 0.505371 0.339844
0.507812 0.513184 0.351807
0.532227 0.521484 0.364014
0.556641 0.530762 0.376465
0.580078 0.539551 0.387939
0.600586 0.545410 0.395264
0.622070 0.552734 0.403076
0.644531 0.560547 0.411865
0.668457 0.569336 0.421631
0.693359 0.579590 0.432129
0.719727 0.590332 0.442871
0.747070 0.602051 0.453857
0.775879 0.614746 0.465576
0.805176 0.627930 0.477783
0.834961 0.642578 0.491455
0.865234 0.657715 0.506836
0.894531 0.674316 0.523926
0.923340 0.691406 0.543945
0.349365 0.513184 0.311279
0.353760 0.513184 0.312256
0.358643 0.513672 0.313232
0.364258 0.513672 0.314941
0.370117 0.514160 0.316406
0.376953 0.514648 0.317871
0.384766 0.515137 0.319824
0.393066 0.515625 0.321777
0.402100 0.517090 0.324219
0.412354 0.518066 0.326660
0.423340 0.519043 0.329590
0.435059 0.520508 0.333008
0.447754 0.521973 0.336670
0.461426 0.523926 0.340820
0.477051 0.526855 0.346436
0.498779 0.533203 0.357178
0.520996 0.540039 0.368164
0.542969 0.547852 0.379883
0.566406 0.555664 0.391846
0.590332 0.563965 0.403809
0.614258 0.572754 0.415771
0.634766 0.579102 0.423828
0.656250 0.586426 0.432373
0.679199 0.594238 0.441895
0.703125 0.603516 0.451660
0.728516 0.613281 0.461670
0.754883 0.624023 0.472168
0.782227 0.635742 0.482910
0.811035 0.647949 0.494141
0.839844 0.661133 0.506348
0.869629 0.674805 0.520020
0.898438 0.689941 0.535645
0.926758 0.705566 0.553711
0.378662 0.547852 0.336914
0.382568 0.547852 0.337891
0.386963 0.548340 0.338867
0.391846 0.548340 0.340088
0.397705 0.549316 0.341553
0.404053 0.549805 0.343018
0.411133 0.550293 0.344971
0.418945 0.550781 0.346924
0.427246 0.551270 0.349365
0.436768 0.552246 0.352051
0.447021 0.553223 0.354736
0.458008 0.554199 0.357910
0.469727 0.555664 0.361572
0.482910 0.557129 0.365479
0.497070 0.559570 0.369873
0.513672 0.562500 0.376709
0.534668 0.568848 0.386963
0.556152 0.575684 0.397949
0.579102 0.582520 0.409424
0.601562 0.589844 0.421143
0.624512 0.597656 0.433105
0.647949 0.606445 0.445068
0.669434 0.613281 0.453857
0.690918 0.620605 0.462891
0.713867 0.628418 0.471924
0.738281 0.637207 0.481445
0.763672 0.646973 0.491211
0.790039 0.657715 0.500977
0.817383 0.668945 0.511230
0.845703 0.680664 0.522461
0.874023 0.693359 0.534668
0.902344 0.706543 0.548340
0.930176 0.720703 0.564453
0.408936 0.583984 0.363770
0.412598 0.583984 0.364746
0.416504 0.583984 0.365723
0.421387 0.584473 0.366699
0.426758 0.584473 0.368164
0.432373 0.584961 0.369873
0.438477 0.585449 0.371338
0.445557 0.585938 0.373291
0.453857 0.586426 0.375488
0.462402 0.586914 0.377930
0.471924 0.587891 0.380859
0.482422 0.588867 0.383789
0.493408 0.590332 0.387207
0.505859 0.591797 0.391113
0.519043 0.593750 0.395264
0.532715 0.595703 0.399902
0.550781 0.599609 0.407959
0.571777 0.605469 0.418213
0.592285 0.611328 0.428955
0.614258 0.618164 0.439941
0.636719 0.624512 0.451660
0.659180 0.632812 0.463379
0.682129 0.640625 0.475098
0.704102 0.647461 0.484375
0.725586 0.654785 0.492920
0.749023 0.662598 0.501465
0.772949 0.670898 0.510742
0.798340 0.680664 0.520020
0.824707 0.690430 0.529297
0.851562 0.701172 0.539062
0.879395 0.712402 0.549805
0.906738 0.724609 0.562012
0.934082 0.736816 0.575684
0.440430 0.619629 0.392090
0.443604 0.620117 0.392822
0.447266 0.620117 0.393555
0.451416 0.620605 0.394775
0.456055 0.620605 0.395752
0.461426 0.621094 0.397461
0.467285 0.621094 0.398682
0.473389 0.621582 0.400635
0.480713 0.622070 0.402588
0.488770 0.623047 0.404785
0.497803 0.624023 0.407471
0.507324 0.624512 0.410156
0.518066 0.625488 0.413330
0.529785 0.626953 0.416992
0.541992 0.628418 0.420898
0.555664 0.629883 0.425537
0.569824 0.632324 0.430420
0.588379 0.636719 0.439453
0.608398 0.641602 0.449463
0.628418 0.646973 0.460205
0.649902 0.653320 0.470947
0.671387 0.660156 0.482178
0.693848 0.666992 0.493652
0.716309 0.674316 0.504883
0.738281 0.681152 0.514160
0.760254 0.688477 0.522461
0.783203 0.695801 0.530762
0.807129 0.704102 0.539062
0.832520 0.712891 0.547852
0.858398 0.722656 0.556641
0.884766 0.732422 0.565918
0.911621 0.743164 0.576172
0.937988 0.753906 0.588379
0.472412 0.656738 0.421143
0.475586 0.656738 0.421631
0.478760 0.656738 0.422363
0.482422 0.657227 0.423584
0.486816 0.657227 0.424561
0.491455 0.657715 0.425781
0.496582 0.657715 0.427002
0.502441 0.658203 0.428467
0.509277 0.658691 0.430420
0.516602 0.659180 0.432373
0.524414 0.659668 0.434570
0.533203 0.660645 0.437012
0.543457 0.661133 0.440186
0.553711 0.662109 0.443359
0.565430 0.663086 0.447266
0.578125 0.665039 0.451416
0.591797 0.666504 0.455811
0.606445 0.668457 0.461182
0.625488 0.672852 0.470703
0.644531 0.677734 0.480713
0.664551 0.683105 0.490723
0.685547 0.688477 0.500977
0.706543 0.694336 0.512207
0.728516 0.701172 0.522461
0.750488 0.708008 0.534180
0.772461 0.714844 0.542969
0.793945 0.721191 0.550781
0.816895 0.728516 0.558594
0.840820 0.736328 0.566406
0.865234 0.744629 0.574219
0.890625 0.752930 0.582031
0.916504 0.762207 0.591309
0.942383 0.771973 0.602051
0.504883 0.692871 0.451172
0.507324 0.692871 0.451660
0.510742 0.693359 0.452393
0.513672 0.693359 0.453125
0.517578 0.693359 0.453857
0.521973 0.693848 0.454834
0.526367 0.693848 0.455811
0.531738 0.694336 0.457520
0.537598 0.694824 0.458984
0.544434 0.695312 0.460449
0.551758 0.695801 0.462402
0.559570 0.696289 0.464844
0.568359 0.696777 0.467285
0.578613 0.697754 0.470215
0.589844 0.698242 0.473633
0.601074 0.699707 0.477051
0.613770 0.701172 0.481201
0.627441 0.702637 0.485840
0.643066 0.705078 0.492188
0.661621 0.708984 0.500977
0.680176 0.713379 0.510742
0.700195 0.717773 0.520508
0.720215 0.722656 0.530762
0.741211 0.728027 0.541016
0.762207 0.733887 0.551758
0.783691 0.740723 0.561523
0.805176 0.747070 0.570312
0.826660 0.753418 0.577637
0.849609 0.759766 0.584473
0.872559 0.766602 0.591797
0.896973 0.774414 0.598633
0.921875 0.782227 0.606934
0.946777 0.791016 0.616211
0.538086 0.729004 0.481201
0.540039 0.729004 0.481689
0.542969 0.729004 0.482178
0.545410 0.729004 0.482910
0.549316 0.729492 0.483887
0.552734 0.729492 0.484375
0.556641 0.729980 0.485352
0.561035 0.729980 0.486328
0.566406 0.730469 0.487793
0.572754 0.730469 0.489014
0.579102 0.730957 0.490967
0.586426 0.731445 0.492432
0.594727 0.731934 0.495117
0.604004 0.732422 0.497070
0.613770 0.733398 0.500000
0.624512 0.734375 0.502930
0.636719 0.735840 0.506836
0.649414 0.736816 0.510742
0.662598 0.738281 0.515137
0.678711 0.740723 0.521973
0.696289 0.744141 0.530762
0.715332 0.747559 0.540039
0.733887 0.751953 0.549316
0.753906 0.756348 0.558594
0.773926 0.761719 0.568359
0.794434 0.766602 0.578125
0.815918 0.771973 0.587891
0.836914 0.778320 0.596191
0.858398 0.783691 0.602539
0.880371 0.789551 0.608887
0.903809 0.796387 0.615723
0.927734 0.803223 0.623047
0.951660 0.811035 0.631348
0.571289 0.763184 0.511719
0.572754 0.764160 0.512207
0.574707 0.764160 0.512695
0.577637 0.764160 0.513184
0.580078 0.764160 0.513672
0.583496 0.764648 0.514160
0.586914 0.764648 0.514648
0.591309 0.764648 0.515625
0.596191 0.765137 0.517090
0.601074 0.765137 0.518066
0.606934 0.765625 0.519531
0.613281 0.766113 0.520996
0.620605 0.766602 0.522461
0.629395 0.767090 0.524414
0.638184 0.767578 0.526855
0.647461 0.768066 0.529297
0.658691 0.769043 0.532227
0.670410 0.770020 0.535645
0.683105 0.770996 0.539551
0.696777 0.772949 0.543457
0.712402 0.774902 0.551270
0.730469 0.777832 0.558594
0.748535 0.781250 0.567871
0.766602 0.784668 0.576172
0.786133 0.788086 0.585449
0.806152 0.792480 0.594238
0.825684 0.796875 0.603027
0.846680 0.802246 0.612305
0.867676 0.807617 0.620117
0.888672 0.812988 0.626465
0.911133 0.818848 0.632812
0.933594 0.824707 0.639160
0.957520 0.831543 0.646484
0.603516 0.797363 0.542480
0.604980 0.797363 0.542969
0.606934 0.797363 0.542969
0.608887 0.797363 0.543457
0.611328 0.797852 0.543945
0.614258 0.797852 0.544434
0.617188 0.797852 0.544922
0.620605 0.797852 0.545410
0.625000 0.798340 0.545898
0.629395 0.798340 0.546875
0.634277 0.798828 0.547363
0.640137 0.798828 0.549316
0.646484 0.799316 0.550293
0.653809 0.799805 0.551758
0.661621 0.800293 0.553223
0.670898 0.800781 0.555176
0.680664 0.801270 0.557617
0.691406 0.802734 0.560547
