RED_IPP2_Creative/RED_BW_0200.cube
# RED Digital Cinema Output Transform LUT for IPP2
# Creatives by Eric Weidt
# BMD cube from Truelight v4.0
# Settings used in creation of this LUT are:
# Development Color Space = USER SELECTABLE
# Output Gamma Curve = USER SELECTABLE
# Output Tonemap = USER SELECTABLE
# Highlight Rolloff = USER SELECTABLE
LUT_3D_SIZE 9
0.064026 0.064026 0.064026
0.067078 0.067078 0.067078
0.094666 0.094666 0.094666
0.198975 0.198975 0.198975
0.382080 0.382080 0.382080
0.573730 0.573730 0.573730
0.741211 0.741211 0.741211
0.872070 0.872070 0.872070
0.939453 0.939453 0.939453
0.074219 0.074219 0.074219
0.069763 0.069763 0.069763
0.089355 0.089355 0.089355
0.168823 0.168823 0.168823
0.324951 0.324951 0.324951
0.519043 0.519043 0.519043
0.693848 0.693848 0.693848
0.841309 0.841309 0.841309
0.923340 0.923340 0.923340
0.149536 0.149536 0.149536
0.120483 0.120483 0.120483
0.106995 0.106995 0.106995
0.161743 0.161743 0.161743
0.279541 0.279541 0.279541
0.466309 0.466309 0.466309
0.645020 0.645020 0.645020
0.802246 0.802246 0.802246
0.903809 0.903809 0.903809
0.303467 0.303467 0.303467
0.246338 0.246338 0.246338
0.210205 0.210205 0.210205
0.194458 0.194458 0.194458
0.270508 0.270508 0.270508
0.424316 0.424316 0.424316
0.597168 0.597168 0.597168
0.758301 0.758301 0.758301
0.880859 0.880859 0.880859
0.500488 0.500488 0.500488
0.444824 0.444824 0.444824
0.390625 0.390625 0.390625
0.343994 0.343994 0.343994
0.322754 0.322754 0.322754
0.416016 0.416016 0.416016
0.559082 0.559082 0.559082
0.715332 0.715332 0.715332
0.853027 0.853027 0.853027
0.675781 0.675781 0.675781
0.627441 0.627441 0.627441
0.577637 0.577637 0.577637
0.528320 0.528320 0.528320
0.485596 0.485596 0.485596
0.465820 0.465820 0.465820
0.552246 0.552246 0.552246
0.681641 0.681641 0.681641
0.821289 0.821289 0.820801
0.826172 0.826172 0.826172
0.785645 0.785645 0.785645
0.741699 0.741699 0.741699
0.697754 0.697754 0.697754
0.653809 0.653809 0.653809
0.615234 0.615234 0.615234
0.597656 0.597656 0.597656
0.674316 0.674316 0.674316
0.791016 0.791016 0.791016
0.915039 0.915039 0.915039
0.895020 0.895020 0.895020
0.871094 0.871094 0.871094
0.841309 0.841309 0.841309
0.806152 0.806152 0.806152
0.766113 0.766113 0.766113
0.731445 0.731445 0.731445
0.715332 0.715332 0.715332
0.784668 0.784668 0.784668
0.963867 0.963867 0.963867
0.951660 0.951660 0.951660
0.937988 0.937988 0.937988
0.922852 0.922852 0.922852
0.904297 0.904297 0.904297
0.883301 0.883301 0.883301
0.858398 0.858398 0.858398
0.833496 0.833496 0.833496
0.821289 0.821289 0.820801
0.071289 0.071289 0.071289
0.078674 0.078674 0.078674
0.112854 0.112854 0.112854
0.209106 0.209106 0.209106
0.386475 0.386475 0.386475
0.574707 0.574707 0.574707
0.741699 0.741699 0.741699
0.872070 0.872070 0.872070
0.939453 0.939453 0.939453
0.090698 0.090698 0.090698
0.100159 0.100159 0.100159
0.135864 0.135864 0.135864
0.221313 0.221313 0.221313
0.391602 0.391602 0.391602
0.576172 0.576172 0.576172
0.741699 0.741699 0.741699
0.872070 0.872070 0.872070
0.939453 0.939453 0.939453
0.164917 0.164917 0.164917
0.172363 0.172363 0.172363
0.155273 0.155273 0.155273
0.211670 0.211670 0.211426
0.347656 0.347656 0.347656
0.525391 0.525391 0.525391
0.695312 0.695312 0.695312
0.841309 0.841309 0.841309
0.923340 0.923340 0.923340
0.312744 0.312744 0.312744
0.317139 0.317139 0.317139
0.268311 0.268311 0.268311
0.246338 0.246338 0.246338
0.337891 0.337891 0.337891
0.485352 0.485352 0.485352
0.649414 0.649414 0.649414
0.803223 0.803223 0.803223
0.904297 0.904297 0.904297
0.504395 0.504395 0.504395
0.505859 0.505859 0.505859
0.453369 0.453369 0.453369
0.408936 0.408936 0.408936
0.388428 0.388428 0.388428
0.477295 0.477295 0.477295
0.613770 0.613770 0.613281
0.762207 0.762207 0.762207
0.881836 0.881836 0.881836
0.677734 0.677734 0.677734
0.678223 0.678223 0.678223
0.631348 0.631348 0.631348
0.583496 0.583496 0.583496
0.543457 0.543457 0.543457
0.524902 0.524902 0.524902
0.606445 0.606445 0.606445
0.729492 0.729492 0.729492
0.855957 0.855957 0.855957
0.828125 0.828125 0.828125
0.828613 0.828613 0.828613
0.788086 0.788086 0.788086
0.745605 0.745605 0.745605
0.703125 0.703125 0.703125
0.666016 0.666016 0.666016
0.650391 0.650391 0.650391
0.724121 0.724121 0.724121
0.832520 0.832520 0.832520
0.915527 0.915527 0.915527
0.916016 0.916016 0.916016
0.896484 0.896484 0.896484
0.872070 0.872070 0.872070
0.844238 0.844238 0.844238
0.810547 0.810547 0.810547
0.777832 0.777832 0.777832
0.762695 0.762695 0.762695
0.828125 0.828125 0.828125
0.963867 0.963867 0.963867
0.964355 0.964355 0.964355
0.952148 0.952148 0.952148
0.938965 0.938965 0.938965
0.923340 0.923340 0.923340
0.906250 0.906250 0.906250
0.885742 0.885742 0.885742
0.866211 0.866211 0.866211
0.856445 0.856445 0.856445
0.133301 0.133179 0.133179
0.142212 0.142212 0.142212
0.170410 0.170410 0.170410
0.242188 0.242188 0.242188
0.401367 0.401367 0.401367
0.578613 0.578613 0.578613
0.742188 0.742188 0.742188
0.872070 0.872070 0.872070
0.939453 0.939453 0.939453
0.153320 0.153320 0.153320
0.161133 0.161133 0.161133
0.185791 0.185791 0.185791
0.253906 0.253906 0.253906
0.406006 0.406006 0.406006
0.580078 0.580078 0.580078
0.743164 0.743164 0.743164
0.872070 0.872070 0.872070
0.939453 0.939453 0.939453
0.208130 0.208130 0.208130
0.213623 0.213623 0.213379
0.231567 0.231567 0.231567
0.294678 0.294678 0.294678
0.422607 0.422607 0.422363
0.584473 0.584473 0.584473
0.744141 0.744141 0.744141
0.872070 0.872070 0.872070
0.939453 0.939453 0.939453
0.338379 0.338379 0.338379
0.341553 0.341553 0.341553
0.353027 0.353027 0.353027
0.326660 0.326660 0.326660
0.409668 0.409668 0.409668
0.545898 0.545898 0.545898
0.700684 0.700684 0.700684
0.842285 0.842285 0.842285
0.923340 0.923340 0.923340
0.512695 0.512695 0.512695
0.514648 0.514648 0.514648
0.517578 0.517578 0.517578
0.474365 0.474365 0.474365
0.453125 0.453125 0.453125
0.537109 0.537109 0.537109
0.666016 0.666016 0.666016
0.807129 0.807129 0.807129
0.904785 0.904785 0.904785
0.681152 0.681152 0.681152
0.682129 0.682129 0.682129
0.683594 0.683594 0.683594
0.638184 0.638184 0.638184
0.599609 0.599609 0.599609
0.581543 0.581543 0.581543
0.658691 0.658691 0.658691
0.775879 0.775879 0.775879
0.883789 0.883789 0.883789
0.829590 0.829590 0.829590
0.829590 0.829590 0.829590
0.830078 0.830078 0.830078
0.791992 0.791992 0.791992
0.750000 0.750000 0.750000
0.715820 0.715820 0.715820
0.699707 0.699707 0.699707
0.770020 0.770020 0.770020
0.864746 0.864746 0.864746
0.916504 0.916504 0.916504
0.916504 0.916504 0.916504
0.916992 0.916992 0.916992
0.897461 0.897461 0.897461
0.874512 0.874512 0.874512
0.848145 0.848145 0.848145
0.820801 0.820801 0.820801
0.808105 0.808105 0.808105
0.861328 0.861328 0.861328
0.964355 0.964355 0.964355
0.964355 0.964355 0.964355
0.964844 0.964844 0.964844
0.953125 0.953125 0.953125
0.939453 0.939453 0.939453
0.924805 0.924805 0.924805
0.908203 0.908203 0.908203
0.892090 0.892090 0.892090
0.884277 0.884277 0.884277
0.274658 0.274658 0.274658
0.279297 0.279297 0.279297
0.295410 0.295410 0.295410
0.342773 0.342773 0.342773
0.444824 0.444824 0.444824
0.591797 0.591797 0.591797
0.746094 0.746094 0.746094
0.872559 0.872559 0.872559
0.939453 0.939453 0.939453
0.285400 0.285400 0.285400
0.290039 0.290039 0.290039
0.304932 0.304932 0.304932
0.349854 0.349854 0.349854
0.448486 0.448486 0.448486
0.593262 0.593262 0.593262
0.746094 0.746094 0.746094
0.872559 0.872559 0.872559
0.939453 0.939453 0.939453
0.320068 0.320068 0.320068
0.323242 0.323242 0.323242
0.335449 0.335449 0.335449
0.373291 0.373291 0.373291
0.460938 0.460938 0.460938
0.597168 0.597168 0.597168
0.747070 0.747070 0.747070
0.873047 0.873047 0.873047
0.939453 0.939453 0.939453
0.403076 0.403076 0.403076
0.404785 0.404785 0.404785
0.412109 0.412109 0.412109
0.435547 0.435547 0.435547
0.498047 0.498047 0.498047
0.611816 0.611816 0.611816
0.751465 0.751465 0.751465
0.873535 0.873535 0.873535
0.939453 0.939453 0.939453
0.536621 0.536621 0.536621
0.537109 0.537109 0.537109
0.540527 0.540527 0.540527
0.550293 0.550293 0.550293
0.526855 0.526855 0.526855
0.600098 0.600098 0.600098
0.718262 0.718262 0.718262
0.846191 0.846191 0.846191
0.923828 0.923828 0.923828
0.689453 0.689453 0.689453
0.689453 0.689453 0.689453
0.691406 0.691406 0.691406
0.693848 0.693848 0.693848
0.656250 0.656250 0.656250
0.638184 0.638184 0.638184
0.710449 0.710449 0.710449
0.820801 0.820801 0.820801
0.906738 0.906738 0.906738
0.832031 0.832031 0.832031
0.832520 0.832520 0.832520
0.833008 0.833008 0.833008
0.833984 0.833984 0.833984
0.797363 0.797363 0.797363
0.764160 0.764160 0.764160
0.748535 0.748535 0.748535
0.814941 0.814941 0.814941
0.891113 0.891113 0.891113
0.917480 0.917480 0.917480
0.917480 0.917480 0.917480
0.917480 0.917480 0.917480
0.917969 0.917969 0.917969
0.898926 0.898926 0.898926
0.877441 0.877441 0.877441
0.856445 0.856445 0.856445
0.845703 0.845703 0.845703
0.888184 0.888184 0.888184
0.964844 0.964844 0.964844
0.964844 0.964844 0.964844
0.965332 0.965332 0.965332
0.965332 0.965332 0.965332
0.953613 0.953613 0.953613
0.940918 0.940918 0.940918
0.926758 0.926758 0.926758
0.913086 0.913086 0.913086
0.906738 0.906738 0.906738
0.475830 0.475830 0.475830
0.476807 0.476807 0.476807
0.481445 0.481445 0.481445
0.496338 0.496338 0.496338
0.539062 0.539062 0.539062
0.630371 0.630371 0.630371
0.757324 0.757324 0.757324
0.875000 0.875000 0.875000
0.939941 0.939941 0.939941
0.478760 0.478760 0.478760
0.479980 0.479980 0.479980
0.484131 0.484131 0.484131
0.498779 0.498779 0.498779
0.541504 0.541016 0.541016
0.630859 0.630859 0.630859
0.757324 0.757324 0.757324
0.875000 0.875000 0.875000
0.939941 0.939941 0.939941
0.488770 0.488770 0.488770
0.489746 0.489746 0.489746
0.493896 0.493896 0.493896
0.507324 0.507324 0.507324
0.547363 0.547363 0.547363
0.634277 0.634277 0.634277
0.758789 0.758789 0.758789
0.875000 0.875000 0.875000
0.939941 0.939941 0.939941
0.519531 0.519531 0.519531
0.520996 0.520996 0.520996
0.523926 0.523926 0.523926
0.534668 0.534668 0.534668
0.568359 0.568359 0.568359
0.645020 0.645020 0.645020
0.762207 0.762207 0.762207
0.875488 0.875488 0.875488
0.939941 0.939941 0.939941
0.593750 0.593750 0.593750
0.594238 0.594238 0.594238
0.596191 0.596191 0.596191
0.602539 0.602539 0.602539
0.623047 0.623047 0.623047
0.677246 0.677246 0.677246
0.773926 0.773926 0.773926
0.877930 0.877930 0.877930
0.940430 0.940430 0.940430
0.709473 0.709473 0.709473
0.710449 0.710449 0.710449
0.710938 0.710938 0.710938
0.712891 0.712891 0.712891
0.721680 0.721680 0.721680
0.701660 0.701660 0.701660
0.764648 0.764648 0.764648
0.857910 0.857910 0.857910
0.925781 0.925781 0.925781
0.838867 0.838867 0.838867
0.838379 0.838379 0.838379
0.838379 0.838379 0.838379
0.839844 0.839844 0.839355
0.841309 0.841309 0.841309
0.812988 0.812988 0.812988
0.797363 0.797363 0.797363
0.853027 0.853027 0.853027
0.913086 0.913086 0.913086
0.918945 0.918945 0.918945
0.918457 0.918457 0.918457
0.918945 0.918945 0.918945
0.919434 0.919434 0.919434
0.919434 0.919434 0.919434
0.901855 0.901855 0.901855
0.884766 0.884766 0.884766
0.875977 0.875977 0.875977
0.910156 0.910156 0.910156
0.965332 0.965332 0.965332
0.965820 0.965820 0.965820
0.965820 0.965820 0.965820
0.965820 0.965820 0.965820
0.965820 0.965820 0.965820
0.954590 0.954590 0.954590
0.942383 0.942383 0.942383
0.931152 0.931152 0.931152
0.925293 0.925293 0.925293
0.656738 0.656738 0.656738
0.656738 0.656738 0.656738
0.658203 0.658203 0.658203
0.662109 0.662109 0.662109
0.674316 0.674316 0.674316
0.711914 0.711914 0.711914
0.790527 0.790527 0.790527
0.880859 0.880859 0.880859
0.940918 0.940918 0.940918
0.657715 0.657715 0.657715
0.657715 0.657715 0.657715
0.658691 0.658691 0.658691
0.662598 0.662598 0.662598
0.675293 0.675293 0.675293
0.712891 0.712891 0.712891
0.790527 0.790527 0.790527
0.881348 0.881348 0.881348
0.940918 0.940918 0.940918
0.660156 0.660156 0.660156
0.660156 0.660156 0.660156
0.661621 0.661621 0.661621
0.664551 0.664551 0.664551
0.677734 0.677734 0.677734
0.713867 0.713867 0.713867
0.791016 0.791016 0.791016
0.881348 0.881348 0.881348
0.940918 0.940918 0.940918
0.668457 0.668457 0.668457
0.668457 0.668457 0.668457
0.669922 0.669922 0.669922
0.673340 0.673340 0.673340
0.685059 0.685059 0.685059
0.719727 0.719727 0.719727
0.793945 0.793945 0.793945
0.881836 0.881836 0.881836
0.940918 0.940918 0.940918
0.695312 0.695312 0.695312
0.695801 0.695801 0.695801
0.696289 0.696289 0.696289
0.698730 0.698730 0.698730
0.708496 0.708496 0.708496
0.737305 0.737305 0.737305
0.803223 0.803223 0.803223
0.883789 0.883789 0.883789
0.941406 0.941406 0.941406
0.759277 0.759277 0.759277
0.759277 0.759277 0.759277
0.759766 0.759766 0.759766
0.761230 0.761230 0.761230
0.766602 0.766602 0.766602
0.784180 0.784180 0.784180
0.829102 0.829102 0.829102
0.890625 0.890625 0.890625
0.942383 0.942383 0.942383
0.852051 0.852051 0.852051
0.852539 0.852051 0.852051
0.852539 0.852539 0.852539
0.853027 0.853027 0.853027
0.854492 0.854492 0.854492
0.859863 0.859863 0.859863
0.846680 0.846680 0.846680
0.885254 0.885254 0.885254
0.932129 0.932129 0.932129
0.921875 0.921875 0.921875
0.921875 0.921875 0.921875
0.921875 0.921875 0.921875
0.921875 0.921875 0.921875
0.922363 0.922363 0.922363
0.923340 0.923340 0.923340
0.909180 0.909180 0.909180
0.901855 0.901855 0.901855
0.929199 0.929199 0.929199
0.966797 0.966797 0.966797
0.966797 0.966797 0.966797
0.966309 0.966309 0.966309
0.966797 0.966797 0.966797
0.966797 0.966797 0.966797
0.967285 0.967285 0.967285
0.956055 0.956055 0.956055
0.946289 0.946289 0.946289
0.941895 0.941895 0.941895
0.812988 0.812988 0.812988
0.812988 0.812988 0.812988
0.813477 0.813477 0.813477
0.814453 0.814453 0.814453
0.817383 0.817383 0.817383
0.827637 0.827637 0.827637
0.854004 0.854004 0.854004
0.898438 0.898438 0.898438
0.944336 0.944336 0.944336
0.813477 0.813477 0.813477
0.813477 0.813477 0.813477
0.813477 0.813477 0.813477
0.814453 0.814453 0.814453
0.817871 0.817871 0.817871
0.827637 0.827637 0.827637
0.854004 0.854004 0.854004
0.898438 0.898438 0.898438
0.944336 0.944336 0.944336
0.813965 0.813965 0.813965
0.813965 0.813965 0.813965
0.813965 0.813965 0.813965
0.814941 0.814941 0.814941
0.818359 0.818359 0.818359
0.828125 0.828125 0.828125
0.854492 0.854492 0.854492
0.898438 0.898438 0.898438
0.944336 0.944336 0.944336
0.815918 0.815918 0.815430
0.815918 0.815918 0.815430
0.815918 0.815918 0.815918
0.817383 0.817383 0.817383
0.819824 0.819824 0.819824
0.829590 0.829590 0.829590
0.854980 0.854980 0.854980
0.898926 0.898926 0.898926
0.944336 0.944336 0.944336
0.822754 0.822754 0.822754
0.822754 0.822754 0.822754
0.822754 0.822754 0.822754
0.823730 0.823730 0.823730
0.826172 0.826172 0.826172
0.834961 0.834961 0.834961
0.858887 0.858887 0.858887
0.900391 0.900391 0.900391
0.944824 0.944824 0.944824
0.842285 0.842285 0.842285
0.842285 0.842285 0.842285
0.842773 0.842773 0.842773
0.843262 0.843262 0.843262
0.845215 0.845215 0.845215
0.851562 0.851562 0.851562
0.869629 0.869629 0.869629
0.904785 0.904785 0.904785
0.945801 0.945801 0.945801
0.882324 0.882324 0.882324
0.882324 0.882324 0.882324
0.882324 0.882324 0.882324
0.882812 0.882812 0.882812
0.883301 0.883301 0.883301
0.886719 0.886719 0.886230
0.895508 0.895508 0.895508
0.917480 0.917480 0.917480
0.949707 0.949707 0.949707
0.928711 0.928711 0.928711
0.928711 0.928711 0.928711
0.928711 0.928711 0.928711
0.929199 0.929199 0.929199
0.929199 0.929199 0.929199
0.930176 0.930176 0.930176
0.933105 0.933105 0.933105
0.926270 0.926270 0.926270
0.946777 0.946777 0.946777
0.968750 0.968750 0.968750
0.968750 0.968750 0.968750
0.968750 0.968750 0.968750
0.968750 0.968750 0.968750
0.968750 0.968750 0.968750
0.969238 0.969238 0.969238
0.969727 0.969727 0.969727
0.960449 0.960449 0.960449
0.956055 0.956055 0.956055
0.909180 0.909180 0.909180
0.909180 0.909180 0.909180
0.909180 0.909180 0.909180
0.909668 0.909668 0.909668
0.910156 0.910156 0.910156
0.911133 0.911133 0.911133
0.916504 0.916504 0.916504
0.929688 0.929688 0.929688
0.954102 0.954102 0.954102
0.909180 0.909180 0.909180
0.909180 0.909180 0.909180
0.909180 0.909180 0.909180
0.909668 0.909668 0.909668
0.910156 0.910156 0.910156
0.911133 0.911133 0.911133
0.916504 0.916504 0.916504
0.929688 0.929688 0.929688
0.954102 0.954102 0.954102
0.909668 0.909668 0.909668
0.909668 0.909668 0.909668
0.909668 0.909668 0.909668
0.909668 0.909668 0.909668
0.910156 0.910156 0.910156
0.911621 0.911621 0.911621
0.916504 0.916504 0.916504
0.929688 0.929688 0.929688
0.954102 0.954102 0.954102
0.909668 0.909668 0.909668
0.909668 0.909668 0.909668
0.909668 0.909668 0.909668
0.909668 0.909668 0.909668
0.910156 0.910156 0.910156
0.911621 0.911621 0.911621
0.916504 0.916504 0.916504
0.929688 0.929688 0.929688
0.954102 0.954102 0.954102
0.910645 0.910645 0.910645
0.910645 0.910645 0.910645
0.910645 0.910645 0.910645
0.910645 0.910645 0.910645
0.911133 0.911133 0.911133
0.912598 0.912598 0.912598
0.917480 0.917480 0.917480
0.930664 0.930664 0.930664
0.954590 0.954590 0.954590
0.914062 0.914062 0.914062
0.914062 0.914062 0.914062
0.914062 0.914062 0.914062
0.914062 0.914062 0.914062
0.914551 0.914551 0.914551
0.916016 0.916016 0.916016
0.919922 0.919922 0.919922
0.932129 0.932129 0.932129
0.955078 0.955078 0.955078
0.923828 0.923828 0.923828
0.923828 0.923828 0.923828
0.923828 0.923828 0.923828
0.924316 0.924316 0.924316
0.924316 0.924316 0.924316
0.925293 0.925293 0.925293
0.928711 0.928711 0.928711
0.937988 0.937988 0.937988
0.958008 0.958008 0.958008
0.944824 0.944824 0.944824
0.944824 0.944824 0.944824
0.944824 0.944824 0.944824
0.944824 0.944824 0.944824
0.945312 0.945312 0.945312
0.945801 0.945801 0.945801
0.947266 0.947266 0.947266
0.952637 0.952637 0.952637
0.965820 0.965820 0.965820
0.973633 0.973633 0.973633
0.973633 0.973633 0.973633
0.973633 0.973633 0.973633
0.973633 0.973633 0.973633
0.973633 0.973633 0.973633
0.973633 0.973633 0.973633
0.974121 0.974121 0.974121
0.976562 0.976562 0.976562
0.971680 0.971680 0.971680
0.960449 0.960449 0.960449
0.960449 0.960449 0.960449
0.960449 0.960449 0.960449
0.960449 0.960449 0.960449
0.960938 0.960938 0.960938
0.960938 0.960938 0.960938
0.961914 0.961914 0.961914
0.964844 0.964844 0.964844
0.974121 0.974121 0.974121
0.960449 0.960449 0.960449
0.960449 0.960449 0.960449
0.960449 0.960449 0.960449
0.960449 0.960449 0.960449
0.960938 0.960938 0.960938
0.960938 0.960938 0.960938
0.961914 0.961914 0.961914
0.964844 0.964844 0.964844
0.974121 0.974121 0.974121
0.960449 0.960449 0.960449
0.960449 0.960449 0.960449
0.960449 0.960449 0.960449
0.960938 0.960938 0.960449
0.960938 0.960938 0.960938
0.960938 0.960938 0.960938
0.961914 0.961914 0.961914
0.964844 0.964844 0.964844
0.974121 0.974121 0.974121
0.960938 0.960938 0.960449
0.960938 0.960938 0.960449
0.960938 0.960938 0.960938
0.960938 0.960938 0.960938
0.960938 0.960938 0.960938
0.960938 0.960938 0.960938
0.961914 0.961914 0.961914
0.964844 0.964844 0.964844
0.974121 0.974121 0.974121
0.960938 0.960938 0.960938
0.960938 0.960938 0.960938
0.960938 0.960938 0.960938
0.960938 0.960938 0.960938
0.960938 0.960938 0.960938
0.961426 0.961426 0.961426
0.962402 0.962402 0.962402
0.965332 0.965332 0.965332
0.974121 0.974121 0.974121
0.961426 0.961426 0.961426
0.961426 0.961426 0.961426
0.961426 0.961426 0.961426
0.961426 0.961426 0.961426
0.961426 0.961426 0.961426
0.961914 0.961914 0.961914
0.962891 0.962891 0.962891
0.965820 0.965820 0.965820
0.974609 0.974609 0.974609
0.963867 0.963867 0.963867
0.963867 0.963867 0.963867
0.963867 0.963867 0.963867
0.963867 0.963867 0.963867
0.963867 0.963867 0.963867
0.963867 0.963867 0.963867
0.964844 0.964844 0.964844
0.967285 0.967285 0.967285
0.976074 0.976074 0.976074
0.969727 0.969727 0.969727
0.969727 0.969727 0.969727
0.969727 0.969727 0.969727
0.969727 0.969727 0.969727
0.970215 0.970215 0.970215
0.970215 0.970215 0.970215
0.970703 0.970703 0.970703
0.973145 0.973145 0.973145
0.980957 0.980957 0.980957
0.987305 0.987305 0.987305
0.987305 0.987305 0.987305
0.987305 0.987305 0.987305
0.987305 0.987305 0.987305
0.987305 0.987305 0.987305
0.987793 0.987793 0.987793
0.987793 0.987793 0.987793
0.990234 0.990234 0.990234
0.999023 0.999023 0.999023
