RED_IPP2_Creative/RED_FLUORESCE.cube
# RED Digital Cinema Output Transform LUT for IPP2
# Creatives by Eric Weidt
# BMD cube from Truelight v4.0
# Settings used in creation of this LUT are:
# Development Color Space = USER SELECTABLE
# Output Gamma Curve = USER SELECTABLE
# Output Tonemap = USER SELECTABLE
# Highlight Rolloff = USER SELECTABLE
LUT_3D_SIZE 9
0.000000 0.000000 0.000000
0.173828 0.000193 0.000000
0.294922 0.000000 0.000000
0.388672 0.000110 0.000000
0.475342 0.000000 0.000000
0.555176 0.000000 0.000000
0.643066 0.000000 0.000000
0.750977 0.000000 0.000000
0.894043 0.000000 0.000000
0.000000 0.174561 0.000000
0.170166 0.170288 0.044312
0.275146 0.164062 0.052551
0.375732 0.144897 0.028427
0.466064 0.132568 0.020920
0.546875 0.123108 0.016876
0.628906 0.117065 0.014320
0.724121 0.115234 0.013306
0.853027 0.118408 0.012856
0.000000 0.295166 0.000000
0.176636 0.288330 0.065552
0.287842 0.288330 0.075378
0.371338 0.274658 0.080139
0.442871 0.264404 0.084900
0.528809 0.247681 0.059174
0.611328 0.235718 0.046417
0.703613 0.229736 0.039612
0.819824 0.232788 0.036560
0.000000 0.388916 0.000000
0.155518 0.387939 0.039734
0.285889 0.383301 0.091736
0.379395 0.380127 0.099426
0.458496 0.370117 0.104553
0.524902 0.359131 0.108887
0.588379 0.350830 0.112732
0.680176 0.343018 0.089050
0.791016 0.344727 0.076660
0.000000 0.475342 0.000000
0.142578 0.477051 0.030960
0.284668 0.464111 0.105591
0.380371 0.469238 0.114746
0.463623 0.464600 0.121643
0.536621 0.455078 0.126221
0.604004 0.447021 0.130859
0.675781 0.445557 0.137085
0.762695 0.455322 0.146362
0.000000 0.555664 0.000000
0.132080 0.556152 0.025803
0.266357 0.548828 0.078125
0.377930 0.544434 0.127930
0.464111 0.546387 0.135864
0.541504 0.541992 0.141968
0.616211 0.538086 0.147705
0.692871 0.539062 0.154663
0.781738 0.550781 0.164673
0.000000 0.642578 0.000000
0.125854 0.637695 0.023331
0.253662 0.630371 0.064575
0.377686 0.616211 0.140137
0.465332 0.623047 0.149414
0.547363 0.625977 0.157104
0.626953 0.627441 0.164551
0.709473 0.633789 0.172852
0.805664 0.650879 0.184204
0.000000 0.750488 0.000000
0.123840 0.733398 0.022110
0.247314 0.721680 0.057678
0.369385 0.707520 0.115967
0.471924 0.703125 0.163818
0.557129 0.710938 0.172729
0.642578 0.719727 0.181885
0.732422 0.733398 0.192505
0.835449 0.757324 0.205444
0.000000 0.894043 0.000000
0.126953 0.862305 0.021881
0.250488 0.838867 0.054840
0.370850 0.817871 0.103516
0.490967 0.799316 0.182251
0.577637 0.810059 0.191895
0.669434 0.825684 0.202759
0.766602 0.845215 0.214844
0.872070 0.873047 0.228882
0.000000 0.000234 0.173828
0.174438 0.000066 0.173584
0.308105 0.000172 0.153809
0.403809 0.000083 0.134521
0.491455 0.000040 0.122192
0.569336 0.000000 0.113770
0.650391 0.000012 0.107971
0.745605 0.000000 0.106445
0.875000 0.000087 0.108887
0.000000 0.174316 0.173462
0.124878 0.124878 0.124878
0.295654 0.124939 0.124451
0.407227 0.124817 0.124695
0.499023 0.124878 0.124695
0.581055 0.124817 0.124329
0.664062 0.124939 0.124451
0.766113 0.124817 0.124329
0.907715 0.124817 0.124695
0.000000 0.308838 0.153931
0.124512 0.296387 0.124268
0.291260 0.292236 0.168457
0.387939 0.282227 0.175293
0.486328 0.263672 0.151855
0.571289 0.251709 0.144531
0.651855 0.243408 0.140869
0.742188 0.239990 0.138916
0.867188 0.242920 0.138672
0.000000 0.404053 0.134155
0.124634 0.407227 0.124451
0.294434 0.401367 0.187866
0.400146 0.400635 0.196777
0.481445 0.388672 0.201904
0.549316 0.377930 0.206299
0.634277 0.362793 0.181763
0.722656 0.354980 0.170532
0.834473 0.356689 0.165039
0.000000 0.491211 0.122253
0.124512 0.499268 0.124573
0.274414 0.497559 0.162842
0.399414 0.492920 0.212769
0.489258 0.490234 0.220337
0.563477 0.479980 0.225220
0.629395 0.470215 0.229370
0.698242 0.466553 0.234741
0.806641 0.468262 0.213623
0.000000 0.569336 0.113403
0.124512 0.581055 0.124268
0.261230 0.581543 0.154419
0.397705 0.569336 0.226074
0.489258 0.574219 0.234497
0.569336 0.569824 0.241211
0.641602 0.562988 0.246582
0.715332 0.561035 0.252686
0.802734 0.570312 0.261719
0.000000 0.650391 0.107727
0.124268 0.664551 0.124023
0.252197 0.661133 0.150024
0.380859 0.653320 0.200195
0.488525 0.648926 0.247437
0.572266 0.651855 0.255615
0.650879 0.651367 0.262451
0.730957 0.654297 0.270020
0.824219 0.668945 0.281006
0.000000 0.745605 0.105591
0.124146 0.766113 0.124146
0.248535 0.751953 0.147705
0.372070 0.740723 0.187988
0.493164 0.725098 0.261475
0.579102 0.733398 0.270508
0.663086 0.740234 0.279297
0.750488 0.750977 0.288818
0.851562 0.773438 0.301758
0.000000 0.875000 0.108704
0.124268 0.907227 0.124268
0.251465 0.875977 0.147461
0.374023 0.853027 0.182861
0.495117 0.833984 0.240845
0.597656 0.830078 0.289307
0.687500 0.843262 0.299561
0.782715 0.861328 0.311279
0.889160 0.889160 0.325195
0.000000 0.000114 0.294922
0.154297 0.000102 0.308350
0.295166 0.000000 0.294678
0.403564 0.000084 0.269043
0.497314 0.000043 0.248535
0.578613 0.000000 0.230835
0.657715 0.000010 0.218506
0.747070 0.000094 0.213257
0.863281 0.000000 0.214966
0.000000 0.154419 0.307861
0.124756 0.124878 0.295654
0.295898 0.124817 0.295654
0.420898 0.124817 0.272705
0.512695 0.124939 0.253906
0.595703 0.124756 0.242188
0.674316 0.124878 0.234497
0.764160 0.124573 0.231079
0.888672 0.124817 0.233521
0.000000 0.295166 0.294189
0.124390 0.296143 0.295898
0.249756 0.249756 0.249756
0.415771 0.249878 0.249268
0.518066 0.249878 0.249268
0.605469 0.249756 0.249146
0.687012 0.249756 0.249268
0.782227 0.249756 0.249146
0.920410 0.249634 0.249268
0.000000 0.404053 0.268799
0.124451 0.421143 0.272461
0.249268 0.416260 0.249268
0.411865 0.412598 0.291992
0.500000 0.399414 0.297852
0.594727 0.382324 0.275879
0.675781 0.370850 0.268799
0.762207 0.364990 0.265137
0.880859 0.367188 0.263916
0.000000 0.497314 0.248169
0.124023 0.512695 0.253418
0.249390 0.518066 0.249146
0.410889 0.512207 0.309326
0.511230 0.511719 0.318115
0.589844 0.500977 0.322998
0.654297 0.491211 0.327148
0.741699 0.479736 0.304443
0.849121 0.480225 0.294922
0.000000 0.578613 0.230591
0.124146 0.595703 0.241821
0.248779 0.605957 0.248779
0.392334 0.605469 0.285889
0.511719 0.600586 0.333496
0.596680 0.597656 0.340332
0.668457 0.588867 0.345215
0.737793 0.583496 0.350586
0.822266 0.590332 0.358887
0.000000 0.657715 0.218506
0.124084 0.673828 0.233887
0.248901 0.687012 0.248901
0.379639 0.685547 0.277588
0.509766 0.673828 0.346191
0.597656 0.678223 0.354980
0.676758 0.676758 0.361328
0.753418 0.676758 0.368164
0.841797 0.687500 0.377930
0.000000 0.747070 0.212646
0.124268 0.764160 0.230591
0.248901 0.782715 0.249023
0.373535 0.771973 0.273926
0.497559 0.760742 0.322510
0.601562 0.756348 0.368896
0.685547 0.762207 0.377197
0.769531 0.770508 0.385986
0.868652 0.790039 0.398193
0.000000 0.863770 0.215088
0.124329 0.888672 0.233521
0.249268 0.920410 0.249146
0.375732 0.890137 0.272949
0.498291 0.868164 0.313232
0.617676 0.849121 0.385986
0.705078 0.860352 0.395996
0.799316 0.877930 0.407715
0.904297 0.904785 0.421387
0.000000 0.000060 0.388428
0.134399 0.000071 0.404053
0.269043 0.000229 0.403564
0.388916 0.000014 0.388916
0.490967 0.000000 0.368164
0.578613 0.000000 0.346436
0.660156 0.000000 0.329834
0.749023 0.000000 0.320312
0.857910 0.000000 0.321533
0.000000 0.134766 0.403564
0.124573 0.124939 0.407227
0.272217 0.125000 0.420410
0.406738 0.125000 0.407227
0.513184 0.124878 0.383789
0.601074 0.124817 0.362793
0.681152 0.124573 0.346680
0.766602 0.124878 0.338623
0.878418 0.124939 0.339600
0.000000 0.269287 0.403320
0.124512 0.272705 0.420166
0.249268 0.249756 0.415771
0.415771 0.249756 0.415771
0.530762 0.249634 0.389404
0.619629 0.249756 0.372803
0.698730 0.249634 0.361084
0.784180 0.249634 0.356445
0.902832 0.249634 0.358154
0.000000 0.388916 0.388428
0.124207 0.407227 0.406494
0.249023 0.416016 0.416016
0.374512 0.374512 0.374512
0.532227 0.374512 0.374512
0.628418 0.374512 0.373779
0.710938 0.374268 0.374268
0.800293 0.374512 0.374268
0.933594 0.374268 0.374023
0.000000 0.491211 0.368164
0.124390 0.513184 0.383545
0.249146 0.531250 0.390137
0.374023 0.532715 0.374023
0.527832 0.528809 0.414551
0.610352 0.515137 0.419189
0.699707 0.499023 0.398682
0.782715 0.490234 0.392090
0.894531 0.491211 0.390381
0.000000 0.578613 0.346436
0.124268 0.601562 0.362793
0.249023 0.620117 0.372314
0.374268 0.628906 0.374023
0.526367 0.622559 0.430664
0.622559 0.623047 0.439209
0.695801 0.611816 0.443848
0.760742 0.604980 0.448242
0.865723 0.603516 0.428955
0.000000 0.660156 0.329346
0.123962 0.681152 0.346191
0.249023 0.698730 0.361572
0.374268 0.711426 0.374268
0.508789 0.710449 0.408447
0.621094 0.706055 0.453613
0.703613 0.704102 0.460938
0.776855 0.698730 0.466064
0.861328 0.707031 0.475098
0.000000 0.748535 0.320068
0.124084 0.767090 0.338135
0.249023 0.784180 0.355713
0.374268 0.801270 0.374023
0.499023 0.792480 0.401367
0.622559 0.779785 0.466553
0.707520 0.785645 0.475342
0.790039 0.790527 0.483643
0.884277 0.807129 0.494629
0.000000 0.857910 0.320801
0.124084 0.878906 0.339355
0.249023 0.902832 0.357666
0.374023 0.933594 0.373779
0.500000 0.903809 0.399414
0.621582 0.883789 0.446777
0.724121 0.879395 0.493164
0.816406 0.894531 0.503906
0.919922 0.920410 0.517578
0.000000 0.000109 0.475342
0.122498 0.000142 0.491211
0.248169 0.000205 0.497070
0.367676 0.000079 0.490967
0.475098 0.000026 0.475342
0.569336 0.000000 0.456055
0.657715 0.000000 0.437988
0.748535 0.000056 0.427246
0.856445 0.000000 0.428223
0.000000 0.123047 0.490967
0.124756 0.124817 0.499023
0.253906 0.124878 0.513184
0.383057 0.125122 0.512695
0.499023 0.124878 0.498779
0.595215 0.124634 0.477783
0.681152 0.124634 0.458252
0.768066 0.124939 0.446045
0.875000 0.124939 0.445801
0.000000 0.248657 0.497070
0.124573 0.253906 0.512695
0.249390 0.249634 0.517578
0.389893 0.249634 0.530762
0.517578 0.249756 0.518066
0.619629 0.249878 0.496094
0.704102 0.249756 0.477051
0.787598 0.249634 0.464600
0.893555 0.249634 0.463867
0.000000 0.368164 0.490967
0.124329 0.383545 0.512207
0.249146 0.390381 0.530762
0.374268 0.374512 0.531738
0.531738 0.374512 0.531738
0.639648 0.374512 0.506836
0.724121 0.374512 0.490723
0.805176 0.374512 0.481689
0.916016 0.374512 0.482422
0.000000 0.475342 0.475098
0.124329 0.499023 0.498047
0.249146 0.518066 0.517578
0.374023 0.532715 0.531738
0.499512 0.499512 0.499512
0.646484 0.499512 0.499268
0.736816 0.499268 0.498779
0.820801 0.499268 0.499023
0.945801 0.499023 0.498779
0.000000 0.569336 0.455078
0.124023 0.595215 0.477295
0.249268 0.620605 0.496338
0.374023 0.639648 0.506836
0.498779 0.646484 0.498535
0.643066 0.643066 0.536621
0.720215 0.630859 0.540527
0.805176 0.616211 0.521973
0.909180 0.615234 0.517578
0.000000 0.657227 0.437500
0.124146 0.681152 0.458252
0.249146 0.704102 0.476562
0.373779 0.724609 0.490479
0.499023 0.736816 0.499268
0.641113 0.730957 0.551270
0.730469 0.730957 0.560059
0.801758 0.723145 0.564453
0.880371 0.726562 0.571777
0.000000 0.748535 0.427246
0.123901 0.768066 0.445801
0.248901 0.787598 0.464111
0.373779 0.805176 0.481689
0.499023 0.820801 0.499023
0.625000 0.814453 0.530762
0.731445 0.811035 0.573242
0.812500 0.812988 0.581543
0.901855 0.825195 0.590820
0.000000 0.856445 0.427734
0.124084 0.875000 0.445801
0.249023 0.894043 0.464111
0.374023 0.916504 0.482422
0.499023 0.946777 0.499023
0.624512 0.918945 0.526367
0.744629 0.898926 0.590332
0.833984 0.911621 0.600586
0.935059 0.936035 0.613281
0.000000 0.000010 0.555176
0.113403 0.000122 0.569336
0.230713 0.000192 0.578125
0.346924 0.000001 0.578613
0.456055 0.000000 0.569336
0.555664 0.000000 0.555664
0.650879 0.000000 0.541504
0.747559 0.000000 0.532715
0.858398 0.000000 0.535645
0.000000 0.114014 0.569824
0.124756 0.124878 0.581055
0.242432 0.124817 0.595703
0.363281 0.124817 0.601074
0.478027 0.124756 0.595215
0.580566 0.124695 0.580566
0.673828 0.124695 0.563477
0.767090 0.124695 0.552246
0.875000 0.124695 0.552246
0.000000 0.231323 0.578125
0.124512 0.242432 0.595215
0.249390 0.249634 0.605469
0.372559 0.249756 0.620605
0.496582 0.249756 0.620117
0.605957 0.249756 0.605957
0.698730 0.249756 0.586426
0.787598 0.249390 0.572266
0.892090 0.249878 0.570801
0.000000 0.346924 0.578125
0.124329 0.363037 0.601074
0.249268 0.373291 0.619629
0.374512 0.374512 0.628418
0.506348 0.374512 0.639648
0.628906 0.374512 0.628418
0.724121 0.374512 0.607422
0.808594 0.374268 0.591309
0.910156 0.374268 0.587891
0.000000 0.456055 0.568848
0.123901 0.477783 0.595215
0.249390 0.496826 0.619629
0.374023 0.506836 0.638672
0.498779 0.499023 0.645996
0.646484 0.499512 0.646484
0.747070 0.499268 0.622559
0.828125 0.499268 0.607910
0.931152 0.499512 0.606934
0.000000 0.555176 0.554688
0.124146 0.581055 0.580078
0.249023 0.605957 0.605469
0.374268 0.629395 0.628906
0.499023 0.646484 0.645996
0.624512 0.624512 0.624512
0.757812 0.624023 0.624023
0.842773 0.624023 0.623535
0.959473 0.624512 0.624023
0.000000 0.650391 0.541504
0.124146 0.673828 0.563477
0.248901 0.698730 0.585938
0.374268 0.725098 0.607422
0.499023 0.747559 0.623047
0.623535 0.758301 0.624023
0.754395 0.754883 0.657715
0.826172 0.744629 0.662598
0.923828 0.739258 0.646973
0.000000 0.747070 0.533203
0.124268 0.767090 0.552734
0.249023 0.787598 0.571777
0.374023 0.808594 0.590820
0.499023 0.828613 0.608398
0.623535 0.842773 0.623535
0.754395 0.836914 0.672363
0.837402 0.837402 0.679688
0.919922 0.842773 0.687988
0.000000 0.857910 0.535645
0.124207 0.875000 0.552734
0.249146 0.892090 0.570312
0.374023 0.910645 0.587891
0.499023 0.931152 0.606445
0.624023 0.959473 0.624023
0.748047 0.933105 0.655273
0.852051 0.929688 0.697266
0.951660 0.951660 0.709961
0.000000 0.000000 0.643066
0.108276 0.000000 0.650879
0.218750 0.000084 0.657227
0.329834 0.000021 0.660645
0.438232 0.000000 0.657715
0.541504 0.000014 0.650879
0.643066 0.000000 0.642578
0.745605 0.000000 0.639648
0.863770 0.000000 0.647461
0.000000 0.108521 0.650391
0.124695 0.124878 0.664062
0.234375 0.124878 0.673828
0.346680 0.124878 0.681641
0.458252 0.124817 0.681152
0.563477 0.124817 0.673828
0.663574 0.124634 0.664062
0.764648 0.124756 0.657715
0.878418 0.124756 0.663086
0.000000 0.219238 0.657715
0.124634 0.234619 0.674316
0.249268 0.249756 0.686523
0.361328 0.249634 0.698730
0.476562 0.249634 0.704590
0.586426 0.249512 0.699219
0.686523 0.249634 0.686523
0.784180 0.249634 0.677734
0.894043 0.249390 0.678711
0.000000 0.330078 0.660156
0.124573 0.347412 0.681152
0.249146 0.361816 0.698730
0.374023 0.374268 0.710938
0.490723 0.374756 0.725098
0.606934 0.374268 0.724609
0.710938 0.374512 0.710938
0.805176 0.374512 0.697266
0.910645 0.374268 0.695801
0.000000 0.438477 0.656738
0.124512 0.458740 0.680664
0.249146 0.477051 0.703613
0.374023 0.491211 0.723633
0.499268 0.499268 0.736816
0.623047 0.499023 0.747070
0.736328 0.499268 0.735840
0.827637 0.499268 0.717773
0.927246 0.499268 0.712891
0.000000 0.541504 0.650391
0.124268 0.564453 0.673340
0.248901 0.586426 0.698242
0.373779 0.607422 0.723633
0.499023 0.623047 0.747559
0.623535 0.624023 0.757324
0.757812 0.624512 0.757812
0.851074 0.624023 0.737305
0.946289 0.624023 0.731445
0.000000 0.642578 0.642090
0.123962 0.664062 0.663574
0.249146 0.687012 0.687012
0.374268 0.711914 0.710938
0.498779 0.736816 0.736816
0.623535 0.758301 0.758301
0.749512 0.749512 0.749512
0.867188 0.749023 0.749023
0.972656 0.749023 0.749023
0.000000 0.745605 0.638672
0.124207 0.764160 0.657715
0.249390 0.784180 0.677246
0.374023 0.805176 0.696777
0.498779 0.828125 0.717773
0.624023 0.852051 0.737793
0.749023 0.867676 0.748535
0.864746 0.864746 0.779297
0.939453 0.862305 0.785156
0.000000 0.863770 0.646973
0.124207 0.878906 0.663086
0.249268 0.894043 0.679199
0.374023 0.910645 0.695312
0.499023 0.927734 0.712891
0.623535 0.946289 0.730957
0.749023 0.972656 0.748535
0.871582 0.949219 0.794434
0.967285 0.967773 0.806152
0.000000 0.000054 0.750977
0.106506 0.000000 0.746094
0.212646 0.000039 0.747559
0.320801 0.000155 0.748535
0.427490 0.000005 0.749023
0.533203 0.000000 0.747559
0.639160 0.000023 0.746094
0.750488 0.000115 0.750488
0.875000 0.000005 0.765625
0.000000 0.106567 0.745605
0.124512 0.124878 0.766113
0.231079 0.124817 0.763672
0.338379 0.124939 0.767578
0.446289 0.124756 0.768066
0.552734 0.124695 0.767090
0.657715 0.124878 0.764160
0.766113 0.124939 0.766113
0.888184 0.124878 0.778809
0.000000 0.213501 0.747559
0.124634 0.231323 0.764160
0.249268 0.249634 0.782227
0.355957 0.249756 0.783691
0.464111 0.249756 0.787598
0.571777 0.249756 0.787598
0.677734 0.249756 0.784180
0.782715 0.249756 0.782227
0.902832 0.249756 0.793457
0.000000 0.320801 0.748047
0.124451 0.339111 0.767090
0.249268 0.356445 0.784180
0.374268 0.374512 0.800293
0.481689 0.374512 0.804688
0.590820 0.374756 0.809082
0.697266 0.374268 0.805176
0.800293 0.374512 0.800293
0.916016 0.374268 0.807617
0.000000 0.427979 0.748535
0.124084 0.446289 0.767578
0.249146 0.464844 0.787598
0.374023 0.481934 0.804688
0.499023 0.499023 0.820801
0.607910 0.499512 0.827637
0.718262 0.499268 0.828125
0.820801 0.499268 0.819824
0.931152 0.499512 0.822754
0.000000 0.533691 0.747070
0.124146 0.553223 0.767090
0.249146 0.572754 0.787598
0.374023 0.591309 0.808105
0.498779 0.608398 0.827637
0.623535 0.624023 0.842773
0.737793 0.624023 0.851562
0.842773 0.624023 0.842285
0.945801 0.624512 0.838379
0.000000 0.639648 0.745605
0.124268 0.657715 0.763672
0.249146 0.677246 0.783691
0.374268 0.697266 0.804688
0.498779 0.718262 0.827148
0.624023 0.737793 0.851074
0.749023 0.749023 0.867188
0.867188 0.749512 0.867188
0.963379 0.749512 0.855469
0.000000 0.750488 0.750000
0.124084 0.766113 0.766113
0.249146 0.782715 0.782715
0.374268 0.800781 0.800781
0.498535 0.820801 0.820312
0.623535 0.842773 0.842285
0.749023 0.867676 0.867188
0.874512 0.874512 0.874512
0.985840 0.874023 0.874023
0.000000 0.875000 0.765137
0.124023 0.888672 0.778320
0.249268 0.903320 0.793457
0.373779 0.916504 0.807617
0.498779 0.931152 0.822754
0.623535 0.946289 0.838379
0.748535 0.963379 0.855469
0.874023 0.985840 0.873535
0.982422 0.983398 0.902344
0.000000 0.000003 0.894531
0.108948 0.000044 0.875488
0.215698 0.000040 0.863770
0.321045 0.000000 0.858398
0.427979 0.000000 0.856934
0.535645 0.000002 0.857910
0.647949 0.000000 0.864258
0.765625 0.000071 0.875000
0.894043 0.000000 0.894043
0.000000 0.109314 0.875488
0.124634 0.124939 0.907715
0.233154 0.124939 0.888672
0.339844 0.124756 0.878418
0.445801 0.125000 0.875488
0.552246 0.124878 0.875000
0.663574 0.124634 0.878906
0.778809 0.124817 0.888672
0.907715 0.124634 0.907227
0.000000 0.216064 0.864258
0.124573 0.234009 0.888672
0.249512 0.249634 0.920410
0.358398 0.249756 0.902832
0.464355 0.249878 0.893555
0.569824 0.249634 0.892090
0.679199 0.249756 0.894043
0.793457 0.249634 0.903320
0.919922 0.249512 0.920410
0.000000 0.321777 0.857910
0.124207 0.340088 0.878906
0.249268 0.358398 0.902344
0.374268 0.374512 0.934082
0.482178 0.374268 0.916504
0.587891 0.374512 0.910156
0.695312 0.374268 0.910156
0.807617 0.374512 0.916504
0.933594 0.374268 0.933105
0.000000 0.428467 0.855957
0.124084 0.446045 0.874512
0.248901 0.464355 0.893066
0.374023 0.482666 0.916016
0.499268 0.499268 0.946289
0.606445 0.499023 0.930176
0.712891 0.499268 0.927246
0.823242 0.499512 0.930664
0.945801 0.499023 0.945801
0.000000 0.536133 0.857910
0.124207 0.552734 0.874512
0.249023 0.570312 0.892090
0.374268 0.588379 0.909668
0.498779 0.606934 0.930664
0.623535 0.624023 0.958984
0.730957 0.624023 0.945801
0.838867 0.624512 0.945801
0.959473 0.624023 0.958496
0.000000 0.647461 0.863770
0.124268 0.663086 0.878906
0.249023 0.679199 0.894043
0.373779 0.695801 0.910156
0.499023 0.713379 0.926758
0.623535 0.731445 0.945312
0.749023 0.749023 0.972656
0.855957 0.749512 0.962891
0.972168 0.749512 0.972168
0.000000 0.765625 0.874512
0.123901 0.779297 0.887695
0.249390 0.793457 0.902832
0.374023 0.808594 0.916016
0.499023 0.823242 0.930176
0.624023 0.838867 0.946289
0.749023 0.855957 0.963379
0.874023 0.874023 0.985840
0.985840 0.874512 0.985840
0.000000 0.894043 0.893555
0.123962 0.907227 0.906250
0.249023 0.920410 0.920410
0.374023 0.933594 0.933594
0.499268 0.946289 0.946289
0.623535 0.959473 0.958984
0.748535 0.972656 0.972168
0.874023 0.986328 0.985352
1.000000 1.000000 1.000000
