RED_IPP2_Creative/RED_GRIME.cube
# RED Digital Cinema Output Transform LUT for IPP2
# Creatives by Eric Weidt
# BMD cube from Truelight v4.0
# Settings used in creation of this LUT are:
# Development Color Space = USER SELECTABLE
# Output Gamma Curve = USER SELECTABLE
# Output Tonemap = USER SELECTABLE
# Highlight Rolloff = USER SELECTABLE
LUT_3D_SIZE 33
0.000000 0.000300 0.000101
0.032440 0.000346 0.000649
0.065430 0.000629 0.000640
0.097534 0.000786 0.000407
0.129272 0.000981 0.000799
0.164917 0.000409 0.002254
0.202148 0.000000 0.000000
0.222168 0.000000 0.000000
0.260742 0.000000 0.000000
0.310547 0.000000 0.000000
0.349121 0.000000 0.000000
0.387939 0.072083 0.080750
0.423584 0.156128 0.144653
0.457764 0.219604 0.196533
0.489258 0.266602 0.236084
0.518555 0.302002 0.267334
0.547852 0.333496 0.296143
0.576660 0.360840 0.322021
0.604980 0.385010 0.345703
0.631836 0.402588 0.363770
0.657715 0.415771 0.376953
0.682617 0.425293 0.386475
0.707031 0.428223 0.390137
0.729980 0.418213 0.380127
0.750977 0.372559 0.332764
0.773926 0.020981 0.000000
0.807617 0.019028 0.015617
0.836426 0.024536 0.002693
0.868164 0.030884 0.007687
0.884766 0.107910 0.000000
0.926758 0.015717 0.000000
0.959961 0.027206 0.000000
0.999512 0.000000 0.000000
0.000000 0.047058 0.001102
0.032501 0.031769 0.006905
0.061127 0.034027 0.008446
0.094177 0.034149 0.005680
0.125854 0.034393 0.004562
0.157227 0.034485 0.004070
0.183838 0.021851 0.000000
0.201416 0.008293 0.000000
0.225464 0.000000 0.000000
0.261230 0.000000 0.000000
0.301514 0.000000 0.000000
0.342041 0.000000 0.000000
0.384277 0.076904 0.064514
0.423096 0.163940 0.141602
0.459717 0.227173 0.197876
0.493408 0.274170 0.239624
0.524414 0.310791 0.273193
0.555664 0.342529 0.302979
0.586426 0.371094 0.330811
0.615234 0.393555 0.353271
0.643066 0.409424 0.369629
0.669922 0.421631 0.382080
0.695801 0.428467 0.389160
0.720703 0.424805 0.385986
0.743164 0.396484 0.356934
0.763184 0.228027 0.182251
0.795898 0.020309 0.000000
0.832031 0.000000 0.000000
0.862793 0.030106 0.005993
0.877441 0.148560 0.000000
0.919434 0.147705 0.046570
0.950684 0.055511 0.000000
0.999512 0.000000 0.000000
0.000000 0.094055 0.002253
0.042389 0.078674 0.012321
0.065308 0.063782 0.013512
0.093079 0.065918 0.015762
0.120667 0.067993 0.017075
0.149048 0.061737 0.002350
0.168701 0.050476 0.000000
0.185913 0.048065 0.000000
0.210571 0.038727 0.000000
0.244263 0.020905 0.000000
0.282715 0.004803 0.000000
0.325439 0.021271 0.000000
0.371826 0.092529 0.053650
0.414307 0.166992 0.134033
0.452881 0.227539 0.192505
0.488037 0.273682 0.235840
0.520020 0.309082 0.269531
0.551758 0.341797 0.300781
0.583496 0.369385 0.328369
0.613281 0.393555 0.352295
0.640625 0.409424 0.368652
0.667480 0.421875 0.381592
0.694336 0.428711 0.389160
0.719727 0.425537 0.386719
0.743164 0.397949 0.357910
0.761719 0.242798 0.190430
0.786621 0.084595 0.000000
0.821777 0.084106 0.003832
0.858887 0.025024 0.000000
0.877441 0.148560 0.000000
0.917480 0.098206 0.000000
0.952637 0.122803 0.017563
0.999512 0.000000 0.000000
0.000000 0.127930 0.000000
0.016785 0.115295 0.000000
0.065125 0.101746 0.001900
0.094482 0.091980 0.012848
0.117310 0.087341 0.000878
0.139893 0.080078 0.000000
0.158691 0.077698 0.000000
0.178955 0.075928 0.000000
0.203003 0.070435 0.000000
0.234497 0.064270 0.000000
0.268066 0.062195 0.000000
0.306885 0.075867 0.000000
0.357422 0.118896 0.048035
0.403809 0.176025 0.127075
0.444824 0.230591 0.187378
0.481934 0.274902 0.232300
0.514648 0.309570 0.266357
0.547363 0.341309 0.298096
0.578613 0.368896 0.325928
0.609863 0.392822 0.350342
0.638184 0.409424 0.367432
0.666016 0.422607 0.381348
0.692871 0.429932 0.389404
0.718262 0.427734 0.387451
0.741699 0.401611 0.360840
0.759766 0.264160 0.207764
0.781250 0.106628 0.000000
0.815430 0.121216 0.000739
0.844727 0.155029 0.009315
0.877441 0.148560 0.000000
0.917480 0.098206 0.000000
0.952637 0.122803 0.017563
0.999512 0.000000 0.000000
0.000000 0.160156 0.000000
0.000000 0.148071 0.000000
0.038177 0.129272 0.000000
0.077271 0.117981 0.000000
0.109192 0.105164 0.000000
0.137207 0.102356 0.000000
0.158936 0.101501 0.000000
0.181763 0.100159 0.000000
0.206299 0.099487 0.000000
0.232544 0.100464 0.000000
0.263672 0.104065 0.000000
0.305176 0.120789 0.000000
0.353760 0.154297 0.065125
0.398193 0.197144 0.132812
0.437744 0.240356 0.186401
0.474121 0.279053 0.229126
0.508789 0.311768 0.263672
0.542480 0.342529 0.295654
0.574707 0.369385 0.323975
0.605957 0.393311 0.348633
0.634766 0.409912 0.366211
0.663574 0.423096 0.380371
0.690918 0.431396 0.389648
0.716797 0.429688 0.388184
0.740234 0.405029 0.362305
0.759277 0.288086 0.229858
0.779297 0.095398 0.000000
0.812500 0.140137 0.011559
0.847656 0.146240 0.022629
0.872559 0.147949 0.000000
0.911133 0.146240 0.000000
0.952637 0.122803 0.017563
0.999512 0.000000 0.000000
0.000000 0.198608 0.000000
0.005714 0.186157 0.000000
0.058075 0.167358 0.000000
0.086426 0.153076 0.000000
0.114136 0.139038 0.000000
0.138916 0.125000 0.000000
0.161987 0.125854 0.000000
0.186401 0.127808 0.000000
0.212646 0.130127 0.000000
0.239868 0.134155 0.000000
0.270020 0.142944 0.000000
0.306641 0.163208 0.029388
0.354980 0.190674 0.092407
0.398193 0.223633 0.147949
0.437988 0.258789 0.195801
0.473389 0.291748 0.234497
0.506836 0.320312 0.266357
0.538574 0.346680 0.295410
0.570312 0.371826 0.322510
0.601562 0.395020 0.347168
0.631348 0.411377 0.365723
0.660645 0.424316 0.380127
0.687988 0.432617 0.389160
0.714844 0.431396 0.388916
0.739258 0.409912 0.365723
0.757812 0.304688 0.243774
0.775391 0.166504 0.020798
0.808594 0.162476 0.008705
0.835938 0.167480 0.000000
0.873535 0.207520 0.033447
0.911133 0.146240 0.000000
0.935547 0.225830 0.010429
0.955078 0.187866 0.000000
0.000000 0.256592 0.000000
0.044922 0.245117 0.000000
0.092468 0.226929 0.000000
0.111694 0.203857 0.000000
0.132690 0.186401 0.000000
0.151001 0.170044 0.000000
0.167969 0.155518 0.000000
0.193481 0.158936 0.000000
0.220459 0.163452 0.000000
0.249023 0.170044 0.000000
0.281250 0.182861 0.009880
0.315918 0.202271 0.070984
0.357666 0.225708 0.122864
0.399170 0.251953 0.167358
0.437744 0.279541 0.207153
0.473633 0.307129 0.242188
0.506348 0.331299 0.270752
0.538086 0.355469 0.298828
0.569824 0.378174 0.324951
0.601074 0.398926 0.348145
0.629883 0.415039 0.365967
0.657715 0.426758 0.379639
0.685547 0.434814 0.389160
0.711426 0.435303 0.389893
0.736328 0.415771 0.369141
0.755859 0.325928 0.260986
0.764160 0.188721 0.000000
0.798828 0.188232 0.000000
0.837402 0.205322 0.026855
0.860840 0.187256 0.000000
0.897461 0.177734 0.000000
0.938477 0.243164 0.050262
0.936035 0.186890 0.000000
0.007267 0.327881 0.113220
0.049896 0.324219 0.107117
0.098511 0.320312 0.103088
0.131348 0.287109 0.069458
0.158081 0.253906 0.041992
0.171875 0.231445 0.002455
0.186646 0.211304 0.000000
0.203003 0.193848 0.000000
0.231934 0.200928 0.000000
0.262207 0.210571 0.014870
0.294678 0.223877 0.062103
0.328125 0.240967 0.112549
0.362061 0.260254 0.156860
0.401123 0.281006 0.190308
0.438477 0.302979 0.222656
0.473145 0.324463 0.251465
0.505859 0.345215 0.277832
0.537109 0.365479 0.303223
0.569336 0.386719 0.328125
0.600098 0.405273 0.350586
0.628906 0.419678 0.367188
0.657227 0.430664 0.380615
0.684570 0.438232 0.389648
0.710938 0.438477 0.390625
0.735352 0.420898 0.371094
0.754395 0.340820 0.270996
0.760254 0.228027 0.014664
0.789551 0.224854 0.000000
0.826172 0.240967 0.005527
0.854492 0.241943 0.000000
0.892090 0.220581 0.000000
0.920410 0.231201 0.000000
0.936035 0.186890 0.000000
0.048584 0.390381 0.203979
0.101074 0.387939 0.201294
0.151733 0.387695 0.201660
0.167358 0.368164 0.177246
0.185791 0.340576 0.151245
0.208008 0.310059 0.134521
0.222656 0.285156 0.110840
0.235107 0.263916 0.079285
0.249634 0.245117 0.053497
0.279297 0.254150 0.085510
0.309814 0.265137 0.118530
0.341064 0.278564 0.151978
0.372559 0.293701 0.185425
0.404053 0.311035 0.217407
0.439453 0.327881 0.241089
0.472900 0.344727 0.264404
0.505371 0.361084 0.286621
0.537109 0.378662 0.309814
0.569336 0.397217 0.332764
0.599609 0.414062 0.354004
0.628418 0.426270 0.369141
0.656738 0.436279 0.382080
0.684082 0.443359 0.390869
0.709961 0.442627 0.390625
0.734375 0.424805 0.370361
0.752930 0.350098 0.271484
0.755371 0.263184 0.026947
0.787109 0.265625 0.013283
0.818848 0.262695 0.000000
0.855957 0.267090 0.006107
0.898926 0.267090 0.052979
0.918945 0.262451 0.000000
0.916016 0.184692 0.000000
0.155029 0.441650 0.261719
0.178101 0.440674 0.260742
0.206055 0.440674 0.261230
0.220581 0.429443 0.250488
0.227905 0.409668 0.229858
0.242065 0.385498 0.211426
0.259521 0.359131 0.198364
0.273438 0.334717 0.186035
0.284912 0.315430 0.165405
0.298096 0.297607 0.148804
0.326660 0.305908 0.169312
0.355225 0.315918 0.191406
0.383789 0.326904 0.214722
0.413086 0.340088 0.239136
0.441406 0.353516 0.262451
0.472900 0.366211 0.279785
0.504395 0.379639 0.298096
0.536133 0.393799 0.317871
0.568359 0.408936 0.338379
0.598633 0.423340 0.357178
0.627441 0.434326 0.371826
0.655273 0.443115 0.383789
0.683105 0.448975 0.392090
0.708984 0.448242 0.391602
0.733398 0.430420 0.370850
0.750000 0.361084 0.270264
0.747559 0.293945 0.019745
0.784180 0.294922 0.027985
0.817871 0.291748 0.016571
0.848633 0.287842 0.000000
0.880371 0.296387 0.000000
0.933105 0.309326 0.092468
0.951172 0.300293 0.000000
0.221191 0.486816 0.307373
0.233154 0.486572 0.307129
0.249878 0.487305 0.308105
0.262939 0.481445 0.302979
0.265381 0.463623 0.285889
0.273193 0.445801 0.268555
0.287842 0.424316 0.255859
0.304199 0.401367 0.246948
0.319580 0.379150 0.241699
0.330322 0.361328 0.225952
0.343018 0.345459 0.213501
0.369385 0.352051 0.228027
0.395508 0.360107 0.244019
0.422119 0.368896 0.261475
0.448486 0.378662 0.279297
0.474609 0.389404 0.297852
0.504395 0.400146 0.312988
0.535645 0.411377 0.328613
0.567871 0.424316 0.346436
0.597656 0.435547 0.363037
0.625977 0.444824 0.375977
0.654297 0.451660 0.386230
0.681641 0.456543 0.393311
0.708496 0.454834 0.392334
0.732422 0.437988 0.370850
0.747559 0.373779 0.267090
0.745605 0.321045 0.038055
0.784180 0.327148 0.062012
0.809082 0.326172 0.010925
0.848633 0.329346 0.035828
0.883301 0.326660 0.030014
0.909180 0.334473 0.000000
0.934082 0.331787 0.000000
0.267090 0.528320 0.346436
0.275146 0.528809 0.347412
0.285400 0.529297 0.348145
0.297607 0.528320 0.347412
0.298340 0.512695 0.332764
0.302734 0.496338 0.318115
0.310303 0.478760 0.302734
0.324951 0.458252 0.291260
0.341309 0.437500 0.284180
0.357666 0.416748 0.282227
0.369873 0.401367 0.270996
0.382812 0.386719 0.261230
0.406982 0.391846 0.271729
0.430908 0.397705 0.283936
0.455566 0.404785 0.297363
0.480469 0.412598 0.312744
0.506348 0.422119 0.330078
0.535156 0.431641 0.343262
0.565918 0.441162 0.356689
0.596191 0.449951 0.369629
0.624512 0.456787 0.380127
0.653320 0.462891 0.389893
0.680664 0.466309 0.395752
0.706543 0.463867 0.393799
0.730957 0.447021 0.371582
0.744141 0.388916 0.264160
0.745605 0.353516 0.074768
0.781250 0.354248 0.077026
0.811523 0.354980 0.053986
0.835449 0.359375 0.006168
0.867188 0.351807 0.000000
0.909668 0.360596 0.018570
0.917480 0.355469 0.000000
0.297607 0.566406 0.377686
0.302490 0.566895 0.377930
0.309570 0.567383 0.378418
0.319092 0.567871 0.378662
0.323975 0.557129 0.371582
0.327881 0.541992 0.359863
0.333496 0.526367 0.346436
0.342529 0.510254 0.333008
0.357178 0.490967 0.322754
0.374023 0.470947 0.316650
0.391357 0.450928 0.317383
0.403564 0.436279 0.306396
0.416748 0.422363 0.297852
0.439453 0.426270 0.306885
0.463135 0.431641 0.317871
0.487061 0.437500 0.329834
0.511230 0.444580 0.343262
0.536133 0.452393 0.358398
0.564941 0.460693 0.370361
0.594238 0.466553 0.378662
0.622559 0.471680 0.386719
0.650879 0.475830 0.394531
0.678711 0.478027 0.398926
0.704590 0.474609 0.395508
0.728516 0.457764 0.371094
0.739746 0.407471 0.259521
0.736328 0.384033 0.070740
0.766113 0.384277 0.046387
0.801758 0.384277 0.043549
0.831055 0.385742 0.018738
0.878418 0.383545 0.066040
0.906738 0.384277 0.035706
0.929688 0.388672 0.000000
0.313477 0.600098 0.397949
0.317383 0.601074 0.398438
0.322754 0.601562 0.398926
0.330078 0.602539 0.399414
0.336670 0.595703 0.396240
0.341797 0.582520 0.388184
0.349365 0.568848 0.379883
0.358887 0.554688 0.370117
0.370117 0.539551 0.359619
0.385986 0.521484 0.351074
0.403809 0.502441 0.346191
0.421875 0.482666 0.347900
0.434326 0.468750 0.338379
0.448242 0.455078 0.330566
0.470703 0.458984 0.338623
0.493408 0.463379 0.348145
0.517090 0.468506 0.359131
0.540527 0.473877 0.370605
0.565430 0.480713 0.383789
0.591797 0.485107 0.390869
0.620605 0.488525 0.395508
0.648438 0.491455 0.400635
0.676270 0.492188 0.403320
0.702637 0.487793 0.397949
0.725586 0.471924 0.371338
0.733398 0.427734 0.250732
0.732422 0.413330 0.092224
0.764160 0.414062 0.074524
0.806152 0.416016 0.099731
0.837891 0.419189 0.087036
0.874023 0.415771 0.081665
0.886719 0.419922 0.000000
0.902344 0.409424 0.000000
0.317871 0.629395 0.408447
0.320068 0.633301 0.408691
0.324463 0.633789 0.408936
0.330322 0.634277 0.408936
0.338867 0.631836 0.408691
0.347168 0.620117 0.406250
0.356445 0.606934 0.401367
0.365723 0.593750 0.394775
0.377930 0.580566 0.387451
0.392578 0.566406 0.379639
0.410889 0.549805 0.374756
0.430664 0.532227 0.371826
0.450195 0.512695 0.375488
0.463379 0.499512 0.367432
0.478027 0.486572 0.360107
0.499756 0.489014 0.367188
0.521973 0.492676 0.375732
0.545410 0.496826 0.384766
0.568359 0.500488 0.393555
0.592285 0.504395 0.402344
0.617676 0.507324 0.407715
0.645996 0.508789 0.409424
0.673340 0.507812 0.408691
0.698730 0.502930 0.400635
0.721191 0.488037 0.371826
0.724609 0.449951 0.235107
0.735840 0.439697 0.073242
0.764648 0.440674 0.060638
0.795898 0.446289 0.097534
0.825195 0.445312 0.067749
0.876465 0.446533 0.127075
0.905762 0.448730 0.104431
0.906738 0.436035 0.000000
0.309814 0.647949 0.405029
0.306152 0.653320 0.400146
0.298096 0.661133 0.388916
0.303223 0.662109 0.386719
0.312012 0.662598 0.385742
0.334473 0.652832 0.401123
0.351318 0.642090 0.407227
0.365234 0.630371 0.407715
0.379639 0.618164 0.405518
0.394531 0.604980 0.400635
0.411133 0.591309 0.394775
0.431885 0.574707 0.392334
0.452881 0.557617 0.391357
0.474854 0.540039 0.397461
0.489990 0.526855 0.392090
0.505859 0.515137 0.386719
0.527344 0.517090 0.392090
0.548828 0.519531 0.397705
0.571777 0.521973 0.404297
0.594727 0.523926 0.411133
0.617676 0.526855 0.418213
0.642090 0.527832 0.420898
0.669922 0.526367 0.416504
0.694824 0.520508 0.405273
0.715820 0.506836 0.373291
0.713379 0.471924 0.184937
0.740723 0.468750 0.102295
0.769043 0.468750 0.063599
0.798340 0.474854 0.121216
0.828125 0.476807 0.114258
0.855957 0.473389 0.025635
0.900879 0.477295 0.115112
0.942383 0.478271 0.142822
0.276123 0.666016 0.375732
0.273438 0.667480 0.369385
0.250244 0.672852 0.337891
0.200439 0.678711 0.242798
0.210327 0.658691 0.000000
0.250977 0.678223 0.260010
0.308838 0.670410 0.353516
0.342773 0.661621 0.386719
0.368652 0.649902 0.403076
0.388672 0.637695 0.407715
0.407715 0.625000 0.406738
0.428223 0.610352 0.405273
0.450439 0.594727 0.404297
0.473877 0.578613 0.406738
0.496826 0.562012 0.414795
0.513184 0.551270 0.410400
0.530273 0.541016 0.406250
0.552246 0.541992 0.410645
0.574219 0.543457 0.415039
0.597168 0.545410 0.420166
0.619629 0.546875 0.425293
0.642090 0.547363 0.428223
0.664551 0.545898 0.427246
0.689453 0.540039 0.411865
0.708984 0.526367 0.373535
0.715332 0.491943 0.071655
0.744629 0.496826 0.117615
0.773438 0.497314 0.082825
0.802734 0.500488 0.108521
0.831055 0.499268 0.039734
0.865234 0.505859 0.151855
0.890137 0.506836 0.086060
0.916016 0.496338 0.000000
0.122437 0.679688 0.206543
0.161865 0.679199 0.239136
0.099548 0.669922 0.000000
0.156616 0.675293 0.000000
0.202515 0.687500 0.015488
0.241211 0.680664 0.014336
0.267822 0.663574 0.051208
0.290283 0.675293 0.269531
0.337646 0.669434 0.356201
0.370605 0.660645 0.387695
0.396240 0.649902 0.400879
0.419434 0.639160 0.406982
0.444336 0.625977 0.410889
0.469238 0.611328 0.413818
0.494141 0.597656 0.419189
0.517578 0.583008 0.428467
0.535645 0.574219 0.425537
0.554199 0.564941 0.423096
0.576660 0.565918 0.426025
0.598633 0.566895 0.429443
0.621094 0.567383 0.431885
0.643066 0.566895 0.432373
0.665039 0.564941 0.428711
0.685547 0.559082 0.413818
0.702637 0.545898 0.365967
0.719238 0.520020 0.077881
0.749023 0.524902 0.129395
0.777344 0.524902 0.088196
0.807129 0.529297 0.126831
0.835938 0.529785 0.070251
0.865234 0.533691 0.125610
0.895020 0.535156 0.092590
0.923340 0.537109 0.110229
0.016327 0.707520 0.033966
0.049438 0.697266 0.017593
0.098572 0.698242 0.006001
0.145386 0.701660 0.001142
0.194336 0.707031 0.002850
0.238892 0.714355 0.044281
0.268799 0.691406 0.041992
0.293457 0.673340 0.061432
0.324707 0.648926 0.051483
0.334717 0.671387 0.278320
0.370117 0.668457 0.350586
0.402100 0.660645 0.382568
0.431152 0.650879 0.399170
0.459229 0.640625 0.409668
0.486084 0.627930 0.417725
0.513184 0.615723 0.427979
0.537598 0.603516 0.437988
0.557129 0.595703 0.436523
0.577148 0.588379 0.435059
0.599609 0.588379 0.436035
0.622070 0.588379 0.436035
0.643555 0.586914 0.433838
0.665039 0.583984 0.426025
0.685059 0.577148 0.403320
0.703125 0.562988 0.326660
0.724121 0.549805 0.118896
0.753418 0.551270 0.105469
0.781738 0.553223 0.094910
0.811035 0.554688 0.080872
0.840332 0.556641 0.064026
0.870117 0.561523 0.133179
0.899414 0.564453 0.140381
0.926758 0.561035 0.003544
0.000000 0.728516 0.000000
0.023621 0.724609 0.021042
0.093262 0.721680 0.000000
0.132690 0.727051 0.013809
0.188354 0.733398 0.040314
0.236816 0.739746 0.050110
0.271484 0.716797 0.017395
0.299072 0.696777 0.022980
0.323975 0.680664 0.048248
0.348389 0.667480 0.086487
0.374756 0.648926 0.086548
0.384521 0.659668 0.225830
0.411377 0.664551 0.331543
0.442383 0.659180 0.370850
0.472656 0.651367 0.395264
0.502441 0.641602 0.412842
0.531250 0.630371 0.429688
0.555176 0.622559 0.437744
0.576660 0.615723 0.438721
0.598145 0.608887 0.438232
0.620605 0.608398 0.435303
0.642578 0.606445 0.428711
0.663574 0.602051 0.413574
0.683105 0.594727 0.373779
0.699707 0.574707 0.097229
0.728516 0.576660 0.093262
0.757324 0.579102 0.103943
0.786133 0.582520 0.125732
0.815430 0.583496 0.103210
0.845215 0.588867 0.159424
0.873535 0.587402 0.088074
0.903320 0.590820 0.126953
0.929199 0.583008 0.000000
0.000000 0.747070 0.000000
0.004993 0.741211 0.000000
0.089783 0.743164 0.000000
0.140137 0.750977 0.029617
0.182739 0.753906 0.024246
0.222168 0.764160 0.068420
0.267090 0.750488 0.051453
0.300537 0.723145 0.006649
0.318848 0.718750 0.079041
0.351318 0.696289 0.067383
0.378418 0.677734 0.049255
0.399414 0.670410 0.114929
0.418701 0.658691 0.075500
0.439697 0.651367 0.122742
0.464111 0.648438 0.246582
0.489502 0.652832 0.342529
0.519043 0.647461 0.385010
0.545898 0.642578 0.406494
0.569824 0.638184 0.416016
0.593750 0.631836 0.420898
0.615723 0.625977 0.420898
0.638184 0.623047 0.405518
0.659180 0.618652 0.372559
0.678223 0.607910 0.244629
0.703613 0.602051 0.084717
0.732910 0.605469 0.103577
0.761230 0.605957 0.065186
0.790527 0.608887 0.084656
0.819336 0.609863 0.053406
0.850098 0.616699 0.171021
0.878418 0.616699 0.120544
0.908203 0.620605 0.149780
0.936523 0.622070 0.131470
0.000000 0.772461 0.006618
0.001106 0.768066 0.000000
0.082092 0.763672 0.000000
0.123901 0.770508 0.000000
0.181519 0.766602 0.000000
0.219482 0.785645 0.071289
0.265137 0.770996 0.005108
0.284668 0.766113 0.083435
0.315674 0.750000 0.089294
0.355713 0.722656 0.044922
0.376709 0.712891 0.086731
0.403564 0.699219 0.100586
0.423828 0.689453 0.092957
0.444336 0.681641 0.103149
0.465088 0.672852 0.093811
0.486572 0.666504 0.126709
0.507812 0.659180 0.128784
0.530273 0.651855 0.119751
0.552246 0.643555 0.098511
0.579590 0.645508 0.258789
0.604980 0.641602 0.300293
0.629395 0.635254 0.296387
0.651855 0.625488 0.071228
0.680176 0.630859 0.135010
0.708008 0.631348 0.097595
0.737305 0.634766 0.124817
0.765625 0.635254 0.088806
0.794434 0.636719 0.066467
0.823730 0.638672 0.064392
0.853027 0.640625 0.073914
0.882812 0.646484 0.149780
0.912109 0.647461 0.107422
0.940918 0.650879 0.139404
0.000000 0.789062 0.000000
0.037109 0.779785 0.000000
0.071716 0.788574 0.000000
0.144775 0.789062 0.000000
0.195679 0.785645 0.000000
0.240845 0.787109 0.000000
0.286865 0.787109 0.000000
0.295166 0.783203 0.017456
0.328369 0.763184 0.007858
0.353516 0.752930 0.043060
0.380127 0.740234 0.066467
0.401855 0.732422 0.107178
0.427246 0.717285 0.052612
0.448730 0.711426 0.091309
0.469727 0.703613 0.095459
0.491455 0.698242 0.127930
0.512695 0.690918 0.125488
0.534668 0.683594 0.096619
0.558594 0.679199 0.130005
0.582031 0.671387 0.099854
0.605957 0.666504 0.105408
0.631348 0.662109 0.130859
0.656250 0.655273 0.089783
0.684082 0.656738 0.078186
0.712891 0.659668 0.099304
0.741699 0.661621 0.097839
0.770020 0.663574 0.091614
0.799805 0.667969 0.148682
0.828613 0.668945 0.110535
0.857422 0.670410 0.099121
0.886719 0.671875 0.081421
0.916504 0.675781 0.104431
0.943848 0.672852 0.000000
0.000000 0.809570 0.000000
0.082153 0.800781 0.000000
0.113159 0.796875 0.000000
0.154785 0.807617 0.000000
0.182983 0.815430 0.012253
0.233521 0.806641 0.000000
0.276367 0.809570 0.000000
0.284180 0.820312 0.075134
0.325195 0.793945 0.016098
0.352783 0.784668 0.056122
0.378418 0.774414 0.081848
0.409424 0.752441 0.035980
0.431641 0.747070 0.095459
0.452148 0.739258 0.057617
0.474365 0.733887 0.096497
0.495850 0.727539 0.106567
0.518066 0.721680 0.119141
0.540039 0.715332 0.094177
0.563477 0.708984 0.084778
0.587402 0.704102 0.083435
0.611816 0.700684 0.124695
0.637207 0.695801 0.115845
0.662598 0.690918 0.104675
0.688965 0.687500 0.120178
0.716797 0.687012 0.067505
0.745605 0.690918 0.115906
0.774902 0.693359 0.117432
0.804688 0.698242 0.174072
0.833496 0.699707 0.159790
0.862305 0.700195 0.137817
0.891113 0.700195 0.061218
0.919922 0.701172 0.031403
0.947754 0.699219 0.000000
0.012100 0.834473 0.036896
0.093689 0.812500 0.000000
0.098328 0.825195 0.000000
0.156372 0.830078 0.000000
0.182617 0.825684 0.000000
0.238892 0.817871 0.000000
0.271973 0.839355 0.000000
0.284424 0.852051 0.113098
0.317383 0.826172 0.038147
0.342529 0.820801 0.087646
0.368408 0.810547 0.113403
0.411133 0.783691 0.062866
0.435791 0.774414 0.071777
0.457275 0.769043 0.100830
0.477295 0.760742 0.052155
0.498779 0.753906 0.004616
0.520996 0.750488 0.066345
0.545898 0.748047 0.136597
0.568848 0.741699 0.117981
0.592773 0.738770 0.150146
0.617676 0.732422 0.091248
0.642578 0.727051 0.079407
0.668945 0.725586 0.142212
0.694336 0.720215 0.089050
0.721191 0.716309 0.081482
0.750488 0.719238 0.109375
0.779297 0.722168 0.129028
0.808594 0.726562 0.178345
0.837402 0.725098 0.076843
0.866211 0.728027 0.115112
0.895996 0.729980 0.100830
0.923828 0.728027 0.000000
0.948730 0.725098 0.000000
0.000000 0.854980 0.058228
0.013046 0.847656 0.000000
0.108704 0.838379 0.000000
0.166138 0.850098 0.000000
0.205322 0.836426 0.000000
0.239868 0.817383 0.000000
0.258545 0.846191 0.000000
0.328125 0.820801 0.000000
0.323242 0.853027 0.040344
0.368896 0.822266 0.000000
0.368408 0.841309 0.126709
0.409668 0.812012 0.052429
0.437744 0.800781 0.052490
0.459473 0.796387 0.105286
0.483643 0.792969 0.151123
0.504395 0.785645 0.085754
0.526855 0.782227 0.137207
0.548828 0.774902 0.055237
0.573242 0.771973 0.094299
0.597168 0.765137 0.032349
0.623047 0.765137 0.122009
0.648438 0.761230 0.120361
0.674805 0.760254 0.185303
0.701172 0.755371 0.149536
0.728027 0.752930 0.162109
0.753418 0.745605 0.039581
0.783691 0.750977 0.124329
0.812012 0.750977 0.065674
0.842285 0.756348 0.147705
0.871582 0.758301 0.160522
0.900391 0.758789 0.105835
0.930664 0.764648 0.197632
0.956055 0.757324 0.000000
0.000000 0.875977 0.041565
0.103149 0.845215 0.000000
0.153687 0.852051 0.000000
0.117188 0.883301 0.046204
0.183105 0.860352 0.000000
0.225464 0.867188 0.000000
0.233154 0.901367 0.112793
0.319824 0.842285 0.000000
0.300537 0.891113 0.101257
0.374023 0.835938 0.000000
0.391846 0.828125 0.000000
0.416016 0.825195 0.000000
0.429688 0.839355 0.103394
0.464111 0.820801 0.033295
0.484131 0.813477 0.000000
0.507812 0.815430 0.146362
0.529297 0.806641 0.022812
0.552734 0.801758 0.000000
