RED_IPP2_Creative/RED_FilmBiasBleachBypass.cube
#RED_IPP2_CREATIVE_LUT
# RED_FilmBiasBleachBypass - Color inspired by motion picture film with Bleach Bypass Development Process
# created by Phil Holland - phfx.com
# Settings used in creation of this LUT are:
# Development Color Space = USER SELECTABLE
# Output Gamma Curve = USER SELECTABLE
# Output Tonemap = USER SELECTABLE
# Highlight Rolloff = USER SELECTABLE
LUT_3D_SIZE 9
0.0928664 0.0928664 0.0928664
0.0936446 0.0905623 0.0906233
0.133684 0.095613 0.0968948
0.207263 0.115999 0.120226
0.313191 0.149401 0.155718
0.42649 0.189242 0.199603
0.552148 0.241443 0.256626
0.684108 0.315267 0.332494
0.71783 0.391287 0.407126
0.0924086 0.102388 0.0918288
0.1149 0.107134 0.0892653
0.164691 0.115404 0.0871748
0.242222 0.133883 0.0970321
0.345068 0.163699 0.124468
0.453437 0.204669 0.164172
0.58143 0.257832 0.213428
0.692866 0.335149 0.299351
0.721309 0.403494 0.377142
0.121401 0.174655 0.117327
0.161181 0.177371 0.115862
0.228244 0.197711 0.10901
0.323934 0.218616 0.110414
0.42945 0.235309 0.107637
0.538003 0.264515 0.128542
0.665507 0.313466 0.182361
0.708324 0.384161 0.292729
0.728634 0.437415 0.365423
0.173678 0.290745 0.165972
0.234043 0.293355 0.168826
0.281086 0.298314 0.149691
0.418418 0.35378 0.155383
0.540764 0.381552 0.178927
0.626017 0.418265 0.244694
0.68835 0.439109 0.285222
0.722301 0.473762 0.346517
0.735286 0.507362 0.397421
0.222843 0.427665 0.220645
0.325597 0.432868 0.249012
0.369375 0.426734 0.225498
0.437568 0.440177 0.2262
0.589395 0.524651 0.350256
0.66096 0.547723 0.385855
0.704356 0.575982 0.431296
0.730312 0.594903 0.463004
0.737881 0.604959 0.483177
0.336568 0.538018 0.33463
0.422782 0.547524 0.374868
0.461692 0.539284 0.357839
0.486152 0.531029 0.337484
0.582483 0.572686 0.387442
0.690684 0.646494 0.504845
0.723568 0.66334 0.537316
0.736339 0.678447 0.567407
0.738979 0.690272 0.590326
0.419577 0.614206 0.417929
0.498405 0.624613 0.459525
0.539452 0.623377 0.459785
0.552712 0.608011 0.427268
0.586389 0.609583 0.423865
0.688289 0.676417 0.535943
0.73344 0.716548 0.619974
0.739361 0.722866 0.637873
0.73959 0.723461 0.640238
0.493126 0.669779 0.491539
0.559594 0.67744 0.52929
0.597452 0.678813 0.537224
0.61265 0.670771 0.518532
0.624247 0.662959 0.497688
0.680903 0.688624 0.544503
0.733272 0.728252 0.640146
0.739986 0.736309 0.675486
0.739971 0.73608 0.673655
0.562982 0.709422 0.561578
0.609155 0.711818 0.585809
0.642649 0.713588 0.596536
0.658213 0.710292 0.587182
0.669108 0.706111 0.573999
0.693767 0.712367 0.586603
0.73022 0.730785 0.639673
0.739345 0.738094 0.679698
0.739345 0.738018 0.677867
0.0908217 0.0908827 0.0910811
0.0952621 0.0912184 0.0957504
0.135561 0.0986343 0.119554
0.207431 0.126406 0.156466
0.314443 0.163775 0.203067
0.433371 0.211643 0.264027
0.573831 0.271336 0.332692
0.674174 0.35639 0.410758
0.71371 0.432364 0.479118
0.0914321 0.106188 0.105562
0.113237 0.113161 0.113313
0.164446 0.128634 0.129595
0.243626 0.155383 0.157946
0.350072 0.191653 0.19707
0.469032 0.241306 0.250492
0.621286 0.299794 0.312993
0.68249 0.383917 0.396262
0.716945 0.449836 0.462364
0.114992 0.180331 0.149523
0.153353 0.190082 0.151293
0.223011 0.209583 0.163867
0.325948 0.228931 0.168917
0.434318 0.256657 0.194995
0.560159 0.299947 0.239261
0.652476 0.365713 0.31989
0.700145 0.431724 0.397757
0.724987 0.486671 0.458961
0.159167 0.29929 0.202548
0.210437 0.311452 0.204486
0.291325 0.326299 0.211795
0.411078 0.370138 0.234974
0.529122 0.403967 0.276326
0.624552 0.427878 0.310292
0.683925 0.460914 0.363195
0.718563 0.504463 0.423209
0.733486 0.542962 0.473823
0.210132 0.438315 0.265476
0.293965 0.448981 0.284291
0.388052 0.461494 0.313939
0.442145 0.463951 0.308812
0.581811 0.536965 0.402182
0.655818 0.562554 0.435996
0.7028 0.58735 0.471366
0.729961 0.603006 0.498665
0.738201 0.619913 0.529122
0.332265 0.546075 0.367895
0.394965 0.5552 0.386206
0.475059 0.56788 0.418601
0.513756 0.563272 0.407095
0.570504 0.574487 0.415305
0.686793 0.653391 0.538003
0.72224 0.672221 0.569726
0.735714 0.688304 0.598566
0.739391 0.695994 0.612955
0.418235 0.620829 0.444602
0.471366 0.627924 0.462715
0.545556 0.640253 0.499275
0.5785 0.637446 0.492622
0.597025 0.630442 0.477501
0.672023 0.667201 0.53492
0.732448 0.719173 0.639063
0.739116 0.725612 0.656184
0.739818 0.727123 0.661204
0.493797 0.674876 0.514214
0.537285 0.678996 0.529122
0.598962 0.688624 0.563073
0.629038 0.688518 0.563729
0.641276 0.680644 0.545266
0.666957 0.683116 0.547478
0.729015 0.725185 0.640162
0.739971 0.737102 0.689662
0.740139 0.737255 0.690501
0.565118 0.712459 0.578943
0.593027 0.713039 0.58584
0.640681 0.717968 0.611994
0.667475 0.718898 0.616907
0.67892 0.715206 0.60499
0.690394 0.713527 0.598779
0.723568 0.727062 0.635019
0.739437 0.73846 0.690959
0.739483 0.738476 0.69041
0.0922103 0.0940871 0.102602
0.101701 0.0996414 0.111803
0.144228 0.109743 0.147234
0.212299 0.12343 0.187823
0.31783 0.164309 0.249134
0.436591 0.216205 0.321202
0.582483 0.280293 0.400885
0.669261 0.370642 0.475257
0.711818 0.449897 0.540887
0.0962997 0.116258 0.13373
0.117586 0.123888 0.143023
0.16701 0.139773 0.169924
0.24715 0.164126 0.208179
0.353033 0.207843 0.261112
0.476143 0.263706 0.324575
0.610834 0.334905 0.396277
0.674998 0.414771 0.466163
0.714229 0.483619 0.529259
0.118379 0.190295 0.187564
0.15465 0.20029 0.199115
0.222644 0.222324 0.222965
0.323293 0.246494 0.246509
0.433753 0.284535 0.288334
0.563714 0.337102 0.343938
0.640467 0.404517 0.412497
0.692897 0.467658 0.476555
0.722377 0.5243 0.533776
0.162646 0.31191 0.260136
0.207752 0.327001 0.266804
0.286671 0.357412 0.283955
0.40499 0.3897 0.321843
0.527428 0.418235 0.349966
0.616999 0.44892 0.3935
0.675959 0.490806 0.446464
0.713527 0.537438 0.502419
0.731517 0.577539 0.550835
0.22739 0.451637 0.336721
0.293629 0.464805 0.347463
0.376791 0.488411 0.371328
0.467582 0.505684 0.398032
0.576806 0.55079 0.457435
0.65095 0.577768 0.489403
0.703075 0.595239 0.513069
0.728923 0.616953 0.548455
0.737682 0.638743 0.581872
0.344579 0.557382 0.418647
0.392477 0.567422 0.429374
0.458244 0.584329 0.451682
0.540063 0.599008 0.481239
0.581018 0.598871 0.479438
0.684245 0.661585 0.574929
0.72105 0.680812 0.603586
0.735561 0.694621 0.62533
0.739681 0.700435 0.636332
0.428779 0.629938 0.485527
0.467613 0.637079 0.496727
0.526116 0.649409 0.519005
0.597147 0.663355 0.552911
0.625223 0.660105 0.545281
0.66421 0.667994 0.555306
0.731487 0.72166 0.659953
0.738857 0.728023 0.675853
0.740017 0.730159 0.6822
0.501686 0.681285 0.546014
0.53344 0.685374 0.555306
0.579812 0.693172 0.573129
0.640146 0.703914 0.605859
0.665034 0.702937 0.602777
0.677012 0.698466 0.592309
0.722026 0.7205 0.638392
0.739788 0.737545 0.702678
0.740261 0.738186 0.707225
0.570031 0.716167 0.602152
0.590723 0.717037 0.606332
0.623926 0.720134 0.617761
0.671427 0.725612 0.64416
0.693034 0.725902 0.645258
0.701411 0.722667 0.633326
0.716182 0.724117 0.636301
0.738689 0.737896 0.69398
0.73962 0.738857 0.703288
0.103777 0.109819 0.134798
0.117082 0.117372 0.144442
0.156542 0.140993 0.174166
0.228794 0.153796 0.236759
0.326207 0.159976 0.298253
0.442924 0.211734 0.375158
0.590112 0.278614 0.464485
0.66894 0.374243 0.533043
0.710872 0.455573 0.587777
0.108293 0.134234 0.168597
0.131579 0.142138 0.174487
0.172503 0.16585 0.20557
0.256001 0.184085 0.263615
0.363165 0.208804 0.324239
0.485634 0.268696 0.393744
0.609506 0.347219 0.467689
0.672679 0.427787 0.53019
0.713359 0.49987 0.584436
0.132387 0.205753 0.239719
0.165408 0.21236 0.256672
0.224765 0.238987 0.286839
0.323751 0.264988 0.330724
0.438666 0.300999 0.376913
0.556619 0.363012 0.431785
0.634028 0.429374 0.487007
0.688441 0.492561 0.542077
0.721141 0.551156 0.590646
0.167452 0.327657 0.321553
0.213733 0.341466 0.337346
0.292683 0.372747 0.371664
0.408316 0.407675 0.408911
0.52285 0.435187 0.432242
0.608454 0.472267 0.47483
0.669184 0.51693 0.521248
0.70959 0.562264 0.567651
0.730419 0.602914 0.608774
0.252277 0.46569 0.407614
0.312627 0.479774 0.420142
0.38941 0.507286 0.445365
0.477562 0.539437 0.476127
0.574594 0.565637 0.517525
0.651438 0.588129 0.540108
0.700816 0.60853 0.569635
0.726879 0.634455 0.604669
0.73695 0.658808 0.636042
0.363195 0.569589 0.477256
0.408377 0.580682 0.487953
0.46775 0.599817 0.509499
0.53904 0.622171 0.535271
0.609827 0.636484 0.560616
0.683055 0.670649 0.614298
0.720012 0.689326 0.638743
0.735744 0.698985 0.652308
0.739712 0.706783 0.667353
0.445624 0.640101 0.535988
0.483024 0.648005 0.545068
0.532326 0.661006 0.562448
0.589792 0.676509 0.585122
0.651759 0.689219 0.612207
0.676814 0.688258 0.611154
0.730831 0.724376 0.682551
0.738598 0.730159 0.695689
0.740169 0.73257 0.701823
0.517937 0.688914 0.585916
0.546059 0.693156 0.591623
0.583566 0.700893 0.605814
0.629297 0.710079 0.624338
0.682063 0.719142 0.651957
0.699016 0.717571 0.646815
0.718654 0.720821 0.653559
0.739605 0.737972 0.715297
0.740368 0.738903 0.721538
0.581765 0.720211 0.631891
0.598978 0.721141 0.633112
0.62565 0.724254 0.642588
0.659617 0.728008 0.654734
0.700374 0.732158 0.676707
0.714672 0.731746 0.673976
0.720913 0.730251 0.667597
0.736858 0.736568 0.693599
0.739742 0.739223 0.715999
0.125765 0.136858 0.177874
0.140108 0.143069 0.185473
0.175463 0.166522 0.217563
0.246281 0.199344 0.279316
0.350851 0.213352 0.363287
0.453086 0.207218 0.429175
0.599084 0.270985 0.529351
0.672496 0.370809 0.584817
0.712169 0.454994 0.627985
0.127428 0.158541 0.216846
0.151156 0.165942 0.221073
0.189273 0.190204 0.257282
0.266346 0.231708 0.30811
0.377218 0.251667 0.389166
0.500679 0.266773 0.463645
0.615702 0.348547 0.535927
0.675166 0.431601 0.583886
0.713939 0.50605 0.627298
0.153765 0.227863 0.300771
0.181109 0.234211 0.314717
0.239551 0.263294 0.341634
0.320974 0.306798 0.390494
0.446494 0.330724 0.45919
0.563012 0.369604 0.513664
0.635981 0.438743 0.555566
0.688319 0.504479 0.597604
0.72108 0.564324 0.637385
0.18526 0.348257 0.39173
0.232151 0.358679 0.412634
0.305562 0.385275 0.456504
0.407248 0.426078 0.488792
0.51693 0.454429 0.525078
0.605295 0.48867 0.554528
0.666239 0.535592 0.586664
0.707591 0.58056 0.621012
0.730175 0.622309 0.654246
0.270634 0.48043 0.471763
0.328023 0.493248 0.487114
0.401144 0.519234 0.516197
0.489433 0.552026 0.551431
0.579736 0.579187 0.58027
0.651514 0.599145 0.5953
0.699107 0.621607 0.621912
0.725612 0.648737 0.650858
0.73669 0.673625 0.676463
0.385428 0.581765 0.537163
0.426657 0.592355 0.548226
0.484092 0.611948 0.569436
0.555459 0.637385 0.597284
0.624308 0.662043 0.623789
0.684489 0.680262 0.653147
0.721035 0.694575 0.668498
0.735393 0.704768 0.684611
0.739498 0.713741 0.69894
0.464973 0.650126 0.58526
0.501335 0.658183 0.594095
0.549554 0.672145 0.610941
0.604013 0.689143 0.633234
0.656397 0.704601 0.654261
0.699825 0.71342 0.672969
0.730343 0.727016 0.703395
0.738399 0.73196 0.712718
0.740261 0.733516 0.715724
0.535821 0.696437 0.626184
0.563149 0.700999 0.632197
0.598321 0.708629 0.644022
0.639689 0.717845 0.661173
0.679789 0.72549 0.677028
0.714626 0.730129 0.692927
0.724926 0.729442 0.691936
0.739483 0.73843 0.726055
0.740444 0.739391 0.731075
0.596475 0.724392 0.663676
0.612696 0.725399 0.664561
0.636393 0.728099 0.670863
0.665156 0.731517 0.681483
0.694316 0.734325 0.691157
0.722377 0.736553 0.705425
0.729732 0.73608 0.702312
0.735882 0.736629 0.70486
0.740032 0.739742 0.72845
0.15256 0.167498 0.237385
0.166339 0.173129 0.243961
0.200259 0.19794 0.279225
0.272572 0.240009 0.331411
0.371389 0.281804 0.414801
0.498375 0.293767 0.516823
0.61677 0.268177 0.5935
0.677729 0.365698 0.631022
0.714733 0.45066 0.662974
0.15227 0.189715 0.278965
0.174975 0.198169 0.281575
0.217441 0.223789 0.314229
0.287984 0.270222 0.365881
0.391135 0.317708 0.44181
0.522576 0.339544 0.540047
0.624201 0.349996 0.596948
0.680201 0.43032 0.63093
0.716136 0.506157 0.663233
0.176272 0.258 0.365179
0.201678 0.266102 0.374899
0.262654 0.295384 0.400092
0.335622 0.338231 0.457603
0.443626 0.394461 0.506767
0.557946 0.418387 0.571237
0.642878 0.441627 0.613947
0.691936 0.507973 0.643473
0.722362 0.569009 0.672709
0.213214 0.373953 0.468635
0.253864 0.381308 0.490288
0.328496 0.405997 0.524254
0.41915 0.447745 0.545602
0.506081 0.492058 0.578485
0.603067 0.514244 0.612268
0.669596 0.541909 0.640558
0.708659 0.588769 0.664607
0.730388 0.63154 0.688838
0.305669 0.49868 0.539467
0.356054 0.509071 0.554101
0.420294 0.530327 0.579004
0.498817 0.558618 0.608927
0.57731 0.590906 0.631998
0.648844 0.610925 0.654002
0.698024 0.632685 0.671
0.724971 0.659968 0.688899
0.736706 0.685328 0.706294
0.398047 0.592966 0.585214
0.439323 0.602762 0.597055
0.495155 0.620813 0.617197
0.56405 0.644999 0.643687
0.634302 0.670771 0.670588
0.689326 0.688975 0.689647
0.721477 0.70016 0.697353
0.735225 0.709926 0.709392
0.739437 0.718578 0.719158
0.488365 0.66041 0.629877
0.521477 0.667781 0.638239
0.565621 0.680781 0.653544
0.617548 0.697414 0.673716
0.670909 0.713863 0.695003
0.709575 0.724712 0.709575
0.730983 0.729946 0.720821
0.738506 0.732982 0.72459
0.740261 0.734768 0.728664
0.555581 0.703868 0.663478
0.58027 0.707912 0.668757
0.613916 0.715145 0.679469
0.652949 0.723476 0.693599
0.690608 0.730495 0.707469
0.717037 0.734585 0.716197
0.73254 0.736385 0.723079
0.739406 0.738903 0.73344
0.74049 0.739696 0.73611
0.611246 0.727901 0.691722
0.626505 0.728893 0.692866
0.648859 0.731304 0.698131
0.674769 0.734081 0.705638
0.700984 0.736507 0.71397
0.721355 0.738094 0.720043
0.735042 0.739071 0.727092
0.737789 0.738888 0.726802
0.740307 0.7402 0.736355
0.183688 0.207263 0.309697
0.199573 0.213107 0.314565
0.236332 0.23743 0.347814
0.304936 0.283162 0.396094
0.399847 0.3346 0.47483
0.51014 0.383703 0.559442
0.609827 0.401572 0.625895
0.681544 0.385519 0.669184
0.717571 0.447379 0.692271
0.180529 0.230701 0.348913
0.206134 0.239521 0.350759
0.25214 0.265278 0.379477
0.313726 0.310048 0.437339
0.415122 0.368872 0.503273
0.520256 0.420096 0.568902
0.616205 0.439902 0.63032
0.685695 0.434241 0.670909
0.719066 0.505135 0.692988
0.200519 0.295918 0.432609
0.229389 0.304463 0.440146
0.292119 0.333669 0.466682
0.366217 0.376761 0.523156
0.456443 0.435035 0.557565
0.552926 0.48159 0.599496
0.63772 0.501106 0.649073
0.696666 0.511284 0.681254
0.724651 0.570291 0.700648
0.245731 0.405325 0.550256
0.290791 0.410895 0.559548
0.355367 0.434272 0.575082
0.438605 0.47393 0.589761
0.51339 0.516335 0.621317
0.597223 0.558999 0.641428
0.667323 0.575143 0.675456
0.711864 0.592264 0.697627
0.731609 0.635218 0.712718
0.348165 0.519707 0.597086
0.384375 0.526299 0.607843
0.440848 0.543862 0.627237
0.509682 0.569589 0.648402
0.582162 0.603006 0.664714
0.641733 0.633249 0.685969
0.697643 0.648005 0.702373
0.726146 0.664668 0.71516
0.736889 0.690272 0.724666
0.425071 0.606928 0.632517
0.463157 0.614862 0.642603
0.515572 0.630488 0.65951
0.576288 0.65127 0.680262
0.638437 0.673869 0.700359
0.687724 0.694804 0.713649
0.72079 0.705409 0.722789
0.734966 0.714199 0.727901
0.739376 0.722637 0.73196
0.500938 0.669398 0.663539
0.533028 0.675639 0.671061
0.575204 0.687266 0.68426
0.624903 0.702373 0.700877
0.675761 0.717205 0.716762
0.714031 0.727474 0.727474
0.732189 0.732082 0.73228
0.73846 0.734218 0.733272
0.740261 0.73579 0.73547
0.5776 0.71107 0.693874
0.59913 0.714321 0.698146
0.628885 0.720226 0.706294
0.663569 0.727047 0.716152
0.697658 0.732876 0.725292
0.723079 0.736629 0.731777
0.735302 0.738582 0.735348
0.739559 0.739422 0.737804
0.740536 0.739879 0.738582
0.626551 0.730938 0.71342
0.639887 0.73164 0.714351
0.659602 0.733501 0.717998
0.683574 0.735775 0.723217
0.707698 0.737774 0.728588
0.72694 0.739208 0.733349
0.736156 0.73994 0.735988
0.739635 0.740246 0.737972
0.740505 0.740475 0.739544
0.222797 0.255985 0.387411
0.240238 0.261692 0.391409
0.27895 0.284825 0.421408
0.340215 0.329274 0.475074
0.432319 0.387839 0.535119
0.525048 0.442191 0.59057
0.608942 0.481727 0.644831
0.676509 0.496284 0.688167
0.718944 0.482856 0.713726
0.216709 0.278965 0.42388
0.24358 0.287633 0.426184
0.292103 0.312474 0.453208
0.352071 0.354177 0.517662
0.44184 0.416159 0.556909
0.533684 0.470924 0.600992
0.614832 0.512322 0.650065
0.680674 0.528801 0.690898
0.721202 0.521828 0.714946
0.232197 0.340337 0.50959
0.263355 0.349157 0.518456
0.327962 0.378454 0.546227
0.402731 0.419364 0.570901
0.473014 0.469703 0.606317
0.563058 0.523323 0.630793
0.635538 0.560693 0.668223
0.693538 0.575784 0.701595
0.726894 0.574685 0.720623
0.299229 0.438712 0.603037
0.330877 0.443961 0.607324
0.387976 0.466484 0.615839
0.462898 0.50341 0.626398
0.533181 0.542626 0.650477
0.601907 0.585611 0.671016
0.664866 0.617777 0.693034
0.710536 0.630472 0.715892
0.733013 0.638361 0.728054
0.384237 0.541558 0.642344
0.41384 0.546136 0.64976
0.464897 0.561013 0.663096
0.523583 0.585641 0.676875
0.592096 0.617624 0.688777
0.644022 0.646357 0.707164
0.695277 0.673579 0.71693
0.725872 0.683284 0.728634
0.737438 0.6925 0.734386
0.46099 0.622812 0.671778
0.489952 0.628107 0.678782
0.535668 0.640696 0.691127
0.588815 0.658396 0.70544
0.642725 0.678904 0.7178
0.688975 0.699977 0.725811
0.717571 0.714153 0.732616
0.734707 0.719417 0.735744
0.739437 0.724025 0.737682
0.527169 0.680598 0.69485
0.555367 0.685252 0.700359
0.593393 0.694926 0.709728
0.637552 0.707271 0.720394
0.681468 0.719356 0.729519
0.714763 0.728023 0.735042
0.731228 0.733181 0.737346
0.738231 0.735103 0.738598
0.74023 0.736629 0.739178
0.590585 0.717342 0.714076
0.609232 0.719188 0.716625
0.636469 0.723705 0.721996
0.668788 0.729213 0.728313
0.700175 0.733928 0.733608
0.724407 0.737209 0.737133
0.736446 0.739055 0.739055
0.739788 0.739773 0.739803
0.740536 0.740063 0.739925
0.64213 0.73344 0.727291
0.653651 0.733883 0.727977
0.670573 0.73518 0.730068
0.691173 0.736858 0.732937
0.712703 0.73846 0.735836
0.729747 0.739635 0.73817
0.738018 0.740291 0.73959
0.740185 0.740536 0.740185
0.740597 0.740597 0.740444
0.267933 0.310277 0.471977
0.285176 0.315099 0.475059
0.322255 0.333852 0.501366
0.376822 0.37348 0.551553
0.458549 0.428229 0.576776
0.540993 0.479576 0.6159
0.614115 0.522789 0.658961
0.675441 0.548852 0.696391
0.717205 0.548867 0.72079
0.258869 0.332128 0.509514
0.285634 0.340688 0.513985
0.335103 0.363668 0.541726
0.394339 0.40145 0.57229
0.465522 0.453285 0.60029
0.549416 0.506569 0.628641
0.620539 0.549706 0.665782
0.679576 0.576761 0.699901
0.719509 0.580392 0.722545
0.273732 0.39089 0.598016
0.308919 0.399451 0.594553
0.37464 0.425818 0.595132
0.438392 0.460029 0.6112
0.499886 0.501991 0.639033
0.575021 0.552163 0.657984
0.640726 0.591684 0.683955
0.692561 0.616922 0.710307
0.725536 0.62182 0.727733
0.346731 0.474769 0.64419
0.370153 0.480201 0.645426
0.422873 0.501228 0.65005
0.49102 0.534447 0.657755
0.554009 0.568124 0.674678
0.607492 0.604761 0.694881
0.668482 0.640299 0.70695
0.709651 0.661982 0.723095
0.732433 0.667079 0.733639
0.420294 0.564797 0.677165
0.445289 0.56817 0.681483
0.489052 0.581598 0.689754
0.543099 0.604334 0.698405
0.605447 0.633753 0.706905
0.653696 0.659968 0.71899
0.696193 0.686366 0.726955
0.72491 0.702358 0.73315
0.737133 0.705257 0.737667
0.493568 0.638987 0.700694
0.517235 0.642405 0.705043
0.556451 0.652445 0.712856
0.603449 0.667582 0.721416
0.648447 0.686397 0.72813
0.692378 0.70573 0.732677
0.717113 0.718212 0.736812
0.733623 0.726619 0.738048
0.739284 0.727687 0.739498
0.560327 0.692485 0.717556
0.580224 0.695369 0.720592
0.612131 0.702495 0.725902
0.649683 0.712077 0.731563
0.686793 0.721523 0.735866
0.715099 0.728923 0.738231
0.730861 0.733989 0.739208
0.737423 0.736645 0.739956
0.740185 0.737362 0.740261
0.614221 0.723735 0.728908
0.628122 0.72459 0.730083
0.651301 0.727565 0.732677
0.678676 0.73138 0.735592
0.705364 0.73489 0.737911
0.725856 0.737484 0.739406
0.736446 0.739086 0.740169
0.739635 0.73991 0.740429
0.740536 0.740154 0.740551
0.65156 0.735653 0.734798
0.660777 0.735653 0.73492
0.675196 0.736339 0.735836
0.694041 0.73753 0.737224
0.714351 0.738796 0.738674
0.730495 0.739788 0.739757
0.738338 0.740353 0.740353
0.740337 0.740581 0.740581
0.740642 0.740642 0.740642
