RED_IPP2_Creative/RED_MAUVE.cube
# RED Digital Cinema Output Transform LUT for IPP2
# Creatives by Eric Weidt
# BMD cube from Truelight v4.0
# Settings used in creation of this LUT are:
# Development Color Space = USER SELECTABLE
# Output Gamma Curve = USER SELECTABLE
# Output Tonemap = USER SELECTABLE
# Highlight Rolloff = USER SELECTABLE
LUT_3D_SIZE 5
0.029587 0.024429 0.024719
0.124756 0.042999 0.042969
0.359863 0.236694 0.217285
0.554199 0.407715 0.369385
0.780762 0.613770 0.562500
0.198853 0.277100 0.195923
0.289551 0.282959 0.208130
0.412598 0.332031 0.273926
0.569336 0.451660 0.403320
0.789551 0.632812 0.578125
0.400146 0.478271 0.372070
0.427979 0.478271 0.376709
0.494385 0.483643 0.395996
0.614746 0.542480 0.476807
0.814453 0.684570 0.621582
0.618652 0.708496 0.585449
0.631836 0.708496 0.591309
0.663574 0.708496 0.606934
0.735352 0.726074 0.645996
0.870117 0.794434 0.718750
0.854004 0.940430 0.820801
0.857910 0.941406 0.822754
0.869141 0.941895 0.825195
0.900391 0.944336 0.835938
0.968750 0.960938 0.864258
0.025803 0.025513 0.108154
0.130249 0.071960 0.125488
0.363281 0.247192 0.280273
0.554199 0.415283 0.417969
0.780762 0.613770 0.584961
0.167480 0.328125 0.335205
0.289062 0.288574 0.288574
0.426270 0.331543 0.326172
0.572266 0.452637 0.438965
0.788574 0.633301 0.599609
0.384766 0.486084 0.409668
0.415283 0.484131 0.407715
0.491455 0.486572 0.418701
0.618164 0.541992 0.494385
0.812500 0.686035 0.641113
0.616211 0.704590 0.605469
0.629883 0.706543 0.610840
0.663086 0.710449 0.624023
0.734375 0.726562 0.656738
0.867676 0.795410 0.733398
0.851562 0.939453 0.826660
0.856445 0.940918 0.828125
0.868164 0.942383 0.831055
0.899414 0.945312 0.840820
0.968262 0.960938 0.870117
0.115540 0.079590 0.185913
0.223145 0.168091 0.271484
0.365723 0.276123 0.357910
0.556641 0.426758 0.475098
0.785645 0.622559 0.632812
0.264893 0.303223 0.402832
0.315918 0.305176 0.396729
0.419189 0.354004 0.415771
0.578125 0.459717 0.495850
0.791504 0.641113 0.645020
0.369873 0.517090 0.521484
0.384521 0.524414 0.529785
0.493896 0.491455 0.491943
0.627930 0.546387 0.543945
0.808105 0.692871 0.680176
0.616211 0.709473 0.645996
0.625488 0.710449 0.646973
0.655762 0.715332 0.649414
0.735352 0.730469 0.676758
0.862305 0.797852 0.759766
0.848633 0.939453 0.842285
0.852051 0.940430 0.843262
0.864258 0.942383 0.845703
0.897949 0.946777 0.856934
0.968750 0.963379 0.888672
0.313721 0.247681 0.444580
0.344482 0.270752 0.455322
0.426758 0.335938 0.489014
0.579590 0.455078 0.565430
0.803223 0.638672 0.706055
0.365967 0.342773 0.493408
0.392578 0.359131 0.499756
0.456543 0.400391 0.519043
0.583008 0.488037 0.573730
0.808105 0.656738 0.715332
0.451172 0.503906 0.600098
0.469971 0.504395 0.600098
0.519531 0.510742 0.596680
0.629883 0.567871 0.625977
0.822266 0.705566 0.742188
0.619141 0.727051 0.728027
0.628418 0.730469 0.730957
0.646484 0.740234 0.742188
0.739746 0.738770 0.738770
0.874023 0.802734 0.801758
0.851074 0.944336 0.881836
0.855469 0.944336 0.883789
0.868652 0.945312 0.887207
0.899902 0.948730 0.894531
0.969727 0.965820 0.919922
0.502441 0.419434 0.651367
0.514648 0.429688 0.655762
0.549805 0.457764 0.666992
0.632812 0.528320 0.697266
0.812500 0.680176 0.798340
0.520508 0.458252 0.670898
0.531738 0.466064 0.673340
0.563477 0.489502 0.682617
0.644531 0.552734 0.710449
0.819336 0.693848 0.805664
0.566895 0.548340 0.720215
0.576660 0.553711 0.722656
0.606445 0.571777 0.728516
0.684082 0.622559 0.753418
0.839844 0.732422 0.828125
0.695801 0.735840 0.813965
0.702148 0.738281 0.816895
0.720703 0.743652 0.820801
0.770508 0.763672 0.836426
0.880859 0.823730 0.875000
0.868164 0.944824 0.941895
0.870117 0.945801 0.942383
0.877930 0.948242 0.946289
0.901855 0.955566 0.954590
0.975098 0.974121 0.975098
