RED_IPP2_Creative/RED_BW_0700.cube
# RED Digital Cinema Output Transform LUT for IPP2
# Creatives by Eric Weidt
# BMD cube from Truelight v4.0
# Settings used in creation of this LUT are:
# Development Color Space = USER SELECTABLE
# Output Gamma Curve = USER SELECTABLE
# Output Tonemap = USER SELECTABLE
# Highlight Rolloff = USER SELECTABLE
LUT_3D_SIZE 5
0.036407 0.036407 0.036407
0.111145 0.111145 0.111145
0.365234 0.365234 0.365234
0.535156 0.535156 0.535156
0.796387 0.796387 0.796387
0.197754 0.197754 0.197754
0.237061 0.237061 0.237061
0.374756 0.374756 0.374756
0.536133 0.536133 0.536133
0.796387 0.796387 0.796387
0.412842 0.412842 0.412842
0.414551 0.414551 0.414551
0.434570 0.434570 0.434570
0.549316 0.549316 0.549316
0.798828 0.798828 0.798828
0.611816 0.611816 0.611816
0.611816 0.611816 0.611816
0.614746 0.614746 0.614746
0.646973 0.646973 0.646973
0.816406 0.816406 0.816406
0.901855 0.901855 0.901855
0.901855 0.901855 0.901855
0.901855 0.901855 0.901855
0.905762 0.905762 0.905762
0.947266 0.947266 0.947266
0.171265 0.171021 0.171021
0.219482 0.219482 0.219482
0.372803 0.372803 0.372803
0.535645 0.535645 0.535645
0.796387 0.796387 0.796387
0.260986 0.260986 0.260986
0.282959 0.282959 0.282959
0.380615 0.380615 0.380615
0.537109 0.537109 0.537109
0.796387 0.796387 0.796387
0.416016 0.416016 0.416016
0.417725 0.417725 0.417725
0.437012 0.437012 0.437012
0.549805 0.549805 0.549805
0.798828 0.798828 0.798828
0.612793 0.612793 0.612793
0.612793 0.612793 0.612793
0.615234 0.615234 0.615234
0.646973 0.646973 0.646973
0.816406 0.816406 0.816406
0.901855 0.901855 0.901855
0.901855 0.901855 0.901855
0.901855 0.901855 0.901855
0.905762 0.905762 0.905762
0.947266 0.947266 0.947266
0.399170 0.399170 0.399170
0.401367 0.401367 0.401367
0.424316 0.424316 0.424316
0.546875 0.546875 0.546875
0.798340 0.798340 0.798340
0.404053 0.404053 0.404053
0.406006 0.406006 0.406006
0.427979 0.427979 0.427979
0.547363 0.547363 0.547363
0.798340 0.798340 0.798340
0.449219 0.449219 0.449219
0.450439 0.450439 0.450439
0.464111 0.464111 0.464111
0.558594 0.558594 0.558594
0.799805 0.799805 0.799805
0.617188 0.617188 0.617188
0.617676 0.617676 0.617676
0.620117 0.620117 0.620117
0.650879 0.650879 0.650879
0.817871 0.817871 0.817871
0.902344 0.902344 0.902344
0.902344 0.902344 0.902344
0.902344 0.902344 0.902344
0.906250 0.906250 0.906250
0.947266 0.947266 0.947266
0.589355 0.589355 0.589355
0.589355 0.589355 0.589355
0.592773 0.592773 0.592773
0.630859 0.630859 0.630859
0.812500 0.812500 0.812500
0.589844 0.589844 0.589844
0.589844 0.589844 0.589844
0.593750 0.593750 0.593750
0.631348 0.631348 0.631348
0.812988 0.812988 0.812988
0.598145 0.598145 0.598145
0.598145 0.598145 0.598145
0.601562 0.601562 0.601562
0.636719 0.636719 0.636719
0.814453 0.814453 0.814453
0.670410 0.670410 0.670410
0.670410 0.670410 0.670410
0.671387 0.671387 0.671387
0.692383 0.692383 0.692383
0.830566 0.830566 0.830566
0.909180 0.909180 0.909180
0.909668 0.909668 0.909668
0.909668 0.909668 0.909668
0.913574 0.913574 0.913574
0.952148 0.952148 0.952148
0.872070 0.872070 0.872070
0.872070 0.872070 0.872070
0.872559 0.872559 0.872559
0.876953 0.876953 0.876953
0.926758 0.926758 0.926758
0.872070 0.872070 0.872070
0.872070 0.872070 0.872070
0.872559 0.872559 0.872559
0.876953 0.876953 0.876953
0.926758 0.926758 0.926758
0.873047 0.873047 0.873047
0.873047 0.873047 0.873047
0.873047 0.873047 0.873047
0.877930 0.877930 0.877930
0.927246 0.927246 0.927246
0.883789 0.883789 0.883789
0.883789 0.883789 0.883789
0.883789 0.883789 0.883789
0.888184 0.888184 0.888184
0.934570 0.934570 0.934570
0.975586 0.975586 0.975586
0.975586 0.975586 0.975586
0.975586 0.975586 0.975586
0.977539 0.977539 0.977539
0.998535 0.998535 0.998535
