RED_IPP2_Creative/RED_CAUSTIC.cube
# RED Digital Cinema Output Transform LUT for IPP2
# Creatives by Eric Weidt
# BMD cube from Truelight v4.0
# Settings used in creation of this LUT are:
# Development Color Space = USER SELECTABLE
# Output Gamma Curve = USER SELECTABLE
# Output Tonemap = USER SELECTABLE
# Highlight Rolloff = USER SELECTABLE
LUT_3D_SIZE 5
0.023254 0.014511 0.020447
0.233887 0.025970 0.051544
0.430420 0.138916 0.144653
0.617676 0.267822 0.290283
0.784180 0.380859 0.432373
0.110718 0.250732 0.100281
0.266602 0.261475 0.118835
0.450195 0.289307 0.195435
0.622559 0.355469 0.307617
0.785156 0.441650 0.437744
0.286133 0.454346 0.257812
0.363281 0.455078 0.273193
0.476562 0.465088 0.291260
0.627441 0.480225 0.354736
0.783203 0.521973 0.452881
0.414062 0.623047 0.398193
0.461670 0.623047 0.403809
0.533203 0.622559 0.418213
0.638184 0.628418 0.434326
0.777344 0.632324 0.493164
0.518555 0.762695 0.518555
0.551758 0.762207 0.520996
0.599121 0.761719 0.527344
0.668945 0.761719 0.541504
0.770996 0.762695 0.555664
0.008194 0.014565 0.177002
0.224487 0.042633 0.195312
0.431396 0.141479 0.253662
0.621582 0.264404 0.343994
0.785645 0.378906 0.459473
0.069153 0.257812 0.244019
0.269775 0.259521 0.250488
0.469971 0.277588 0.275391
0.632324 0.348145 0.355957
0.788574 0.437744 0.464844
0.264404 0.458740 0.315186
0.344482 0.460205 0.316895
0.473877 0.466064 0.332764
0.636230 0.475830 0.385010
0.788574 0.518066 0.475342
0.406250 0.625488 0.428223
0.453369 0.625000 0.429932
0.527344 0.624023 0.441650
0.637207 0.629395 0.455078
0.781250 0.630371 0.506836
0.515625 0.763184 0.535645
0.547852 0.762695 0.536621
0.596680 0.762207 0.541016
0.667480 0.761230 0.554688
0.770996 0.762695 0.566895
0.094727 0.027328 0.309082
0.241577 0.068359 0.336426
0.424561 0.141602 0.378418
0.617676 0.257080 0.438232
0.787109 0.373535 0.511719
0.062256 0.245239 0.389648
0.272461 0.255127 0.398193
0.453613 0.283447 0.413574
0.630859 0.345703 0.448975
0.790527 0.434570 0.515137
0.187012 0.461670 0.435547
0.291992 0.464111 0.439453
0.470459 0.461182 0.441406
0.653320 0.463623 0.461182
0.797363 0.511230 0.521484
0.385742 0.628418 0.485840
0.433350 0.628418 0.485107
0.509277 0.627930 0.484131
0.634766 0.628906 0.494385
0.790527 0.625488 0.535645
0.509277 0.764648 0.565918
0.541504 0.764648 0.565918
0.587891 0.764160 0.567383
0.660645 0.762695 0.576660
0.770020 0.763184 0.585938
0.023392 0.000000 0.470947
0.279785 0.000000 0.484619
0.432861 0.038635 0.513672
0.604492 0.208862 0.557617
0.781738 0.349365 0.603027
0.000000 0.236694 0.518555
0.291504 0.249146 0.525879
0.447754 0.280273 0.542480
0.613770 0.341309 0.570801
0.785645 0.426270 0.606445
0.000000 0.441650 0.582520
0.273682 0.444336 0.586914
0.462891 0.449219 0.591309
0.633789 0.465332 0.596191
0.794434 0.507324 0.612305
0.259033 0.629395 0.604004
0.353760 0.629883 0.605469
0.452881 0.630859 0.606934
0.631836 0.621582 0.604004
0.807617 0.611328 0.610840
0.488281 0.767578 0.623047
0.520508 0.767578 0.623047
0.566895 0.767578 0.621582
0.641113 0.766113 0.617676
0.767090 0.762695 0.623535
0.000000 0.000000 0.632324
0.244507 0.000000 0.641113
0.473633 0.000000 0.651855
0.619141 0.000000 0.674316
0.770996 0.000000 0.712402
0.000000 0.000000 0.657227
0.211304 0.000000 0.666504
0.465332 0.080444 0.676270
0.609863 0.238281 0.695801
0.765625 0.368652 0.722656
0.000000 0.420898 0.691406
0.000000 0.424561 0.701172
0.468750 0.433838 0.707031
0.618652 0.455322 0.717285
0.771973 0.498535 0.730469
0.000000 0.601074 0.732910
0.000000 0.603027 0.741211
0.424072 0.604492 0.750977
0.616699 0.604980 0.753418
0.782715 0.610840 0.747070
0.180298 0.767090 0.742188
0.371338 0.768066 0.743164
0.471924 0.768066 0.744141
0.574707 0.767578 0.744629
0.763184 0.754883 0.737305
