RED_IPP2_Creative/RED_FilmBias.cube
#RED_IPP2_CREATIVE_LUT
# RED_FilmBias - Color inspired by motion picture film
# created by Phil Holland - phfx.com
# Settings used in creation of this LUT are:
# Development Color Space = USER SELECTABLE
# Output Gamma Curve = USER SELECTABLE
# Output Tonemap = USER SELECTABLE
# Highlight Rolloff = USER SELECTABLE
LUT_3D_SIZE 9
0 0 0
0.112718 0.0370031 0.039704
0.225437 0.0742657 0.0801862
0.338338 0.111528 0.120378
0.45127 0.148928 0.160815
0.564202 0.18645 0.20145
0.677272 0.223819 0.241657
0.790173 0.261234 0.282139
0.891783 0.295033 0.318853
0.0596933 0.112612 0.0560006
0.139818 0.114794 0.0409705
0.259464 0.119234 0.0353094
0.37322 0.136995 0.0633402
0.482048 0.167224 0.103456
0.59144 0.201282 0.144808
0.701549 0.236835 0.186114
0.812238 0.27303 0.227237
0.906783 0.30454 0.263096
0.111757 0.221744 0.104265
0.183047 0.216571 0.0984817
0.279011 0.228824 0.0808423
0.391821 0.236896 0.078233
0.519646 0.238727 0.0706188
0.63679 0.251164 0.0918593
0.746944 0.274296 0.127031
0.85568 0.302937 0.166415
0.942885 0.328603 0.200519
0.161593 0.322545 0.150546
0.237751 0.315465 0.150637
0.292088 0.314107 0.122683
0.417288 0.341955 0.11986
0.535088 0.347601 0.110903
0.648997 0.359289 0.114595
0.779721 0.358114 0.105837
0.898451 0.368231 0.123568
0.983734 0.381979 0.147524
0.189899 0.416556 0.187396
0.284886 0.409796 0.195834
0.334234 0.401282 0.165072
0.401648 0.40499 0.134142
0.555077 0.454643 0.158556
0.676173 0.461051 0.148684
0.784436 0.474296 0.156893
0.910826 0.477272 0.145205
0.994781 0.47631 0.141314
0.216617 0.500938 0.213474
0.318425 0.499199 0.237537
0.376684 0.486488 0.204242
0.413993 0.476173 0.170687
0.521065 0.504265 0.157504
0.69337 0.567819 0.197635
0.8168 0.575296 0.187961
0.928359 0.583719 0.187396
0.979461 0.596674 0.204028
0.236912 0.578912 0.233143
0.345449 0.579248 0.264317
0.411582 0.570947 0.247532
0.449287 0.549905 0.19556
0.502571 0.546639 0.163821
0.656626 0.617914 0.196551
0.832059 0.681376 0.23714
0.956817 0.689982 0.228122
0.967254 0.691127 0.231907
0.256123 0.654398 0.251728
0.365438 0.653315 0.283818
0.439002 0.647196 0.276143
0.483879 0.629465 0.235401
0.519341 0.614496 0.189883
0.619486 0.645212 0.183139
0.798627 0.736934 0.241032
0.958648 0.792111 0.274235
0.958877 0.788617 0.266651
0.276677 0.732631 0.271641
0.382162 0.724788 0.299916
0.461082 0.719387 0.29897
0.513161 0.704707 0.265705
0.554299 0.690333 0.224048
0.615579 0.699443 0.202853
0.753384 0.760159 0.217807
0.896223 0.833677 0.262455
0.897917 0.832197 0.250065
0.0311894 0.039765 0.0685435
0.102831 0.0540475 0.107332
0.211673 0.0835889 0.153933
0.316381 0.127367 0.195636
0.424704 0.168826 0.237339
0.534661 0.209308 0.278492
0.645563 0.249226 0.319097
0.756893 0.288808 0.35935
0.863828 0.326665 0.397559
0.0526284 0.119753 0.117266
0.125154 0.124926 0.125383
0.232685 0.139651 0.141756
0.337041 0.167498 0.17293
0.443839 0.200366 0.208667
0.552544 0.235233 0.24654
0.662547 0.271046 0.285267
0.773281 0.307332 0.324529
0.874479 0.340734 0.360906
0.098085 0.227695 0.161196
0.159808 0.231617 0.155947
0.260838 0.239719 0.164431
0.382361 0.244663 0.158236
0.496605 0.256062 0.178653
0.602716 0.279118 0.211704
0.708522 0.307683 0.248051
0.815137 0.339147 0.285725
0.907774 0.36788 0.319677
0.139071 0.330068 0.199985
0.202487 0.332036 0.194766
0.290211 0.333135 0.194339
0.398764 0.352636 0.203784
0.513481 0.362524 0.20177
0.642603 0.364187 0.193561
0.760189 0.373495 0.210788
0.869352 0.392157 0.241077
0.956344 0.411933 0.270802
0.172793 0.423651 0.232136
0.241459 0.425254 0.229999
0.333242 0.425361 0.235431
0.393973 0.421515 0.213107
0.535958 0.464759 0.242084
0.656291 0.474311 0.237598
0.771237 0.484459 0.237003
0.902632 0.483543 0.228748
0.994797 0.488991 0.240223
0.199054 0.508751 0.257313
0.272801 0.510506 0.257664
0.369833 0.512352 0.271977
0.42591 0.502708 0.243626
0.499474 0.506325 0.220401
0.672938 0.576699 0.280171
0.797223 0.587884 0.27631
0.90605 0.599893 0.2804
0.988312 0.603555 0.27509
0.219577 0.587381 0.277043
0.296941 0.588418 0.278157
0.398856 0.592203 0.299916
0.459571 0.582132 0.274266
0.500008 0.569543 0.243061
0.61976 0.605737 0.246067
0.810971 0.689647 0.319142
0.937758 0.702022 0.315785
0.973083 0.705913 0.319371
0.239673 0.663111 0.294316
0.31632 0.661494 0.293889
0.420768 0.665492 0.31986
0.487312 0.657588 0.301549
0.528847 0.639338 0.261265
0.587457 0.637064 0.235737
0.759426 0.723354 0.291814
0.94963 0.80322 0.358755
0.965606 0.804318 0.355947
0.262913 0.740887 0.313817
0.334936 0.733776 0.308858
0.438132 0.734615 0.334737
0.510018 0.728832 0.323781
0.557351 0.712123 0.286183
0.599161 0.70277 0.256123
0.710338 0.740291 0.261219
0.895262 0.840452 0.336248
0.899107 0.84094 0.330083
0.0626078 0.0794385 0.137163
0.105394 0.0962997 0.145617
0.20528 0.10869 0.21474
0.323217 0.12076 0.269017
0.42356 0.167422 0.308064
0.527184 0.212161 0.34966
0.633341 0.255299 0.391836
0.741253 0.297276 0.43386
0.850217 0.338537 0.475563
0.0715343 0.134051 0.189425
0.125277 0.141131 0.194705
0.221134 0.154955 0.22829
0.326787 0.178027 0.259022
0.42649 0.215686 0.290898
0.530739 0.253712 0.326879
0.637598 0.291997 0.364446
0.746059 0.330419 0.402625
0.852125 0.367773 0.440146
0.100984 0.235782 0.230488
0.156283 0.239521 0.237568
0.250324 0.249866 0.250797
0.362921 0.258854 0.258885
0.466972 0.278416 0.283101
0.570184 0.305135 0.312901
0.674846 0.33547 0.346334
0.781048 0.367895 0.381689
0.879911 0.399023 0.415824
0.14081 0.336782 0.268925
0.193439 0.342031 0.266407
0.27245 0.355291 0.269154
0.3823 0.364813 0.287221
0.50544 0.370733 0.282094
0.621958 0.37882 0.298116
0.72845 0.396948 0.325994
0.833066 0.42089 0.357931
0.924285 0.444938 0.388357
0.172274 0.43154 0.298512
0.226062 0.436851 0.293629
0.301274 0.448081 0.293599
0.4 0.451133 0.298451
0.518807 0.476417 0.32575
0.635569 0.488731 0.32604
0.76585 0.490181 0.317174
0.88455 0.497444 0.331533
0.975204 0.509712 0.353964
0.196765 0.517876 0.320668
0.251835 0.522805 0.316182
0.328695 0.532372 0.317037
0.432105 0.536553 0.326894
0.496498 0.529458 0.308919
0.654734 0.587366 0.363226
0.777981 0.601007 0.363745
0.893858 0.610269 0.360265
0.996414 0.608804 0.352636
0.215244 0.597299 0.337102
0.271214 0.601129 0.33344
0.350271 0.609171 0.334783
0.458091 0.616053 0.353353
0.518868 0.6047 0.327031
0.596857 0.607462 0.310536
0.790829 0.698512 0.400732
0.918776 0.714626 0.403098
0.980484 0.721645 0.405921
0.231128 0.673365 0.351263
0.28661 0.674693 0.347387
0.366735 0.680156 0.347509
0.477729 0.688563 0.372671
0.543999 0.678218 0.348424
0.586801 0.663813 0.32018
0.717678 0.706722 0.336202
0.928634 0.811276 0.439734
0.972595 0.820691 0.445136
0.249699 0.751492 0.368383
0.303777 0.747753 0.361303
0.381079 0.748623 0.358144
0.492103 0.755688 0.385763
0.564477 0.748592 0.368872
0.609903 0.729763 0.331121
0.673274 0.728359 0.311543
0.861585 0.828397 0.387976
0.899687 0.849653 0.409506
0.0997787 0.11899 0.200305
0.12842 0.129168 0.208667
0.196323 0.158938 0.240574
0.307774 0.163394 0.322133
0.435386 0.158389 0.385687
0.534752 0.204929 0.422583
0.635706 0.251514 0.46247
0.738903 0.296681 0.50396
0.844007 0.340551 0.546059
0.0977951 0.158389 0.254795
0.141665 0.166018 0.248981
0.206287 0.19266 0.271214
0.316884 0.201099 0.328954
0.433661 0.21326 0.374365
0.530938 0.255299 0.405997
0.63183 0.297047 0.442374
0.735714 0.338125 0.480842
0.841688 0.378668 0.52018
0.118578 0.24683 0.303593
0.16875 0.24712 0.317418
0.242481 0.262867 0.330831
0.348394 0.272389 0.357656
0.455497 0.289158 0.378973
0.553552 0.320104 0.402396
0.654826 0.35317 0.431769
0.758511 0.387747 0.464378
0.86186 0.422614 0.498161
0.143282 0.345632 0.337713
0.195514 0.349599 0.34464
0.271778 0.362814 0.361593
0.375525 0.374792 0.376211
0.492226 0.381415 0.377691
0.598123 0.396017 0.399558
0.700984 0.418006 0.424933
0.803983 0.444144 0.454368
0.900816 0.471061 0.484367
0.178561 0.439506 0.370367
0.229328 0.445502 0.371481
0.298665 0.460456 0.37879
0.388724 0.478553 0.386389
0.504646 0.489296 0.409445
0.628504 0.496986 0.406241
0.74725 0.50312 0.419547
0.855146 0.517922 0.443763
0.947768 0.535775 0.469368
0.201022 0.527047 0.392554
0.253925 0.533608 0.390677
0.320684 0.547509 0.39379
0.404486 0.564294 0.397284
0.510567 0.569253 0.406592
0.638346 0.599603 0.446799
0.758129 0.61503 0.45037
0.889128 0.616419 0.441169
0.990311 0.620752 0.451301
0.218921 0.607828 0.408286
0.271778 0.613382 0.404013
0.336721 0.625315 0.405493
0.419867 0.639994 0.408362
0.532296 0.647486 0.422278
0.59913 0.637461 0.407843
0.773022 0.709361 0.483345
0.899962 0.727718 0.489601
0.987152 0.73698 0.490013
0.233738 0.684642 0.420737
0.284901 0.687449 0.413626
0.348074 0.696559 0.413962
0.431128 0.708583 0.415595
0.547845 0.719432 0.437995
0.612451 0.706706 0.41387
0.693645 0.708156 0.402838
0.908309 0.819745 0.520317
0.979477 0.837293 0.533562
0.250217 0.762478 0.434974
0.297688 0.760418 0.423667
0.3579 0.765148 0.42182
0.439765 0.773083 0.42034
0.558221 0.784848 0.448249
0.629297 0.774212 0.425727
0.674281 0.758495 0.400504
0.814496 0.806821 0.426932
0.900847 0.859586 0.489677
0.13257 0.15816 0.266529
0.15787 0.164767 0.2692
0.210452 0.192248 0.290745
0.291752 0.21944 0.342672
0.410422 0.218006 0.429587
0.547341 0.197101 0.502693
0.646998 0.242084 0.538582
0.7467 0.28925 0.576761
0.847944 0.335698 0.616968
0.124041 0.189548 0.316045
0.163851 0.195926 0.305638
0.216831 0.218494 0.330114
0.29778 0.24921 0.357046
0.415213 0.251637 0.432135
0.542885 0.24979 0.490242
0.640177 0.292775 0.521599
0.739162 0.336721 0.557092
0.840635 0.37995 0.595148
0.143603 0.262318 0.374426
0.183597 0.263111 0.38291
0.249058 0.28072 0.387976
0.323537 0.306538 0.410758
0.442191 0.310277 0.456764
0.558663 0.319738 0.494057
0.654032 0.356527 0.518502
0.752468 0.394278 0.548943
0.853819 0.432273 0.582666
0.160128 0.355901 0.410864
0.210101 0.357183 0.423133
0.278981 0.3673 0.447257
0.36321 0.386343 0.462409
0.475166 0.39382 0.486168
0.585107 0.406577 0.50219
0.684153 0.432364 0.520043
0.78468 0.461036 0.544228
0.885801 0.491615 0.572137
0.178943 0.448753 0.438163
0.23093 0.453696 0.446021
0.29984 0.467475 0.463249
0.390799 0.486259 0.485359
0.500694 0.499733 0.501625
0.61883 0.506096 0.498375
0.729564 0.516182 0.516869
0.832303 0.535103 0.540978
0.929229 0.556497 0.565881
0.211276 0.536324 0.465766
0.261021 0.542794 0.469078
0.32549 0.557794 0.479149
0.408545 0.579324 0.493843
0.506539 0.601297 0.505348
0.627268 0.613352 0.53164
0.753933 0.622171 0.52874
0.872297 0.628153 0.542
0.970459 0.639048 0.561685
0.226337 0.618296 0.482582
0.277821 0.624689 0.482322
0.341543 0.638788 0.487495
0.419715 0.65893 0.497215
0.509972 0.679881 0.503532
0.621393 0.687312 0.516991
0.757015 0.721874 0.56672
0.883131 0.740353 0.572808
0.992706 0.742519 0.565988
0.240574 0.696406 0.495338
0.290715 0.700435 0.490776
0.351614 0.711681 0.491447
0.425467 0.728771 0.497993
0.513344 0.747082 0.502297
0.633097 0.757809 0.520134
0.701839 0.745556 0.508858
0.890501 0.830488 0.602396
0.984649 0.852308 0.618997
0.256245 0.774777 0.508721
0.302266 0.773938 0.498329
0.358831 0.780453 0.493996
0.428443 0.793194 0.497612
0.514305 0.807813 0.49897
0.638392 0.822126 0.524865
0.706371 0.808606 0.503136
0.789471 0.808042 0.496132
0.912367 0.880491 0.580468
0.165042 0.197009 0.332448
0.188022 0.201694 0.33196
0.228428 0.224491 0.354849
0.299855 0.255421 0.382574
0.389715 0.278325 0.447242
0.513191 0.272633 0.537133
0.659068 0.236591 0.619638
0.759335 0.279576 0.655238
0.85864 0.326406 0.692149
0.152941 0.223087 0.377081
0.188678 0.228534 0.36492
0.238224 0.247562 0.38175
0.302617 0.279835 0.406958
0.392325 0.305943 0.454444
0.515145 0.303853 0.536828
0.652842 0.287709 0.606332
0.750973 0.329976 0.63798
0.849195 0.374792 0.67248
0.168246 0.283238 0.440162
0.199557 0.286198 0.441138
0.262394 0.302983 0.441077
0.324895 0.32784 0.471031
0.415122 0.356085 0.489372
0.537224 0.35491 0.556802
0.664576 0.352956 0.608515
0.760098 0.391867 0.633951
0.857053 0.432456 0.664302
0.185138 0.368551 0.483604
0.226093 0.368521 0.495674
0.287358 0.378347 0.515724
0.363516 0.400397 0.524437
0.444038 0.42504 0.549355
0.569543 0.426123 0.586282
0.6869 0.433265 0.61799
0.782208 0.465507 0.637232
0.879606 0.499443 0.662699
0.195087 0.459205 0.511864
0.246357 0.462043 0.523583
0.311452 0.472786 0.546059
0.394186 0.488701 0.575082
0.485161 0.510246 0.591638
0.601343 0.516808 0.613901
0.714122 0.526864 0.626337
0.815076 0.548837 0.640436
0.916136 0.573922 0.6607
0.209018 0.546304 0.533059
0.26099 0.551675 0.541283
0.326101 0.565408 0.558236
0.409003 0.586023 0.582803
0.511391 0.609537 0.609033
0.625879 0.624674 0.627039
0.744732 0.631342 0.619486
0.858061 0.639246 0.636255
0.958556 0.653788 0.657923
0.24065 0.629252 0.557153
0.288853 0.635111 0.560952
0.349554 0.64918 0.571786
0.426154 0.670878 0.588998
0.520912 0.698054 0.610147
0.625132 0.723674 0.625162
0.749508 0.737057 0.653681
0.880873 0.746777 0.650523
0.986206 0.752834 0.663951
0.251469 0.708675 0.57171
0.299672 0.712764 0.570535
0.359594 0.725048 0.575814
0.433158 0.744869 0.586862
0.521477 0.770321 0.602518
0.616754 0.794781 0.611261
0.732311 0.805249 0.628824
0.87541 0.84329 0.685725
0.989456 0.864057 0.69749
0.265873 0.786892 0.585611
0.310872 0.787274 0.578042
0.366888 0.795743 0.576883
0.435035 0.811078 0.581552
0.516884 0.832334 0.592599
0.608316 0.853468 0.59791
0.734173 0.867552 0.619654
0.804898 0.853773 0.611261
0.931991 0.910109 0.679652
0.197192 0.235538 0.398032
0.21825 0.239109 0.395773
0.255207 0.256687 0.415946
0.315114 0.2878 0.435492
0.392218 0.317571 0.480659
0.489174 0.336126 0.553002
0.615976 0.327367 0.644755
0.763638 0.288869 0.73109
0.871489 0.317464 0.772091
0.182666 0.257801 0.43859
0.214923 0.262623 0.426062
0.261982 0.278904 0.43653
0.312322 0.308034 0.469505
0.393698 0.34078 0.494255
0.489372 0.362432 0.556008
0.616037 0.356924 0.642435
0.763027 0.32665 0.722438
0.862211 0.367468 0.754696
0.188174 0.309407 0.502312
0.220081 0.312703 0.49781
0.279744 0.328405 0.494392
0.339559 0.351736 0.518547
0.411536 0.384237 0.541253
0.507927 0.407431 0.581689
0.633982 0.402975 0.658381
0.771695 0.388357 0.722911
0.868284 0.427482 0.749676
0.206744 0.384833 0.553017
0.2448 0.384466 0.561593
0.296498 0.395895 0.573861
0.370459 0.417975 0.578882
0.438819 0.443214 0.612406
0.537087 0.469551 0.624598
0.663447 0.465827 0.685481
0.791028 0.463157 0.73196
0.885939 0.498268 0.752667
0.22211 0.471397 0.586069
0.263264 0.472419 0.598352
0.323919 0.48072 0.621408
0.397299 0.496483 0.646555
0.480797 0.521553 0.657633
0.565545 0.54548 0.685832
0.696941 0.545235 0.715602
0.815641 0.550607 0.743313
0.911879 0.579171 0.758816
0.225025 0.557855 0.607904
0.27686 0.561334 0.618997
0.340261 0.572473 0.639673
0.418067 0.589792 0.668788
0.511757 0.610376 0.701259
0.607645 0.634287 0.719554
0.727092 0.640543 0.741115
0.842283 0.648936 0.750301
0.945586 0.667781 0.762203
0.236408 0.641138 0.625238
0.286885 0.645304 0.632227
0.349096 0.657832 0.647868
0.425834 0.678111 0.671717
0.520974 0.704662 0.702037
0.632807 0.732723 0.732601
0.751064 0.749599 0.752453
0.870268 0.756863 0.74078
0.981918 0.762829 0.755779
0.269963 0.721752 0.64802
0.315038 0.725078 0.650019
0.371588 0.736751 0.659586
0.442176 0.756573 0.676417
0.529641 0.784024 0.699916
0.634516 0.816571 0.726726
0.744183 0.845792 0.74548
0.871382 0.86041 0.775662
0.997406 0.871015 0.772961
0.280583 0.800015 0.663981
0.323262 0.800031 0.65922
0.377523 0.80885 0.661875
0.44509 0.826169 0.671595
0.527535 0.851133 0.687785
0.625055 0.881498 0.708995
0.724315 0.909087 0.71989
0.843168 0.923064 0.741527
0.956664 0.944472 0.784039
0.229007 0.273716 0.463279
0.248402 0.276677 0.460029
0.283726 0.291127 0.474769
0.332113 0.319463 0.497444
0.403952 0.35111 0.525902
0.486854 0.378637 0.581857
0.589593 0.393194 0.659449
0.718776 0.382223 0.752377
0.866712 0.343526 0.840894
0.21268 0.293126 0.500542
0.241764 0.297444 0.488304
0.287205 0.311742 0.493538
0.333974 0.336263 0.525551
0.402747 0.370947 0.546426
0.486641 0.401129 0.589532
0.588052 0.418677 0.659678
0.717433 0.410544 0.748638
0.866117 0.377249 0.832822
0.211765 0.338201 0.562356
0.242771 0.341527 0.555047
0.299702 0.35613 0.548943
0.357046 0.37792 0.568109
0.413092 0.408606 0.604166
0.502663 0.44094 0.622385
0.603006 0.459937 0.679347
0.732158 0.452964 0.761288
0.879408 0.425437 0.837324
0.23064 0.404547 0.619089
0.260563 0.405264 0.623026
0.311284 0.416953 0.628244
0.381857 0.438483 0.630945
0.448539 0.463462 0.659068
0.526589 0.495537 0.679774
0.629282 0.516365 0.713893
0.758373 0.509865 0.785382
0.896223 0.495766 0.845319
0.243458 0.48603 0.658
0.280598 0.485893 0.66891
0.339101 0.492897 0.688472
0.400641 0.510155 0.706416
0.482704 0.535714 0.714397
0.555138 0.561105 0.751461
0.660609 0.586358 0.759762
0.790845 0.581048 0.815091
0.919036 0.577676 0.85745
0.254978 0.570993 0.684123
0.296117 0.572457 0.695567
0.3552 0.580865 0.717525
0.427375 0.595331 0.746777
0.510384 0.615595 0.775082
0.599512 0.643275 0.788434
0.687419 0.666941 0.820417
0.824018 0.666163 0.844434
0.944198 0.670207 0.869093
0.253269 0.654963 0.702342
0.30367 0.657069 0.711162
0.36492 0.667185 0.729412
0.439048 0.684443 0.756481
0.527749 0.707195 0.790768
0.630625 0.732143 0.826291
0.730419 0.758373 0.846693
0.852567 0.764721 0.867994
0.969757 0.772137 0.873823
0.265614 0.737819 0.719249
0.312154 0.738186 0.722438
0.370062 0.747448 0.734722
0.441444 0.765255 0.755932
0.528511 0.791012 0.78558
0.634516 0.823209 0.820905
0.754726 0.855817 0.856123
0.876249 0.874525 0.877867
0.992645 0.882322 0.862272
0.302281 0.814038 0.741527
0.343236 0.813321 0.739895
0.394217 0.821347 0.746059
0.458274 0.837995 0.760189
0.537789 0.863279 0.782223
0.635081 0.896727 0.811521
0.748898 0.93489 0.843381
0.863569 0.967697 0.866087
0.977157 0.977142 0.892836
0.260502 0.31162 0.528267
0.277775 0.313527 0.523293
0.310445 0.323857 0.530907
0.350362 0.346654 0.553887
0.415915 0.377432 0.570138
0.491585 0.406363 0.611658
0.581918 0.427771 0.676051
0.694606 0.431922 0.759365
0.83418 0.405875 0.853941
0.242741 0.32874 0.562768
0.268956 0.332677 0.551247
0.312612 0.344594 0.550484
0.356085 0.364706 0.575067
0.411933 0.396048 0.599252
0.491112 0.427863 0.625605
0.580514 0.452323 0.680552
0.691478 0.460151 0.758053
0.831144 0.438331 0.84947
0.237675 0.368704 0.621805
0.266667 0.371923 0.613184
0.321279 0.385443 0.604837
0.375891 0.404913 0.617761
0.42797 0.430808 0.652262
0.504143 0.465141 0.667262
0.594369 0.491707 0.705867
0.703319 0.5019 0.773816
0.842649 0.482689 0.859785
0.252827 0.427802 0.682399
0.277165 0.429541 0.682048
0.329122 0.440696 0.681971
0.396384 0.461341 0.682734
0.460395 0.48484 0.704402
0.520348 0.514778 0.739162
0.618433 0.544579 0.74966
0.726253 0.556832 0.80293
0.865187 0.539452 0.881086
0.265995 0.503441 0.727718
0.30013 0.502815 0.735744
0.350866 0.509941 0.749584
0.410422 0.527276 0.76109
0.489235 0.55256 0.767117
0.560479 0.5776 0.796262
0.645029 0.608255 0.812604
0.755734 0.62414 0.841672
0.894514 0.608667 0.908919
0.278172 0.586069 0.758785
0.314656 0.585992 0.769543
0.370703 0.592126 0.790188
0.439475 0.604868 0.815732
0.508782 0.62623 0.836912
0.597147 0.654551 0.846998
0.672389 0.679469 0.885191
0.786786 0.702281 0.888136
0.926223 0.690028 0.938888
0.286656 0.669993 0.781033
0.326299 0.670359 0.790295
0.38349 0.677668 0.809567
0.452277 0.691585 0.837369
0.534249 0.710887 0.870954
0.625299 0.735073 0.901823
0.719066 0.765148 0.916625
0.811246 0.788159 0.947906
0.956481 0.782834 0.966644
0.290257 0.754803 0.79968
0.330907 0.753277 0.804013
0.387961 0.759899 0.817807
0.457542 0.774807 0.841138
0.541115 0.797009 0.873198
0.639353 0.824659 0.912032
0.750271 0.853895 0.950637
0.853605 0.882368 0.971511
0.98172 0.886412 0.988724
0.299092 0.835218 0.818372
0.340032 0.830549 0.816098
0.391623 0.834577 0.822614
0.456428 0.848051 0.83888
0.536263 0.870771 0.864713
0.633448 0.902251 0.899718
0.749615 0.940673 0.939925
0.877028 0.978561 0.979629
0.999939 0.999176 0.999954
