RED_IPP2_Creative/RED_FLUORESCE.cube
# RED Digital Cinema Output Transform LUT for IPP2
# Creatives by Eric Weidt
# BMD cube from Truelight v4.0
# Settings used in creation of this LUT are:
# Development Color Space = USER SELECTABLE
# Output Gamma Curve = USER SELECTABLE
# Output Tonemap = USER SELECTABLE
# Highlight Rolloff = USER SELECTABLE
LUT_3D_SIZE 5
0.000000 0.000000 0.000000
0.294922 0.000000 0.000000
0.475342 0.000000 0.000000
0.643066 0.000000 0.000000
0.894043 0.000000 0.000000
0.000000 0.295166 0.000000
0.287842 0.288330 0.075378
0.442871 0.264404 0.084900
0.611328 0.235718 0.046417
0.819824 0.232788 0.036560
0.000000 0.475342 0.000000
0.284668 0.464111 0.105591
0.463623 0.464600 0.121643
0.604004 0.447021 0.130859
0.762695 0.455322 0.146362
0.000000 0.642578 0.000000
0.253662 0.630371 0.064575
0.465332 0.623047 0.149414
0.626953 0.627441 0.164551
0.805664 0.650879 0.184204
0.000000 0.894043 0.000000
0.250488 0.838867 0.054840
0.490967 0.799316 0.182251
0.669434 0.825684 0.202759
0.872070 0.873047 0.228882
0.000000 0.000114 0.294922
0.295166 0.000000 0.294678
0.497314 0.000043 0.248535
0.657715 0.000010 0.218506
0.863281 0.000000 0.214966
0.000000 0.295166 0.294189
0.249756 0.249756 0.249756
0.518066 0.249878 0.249268
0.687012 0.249756 0.249268
0.920410 0.249634 0.249268
0.000000 0.497314 0.248169
0.249390 0.518066 0.249146
0.511230 0.511719 0.318115
0.654297 0.491211 0.327148
0.849121 0.480225 0.294922
0.000000 0.657715 0.218506
0.248901 0.687012 0.248901
0.509766 0.673828 0.346191
0.676758 0.676758 0.361328
0.841797 0.687500 0.377930
0.000000 0.863770 0.215088
0.249268 0.920410 0.249146
0.498291 0.868164 0.313232
0.705078 0.860352 0.395996
0.904297 0.904785 0.421387
0.000000 0.000109 0.475342
0.248169 0.000205 0.497070
0.475098 0.000026 0.475342
0.657715 0.000000 0.437988
0.856445 0.000000 0.428223
0.000000 0.248657 0.497070
0.249390 0.249634 0.517578
0.517578 0.249756 0.518066
0.704102 0.249756 0.477051
0.893555 0.249634 0.463867
0.000000 0.475342 0.475098
0.249146 0.518066 0.517578
0.499512 0.499512 0.499512
0.736816 0.499268 0.498779
0.945801 0.499023 0.498779
0.000000 0.657227 0.437500
0.249146 0.704102 0.476562
0.499023 0.736816 0.499268
0.730469 0.730957 0.560059
0.880371 0.726562 0.571777
0.000000 0.856445 0.427734
0.249023 0.894043 0.464111
0.499023 0.946777 0.499023
0.744629 0.898926 0.590332
0.935059 0.936035 0.613281
0.000000 0.000000 0.643066
0.218750 0.000084 0.657227
0.438232 0.000000 0.657715
0.643066 0.000000 0.642578
0.863770 0.000000 0.647461
0.000000 0.219238 0.657715
0.249268 0.249756 0.686523
0.476562 0.249634 0.704590
0.686523 0.249634 0.686523
0.894043 0.249390 0.678711
0.000000 0.438477 0.656738
0.249146 0.477051 0.703613
0.499268 0.499268 0.736816
0.736328 0.499268 0.735840
0.927246 0.499268 0.712891
0.000000 0.642578 0.642090
0.249146 0.687012 0.687012
0.498779 0.736816 0.736816
0.749512 0.749512 0.749512
0.972656 0.749023 0.749023
0.000000 0.863770 0.646973
0.249268 0.894043 0.679199
0.499023 0.927734 0.712891
0.749023 0.972656 0.748535
0.967285 0.967773 0.806152
0.000000 0.000003 0.894531
0.215698 0.000040 0.863770
0.427979 0.000000 0.856934
0.647949 0.000000 0.864258
0.894043 0.000000 0.894043
0.000000 0.216064 0.864258
0.249512 0.249634 0.920410
0.464355 0.249878 0.893555
0.679199 0.249756 0.894043
0.919922 0.249512 0.920410
0.000000 0.428467 0.855957
0.248901 0.464355 0.893066
0.499268 0.499268 0.946289
0.712891 0.499268 0.927246
0.945801 0.499023 0.945801
0.000000 0.647461 0.863770
0.249023 0.679199 0.894043
0.499023 0.713379 0.926758
0.749023 0.749023 0.972656
0.972168 0.749512 0.972168
0.000000 0.894043 0.893555
0.249023 0.920410 0.920410
0.499268 0.946289 0.946289
0.748535 0.972656 0.972168
1.000000 1.000000 1.000000
