RED_IPP2_Creative/RED_DEEP_CHROMA.cube
# RED Digital Cinema Output Transform LUT for IPP2
# Creatives by Eric Weidt
# BMD cube from Truelight v4.0
# Settings used in creation of this LUT are:
# Development Color Space = USER SELECTABLE
# Output Gamma Curve = USER SELECTABLE
# Output Tonemap = USER SELECTABLE
# Highlight Rolloff = USER SELECTABLE
LUT_3D_SIZE 5
0.059204 0.065857 0.062683
0.147827 0.063599 0.048828
0.335449 0.033203 0.000000
0.661621 0.053955 0.184326
0.951172 0.191406 0.620605
0.035278 0.158325 0.037842
0.136475 0.141724 0.021927
0.326904 0.155884 0.000000
0.678223 0.225342 0.165894
0.962891 0.276367 0.589844
0.014984 0.316650 0.000000
0.195557 0.323242 0.000000
0.338135 0.323975 0.000000
0.705078 0.440674 0.141602
0.994141 0.500000 0.387939
0.198364 0.651367 0.254639
0.284668 0.652832 0.251953
0.465576 0.663574 0.207275
0.702148 0.719238 0.324463
0.995605 0.749023 0.313721
1.000000 1.000000 1.000000
1.000000 1.000000 1.000000
1.000000 1.000000 1.000000
0.913574 1.000000 0.962891
0.873047 1.000000 0.902344
0.042084 0.065063 0.184814
0.144897 0.059296 0.160034
0.344238 0.000000 0.102722
0.687012 0.052734 0.274902
0.950684 0.196167 0.625000
0.016006 0.143188 0.168091
0.130737 0.142700 0.161133
0.369141 0.169556 0.168579
0.752930 0.209351 0.283447
0.962891 0.278076 0.594727
0.015900 0.333740 0.171631
0.182617 0.380859 0.183472
0.401855 0.383057 0.182739
0.742188 0.451904 0.255371
0.994141 0.500000 0.406982
0.209106 0.661621 0.312256
0.281738 0.664062 0.310547
0.483887 0.693848 0.299805
0.715332 0.736816 0.376953
0.995605 0.749512 0.354248
1.000000 1.000000 1.000000
1.000000 1.000000 1.000000
1.000000 1.000000 1.000000
0.914551 1.000000 0.964355
0.873047 1.000000 0.902832
0.023560 0.110352 0.369385
0.161011 0.113342 0.375977
0.380615 0.036621 0.320801
0.719238 0.072205 0.438477
0.944824 0.252197 0.670410
0.036987 0.201294 0.378662
0.157471 0.192505 0.401855
0.391357 0.180176 0.343506
0.757324 0.214111 0.430420
0.958008 0.297852 0.645996
0.067627 0.355713 0.398193
0.178711 0.390381 0.415771
0.377441 0.387939 0.389893
0.740723 0.442871 0.442871
0.994141 0.500000 0.529297
0.185303 0.661621 0.464355
0.281494 0.678711 0.466797
0.454834 0.710938 0.461670
0.722168 0.741211 0.490967
0.995605 0.749023 0.512695
1.000000 1.000000 1.000000
1.000000 1.000000 1.000000
1.000000 1.000000 1.000000
0.908203 1.000000 0.957031
0.869141 1.000000 0.898438
0.000000 0.298340 0.711914
0.000000 0.294678 0.708984
0.353516 0.277100 0.696289
0.682617 0.360596 0.759766
0.869629 0.541504 0.901367
0.000000 0.334717 0.719727
0.000000 0.334473 0.719727
0.353027 0.320068 0.706055
0.697754 0.365234 0.750000
0.883301 0.527832 0.887695
0.000000 0.452881 0.696289
0.000000 0.463623 0.728027
0.420898 0.450195 0.728027
0.736328 0.477051 0.719238
0.992676 0.502441 0.757324
0.000000 0.720703 0.754395
0.000000 0.726562 0.758301
0.472900 0.732422 0.744629
0.739258 0.742676 0.744629
0.996582 0.749023 0.751465
0.979492 1.000000 1.000000
0.979980 1.000000 1.000000
0.971191 1.000000 1.000000
0.854980 1.000000 0.905273
0.845215 1.000000 0.857910
0.000000 1.000000 1.000000
0.000000 1.000000 1.000000
0.000000 1.000000 1.000000
0.000000 1.000000 1.000000
0.000000 1.000000 1.000000
0.000000 1.000000 1.000000
0.000000 1.000000 1.000000
0.000000 1.000000 1.000000
0.000000 1.000000 1.000000
0.000000 1.000000 1.000000
0.000000 1.000000 1.000000
0.000000 1.000000 1.000000
0.000000 1.000000 1.000000
0.000000 1.000000 1.000000
0.000000 1.000000 1.000000
0.000000 0.750977 1.000000
0.000000 0.750977 1.000000
0.445801 0.750977 1.000000
0.743652 0.750488 1.000000
0.995117 0.750488 1.000000
0.000000 1.000000 1.000000
0.000000 1.000000 1.000000
0.000000 1.000000 1.000000
0.749512 0.999023 0.998535
0.999023 0.998047 0.998047
