RED_IPP2_Creative/RED_BW_0300.cube
# RED Digital Cinema Output Transform LUT for IPP2
# Creatives by Eric Weidt
# BMD cube from Truelight v4.0
# Settings used in creation of this LUT are:
# Development Color Space = USER SELECTABLE
# Output Gamma Curve = USER SELECTABLE
# Output Tonemap = USER SELECTABLE
# Highlight Rolloff = USER SELECTABLE
LUT_3D_SIZE 9
0.000082 0.000086 0.000098
0.011024 0.011024 0.011032
0.106812 0.106812 0.106812
0.219849 0.219849 0.219849
0.343506 0.343506 0.343506
0.491943 0.491943 0.491943
0.646484 0.646484 0.646484
0.778809 0.778809 0.778809
0.841309 0.841309 0.841309
0.047546 0.047577 0.047577
0.049805 0.049805 0.049805
0.121094 0.121094 0.121094
0.223999 0.223999 0.223999
0.344727 0.344727 0.344727
0.492188 0.492188 0.492188
0.646484 0.646484 0.646484
0.778809 0.778809 0.778809
0.841309 0.841309 0.841309
0.200439 0.200439 0.200439
0.190674 0.190674 0.190674
0.204956 0.204956 0.204956
0.256592 0.256592 0.256592
0.353760 0.353516 0.353516
0.493896 0.493896 0.493896
0.646973 0.646973 0.646973
0.778809 0.778809 0.778809
0.841309 0.841309 0.841309
0.328613 0.328613 0.328613
0.319580 0.319580 0.319580
0.317383 0.317383 0.317383
0.332520 0.332520 0.332520
0.385986 0.385986 0.385986
0.501465 0.501465 0.501465
0.648438 0.648438 0.648438
0.779297 0.779297 0.779297
0.841309 0.841309 0.841309
0.474609 0.474609 0.474365
0.461914 0.461914 0.461914
0.451660 0.451660 0.451660
0.447021 0.447021 0.447021
0.459961 0.459961 0.459961
0.526855 0.526855 0.526855
0.653809 0.653809 0.653809
0.780273 0.780273 0.780273
0.842285 0.842285 0.842285
0.639648 0.639648 0.639648
0.626465 0.626465 0.626465
0.613770 0.613770 0.613770
0.603027 0.603027 0.603027
0.595215 0.595215 0.595215
0.609375 0.609375 0.609375
0.679688 0.679688 0.679688
0.787109 0.787109 0.787109
0.845215 0.845215 0.845215
0.803711 0.803711 0.803711
0.791504 0.791504 0.791504
0.779785 0.779785 0.779785
0.767090 0.767090 0.767090
0.756836 0.756836 0.756836
0.749023 0.749023 0.749023
0.764160 0.764160 0.764160
0.819336 0.819336 0.819336
0.861328 0.861328 0.861328
0.907715 0.907715 0.907715
0.902832 0.902832 0.902832
0.896973 0.896973 0.896973
0.891113 0.891113 0.891113
0.884766 0.884766 0.884766
0.879395 0.879395 0.879395
0.879395 0.879395 0.879395
0.896484 0.896484 0.896484
0.914062 0.914062 0.914062
0.922363 0.922363 0.922363
0.923340 0.923340 0.923340
0.924316 0.924316 0.924316
0.926270 0.926270 0.926270
0.926270 0.926270 0.926270
0.928223 0.928223 0.928223
0.931641 0.931641 0.931641
0.945312 0.945312 0.945312
0.958984 0.958984 0.958984
0.040894 0.040894 0.040894
0.057465 0.057465 0.057465
0.133301 0.133301 0.133301
0.234985 0.234985 0.234985
0.358643 0.358643 0.358643
0.507324 0.507324 0.507324
0.661133 0.661133 0.661133
0.788086 0.788086 0.788086
0.843262 0.843262 0.843262
0.075989 0.075989 0.076050
0.087891 0.087891 0.087891
0.146118 0.146118 0.146118
0.239136 0.239136 0.239136
0.359863 0.359863 0.359863
0.507324 0.507324 0.507324
0.661133 0.661133 0.661133
0.788086 0.788086 0.788086
0.843262 0.843262 0.843262
0.208130 0.208130 0.208130
0.211792 0.211792 0.211792
0.224854 0.224854 0.224854
0.272217 0.272217 0.272217
0.368896 0.368896 0.368896
0.509277 0.509277 0.509277
0.661621 0.661621 0.661621
0.788086 0.788086 0.788086
0.843262 0.843262 0.843262
0.332031 0.332031 0.332031
0.333252 0.333252 0.333252
0.330811 0.330811 0.330811
0.345459 0.345459 0.345215
0.399658 0.399658 0.399658
0.516602 0.516602 0.516602
0.663086 0.663086 0.663086
0.788574 0.788574 0.788574
0.843262 0.843262 0.843262
0.476807 0.476807 0.476807
0.477051 0.477051 0.477051
0.466797 0.466797 0.466797
0.461426 0.461426 0.461426
0.474609 0.474609 0.474609
0.541992 0.541992 0.541992
0.668457 0.668457 0.668457
0.790039 0.790039 0.790039
0.844238 0.844238 0.844238
0.641113 0.641113 0.641113
0.641602 0.641602 0.641602
0.629883 0.629883 0.629883
0.617676 0.617676 0.617676
0.610352 0.610352 0.610352
0.624512 0.624512 0.624512
0.694824 0.694824 0.694824
0.796875 0.796875 0.796875
0.847656 0.847656 0.847656
0.805664 0.805664 0.805664
0.806152 0.806152 0.806152
0.793945 0.793945 0.793945
0.781738 0.781738 0.781250
0.771484 0.771484 0.771484
0.764160 0.764160 0.764160
0.778809 0.778809 0.778809
0.830566 0.830566 0.830566
0.866211 0.866211 0.866211
0.908203 0.908203 0.908203
0.908691 0.908691 0.908691
0.903320 0.903320 0.903320
0.897949 0.897949 0.897949
0.892578 0.892578 0.892578
0.887695 0.887695 0.887695
0.888672 0.888672 0.888672
0.905762 0.905762 0.905762
0.920410 0.920410 0.920410
0.922363 0.922363 0.922363
0.922363 0.922363 0.922363
0.923340 0.923340 0.923340
0.924316 0.924316 0.924316
0.925293 0.925293 0.925293
0.927246 0.927246 0.927246
0.933105 0.933105 0.933105
0.947754 0.947754 0.947754
0.960938 0.960938 0.960938
0.184692 0.184692 0.184692
0.188843 0.188843 0.188843
0.221680 0.221680 0.221680
0.276123 0.276123 0.276123
0.380371 0.380371 0.380371
0.523926 0.523926 0.523926
0.676758 0.676758 0.676758
0.796875 0.796875 0.796875
0.844238 0.844238 0.844238
0.193970 0.193970 0.193970
0.197632 0.197632 0.197632
0.228027 0.228027 0.228027
0.279053 0.279053 0.279053
0.381348 0.381348 0.381348
0.523926 0.523926 0.523926
0.676758 0.676758 0.676758
0.796875 0.796875 0.796875
0.844238 0.844238 0.844238
0.255859 0.255859 0.255859
0.258057 0.258057 0.257812
0.275391 0.275391 0.275391
0.305908 0.305908 0.305908
0.390137 0.390137 0.390137
0.525879 0.525879 0.525879
0.676758 0.676758 0.676758
0.796875 0.796875 0.796875
0.844238 0.844238 0.844238
0.348877 0.348877 0.348877
0.349609 0.349609 0.349609
0.357178 0.357178 0.356934
0.367432 0.367432 0.367432
0.418213 0.418213 0.418213
0.532715 0.532715 0.532715
0.678223 0.678223 0.678223
0.797363 0.797363 0.797363
0.844238 0.844238 0.844238
0.481934 0.481934 0.481689
0.482666 0.482666 0.482422
0.484863 0.484863 0.484863
0.479004 0.479004 0.479004
0.490967 0.490967 0.490967
0.557617 0.557617 0.557617
0.683594 0.683594 0.683594
0.798828 0.798828 0.798828
0.845215 0.845215 0.845215
0.643555 0.643555 0.643555
0.644043 0.644043 0.644043
0.645508 0.645508 0.645508
0.633789 0.633789 0.633789
0.626465 0.626465 0.626465
0.640137 0.640137 0.640137
0.709961 0.709961 0.709961
0.806152 0.806152 0.806152
0.849121 0.849121 0.849121
0.807129 0.807129 0.807129
0.807129 0.807129 0.807129
0.808105 0.808105 0.808105
0.796875 0.796875 0.796875
0.785645 0.785645 0.785645
0.779297 0.779297 0.779297
0.793945 0.793945 0.793945
0.841797 0.841797 0.841309
0.870117 0.870117 0.870117
0.909180 0.909180 0.909180
0.909180 0.909180 0.909180
0.909668 0.909668 0.909668
0.904785 0.904785 0.904785
0.899414 0.899414 0.899414
0.895508 0.895508 0.895508
0.896973 0.896973 0.896973
0.914551 0.914551 0.914551
0.926270 0.926270 0.926270
0.922363 0.922363 0.922363
0.922363 0.922363 0.922363
0.922363 0.922363 0.922363
0.923340 0.923340 0.923340
0.924805 0.924805 0.924805
0.926758 0.926758 0.926758
0.933105 0.933105 0.933105
0.949707 0.949707 0.949707
0.961914 0.961914 0.961914
0.312012 0.312012 0.312012
0.313232 0.313232 0.313232
0.323486 0.323486 0.323486
0.352783 0.352783 0.352783
0.418945 0.418945 0.418945
0.544922 0.544922 0.544922
0.692383 0.692383 0.692383
0.805176 0.805176 0.805176
0.844238 0.844238 0.844238
0.314697 0.314697 0.314697
0.315674 0.315674 0.315674
0.325684 0.325684 0.325684
0.354492 0.354492 0.354492
0.419678 0.419678 0.419678
0.544922 0.544922 0.544922
0.692383 0.692383 0.692383
0.805176 0.805176 0.805176
0.844238 0.844238 0.844238
0.337158 0.336914 0.336914
0.337891 0.337891 0.337891
0.345947 0.345947 0.345947
0.369873 0.369873 0.369873
0.426758 0.426758 0.426758
0.546875 0.546875 0.546875
0.692871 0.692871 0.692871
0.805176 0.805176 0.805176
0.844238 0.844238 0.844238
0.389648 0.389648 0.389648
0.390137 0.390137 0.390137
0.395020 0.395020 0.395020
0.410156 0.410156 0.410156
0.448975 0.448975 0.448730
0.552734 0.552734 0.552734
0.693848 0.693848 0.693848
0.805664 0.805664 0.805664
0.844727 0.844727 0.844727
0.496338 0.496338 0.496338
0.496338 0.496338 0.496338
0.497803 0.497803 0.497803
0.503906 0.503906 0.503418
0.514160 0.514160 0.514160
0.576660 0.576660 0.576660
0.699219 0.699219 0.699219
0.807129 0.807129 0.807129
0.845703 0.845703 0.845703
0.648926 0.648926 0.648926
0.648926 0.648926 0.648926
0.649902 0.649902 0.649902
0.650879 0.650879 0.650879
0.644043 0.644043 0.643555
0.657227 0.657227 0.657227
0.725586 0.725586 0.725586
0.814941 0.814941 0.814941
0.850098 0.850098 0.850098
0.809082 0.809082 0.809082
0.809570 0.809570 0.809570
0.810059 0.810059 0.810059
0.810547 0.810547 0.810547
0.800293 0.800293 0.800293
0.794434 0.794434 0.794434
0.809082 0.809082 0.809082
0.852539 0.852539 0.852539
0.874023 0.874023 0.874023
0.909668 0.909668 0.909668
0.910156 0.910156 0.910156
0.910156 0.910156 0.910156
0.910156 0.910156 0.910156
0.906250 0.906250 0.906250
0.902344 0.902344 0.902344
0.905762 0.905762 0.905762
0.922363 0.922363 0.922363
0.931152 0.931152 0.931152
0.922363 0.922363 0.922363
0.922363 0.922363 0.922363
0.922363 0.922363 0.922363
0.922363 0.922363 0.922363
0.922852 0.922852 0.922852
0.926270 0.926270 0.926270
0.933594 0.933594 0.933594
0.950684 0.950684 0.950684
0.961914 0.961914 0.961914
0.460693 0.460693 0.460693
0.460938 0.460938 0.460938
0.463379 0.463379 0.463379
0.471191 0.471191 0.471191
0.502441 0.502441 0.502441
0.580566 0.580566 0.580566
0.710938 0.710938 0.710938
0.813965 0.813965 0.813965
0.844238 0.844238 0.844238
0.461426 0.461426 0.461426
0.461426 0.461426 0.461426
0.463867 0.463867 0.463867
0.471680 0.471680 0.471680
0.502930 0.502930 0.502930
0.580566 0.580566 0.580566
0.710938 0.710938 0.710938
0.813965 0.813965 0.813965
0.844238 0.844238 0.844238
0.466797 0.466797 0.466797
0.467041 0.467041 0.467041
0.469238 0.469238 0.469238
0.476562 0.476562 0.476562
0.506348 0.506348 0.506348
0.582031 0.582031 0.582031
0.710938 0.710938 0.710938
0.814453 0.814453 0.813965
0.844238 0.844238 0.844238
0.483643 0.483643 0.483643
0.483887 0.483887 0.483887
0.485596 0.485596 0.485596
0.491943 0.491943 0.491943
0.518066 0.518066 0.518066
0.586914 0.586914 0.586914
0.712402 0.712402 0.712402
0.814453 0.814453 0.814453
0.844727 0.844727 0.844727
0.540039 0.540039 0.540039
0.540039 0.540039 0.540039
0.541016 0.541016 0.541016
0.544922 0.544922 0.544922
0.560547 0.560547 0.560547
0.607422 0.607422 0.607422
0.717285 0.717285 0.717285
0.816406 0.816406 0.816406
0.845703 0.845703 0.845703
0.661621 0.661621 0.661621
0.661621 0.661621 0.661621
0.662109 0.662109 0.662109
0.662598 0.662598 0.662598
0.668457 0.668457 0.668457
0.679199 0.679199 0.679199
0.743164 0.743164 0.743164
0.824707 0.824707 0.824707
0.851074 0.851074 0.851074
0.814453 0.814453 0.814453
0.813965 0.813965 0.813965
0.813965 0.813965 0.813965
0.814941 0.814941 0.814941
0.815918 0.815918 0.815918
0.810547 0.810547 0.810059
0.824219 0.824219 0.824219
0.863770 0.863770 0.863770
0.878418 0.878418 0.878418
0.911621 0.911621 0.911621
0.911621 0.911621 0.911621
0.911621 0.911621 0.911621
0.912109 0.912109 0.912109
0.912598 0.912598 0.912598
0.909668 0.909668 0.909668
0.914062 0.914062 0.914062
0.930664 0.930664 0.930664
0.936035 0.936035 0.936035
0.922852 0.922852 0.922852
0.922852 0.922852 0.922852
0.922852 0.922852 0.922852
0.923340 0.923340 0.923340
0.923340 0.923340 0.923340
0.925293 0.925293 0.925293
0.933594 0.933594 0.933594
0.952148 0.952148 0.952148
0.960938 0.960938 0.960938
0.628418 0.628418 0.628418
0.628418 0.628418 0.628418
0.628906 0.628906 0.628906
0.630371 0.630371 0.630371
0.637695 0.637695 0.637695
0.670898 0.670898 0.670898
0.747559 0.747559 0.747559
0.828125 0.828125 0.828125
0.848633 0.848633 0.848633
0.628906 0.628906 0.628906
0.628906 0.628906 0.628906
0.629395 0.629395 0.629395
0.630859 0.630859 0.630859
0.637695 0.637695 0.637695
0.670898 0.670898 0.670898
0.747559 0.747559 0.747559
0.828125 0.828125 0.828125
0.848633 0.848633 0.848633
0.629883 0.629883 0.629883
0.629883 0.629883 0.629883
0.629883 0.629883 0.629883
0.631348 0.631348 0.631348
0.638672 0.638672 0.638672
0.671387 0.671387 0.671387
0.748047 0.748047 0.748047
0.828613 0.828613 0.828613
0.848633 0.848633 0.848633
0.633301 0.633301 0.633301
0.633301 0.633301 0.633301
0.633789 0.633789 0.633301
0.634766 0.634766 0.634766
0.641602 0.641602 0.641602
0.673828 0.673828 0.673828
0.749023 0.749023 0.749023
0.829102 0.829102 0.828613
0.849121 0.849121 0.849121
0.648438 0.648438 0.648438
0.648438 0.648438 0.648438
0.648926 0.648926 0.648926
0.649902 0.649902 0.649902
0.655762 0.655762 0.655762
0.684082 0.684082 0.684082
0.752930 0.752930 0.752930
0.830566 0.830566 0.830566
0.850098 0.850098 0.850098
0.708496 0.708496 0.708496
0.708496 0.708496 0.708496
0.708496 0.708496 0.708496
0.708984 0.708984 0.708984
0.712402 0.712402 0.712402
0.729004 0.729004 0.729004
0.774414 0.774414 0.774414
0.839355 0.839355 0.839355
0.856445 0.856445 0.856445
0.827637 0.827637 0.827637
0.827637 0.827637 0.827637
0.827637 0.827637 0.827637
0.827637 0.827637 0.827637
0.828613 0.828613 0.828613
0.834473 0.834473 0.834473
0.846680 0.846680 0.846680
0.877930 0.877930 0.877930
0.885742 0.885742 0.885742
0.916992 0.916992 0.916992
0.916992 0.916992 0.916992
0.916504 0.916504 0.916504
0.916504 0.916504 0.916504
0.917480 0.917480 0.917480
0.919922 0.919922 0.919922
0.924316 0.924316 0.924316
0.939453 0.939453 0.939453
0.942383 0.942383 0.942383
0.926270 0.926270 0.926270
0.926270 0.926270 0.926270
0.926758 0.926758 0.926758
0.926270 0.926270 0.926270
0.926758 0.926758 0.926758
0.928711 0.928711 0.928711
0.937012 0.937012 0.937012
0.954102 0.954102 0.954102
0.961914 0.961914 0.961914
0.793457 0.793457 0.793457
0.793457 0.793457 0.793457
0.793457 0.793457 0.793457
0.793945 0.793945 0.793945
0.795410 0.795410 0.795410
0.802734 0.802734 0.802734
0.835449 0.835449 0.835449
0.872559 0.872559 0.872559
0.877441 0.877441 0.877441
0.793457 0.793457 0.793457
0.793457 0.793457 0.793457
0.793457 0.793457 0.793457
0.793945 0.793945 0.793945
0.795410 0.795410 0.795410
0.802734 0.802734 0.802734
0.835449 0.835449 0.835449
0.872559 0.872559 0.872559
0.877441 0.877441 0.877441
0.793945 0.793945 0.793945
0.793945 0.793945 0.793945
0.793945 0.793945 0.793945
0.793945 0.793945 0.793945
0.795410 0.795410 0.795410
0.803223 0.803223 0.803223
0.835938 0.835938 0.835938
0.872559 0.872559 0.872559
0.877441 0.877441 0.877441
0.794434 0.794434 0.794434
0.794434 0.794434 0.794434
0.794434 0.794434 0.794434
0.794922 0.794922 0.794922
0.795898 0.795898 0.795898
0.803711 0.803711 0.803711
0.836426 0.836426 0.836426
0.873047 0.873047 0.873047
0.877441 0.877441 0.877441
0.797363 0.797363 0.797363
0.797363 0.797363 0.797363
0.797363 0.797363 0.797363
0.797852 0.797852 0.797852
0.798828 0.798828 0.798828
0.806152 0.806152 0.806152
0.838379 0.838379 0.838379
0.874023 0.874023 0.874023
0.878418 0.878418 0.878418
0.813965 0.813965 0.813965
0.813965 0.813965 0.813965
0.813965 0.813965 0.813965
0.814453 0.814453 0.814453
0.815430 0.815430 0.815430
0.821777 0.821289 0.821289
0.849609 0.849609 0.849609
0.880859 0.880859 0.880859
0.883789 0.883789 0.883789
0.873535 0.873535 0.873535
0.873535 0.873535 0.873535
0.873535 0.873535 0.873535
0.873535 0.873535 0.873535
0.874023 0.874023 0.874023
0.877441 0.877441 0.877441
0.894043 0.894043 0.894043
0.911133 0.911133 0.911133
0.910156 0.910156 0.910156
0.937012 0.937012 0.937012
0.937012 0.937012 0.937012
0.937012 0.937012 0.937012
0.937500 0.937500 0.937500
0.937500 0.937500 0.937500
0.939453 0.939453 0.939453
0.948730 0.948730 0.948730
0.959473 0.959473 0.959473
0.957520 0.957520 0.957520
0.943848 0.943848 0.943848
0.943848 0.943848 0.943848
0.943848 0.943848 0.943848
0.944336 0.944336 0.944336
0.944824 0.944824 0.944824
0.946289 0.946289 0.946289
0.955078 0.955078 0.955078
0.968262 0.968262 0.968262
0.970215 0.970215 0.970215
0.890137 0.890137 0.890137
0.890137 0.890137 0.890137
0.890137 0.890137 0.890137
0.890625 0.890625 0.890625
0.890625 0.890625 0.890625
0.893555 0.893555 0.893555
0.908203 0.908203 0.908203
0.932617 0.932617 0.932617
0.932129 0.932129 0.932129
0.890137 0.890137 0.890137
0.890137 0.890137 0.890137
0.890137 0.890137 0.890137
0.890625 0.890625 0.890625
0.891113 0.891113 0.891113
0.893555 0.893555 0.893555
0.908203 0.908203 0.908203
0.932617 0.932617 0.932617
0.932129 0.932129 0.932129
0.890137 0.890137 0.890137
0.890137 0.890137 0.890137
0.890137 0.890137 0.890137
0.890625 0.890625 0.890625
0.891113 0.891113 0.891113
0.894043 0.894043 0.894043
0.908203 0.908203 0.908203
0.932617 0.932617 0.932617
0.932129 0.932129 0.932129
0.890625 0.890625 0.890625
0.890625 0.890625 0.890625
0.890625 0.890625 0.890625
0.890625 0.890625 0.890625
0.891113 0.891113 0.891113
0.894043 0.894043 0.894043
0.908203 0.908203 0.908203
0.932617 0.932617 0.932617
0.932617 0.932617 0.932617
0.891602 0.891602 0.891602
0.891602 0.891602 0.891602
0.891602 0.891602 0.891602
0.892090 0.892090 0.892090
0.892578 0.892578 0.892578
0.895020 0.895020 0.895020
0.909180 0.909180 0.909180
0.933594 0.933594 0.933594
0.933105 0.933105 0.933105
0.898438 0.898438 0.898438
0.898438 0.898438 0.898438
0.898438 0.898438 0.898438
0.898438 0.898438 0.898438
0.898926 0.898926 0.898926
0.901367 0.901367 0.901367
0.915039 0.915039 0.915039
0.937500 0.937500 0.937500
0.937012 0.937012 0.937012
0.927734 0.927734 0.927734
0.927734 0.927734 0.927734
0.927734 0.927734 0.927734
0.927734 0.927734 0.927734
0.928223 0.928223 0.928223
0.930176 0.930176 0.930176
0.940430 0.940430 0.940430
0.958496 0.958496 0.958496
0.955078 0.955078 0.955078
0.970215 0.970215 0.970215
0.970215 0.970215 0.970215
0.970215 0.970215 0.970215
0.970215 0.970215 0.970215
0.970215 0.970215 0.970215
0.971680 0.971680 0.971680
0.978516 0.978516 0.978516
0.990723 0.990723 0.990723
0.988281 0.988281 0.988281
0.974121 0.974121 0.974121
0.974121 0.974121 0.974121
0.974609 0.974609 0.974609
0.974609 0.974609 0.974609
0.975098 0.975098 0.974609
0.976074 0.976074 0.976074
0.982422 0.982422 0.982422
0.994629 0.994629 0.994629
0.995117 0.995117 0.995117
0.898926 0.898926 0.898926
0.898926 0.898926 0.898926
0.898926 0.898926 0.898926
0.899414 0.899414 0.898926
0.899414 0.899414 0.899414
0.902344 0.902344 0.902344
0.915527 0.915527 0.915527
0.937988 0.937988 0.937988
0.941406 0.941406 0.941406
0.898926 0.898926 0.898926
0.898926 0.898926 0.898926
0.898926 0.898926 0.898926
0.899414 0.899414 0.898926
0.899414 0.899414 0.899414
0.902344 0.902344 0.902344
0.915527 0.915527 0.915527
0.937988 0.937988 0.937988
0.941406 0.941406 0.941406
0.898926 0.898926 0.898926
0.898926 0.898926 0.898926
0.899414 0.899414 0.898926
0.899414 0.899414 0.899414
0.899902 0.899902 0.899902
0.902344 0.902344 0.902344
0.915527 0.915527 0.915527
0.937988 0.937988 0.937988
0.941406 0.941406 0.941406
0.899414 0.899414 0.899414
0.899414 0.899414 0.899414
0.899414 0.899414 0.899414
0.899414 0.899414 0.899414
0.899902 0.899902 0.899902
0.902344 0.902344 0.902344
0.915527 0.915527 0.915527
0.938477 0.938477 0.938477
0.941406 0.941406 0.941406
0.900391 0.900391 0.900391
0.900391 0.900391 0.900391
0.900391 0.900391 0.900391
0.900391 0.900391 0.900391
0.900879 0.900879 0.900879
0.903320 0.903320 0.903320
0.916504 0.916504 0.916504
0.938965 0.938965 0.938965
0.941895 0.941895 0.941895
0.906250 0.906250 0.906250
0.906250 0.906250 0.906250
0.906250 0.906250 0.906250
0.906738 0.906738 0.906250
0.906738 0.906738 0.906738
0.909180 0.909180 0.909180
0.921875 0.921875 0.921875
0.943359 0.943359 0.943359
0.946289 0.945801 0.945801
0.934082 0.934082 0.934082
0.934082 0.934082 0.934082
0.934082 0.934082 0.934082
0.934082 0.934082 0.934082
0.934082 0.934082 0.934082
0.936035 0.936035 0.936035
0.945801 0.945801 0.945801
0.962891 0.962891 0.962891
0.965332 0.965332 0.965332
0.974121 0.974121 0.974121
0.974121 0.974121 0.974121
0.974121 0.974121 0.974121
0.974121 0.974121 0.974121
0.974121 0.974121 0.974121
0.975586 0.975586 0.975586
0.981934 0.981934 0.981934
0.994141 0.994141 0.994141
0.995605 0.995605 0.995605
0.979004 0.979004 0.979004
0.979004 0.979004 0.979004
0.979004 0.979004 0.979004
0.979004 0.979004 0.979004
0.979004 0.979004 0.979004
0.980469 0.980469 0.980469
0.986328 0.986328 0.986328
0.998047 0.998047 0.998047
0.999512 0.999512 0.999512
