RED_IPP2_Creative/RED_FLASH.cube
# RED Digital Cinema Output Transform LUT for IPP2
# Creatives by Eric Weidt
# BMD cube from Truelight v4.0
# Settings used in creation of this LUT are:
# Development Color Space = USER SELECTABLE
# Output Gamma Curve = USER SELECTABLE
# Output Tonemap = USER SELECTABLE
# Highlight Rolloff = USER SELECTABLE
LUT_3D_SIZE 5
0.072144 0.069275 0.070068
0.222656 0.084778 0.081055
0.415039 0.182617 0.149414
0.672852 0.340820 0.246826
0.909668 0.519043 0.393555
0.159668 0.262207 0.149536
0.321533 0.314209 0.196045
0.541992 0.406982 0.301514
0.821777 0.548828 0.425293
0.915039 0.607910 0.477051
0.470703 0.645508 0.430176
0.565430 0.669922 0.465088
0.699219 0.688965 0.501465
0.880371 0.726074 0.543457
0.934082 0.737793 0.552734
0.679688 0.913086 0.613281
0.705078 0.901367 0.607910
0.773926 0.888672 0.610840
0.896973 0.884277 0.632812
0.970703 0.883301 0.642090
0.730469 0.977051 0.656250
0.752441 0.977539 0.657227
0.803711 0.978516 0.663574
0.900391 0.982910 0.682617
1.000000 0.992188 0.709961
0.096558 0.075195 0.195679
0.210815 0.100525 0.204712
0.406738 0.192139 0.265625
0.672852 0.361572 0.377441
0.904297 0.528809 0.492676
0.127808 0.286865 0.285889
0.335205 0.334229 0.334473
0.557129 0.428711 0.423096
0.825684 0.568359 0.539062
0.908203 0.618164 0.579590
0.487305 0.654785 0.536133
0.569336 0.672363 0.560059
0.693848 0.689453 0.586914
0.869141 0.727051 0.621582
0.926758 0.738770 0.627930
0.678223 0.908691 0.671387
0.701660 0.895508 0.663574
0.768066 0.882812 0.664062
0.888672 0.878906 0.680664
0.965332 0.878906 0.687012
0.730469 0.977051 0.699707
0.751953 0.977539 0.697266
0.801270 0.978516 0.699707
0.895020 0.982422 0.713379
1.000000 0.992188 0.736328
0.171875 0.109070 0.375732
0.255859 0.128784 0.375488
0.424805 0.212524 0.415771
0.682617 0.387207 0.521973
0.897949 0.544434 0.625000
0.255127 0.307861 0.435059
0.378174 0.365479 0.490479
0.577637 0.460205 0.573730
0.831055 0.589355 0.676270
0.902832 0.631836 0.709473
0.520996 0.665527 0.663086
0.565430 0.682617 0.681641
0.694336 0.693848 0.694336
0.856934 0.731445 0.727051
0.917480 0.744141 0.735352
0.688477 0.904297 0.773438
0.708008 0.890137 0.762695
0.767090 0.876465 0.757812
0.877441 0.873047 0.767090
0.956055 0.876465 0.770996
0.735840 0.976562 0.784668
0.754883 0.977051 0.777832
0.800781 0.978027 0.774414
0.889648 0.981934 0.779785
1.000000 0.992676 0.794922
0.312988 0.187866 0.619141
0.359131 0.197266 0.607910
0.488037 0.262695 0.629395
0.716797 0.420166 0.707031
0.902832 0.562988 0.789062
0.380371 0.362549 0.666016
0.478516 0.419434 0.720215
0.641602 0.500000 0.783691
0.858398 0.611328 0.851074
0.916504 0.646484 0.873535
0.587891 0.686523 0.829590
0.632324 0.696289 0.836426
0.717285 0.705566 0.840332
0.865234 0.738281 0.861816
0.922852 0.751953 0.868652
0.729004 0.899902 0.897461
0.739258 0.886719 0.884277
0.777832 0.875000 0.874023
0.874023 0.872559 0.873047
0.950684 0.876465 0.874512
0.765625 0.975586 0.906738
0.777832 0.976074 0.896484
0.813477 0.977539 0.886719
0.890625 0.981445 0.884766
0.998535 0.994141 0.891113
0.477051 0.304199 0.842285
0.506348 0.313721 0.844238
0.588379 0.354980 0.852539
0.764648 0.465820 0.877441
0.917969 0.580566 0.908691
0.503418 0.426025 0.850098
0.556152 0.465332 0.856445
0.677734 0.524902 0.870605
0.872070 0.621582 0.903809
0.922852 0.651367 0.915039
0.609863 0.695801 0.880371
0.647949 0.702148 0.883301
0.729492 0.709961 0.891113
0.873047 0.739258 0.914551
0.932129 0.752930 0.926758
0.744629 0.899902 0.940430
0.753418 0.886230 0.935059
0.790527 0.875000 0.932129
0.875977 0.873535 0.938965
0.954102 0.878906 0.952148
0.795410 0.977051 0.974609
0.808105 0.977539 0.975098
0.839355 0.979004 0.977539
0.900391 0.984375 0.983398
1.000000 0.999512 1.000000
