RED_IPP2_Creative/RED_FLASH.cube
# RED Digital Cinema Output Transform LUT for IPP2
# Creatives by Eric Weidt
# BMD cube from Truelight v4.0
# Settings used in creation of this LUT are:
# Development Color Space = USER SELECTABLE
# Output Gamma Curve = USER SELECTABLE
# Output Tonemap = USER SELECTABLE
# Highlight Rolloff = USER SELECTABLE
LUT_3D_SIZE 33
0.072144 0.069275 0.070068
0.098206 0.066528 0.066467
0.122009 0.063782 0.063416
0.144897 0.061432 0.060852
0.164673 0.060883 0.059967
0.182739 0.062500 0.061432
0.197998 0.066956 0.065491
0.210693 0.074951 0.072693
0.222656 0.084778 0.081055
0.237793 0.095886 0.090881
0.255859 0.106812 0.100647
0.278076 0.117981 0.109680
0.302979 0.129150 0.117737
0.329590 0.140991 0.125244
0.357666 0.154053 0.133179
0.385742 0.167603 0.140869
0.415039 0.182617 0.149414
0.445312 0.198730 0.158447
0.475830 0.215698 0.167969
0.505859 0.233154 0.177856
0.537598 0.251953 0.188721
0.570312 0.272461 0.200928
0.604004 0.294189 0.214722
0.637695 0.316650 0.229492
0.672852 0.340820 0.246826
0.708008 0.365723 0.265381
0.743652 0.391846 0.286377
0.780273 0.419189 0.308594
0.817871 0.447266 0.332031
0.855469 0.476318 0.355957
0.891602 0.504395 0.379883
0.909668 0.518555 0.392578
0.909668 0.519043 0.393555
0.058258 0.087524 0.057892
0.084045 0.084045 0.054413
0.109619 0.080750 0.050964
0.134033 0.078308 0.049896
0.158081 0.076843 0.049835
0.179688 0.077209 0.052673
0.197266 0.080383 0.058533
0.212646 0.087097 0.067261
0.226440 0.095825 0.077698
0.241211 0.105774 0.088745
0.258789 0.117249 0.100525
0.278564 0.128540 0.110596
0.302490 0.140137 0.119568
0.328369 0.151611 0.127075
0.356445 0.164185 0.134766
0.385742 0.177734 0.142822
0.413818 0.191895 0.151123
0.444580 0.208008 0.160645
0.476318 0.225464 0.171021
0.509277 0.244507 0.182617
0.542480 0.264404 0.195190
0.577637 0.286377 0.209595
0.612793 0.309082 0.225098
0.648926 0.333252 0.242676
0.684570 0.357910 0.261475
0.721680 0.384033 0.282471
0.759277 0.411133 0.304688
0.795898 0.437744 0.326660
0.833984 0.465820 0.349854
0.871582 0.494385 0.373535
0.909180 0.522949 0.397705
0.909668 0.524414 0.399658
0.909668 0.524414 0.400635
0.050934 0.104858 0.051117
0.074768 0.102600 0.047516
0.100647 0.100403 0.044647
0.126587 0.098633 0.043060
0.151733 0.097351 0.043396
0.175659 0.097412 0.047394
0.196045 0.099731 0.054535
0.214233 0.104248 0.064270
0.230835 0.111267 0.076050
0.246948 0.120239 0.088745
0.263428 0.130615 0.101196
0.282227 0.141968 0.112854
0.304443 0.153320 0.122681
0.331299 0.165405 0.131104
0.358398 0.177734 0.138916
0.388428 0.192139 0.147949
0.419434 0.207520 0.157715
0.451660 0.224976 0.168945
0.485107 0.243408 0.180908
0.519531 0.263428 0.194336
0.555176 0.284668 0.208862
0.590820 0.307129 0.225098
0.626953 0.330322 0.242310
0.664062 0.354980 0.261475
0.702148 0.380127 0.281982
0.737793 0.405029 0.302246
0.775879 0.431885 0.324219
0.813477 0.458252 0.345703
0.850586 0.485596 0.368164
0.888184 0.513184 0.391357
0.910156 0.530273 0.406006
0.910156 0.530762 0.407959
0.910156 0.531738 0.409180
0.050262 0.124390 0.050323
0.072388 0.123352 0.047729
0.096008 0.122559 0.045776
0.121216 0.121765 0.044647
0.147095 0.120850 0.045258
0.171631 0.121216 0.048767
0.195068 0.122375 0.055511
0.216064 0.125488 0.065125
0.234741 0.130859 0.076904
0.252441 0.138306 0.090210
0.270264 0.148071 0.104187
0.289551 0.159546 0.117371
0.312256 0.172241 0.129150
0.339111 0.185547 0.139404
0.369385 0.199707 0.149292
0.400146 0.214844 0.159668
0.432617 0.231445 0.171143
0.466553 0.249512 0.183716
0.500488 0.268555 0.197266
0.536133 0.288818 0.212280
0.571777 0.310303 0.228149
0.607910 0.332275 0.245239
0.644043 0.354736 0.262939
0.681152 0.378906 0.282715
0.718262 0.403076 0.302490
0.755371 0.427734 0.322266
0.792480 0.453125 0.343262
0.830566 0.479980 0.365479
0.869141 0.507324 0.388184
0.907227 0.535156 0.411621
0.910645 0.538574 0.415527
0.910156 0.539551 0.417480
0.910156 0.540039 0.418701
0.061951 0.144531 0.062042
0.079529 0.144531 0.059753
0.099731 0.144653 0.057587
0.122009 0.144897 0.056152
0.145874 0.145264 0.055878
0.169556 0.146118 0.058014
0.194946 0.147339 0.063293
0.218018 0.150513 0.072144
0.239624 0.155640 0.083679
0.260986 0.163330 0.098022
0.282471 0.173828 0.113403
0.304443 0.186035 0.128296
0.328369 0.199707 0.142212
0.355713 0.213867 0.154419
0.386475 0.228760 0.166016
0.418213 0.244385 0.177734
0.451904 0.261719 0.190918
0.485352 0.279541 0.204346
0.519531 0.298096 0.218750
0.554199 0.317383 0.233887
0.589844 0.337891 0.250244
0.626953 0.359863 0.268311
0.662598 0.381348 0.285889
0.699707 0.404541 0.304932
0.736328 0.427979 0.324219
0.774414 0.452881 0.344727
0.812988 0.478516 0.365967
0.850098 0.503906 0.386963
0.889648 0.531738 0.410400
0.910645 0.547363 0.424072
0.910645 0.548828 0.426758
0.910645 0.549805 0.428467
0.910645 0.550781 0.429932
0.079956 0.166138 0.080627
0.093323 0.166870 0.078308
0.109680 0.168457 0.076904
0.128540 0.169800 0.075134
0.150635 0.171753 0.074890
0.175293 0.174438 0.077026
0.200562 0.178101 0.082214
0.226196 0.183105 0.090576
0.251709 0.189453 0.101807
0.276123 0.197754 0.114990
0.300781 0.208130 0.130005
0.325195 0.220459 0.146118
0.349609 0.233887 0.161621
0.376953 0.248169 0.175537
0.408203 0.262939 0.187988
0.440430 0.278564 0.200684
0.472168 0.294434 0.213745
0.504395 0.311035 0.227295
0.538574 0.328857 0.242188
0.573242 0.347656 0.257812
0.607910 0.367432 0.274414
0.645020 0.388428 0.292236
0.682129 0.410400 0.310547
0.719238 0.432861 0.329102
0.756348 0.455566 0.347900
0.795410 0.480713 0.368896
0.833984 0.505859 0.389893
0.873047 0.531738 0.411621
0.911133 0.557617 0.433350
0.911621 0.559570 0.436035
0.911621 0.561035 0.438721
0.911621 0.562012 0.440430
0.911621 0.562988 0.441895
0.100220 0.190430 0.101868
0.112488 0.192871 0.101562
0.127686 0.196167 0.101440
0.146118 0.199951 0.101685
0.167969 0.204346 0.102905
0.191772 0.209351 0.105652
0.217651 0.215088 0.110596
0.243286 0.221802 0.117676
0.270264 0.229004 0.126831
0.297119 0.237793 0.139404
0.322266 0.247559 0.153687
0.347900 0.259277 0.169678
0.373779 0.271973 0.185791
0.401367 0.285645 0.200439
0.430176 0.298828 0.212769
0.460938 0.313477 0.225952
0.492920 0.328613 0.239502
0.525879 0.345215 0.254150
0.559570 0.362793 0.269531
0.594727 0.381592 0.285645
0.629883 0.400635 0.302002
0.666016 0.420654 0.319092
0.703613 0.442139 0.337158
0.741699 0.464600 0.356201
0.780273 0.487549 0.375244
0.817871 0.510742 0.394531
0.855957 0.534180 0.414551
0.894531 0.559570 0.435791
0.912109 0.571777 0.446533
0.912598 0.573242 0.448975
0.912598 0.575195 0.451172
0.912598 0.575684 0.452393
0.912598 0.577148 0.453857
0.125488 0.222778 0.124756
0.140625 0.226685 0.126953
0.157837 0.231689 0.129272
0.176636 0.236938 0.131836
0.197144 0.243286 0.135132
0.219360 0.249390 0.138672
0.244019 0.256348 0.143921
0.269043 0.263184 0.150513
0.295166 0.271729 0.159912
0.320557 0.280029 0.170654
0.346191 0.289307 0.183472
0.371338 0.299561 0.197754
0.397461 0.311035 0.213013
0.425293 0.323730 0.228271
0.454102 0.337402 0.241821
0.484863 0.351807 0.255615
0.516602 0.366699 0.269531
0.549805 0.382568 0.283936
0.583496 0.399414 0.299072
0.618652 0.417725 0.315186
0.653809 0.436768 0.331787
0.690430 0.456299 0.348633
0.726562 0.476318 0.365479
0.764160 0.496826 0.382812
0.801270 0.518066 0.400635
0.839844 0.541016 0.419678
0.876465 0.562500 0.437988
0.913574 0.585449 0.457031
0.913574 0.586914 0.458984
0.913574 0.588379 0.461182
0.913574 0.589844 0.462891
0.913574 0.590820 0.464600
0.913574 0.591797 0.465576
0.159668 0.262207 0.149536
0.176270 0.267090 0.154419
0.194092 0.272705 0.159546
0.212402 0.279053 0.164551
0.231812 0.285156 0.169189
0.252686 0.292236 0.175049
0.274902 0.299316 0.181274
0.297852 0.306641 0.188110
0.321533 0.314209 0.196045
0.345459 0.322510 0.205444
0.371582 0.331543 0.217285
0.397705 0.342285 0.231445
0.424072 0.353271 0.246094
0.451172 0.365723 0.260742
0.480225 0.378418 0.273926
0.511230 0.392090 0.287354
0.541992 0.406982 0.301514
0.575684 0.422852 0.316650
0.608887 0.439453 0.331543
0.643555 0.456299 0.346436
0.677734 0.473633 0.361816
0.713867 0.491699 0.377197
0.750000 0.510742 0.393555
0.785156 0.529297 0.408936
0.821777 0.548828 0.425293
0.857422 0.568359 0.441650
0.893555 0.588867 0.458740
0.914551 0.602051 0.469971
0.915039 0.603516 0.471924
0.915039 0.604492 0.473389
0.915039 0.605957 0.474854
0.915039 0.606445 0.475830
0.915039 0.607910 0.477051
0.196411 0.306396 0.177856
0.213135 0.312012 0.184204
0.229858 0.317383 0.190308
0.248047 0.323486 0.197144
0.266602 0.329590 0.203979
0.285645 0.335938 0.210938
0.306152 0.343018 0.218628
0.328125 0.350342 0.226074
0.351562 0.359131 0.235474
0.375732 0.367676 0.245483
0.399902 0.376709 0.256348
0.426025 0.386963 0.268799
0.452393 0.397949 0.281738
0.480225 0.410156 0.295654
0.509277 0.422363 0.308594
0.539062 0.436035 0.322266
0.570312 0.449463 0.335449
0.600586 0.463623 0.348633
0.633789 0.478516 0.362305
0.666992 0.493896 0.376221
0.700195 0.509277 0.389893
0.734863 0.525879 0.404053
0.768555 0.542480 0.417969
0.803711 0.559570 0.432373
0.837891 0.577148 0.447021
0.873535 0.595215 0.462158
0.908203 0.614258 0.477539
0.916504 0.619141 0.482178
0.916504 0.620117 0.483643
0.916504 0.621582 0.484863
0.916504 0.622070 0.485840
0.916504 0.623047 0.486572
0.916504 0.623535 0.487305
0.233276 0.352051 0.209351
0.249023 0.357910 0.216431
0.264893 0.363037 0.223022
0.282471 0.369629 0.230957
0.300781 0.375732 0.238892
0.320068 0.382568 0.247314
0.340576 0.390137 0.256348
0.361328 0.397217 0.264648
0.384521 0.406006 0.275146
0.407959 0.415039 0.285400
0.432617 0.424561 0.296143
0.457275 0.434326 0.307617
0.484131 0.445312 0.319824
0.510742 0.455811 0.331299
0.537109 0.466553 0.343018
0.565918 0.478516 0.354980
0.595215 0.490723 0.367432
0.625977 0.503418 0.379883
0.657227 0.516602 0.392090
0.687500 0.529785 0.403809
0.720215 0.543457 0.416016
0.751953 0.557617 0.427979
0.785645 0.572754 0.440674
0.818359 0.587891 0.453369
0.851562 0.603027 0.465820
0.885254 0.619141 0.479248
0.917969 0.635742 0.492920
0.918457 0.636719 0.493896
0.918457 0.636719 0.494141
0.918457 0.637695 0.494873
0.918457 0.638184 0.495850
0.918457 0.639160 0.496582
0.918457 0.639160 0.497070
0.271240 0.399414 0.244751
0.286377 0.405273 0.251953
0.302490 0.411865 0.259766
0.319336 0.417725 0.267334
0.337158 0.424561 0.275635
0.356689 0.431885 0.284912
0.376709 0.439697 0.294189
0.397705 0.447021 0.303467
0.419434 0.455078 0.313232
0.441895 0.463379 0.322998
0.465576 0.472168 0.333496
0.489502 0.480957 0.343750
0.514160 0.490479 0.354492
0.539062 0.499756 0.364990
0.564941 0.509277 0.375488
0.591309 0.519043 0.385986
0.619141 0.529785 0.396729
0.647461 0.540039 0.406982
0.676270 0.551270 0.417725
0.706055 0.563477 0.428711
0.735840 0.575195 0.438965
0.767578 0.587402 0.449707
0.798340 0.600586 0.460449
0.829102 0.613281 0.470947
0.862793 0.627441 0.482666
0.893555 0.641113 0.493896
0.920410 0.652832 0.503418
0.920410 0.653320 0.503906
0.920410 0.653809 0.504395
0.920410 0.654297 0.504883
0.920410 0.654785 0.505859
0.920410 0.654785 0.505859
0.920410 0.655273 0.506348
0.310791 0.448242 0.281982
0.325684 0.454834 0.289795
0.341309 0.461182 0.297607
0.358398 0.468506 0.306152
0.375732 0.475098 0.314453
0.394287 0.482422 0.323242
0.413330 0.489258 0.331787
0.433594 0.497070 0.341309
0.454102 0.503418 0.349854
0.475342 0.511230 0.359131
0.497314 0.518066 0.368164
0.519531 0.525879 0.377441
0.542480 0.533691 0.386719
0.565918 0.541504 0.395752
0.589844 0.549316 0.405029
0.614746 0.557617 0.414307
0.640137 0.566406 0.423340
0.666504 0.575684 0.432617
0.693848 0.584961 0.441650
0.722168 0.594727 0.450928
0.749512 0.604492 0.459717
0.778809 0.615234 0.468750
0.808105 0.625488 0.477295
0.838379 0.636719 0.486572
0.867676 0.648438 0.496094
0.898438 0.660156 0.505859
0.922852 0.670898 0.514648
0.922852 0.670898 0.514648
0.922852 0.670898 0.514648
0.922852 0.671387 0.515137
0.922852 0.671387 0.515137
0.922852 0.671387 0.515137
0.922852 0.671875 0.515625
0.352783 0.499512 0.321533
0.367188 0.505859 0.329346
0.381836 0.512207 0.336670
0.397705 0.518555 0.344482
0.414062 0.525391 0.352295
0.431152 0.531738 0.360107
0.449219 0.538086 0.368408
0.467041 0.543457 0.375732
0.486084 0.549805 0.383545
0.505371 0.555664 0.391357
0.525879 0.562012 0.399658
0.546387 0.567871 0.407471
0.567871 0.574219 0.415527
0.589844 0.580078 0.423340
0.611816 0.586914 0.431396
0.635254 0.593750 0.439209
0.659180 0.600586 0.447266
0.682617 0.607422 0.454590
0.708496 0.614746 0.462158
0.733887 0.622559 0.469727
0.760254 0.630371 0.476807
0.787109 0.639648 0.484863
0.815430 0.648438 0.492188
0.843750 0.658691 0.500488
0.874023 0.668945 0.509277
0.902832 0.680176 0.518066
0.925293 0.688477 0.525391
0.925293 0.688477 0.524902
0.925293 0.688477 0.524902
0.925293 0.687500 0.524414
0.925293 0.687500 0.524414
0.925293 0.688477 0.524902
0.925293 0.687500 0.524414
0.394287 0.550293 0.360107
0.407959 0.556641 0.367432
0.421387 0.562500 0.374268
0.435791 0.568359 0.381348
0.450439 0.573242 0.387695
0.465332 0.578613 0.394043
0.481689 0.583496 0.400879
0.498779 0.588867 0.407959
0.515625 0.593262 0.414062
0.533203 0.597656 0.420654
0.551758 0.602539 0.427490
0.571289 0.607422 0.434326
0.590820 0.611816 0.440918
0.610352 0.616211 0.447266
0.631348 0.621094 0.453857
0.651855 0.625977 0.460205
0.673828 0.631348 0.467041
0.696289 0.636719 0.473389
0.719238 0.642578 0.479980
0.744141 0.649414 0.486816
0.768555 0.655762 0.493164
0.795898 0.664062 0.500488
0.820801 0.671387 0.506836
0.849121 0.679688 0.513672
0.877930 0.689453 0.521973
0.905762 0.698242 0.529297
0.928223 0.706055 0.535645
0.928223 0.706055 0.535156
0.928223 0.705078 0.534668
0.928223 0.705078 0.534180
0.927734 0.704590 0.534180
0.927734 0.704102 0.533691
0.927734 0.703613 0.533203
0.434570 0.600098 0.397461
0.445557 0.604492 0.402832
0.458252 0.609863 0.408936
0.470215 0.613770 0.413818
0.483887 0.619141 0.420166
0.497803 0.623047 0.425781
0.511230 0.625977 0.430420
0.526367 0.629395 0.435791
0.541504 0.633301 0.441162
0.558594 0.637207 0.447021
0.575195 0.640625 0.452393
0.591797 0.643066 0.457275
0.609375 0.645996 0.462158
0.627930 0.648926 0.467529
0.646484 0.652344 0.473145
0.666992 0.656250 0.479004
0.687012 0.660645 0.484863
0.708496 0.665039 0.490967
0.730957 0.669434 0.496338
0.752441 0.674805 0.502441
0.776855 0.680176 0.508301
0.801758 0.686523 0.514160
0.826172 0.692871 0.519531
0.853516 0.700684 0.526855
0.879395 0.708008 0.532715
0.907227 0.716309 0.539551
0.931152 0.723633 0.545898
0.931152 0.723145 0.544922
0.931152 0.722656 0.544434
0.930664 0.721191 0.543457
0.930664 0.721191 0.542969
0.930664 0.721191 0.542969
0.930664 0.721191 0.542969
0.470703 0.645508 0.430176
0.481445 0.650391 0.435547
0.491699 0.653809 0.440186
0.502441 0.657227 0.444580
0.514160 0.660645 0.448975
0.525879 0.663086 0.453125
0.539062 0.666504 0.457520
0.551270 0.667969 0.460938
0.565430 0.669922 0.465088
0.579102 0.671875 0.468750
0.594238 0.673828 0.472900
0.609863 0.676270 0.477295
0.626953 0.678223 0.481934
0.644043 0.680664 0.486572
0.661621 0.683105 0.491211
0.680176 0.685547 0.496338
0.699219 0.688965 0.501465
0.719238 0.691895 0.506348
0.739746 0.695801 0.511719
0.761719 0.699707 0.517090
0.783691 0.703613 0.521973
0.806641 0.708984 0.527344
0.830566 0.714355 0.532715
0.855957 0.719727 0.538086
0.880371 0.726074 0.543457
0.907227 0.733398 0.549316
0.933594 0.741211 0.555664
0.934570 0.740234 0.555176
0.934570 0.739746 0.554688
0.934082 0.738281 0.553223
0.934082 0.738281 0.553223
0.934082 0.737793 0.552734
0.934082 0.737793 0.552734
0.504395 0.688477 0.460693
0.513184 0.691406 0.464355
0.521973 0.693848 0.468018
0.531738 0.696777 0.471436
0.541504 0.698730 0.474365
0.551270 0.699707 0.477051
0.561523 0.701172 0.479736
0.573730 0.702637 0.482910
0.585938 0.704102 0.486328
0.598633 0.705078 0.489014
0.612793 0.706543 0.492676
0.627441 0.708008 0.496338
0.642090 0.708496 0.499756
0.658691 0.710938 0.503906
0.674316 0.711426 0.507324
0.692383 0.713867 0.512207
0.709961 0.715332 0.516602
0.729004 0.717773 0.520996
0.748047 0.720215 0.525391
0.767578 0.722656 0.529297
0.790039 0.726562 0.535156
0.810547 0.729980 0.539062
0.833984 0.734375 0.544434
0.857422 0.739746 0.549805
0.882812 0.745117 0.554688
0.906738 0.751465 0.560059
0.934082 0.757812 0.565918
0.937988 0.758301 0.565918
0.937988 0.756836 0.564453
0.937500 0.756348 0.563965
0.937500 0.755859 0.563477
0.937500 0.755371 0.562988
0.937500 0.754395 0.562012
0.535645 0.728027 0.488281
0.542480 0.729980 0.490479
0.549316 0.730957 0.492432
0.556641 0.731445 0.494141
0.564453 0.732422 0.496094
0.573730 0.733398 0.498291
0.583984 0.734863 0.500977
0.594238 0.735840 0.503418
0.604492 0.735840 0.505371
0.616699 0.736328 0.507812
0.628906 0.737305 0.510254
0.642578 0.737793 0.513672
0.656250 0.737793 0.516113
0.671387 0.738770 0.520020
0.686523 0.739258 0.522949
0.702637 0.740234 0.526367
0.719727 0.741211 0.530273
0.737305 0.742188 0.533691
0.755859 0.744141 0.538086
0.774902 0.746094 0.542969
0.794434 0.749023 0.547363
0.815918 0.751953 0.551758
0.836426 0.754883 0.555664
0.859863 0.759277 0.560547
0.883301 0.764648 0.565918
0.907715 0.769531 0.570312
0.932617 0.775391 0.575684
0.941895 0.776855 0.577148
0.941895 0.774902 0.575684
0.941406 0.773926 0.574219
0.941406 0.773926 0.574219
0.941406 0.772461 0.573242
0.941406 0.772461 0.573242
0.562500 0.763184 0.511719
0.567871 0.763672 0.513184
0.574219 0.764648 0.514648
0.580566 0.765137 0.516113
0.587891 0.765625 0.517578
0.596191 0.766602 0.519531
0.604004 0.766113 0.520508
0.613281 0.766602 0.521973
0.623047 0.766113 0.523926
0.633789 0.766602 0.525879
0.645020 0.766602 0.527832
0.657227 0.766113 0.529785
0.669434 0.766113 0.531738
0.683105 0.765625 0.534180
0.697266 0.765625 0.537109
0.712891 0.765625 0.540039
0.728516 0.766113 0.543457
0.745117 0.766602 0.546875
0.762695 0.768066 0.550781
0.781250 0.770020 0.555176
0.800293 0.770996 0.559082
0.819824 0.773438 0.562988
0.840820 0.776367 0.567871
0.861816 0.779785 0.572266
0.884766 0.783203 0.576660
0.907715 0.787109 0.580566
0.933105 0.792480 0.585938
0.946289 0.794922 0.588379
0.945801 0.793457 0.586914
0.945801 0.791992 0.585449
0.945801 0.791992 0.585449
0.945312 0.791016 0.584473
0.945312 0.791016 0.584473
0.588379 0.796875 0.534180
0.593262 0.797363 0.535156
0.598145 0.796875 0.535645
0.603516 0.796875 0.536621
0.609863 0.796875 0.537598
0.616699 0.796875 0.538574
0.623535 0.796387 0.539551
0.631348 0.795898 0.540039
0.640137 0.795410 0.541016
0.648926 0.794434 0.541992
0.659668 0.793945 0.543945
0.670410 0.793457 0.545410
0.681641 0.792480 0.546387
0.694824 0.791992 0.548828
0.708008 0.791504 0.551270
0.722656 0.791504 0.553711
0.737305 0.790527 0.556152
0.752930 0.791016 0.559570
0.770020 0.791504 0.562988
0.787109 0.792480 0.566895
0.805664 0.793457 0.570801
0.824707 0.795410 0.575195
0.844238 0.797363 0.579102
0.865723 0.799805 0.583496
0.885742 0.802246 0.587402
0.909180 0.806152 0.591797
0.933105 0.810547 0.596680
0.951172 0.813477 0.599609
0.950684 0.812012 0.598145
0.950195 0.811035 0.597168
0.950195 0.809570 0.596191
0.949707 0.809082 0.595703
0.949707 0.808594 0.595215
0.613281 0.828125 0.555664
0.617188 0.828125 0.556152
0.620605 0.827637 0.555664
0.625488 0.827148 0.556152
0.630371 0.826660 0.556641
0.635742 0.825684 0.556641
0.642090 0.824707 0.556641
0.648438 0.823242 0.557129
0.656250 0.822266 0.557617
0.664551 0.821777 0.558594
0.673828 0.820801 0.559570
0.683105 0.819336 0.560059
0.693848 0.818359 0.561035
0.706055 0.817383 0.562988
0.718750 0.817383 0.565430
0.731934 0.816406 0.567383
0.746094 0.815918 0.569824
0.761230 0.815430 0.572266
0.777344 0.815918 0.576172
0.793945 0.815430 0.579102
0.812012 0.816406 0.583008
0.829590 0.817383 0.586426
0.848633 0.818359 0.590332
0.868164 0.820801 0.594727
0.888672 0.822754 0.598633
0.910156 0.825684 0.603027
0.932129 0.828613 0.606934
0.956055 0.833008 0.612305
0.955566 0.831055 0.610352
0.955078 0.830078 0.609375
0.954590 0.828125 0.607422
0.954590 0.827637 0.607422
0.954590 0.827148 0.606445
0.636719 0.858398 0.575684
0.639160 0.857422 0.575195
0.642578 0.856445 0.575195
0.645996 0.855469 0.574707
0.649414 0.853516 0.574219
0.654785 0.853516 0.574707
0.659668 0.851562 0.573730
0.665527 0.850098 0.573730
0.672363 0.849609 0.574219
0.679688 0.848145 0.574707
0.687988 0.847168 0.575195
0.696777 0.845703 0.575684
0.707031 0.844238 0.576660
0.717285 0.842773 0.577637
0.729492 0.842285 0.579102
0.741699 0.841309 0.581055
0.755371 0.840332 0.583008
0.769531 0.839844 0.585449
0.784180 0.838867 0.587891
0.800293 0.838867 0.591309
0.817871 0.839355 0.595215
0.834473 0.839355 0.598145
0.853027 0.840332 0.602539
0.871094 0.841309 0.605957
0.891113 0.842773 0.609863
0.912598 0.844727 0.614258
0.933105 0.847656 0.618652
0.956055 0.851074 0.623047
0.960938 0.850098 0.622070
0.960449 0.848145 0.620605
0.959961 0.847168 0.620117
0.959961 0.846191 0.619141
0.959473 0.845703 0.618164
0.658203 0.885742 0.594238
0.660645 0.884766 0.594238
0.663086 0.883789 0.593262
0.665527 0.882324 0.592285
0.669434 0.881348 0.592285
0.673340 0.879883 0.591797
0.677246 0.877930 0.591309
0.683105 0.877441 0.591309
0.688477 0.875488 0.590820
0.694824 0.873535 0.590820
0.702148 0.872559 0.590820
0.709961 0.870605 0.590820
0.719727 0.870117 0.592285
0.729492 0.868164 0.592285
0.739746 0.866699 0.593262
0.751953 0.865723 0.595215
0.764160 0.864746 0.596680
0.777832 0.864258 0.599121
0.791504 0.862793 0.600586
0.807129 0.861816 0.604004
0.822754 0.861816 0.606445
0.838867 0.861328 0.609863
0.856445 0.861816 0.613770
0.875000 0.862305 0.617188
0.893555 0.863770 0.621582
0.913574 0.864746 0.625488
0.934570 0.866211 0.628906
0.955078 0.869141 0.633301
0.966309 0.869629 0.634766
0.965820 0.867188 0.632812
0.965332 0.866211 0.631348
0.965332 0.865234 0.630859
0.965332 0.865234 0.630859
0.679688 0.913086 0.613281
0.681152 0.911621 0.612305
0.683105 0.910156 0.611328
0.685547 0.908691 0.610840
0.688477 0.907227 0.609863
0.691895 0.905762 0.609375
0.695801 0.904785 0.608887
0.700195 0.902832 0.607910
0.705078 0.901367 0.607910
0.710449 0.899902 0.607422
0.717285 0.897949 0.606934
0.724121 0.895996 0.606934
0.732910 0.895020 0.607422
0.741211 0.893066 0.607422
0.751465 0.891602 0.608398
0.762207 0.890137 0.609375
0.773926 0.888672 0.610840
0.786133 0.887695 0.612305
0.799805 0.886230 0.614258
0.813477 0.885254 0.616211
0.828613 0.884277 0.619141
0.844727 0.883789 0.622070
0.861328 0.883789 0.625488
0.878418 0.882812 0.628418
0.896973 0.884277 0.632812
0.916016 0.884766 0.636230
0.935059 0.885742 0.640137
0.955566 0.887695 0.644043
0.972168 0.889160 0.646973
0.971680 0.887207 0.645020
0.971191 0.885254 0.644043
0.970703 0.884277 0.643066
0.970703 0.883301 0.642090
0.701660 0.939453 0.632324
0.702637 0.937988 0.631348
0.704102 0.937012 0.630371
0.706055 0.935059 0.629395
0.708008 0.933594 0.628418
0.710449 0.931641 0.626953
0.713867 0.930176 0.626465
0.717773 0.928223 0.625488
0.721680 0.926270 0.625000
0.726562 0.924805 0.624023
0.732910 0.923340 0.624023
0.738281 0.920898 0.623047
0.746094 0.919434 0.623047
0.753906 0.917969 0.623535
0.762695 0.916016 0.623535
0.772949 0.914551 0.624512
0.783203 0.913086 0.625000
0.794922 0.911133 0.626465
0.807129 0.909668 0.627441
0.820801 0.908203 0.629395
0.834961 0.906738 0.631836
0.850098 0.906250 0.634277
0.865723 0.905273 0.637207
0.882324 0.905273 0.640625
0.899414 0.904785 0.643555
0.918457 0.905273 0.647461
0.936523 0.905762 0.650879
0.956543 0.906738 0.654785
0.977051 0.907715 0.658691
0.977539 0.906250 0.657227
0.977051 0.904297 0.655762
0.976562 0.903809 0.655273
0.976074 0.902344 0.654297
0.723145 0.965820 0.651367
0.723145 0.963867 0.649902
0.724609 0.962402 0.648926
0.725586 0.960449 0.647461
0.727051 0.958496 0.645996
0.729492 0.956543 0.645020
0.732422 0.955566 0.644531
0.735352 0.953613 0.643066
0.738770 0.951660 0.642090
0.743164 0.949707 0.641602
0.748047 0.947754 0.640625
0.753418 0.945312 0.639648
0.759766 0.943848 0.639648
0.766602 0.941895 0.639160
0.774902 0.939941 0.639160
0.783203 0.937988 0.639160
0.792969 0.936035 0.639648
0.804199 0.935059 0.641113
