RED_IPP2_Creative/RED_FilmBias.cube
#RED_IPP2_CREATIVE_LUT
# RED_FilmBias - Color inspired by motion picture film
# created by Phil Holland - phfx.com
# Settings used in creation of this LUT are:
# Development Color Space = USER SELECTABLE
# Output Gamma Curve = USER SELECTABLE
# Output Tonemap = USER SELECTABLE
# Highlight Rolloff = USER SELECTABLE
LUT_3D_SIZE 33
0 0 0
0.028397 0.00889601 0.00972
0.0565042 0.0182193 0.0196689
0.0845808 0.0276493 0.0295567
0.112718 0.0370031 0.039704
0.140856 0.0463417 0.049836
0.169024 0.0556649 0.059968
0.197223 0.0649729 0.0700847
0.225437 0.0742657 0.0801862
0.253666 0.0835584 0.0902876
0.28191 0.0928359 0.100374
0.310094 0.10222 0.110323
0.338338 0.111528 0.120378
0.366567 0.120867 0.130465
0.394797 0.130205 0.140566
0.423026 0.139559 0.150683
0.45127 0.148928 0.160815
0.4795 0.158297 0.170962
0.507729 0.167681 0.181109
0.535973 0.177066 0.191272
0.564202 0.18645 0.20145
0.592508 0.195743 0.211337
0.620768 0.205097 0.221439
0.649027 0.214466 0.231556
0.677272 0.223819 0.241657
0.705501 0.233173 0.251774
0.73373 0.242527 0.261906
0.761959 0.251881 0.272023
0.790173 0.261234 0.282139
0.818372 0.270588 0.292256
0.846586 0.279927 0.302388
0.8748 0.289281 0.312505
0.891783 0.295033 0.318853
0.0148623 0.0284581 0.0137789
0.0348058 0.0289006 0.0107424
0.0644388 0.0303197 0.00959792
0.0931258 0.0344701 0.0158694
0.120394 0.041825 0.0256504
0.147738 0.0502174 0.0358892
0.17525 0.0590219 0.0462043
0.202914 0.06804 0.0565042
0.230671 0.0771801 0.0667735
0.258518 0.0863813 0.0770428
0.286427 0.095613 0.0871748
0.314397 0.104891 0.0973373
0.342412 0.114168 0.107485
0.370459 0.123461 0.117632
0.39852 0.132784 0.12781
0.426612 0.142123 0.137972
0.454719 0.151476 0.148165
0.482841 0.16083 0.158343
0.511009 0.170153 0.168475
0.539269 0.17937 0.178485
0.567544 0.188586 0.188479
0.59585 0.197787 0.198459
0.624155 0.206973 0.208438
0.652506 0.216114 0.218372
0.680858 0.225254 0.228305
0.709224 0.234363 0.238209
0.737591 0.243458 0.248096
0.76585 0.252689 0.258091
0.794034 0.261997 0.268162
0.822232 0.271321 0.278248
0.850416 0.280644 0.288334
0.878614 0.289982 0.298436
0.894118 0.295415 0.304677
0.0301518 0.0565805 0.0283055
0.0476234 0.0557259 0.026215
0.0698253 0.0575418 0.0209201
0.0987716 0.0584726 0.0180514
0.129381 0.0599374 0.018265
0.158785 0.0629129 0.0231174
0.186435 0.0685588 0.0316625
0.213672 0.0756237 0.041413
0.240879 0.0834821 0.0515602
0.268162 0.0918135 0.0618753
0.295537 0.10045 0.0721752
0.323003 0.10927 0.082475
0.350561 0.118212 0.0927749
0.37821 0.12723 0.103059
0.405921 0.136309 0.113329
0.433707 0.145449 0.123613
0.461524 0.154635 0.133883
0.489403 0.163851 0.144152
0.517296 0.173098 0.154421
0.545235 0.182361 0.164614
0.573205 0.191638 0.174823
0.60119 0.200931 0.185016
0.629191 0.210239 0.195224
0.657206 0.219547 0.205417
0.685237 0.228855 0.21561
0.713283 0.238163 0.225788
0.741329 0.247471 0.235966
0.769375 0.256779 0.246113
0.797436 0.266087 0.256245
0.825513 0.275395 0.266377
0.85359 0.284718 0.276509
0.881666 0.294041 0.286656
0.895766 0.299046 0.2925
0.0451514 0.0846418 0.0424048
0.0629587 0.0826123 0.04094
0.07953 0.0848402 0.0369726
0.10486 0.0861677 0.0309606
0.133196 0.0869764 0.0280308
0.162463 0.0891737 0.0279393
0.1944 0.0895705 0.0267796
0.224201 0.0920272 0.0309453
0.252399 0.0966201 0.038407
0.27985 0.102663 0.0474403
0.307057 0.109667 0.0571908
0.334218 0.117296 0.0672465
0.36141 0.125322 0.0774701
0.388678 0.133654 0.0877699
0.416022 0.142168 0.098085
0.443442 0.150835 0.108431
0.470924 0.15964 0.118776
0.498466 0.168536 0.129137
0.52607 0.177493 0.139483
0.553719 0.186526 0.149798
0.581415 0.195621 0.160082
0.60914 0.20473 0.170352
0.636912 0.213886 0.180636
0.664714 0.223056 0.19089
0.692531 0.232242 0.201144
0.720378 0.241428 0.211383
0.748241 0.250629 0.221607
0.776135 0.259861 0.23183
0.804044 0.269093 0.242023
0.831952 0.278325 0.252201
0.859892 0.287587 0.262379
0.887861 0.296849 0.272557
0.900526 0.301396 0.27805
0.0596933 0.112612 0.0560006
0.0782483 0.109804 0.0557565
0.0940108 0.110887 0.0518959
0.112703 0.113359 0.0461585
0.139818 0.114794 0.0409705
0.168521 0.115099 0.0372015
0.195514 0.118486 0.0392157
0.227192 0.119158 0.0364996
0.259464 0.119234 0.0353094
0.289494 0.121401 0.0390478
0.31812 0.125353 0.045716
0.345876 0.130709 0.0540932
0.37322 0.136995 0.0633402
0.400443 0.143938 0.0730602
0.427634 0.151369 0.0830549
0.454826 0.159152 0.0932021
0.482048 0.167224 0.103456
0.509331 0.175509 0.113756
0.53666 0.183963 0.124117
0.564019 0.192554 0.134463
0.59144 0.201282 0.144808
0.618906 0.210071 0.155138
0.646418 0.218936 0.165484
0.673976 0.227863 0.175799
0.701549 0.236835 0.186114
0.729183 0.245838 0.196414
0.756832 0.254871 0.206714
0.784512 0.263935 0.216999
0.812238 0.27303 0.227237
0.839979 0.282139 0.237491
0.86775 0.291279 0.24773
0.895537 0.30045 0.257969
0.906783 0.30454 0.263096
0.0736858 0.140368 0.0690471
0.0932784 0.137041 0.0702068
0.109468 0.137011 0.0662547
0.124529 0.139254 0.062501
0.146059 0.141665 0.0552682
0.174731 0.143374 0.0509651
0.203723 0.143526 0.0467994
0.231586 0.145678 0.0466773
0.259373 0.149203 0.0486305
0.292561 0.148669 0.0443275
0.324575 0.148943 0.0438544
0.354696 0.151019 0.0474708
0.383612 0.154574 0.0535744
0.411719 0.159319 0.061265
0.439323 0.164981 0.0699626
0.466667 0.171328 0.0792859
0.493919 0.17821 0.0889754
0.521111 0.185489 0.0988937
0.548302 0.193118 0.108995
0.575509 0.201007 0.119203
0.602716 0.209125 0.129458
0.629969 0.217395 0.139757
0.657252 0.225818 0.150072
0.684581 0.234348 0.160403
0.71194 0.242954 0.170733
0.739345 0.251667 0.181079
0.766796 0.260426 0.191409
0.794278 0.269245 0.20174
0.82179 0.278126 0.212055
0.849348 0.287053 0.222339
0.876921 0.29601 0.232639
0.90454 0.305013 0.242924
0.914351 0.308614 0.2477
0.0870527 0.167865 0.0814679
0.107988 0.164157 0.084184
0.124529 0.163378 0.0808881
0.139422 0.164599 0.0760204
0.155779 0.166751 0.071046
0.179522 0.169802 0.0644694
0.209567 0.171908 0.0608835
0.23888 0.172107 0.0566567
0.267185 0.17348 0.0551614
0.293767 0.177493 0.0584726
0.324163 0.179294 0.0569467
0.357824 0.178332 0.0525673
0.389578 0.178836 0.0527352
0.419837 0.180789 0.0561074
0.449012 0.184009 0.0616922
0.477424 0.188281 0.0688182
0.505302 0.193423 0.0769818
0.53283 0.199268 0.0858625
0.560159 0.205661 0.0952163
0.587411 0.212482 0.104891
0.614588 0.219715 0.114778
0.641749 0.227222 0.124804
0.66891 0.234958 0.134936
0.696086 0.242893 0.145129
0.723293 0.250996 0.155383
0.75053 0.259236 0.165667
0.777798 0.267613 0.175982
0.805097 0.276066 0.186313
0.832441 0.284627 0.196643
0.8598 0.293263 0.206958
0.887205 0.301961 0.217273
0.914641 0.310735 0.227588
0.923064 0.313848 0.232013
0.0997482 0.19501 0.0932174
0.122301 0.191043 0.0976883
0.139254 0.189761 0.0952316
0.154437 0.190112 0.090013
0.168292 0.191989 0.0858167
0.187243 0.193652 0.0781872
0.213245 0.197757 0.0738079
0.244327 0.200397 0.0708782
0.273945 0.200824 0.066804
0.302464 0.20174 0.0644236
0.329839 0.204761 0.0659495
0.356023 0.209567 0.0704814
0.3897 0.208865 0.0646067
0.422934 0.208209 0.061326
0.454582 0.208804 0.0617075
0.484947 0.210636 0.0648661
0.514336 0.213581 0.0700236
0.543008 0.217487 0.0766308
0.57113 0.222202 0.0843061
0.598856 0.227588 0.0927596
0.626291 0.23357 0.101778
0.653574 0.240009 0.111162
0.680781 0.246815 0.12079
0.707973 0.253925 0.130617
0.735119 0.261311 0.140581
0.76228 0.268925 0.150668
0.789456 0.276738 0.16083
0.816648 0.284703 0.171038
0.843854 0.292805 0.181292
0.871077 0.301045 0.191562
0.898329 0.309377 0.201862
0.925612 0.317815 0.212161
0.932662 0.320424 0.21619
0.111757 0.221744 0.104265
0.136156 0.217639 0.110658
0.153613 0.216007 0.109056
0.169009 0.215763 0.104082
0.183047 0.216571 0.0984817
0.197436 0.218357 0.0942092
0.218677 0.220279 0.0850996
0.247074 0.225589 0.0830549
0.279011 0.228824 0.0808423
0.308995 0.229557 0.076997
0.337652 0.230182 0.074052
0.365545 0.232502 0.0742351
0.391821 0.236896 0.078233
0.420661 0.239918 0.0790417
0.455116 0.238499 0.0726177
0.488075 0.238056 0.0700542
0.519646 0.238727 0.0706188
0.550088 0.240467 0.0735943
0.579629 0.243198 0.0784009
0.608484 0.246784 0.084596
0.63679 0.251164 0.0918593
0.664668 0.256199 0.0999161
0.692271 0.261799 0.108568
0.719661 0.267857 0.117647
0.746944 0.274296 0.127031
0.774166 0.281071 0.13666
0.801343 0.288121 0.146456
0.828519 0.29543 0.156374
0.85568 0.302937 0.166415
0.882826 0.310643 0.176532
0.909987 0.318502 0.186694
0.937179 0.326497 0.196902
0.942885 0.328603 0.200519
0.122957 0.24799 0.114519
0.149554 0.243854 0.12314
0.167544 0.241993 0.122377
0.1832 0.241321 0.117891
0.197452 0.241398 0.111818
0.210468 0.242542 0.106783
0.22707 0.243549 0.0999924
0.250156 0.246799 0.0921492
0.280888 0.253346 0.0922255
0.313649 0.257191 0.0906996
0.344045 0.258274 0.0871443
0.372839 0.258732 0.0838636
0.401022 0.260548 0.0830701
0.428 0.264118 0.0855879
0.454429 0.268772 0.0897536
0.486488 0.269368 0.0860304
0.520516 0.268177 0.0807507
0.553216 0.267903 0.0787366
0.58471 0.268605 0.0794385
0.615198 0.270268 0.0822919
0.644846 0.272816 0.0868238
0.673823 0.276204 0.0927138
0.702296 0.280293 0.0996109
0.730358 0.285008 0.107301
0.758129 0.290257 0.115587
0.785672 0.295979 0.124361
0.813031 0.302098 0.133501
0.840314 0.308553 0.142901
0.867552 0.315297 0.152499
0.894728 0.322316 0.16228
0.921889 0.329564 0.172183
0.94905 0.337011 0.182177
0.953445 0.338628 0.185351
0.133288 0.273716 0.123919
0.162463 0.269642 0.135103
0.181033 0.267659 0.135164
0.196994 0.266667 0.131304
0.211414 0.266255 0.125185
0.224537 0.266407 0.118776
0.237354 0.267689 0.114519
0.256397 0.268315 0.105013
0.281834 0.273304 0.0999619
0.314687 0.281041 0.10132
0.348241 0.285496 0.100481
0.379065 0.286961 0.0972763
0.408042 0.287373 0.0937667
0.436393 0.288777 0.0922713
0.463874 0.291707 0.0935988
0.489998 0.2963 0.0979477
0.518303 0.299733 0.0994583
0.552178 0.298863 0.0934005
0.585855 0.297871 0.0889754
0.618357 0.297704 0.0873884
0.649775 0.298436 0.0881971
0.680247 0.300053 0.0909895
0.709972 0.302495 0.0953536
0.739086 0.305684 0.100938
0.767742 0.309529 0.107485
0.795972 0.313954 0.114839
0.823896 0.318914 0.122805
0.851591 0.324331 0.131289
0.879088 0.330144 0.140154
0.906447 0.336324 0.14934
0.9337 0.342824 0.15877
0.960922 0.349569 0.168368
0.964034 0.350713 0.171099
0.150347 0.297978 0.140246
0.173861 0.295064 0.145724
0.193301 0.293065 0.146639
0.209918 0.291798 0.143633
0.224735 0.29099 0.138018
0.238117 0.290486 0.131304
0.250309 0.290761 0.125399
0.26482 0.291279 0.119341
0.285557 0.292821 0.10956
0.313726 0.29984 0.107851
0.348455 0.308659 0.110353
0.382788 0.313756 0.110185
0.414038 0.315618 0.107378
0.443214 0.31606 0.103777
0.471717 0.317143 0.101717
0.49955 0.319554 0.102068
0.526268 0.323461 0.105196
0.551659 0.328893 0.110994
0.583185 0.329915 0.107729
0.617731 0.328389 0.101015
0.651118 0.327535 0.0972457
0.683421 0.327489 0.0960403
0.714748 0.328283 0.0970169
0.745251 0.329854 0.099733
0.775082 0.332189 0.103883
0.804334 0.335195 0.109209
0.833112 0.338842 0.11548
0.861524 0.343038 0.122515
0.889601 0.347738 0.13019
0.917433 0.35288 0.138384
0.945037 0.35845 0.147021
0.972473 0.36437 0.155978
0.974319 0.365087 0.158251
0.161593 0.322545 0.150546
0.185595 0.31989 0.156527
0.205615 0.317937 0.158175
0.222675 0.316548 0.15584
0.237751 0.315465 0.150637
0.251316 0.314504 0.143786
0.263569 0.313878 0.136706
0.275166 0.314549 0.132036
0.292088 0.314107 0.122683
0.314778 0.317296 0.113924
0.345769 0.326375 0.115709
0.382177 0.336233 0.119356
0.417288 0.341955 0.11986
0.448997 0.344259 0.117433
0.478401 0.344793 0.113848
0.506981 0.345617 0.111345
0.535088 0.347601 0.110903
0.562264 0.350927 0.112978
0.588281 0.355642 0.117586
0.614328 0.360769 0.122469
0.648997 0.359289 0.114595
0.683146 0.357916 0.108812
0.716274 0.357244 0.105669
0.748425 0.357305 0.104799
0.779721 0.358114 0.105837
0.810269 0.35967 0.108476
0.840177 0.361898 0.112474
0.869551 0.364767 0.117556
0.898451 0.368231 0.123568
0.927001 0.372229 0.130327
0.955215 0.37673 0.137774
0.983139 0.381659 0.145724
0.983734 0.381979 0.147524
0.162676 0.347829 0.160647
0.196796 0.344213 0.166796
0.217411 0.342336 0.169146
0.234928 0.340902 0.167483
0.250309 0.33962 0.162783
0.264057 0.338338 0.156008
0.276432 0.337102 0.148409
0.287739 0.336477 0.141512
0.300313 0.33669 0.136126
0.319188 0.33669 0.125551
0.344289 0.34197 0.119158
0.378042 0.353017 0.12369
0.415961 0.363821 0.128389
0.451759 0.370153 0.129534
0.483894 0.372854 0.127504
0.513558 0.373571 0.124025
0.542184 0.374197 0.121157
0.570459 0.37583 0.120089
0.597986 0.378668 0.121263
0.624506 0.382788 0.124804
0.649897 0.388205 0.130602
0.679744 0.390478 0.129625
0.71458 0.388724 0.121935
0.748425 0.387549 0.116945
0.781369 0.386999 0.114244
0.813428 0.387137 0.113588
0.844694 0.387976 0.114687
0.875273 0.389487 0.117266
0.905257 0.391638 0.121096
0.934722 0.394385 0.125978
0.963745 0.397711 0.131777
0.99202 0.401495 0.138247
0.991714 0.401541 0.139727
0.172427 0.371267 0.17023
0.199695 0.36936 0.178134
0.228641 0.366262 0.179522
0.246632 0.364813 0.178531
0.262364 0.363424 0.17438
0.276356 0.361913 0.167895
0.288869 0.360265 0.160082
0.30016 0.358831 0.152132
0.310933 0.358526 0.146258
0.325658 0.357641 0.137881
0.34638 0.359228 0.128191
0.374411 0.366979 0.125566
0.410681 0.379797 0.131853
0.449851 0.39144 0.137499
0.486198 0.398322 0.139239
0.518715 0.401419 0.137575
0.548684 0.40235 0.134249
0.577356 0.402838 0.13109
0.605753 0.404181 0.129503
0.633539 0.406607 0.129915
0.660471 0.410193 0.132509
0.686381 0.415 0.13727
0.712306 0.420157 0.14229
0.745525 0.419791 0.13637
0.780072 0.418204 0.129534
0.813672 0.417182 0.125154
0.846448 0.416754 0.12282
0.878431 0.416968 0.122347
0.909682 0.417823 0.123491
0.940291 0.419303 0.126009
0.970321 0.421378 0.129717
0.998062 0.42388 0.134234
0.997833 0.42385 0.135592
0.181506 0.394186 0.179156
0.208835 0.392615 0.187106
0.233433 0.391119 0.192462
0.257771 0.388281 0.188968
0.273884 0.386831 0.185397
0.288136 0.385168 0.179278
0.300832 0.38323 0.171466
0.312215 0.381216 0.163012
0.322652 0.379751 0.155261
0.333761 0.379614 0.150042
0.350835 0.378347 0.139086
0.373739 0.381872 0.1308
0.404959 0.392279 0.132219
0.443534 0.406729 0.140185
0.483787 0.419104 0.146654
0.520623 0.42649 0.148898
0.553521 0.429938 0.147585
0.583764 0.431098 0.144427
0.612543 0.431479 0.141009
0.640986 0.432593 0.139055
0.668971 0.434669 0.138811
0.696239 0.437812 0.140581
0.722591 0.442084 0.144427
0.747951 0.447501 0.15021
0.77612 0.451041 0.151843
0.811215 0.449149 0.143374
0.845457 0.44773 0.137331
0.878889 0.44683 0.133394
0.911543 0.446494 0.13138
0.94345 0.446769 0.131075
0.974685 0.447639 0.13225
0.997375 0.448951 0.134722
0.997467 0.448829 0.135912
0.189899 0.416556 0.187396
0.217411 0.41532 0.195499
0.242649 0.414084 0.201526
0.264057 0.412863 0.203326
0.284886 0.409796 0.195834
0.299428 0.408042 0.190173
0.312337 0.405905 0.182544
0.323842 0.40351 0.173816
0.334234 0.401282 0.165072
0.344213 0.400076 0.15816
0.357107 0.399008 0.150698
0.376074 0.399054 0.140078
0.401648 0.40499 0.134142
0.436072 0.418021 0.1393
0.476585 0.433829 0.148684
0.5178 0.446845 0.155871
0.555077 0.454643 0.158556
0.588296 0.458427 0.157549
0.618814 0.459815 0.154559
0.647684 0.460151 0.151019
0.676173 0.461051 0.148684
0.704326 0.462821 0.147906
0.731868 0.465583 0.148974
0.758602 0.469413 0.15198
0.784436 0.474296 0.156893
0.809918 0.479774 0.16257
0.842008 0.480308 0.158251
0.876844 0.478553 0.150607
0.910826 0.477272 0.145205
0.944106 0.476478 0.14168
0.976638 0.476234 0.13994
0.994659 0.476509 0.140307
0.994781 0.47631 0.141314
0.197589 0.438407 0.194919
0.225422 0.437476 0.203357
0.25127 0.4365 0.209995
0.273381 0.435431 0.212604
0.295338 0.432303 0.205692
0.310216 0.430503 0.200519
0.323369 0.428244 0.193164
0.335027 0.425589 0.18439
0.345418 0.422827 0.175067
0.355108 0.420584 0.166552
0.365118 0.420096 0.161273
0.380468 0.41796 0.150347
0.401694 0.420081 0.141238
0.430213 0.428702 0.138445
0.467491 0.443976 0.146624
0.509896 0.461158 0.157397
0.551919 0.474678 0.165164
0.589563 0.482841 0.168231
0.623087 0.486915 0.167498
0.653819 0.488472 0.16466
0.682811 0.488823 0.161028
0.711345 0.48954 0.158404
0.73962 0.491066 0.157153
0.767376 0.493523 0.157626
0.794446 0.496925 0.159899
0.820676 0.50135 0.163989
0.846036 0.506752 0.169772
0.873426 0.510887 0.172534
0.907805 0.509606 0.16495
0.942397 0.507988 0.158007
0.976181 0.506828 0.15314
0.991333 0.506264 0.151431
0.99147 0.506004 0.152239
0.204593 0.459739 0.20177
0.232898 0.459083 0.210651
0.259312 0.458381 0.217868
0.282094 0.457481 0.221225
0.301518 0.456336 0.2206
0.32047 0.452537 0.21033
0.333761 0.450202 0.203143
0.345663 0.447379 0.194491
0.356268 0.444266 0.185016
0.365866 0.441321 0.17557
0.375158 0.439338 0.167758
0.386679 0.438117 0.160891
0.404059 0.437095 0.149981
0.427878 0.441596 0.142794
0.459556 0.453071 0.143694
0.49955 0.470497 0.154482
0.543496 0.488731 0.166369
0.58616 0.502663 0.174609
0.624094 0.511101 0.177951
0.657847 0.515373 0.177417
0.688792 0.517098 0.174701
0.717922 0.517494 0.171069
0.746502 0.51809 0.1682
0.774884 0.519402 0.166567
0.802823 0.521553 0.166491
0.830152 0.524605 0.168109
0.856748 0.528603 0.171435
0.882521 0.533547 0.17644
0.907485 0.539422 0.182971
0.938521 0.54078 0.180117
0.973526 0.538949 0.171878
0.987625 0.537789 0.168185
0.987762 0.537469 0.168811
0.210925 0.480568 0.207935
0.239841 0.480186 0.217441
0.266789 0.479728 0.225177
0.290211 0.479026 0.229236
0.310262 0.478019 0.229374
0.327596 0.476463 0.226093
0.343801 0.471778 0.212802
0.355947 0.468864 0.204379
0.36669 0.465492 0.194766
0.376333 0.462058 0.184787
0.385321 0.459129 0.175509
0.394705 0.457832 0.169131
0.408377 0.455833 0.159731
0.428168 0.456703 0.149889
0.454795 0.463813 0.144945
0.489799 0.478233 0.150103
0.532204 0.49752 0.162844
0.577432 0.516609 0.175647
0.6206 0.530816 0.184207
0.658717 0.539422 0.187732
0.692622 0.543847 0.187335
0.723735 0.545708 0.184741
0.753048 0.546197 0.18114
0.781659 0.54667 0.178027
0.810086 0.547814 0.17612
0.838163 0.549722 0.17557
0.865721 0.552453 0.176608
0.892622 0.556085 0.179263
0.918776 0.560601 0.183536
0.944137 0.566003 0.189319
0.969467 0.571725 0.195346
0.983581 0.570642 0.190661
0.983734 0.57026 0.191073
0.216617 0.500938 0.213474
0.246296 0.500801 0.223728
0.273732 0.500557 0.231937
0.297749 0.500053 0.236667
0.318425 0.499199 0.237537
0.336309 0.497765 0.234974
0.351797 0.495613 0.229404
0.365743 0.489998 0.213809
0.376684 0.486488 0.204242
0.386435 0.482704 0.193988
0.395361 0.479149 0.183856
0.404074 0.476524 0.17528
0.413993 0.476173 0.170687
0.430655 0.473686 0.158267
0.453132 0.477073 0.150454
0.482856 0.487083 0.148211
0.521065 0.504265 0.157504
0.565591 0.525154 0.171847
0.611872 0.544884 0.185336
0.655238 0.559167 0.194064
0.69337 0.567819 0.197635
0.727367 0.57232 0.197314
0.758648 0.574334 0.194827
0.788128 0.574929 0.191287
0.8168 0.575296 0.187961
0.845243 0.576288 0.185809
0.873442 0.577981 0.184848
0.901198 0.580438 0.185351
0.928359 0.583719 0.187396
0.954833 0.587854 0.190982
0.976242 0.592859 0.196658
0.979294 0.596658 0.20293
0.979461 0.596674 0.204028
0.221698 0.520867 0.218402
0.252308 0.520943 0.229557
0.280156 0.520912 0.238193
0.304723 0.520607 0.243519
0.326009 0.51989 0.245106
0.344427 0.518593 0.243214
0.360418 0.516564 0.238285
0.374289 0.513726 0.230747
0.386236 0.507179 0.213367
0.396155 0.503182 0.203006
0.405127 0.499199 0.192416
0.413611 0.495766 0.182589
0.422538 0.493889 0.175418
0.434913 0.492271 0.16762
0.453712 0.492256 0.157305
0.47921 0.498512 0.151949
0.5122 0.511559 0.152972
0.553414 0.531243 0.165835
0.59971 0.553429 0.181506
0.646738 0.573541 0.195438
0.690028 0.587686 0.204074
0.728038 0.596201 0.207523
0.762097 0.600778 0.207248
0.793545 0.60293 0.204883
0.823194 0.603647 0.201434
0.851911 0.603952 0.197955
0.8804 0.604807 0.19556
0.90869 0.606302 0.194247
0.936599 0.608515 0.194278
0.963989 0.61149 0.195758
0.974731 0.615305 0.201129
0.974884 0.618021 0.206363
0.975036 0.617975 0.207401
0.227008 0.54049 0.223545
0.257832 0.540688 0.234928
0.286046 0.54081 0.243915
0.311131 0.540673 0.249775
0.333013 0.540124 0.252049
0.35198 0.538979 0.250843
0.36849 0.537057 0.246571
0.382803 0.53431 0.239597
0.395224 0.530755 0.230488
0.405295 0.52343 0.211536
0.414466 0.519173 0.200855
0.42298 0.515236 0.190417
0.431357 0.5122 0.181445
0.440894 0.511376 0.176059
0.456275 0.509255 0.165362
0.477867 0.511894 0.157259
0.506462 0.52105 0.154482
0.542931 0.537362 0.159808
0.586847 0.559228 0.175174
0.634531 0.582361 0.191821
0.681834 0.602441 0.205783
0.724819 0.616205 0.214069
0.762707 0.624598 0.217395
0.796841 0.629236 0.217197
0.828428 0.631525 0.214939
0.858244 0.632349 0.211551
0.887022 0.632624 0.20798
0.915541 0.633341 0.205371
0.943923 0.634668 0.203738
0.969451 0.636652 0.203738
0.970977 0.639261 0.208743
0.971145 0.641062 0.21265
0.971267 0.640986 0.213626
0.232074 0.559823 0.228458
0.262989 0.560067 0.239933
0.291493 0.560311 0.249195
0.317037 0.560311 0.255512
0.339483 0.559899 0.258442
0.358984 0.558907 0.257877
0.376013 0.557137 0.254261
0.390799 0.554513 0.247898
0.403647 0.551034 0.239246
0.414801 0.546822 0.228885
0.423545 0.538979 0.209155
0.432135 0.534661 0.198306
0.440375 0.530968 0.188296
0.449073 0.528756 0.180667
0.460441 0.527718 0.174289
0.478691 0.52723 0.163928
0.503456 0.532921 0.15845
0.5355 0.545342 0.158694
0.575189 0.564553 0.168368
0.621241 0.588113 0.185397
0.669932 0.611856 0.202701
0.716808 0.631205 0.215976
0.759579 0.644694 0.224048
0.797375 0.652995 0.227268
0.831571 0.657694 0.227131
0.863294 0.66009 0.224964
0.893263 0.661021 0.221653
0.922133 0.661295 0.218021
0.950683 0.661906 0.215213
0.96817 0.662943 0.214893
0.968338 0.6645 0.218372
0.968475 0.665553 0.221103
0.968582 0.665446 0.222065
0.236912 0.578912 0.233143
0.267842 0.579126 0.244617
0.296559 0.579431 0.254093
0.322499 0.579538 0.260822
0.345449 0.579248 0.264317
0.365499 0.578408 0.264393
0.383032 0.576791 0.261418
0.398306 0.574304 0.255665
0.411582 0.570947 0.247532
0.423133 0.566796 0.237537
0.432273 0.558587 0.217227
0.441016 0.55404 0.206195
0.449287 0.549905 0.19556
0.457557 0.546715 0.186358
0.466972 0.545678 0.180621
0.481376 0.544274 0.171786
0.502571 0.546639 0.163821
0.530816 0.555657 0.161303
0.566339 0.571405 0.16463
0.608957 0.593179 0.178363
0.656626 0.617914 0.196551
0.705318 0.641306 0.213519
0.751873 0.66006 0.226276
0.794339 0.673167 0.233997
0.832059 0.681376 0.23714
0.8663 0.686137 0.237049
0.898177 0.688655 0.235004
0.928283 0.689693 0.231739
0.956817 0.689982 0.228122
0.966995 0.69015 0.227375
0.967086 0.690776 0.22916
0.967178 0.691249 0.230961
0.967254 0.691127 0.231907
0.241581 0.597848 0.237659
0.27245 0.59794 0.249058
0.301305 0.59823 0.258671
0.327581 0.598398 0.265736
0.350988 0.59823 0.269749
0.371542 0.597513 0.270436
0.389578 0.596048 0.268086
0.405341 0.593713 0.262943
0.419074 0.590509 0.255344
0.431037 0.586465 0.245777
0.441489 0.581781 0.23473
0.449622 0.573312 0.213993
0.458 0.568872 0.202991
0.466224 0.565164 0.192935
0.474952 0.56289 0.185122
0.485817 0.562432 0.179889
0.503746 0.562234 0.17052
0.528313 0.567864 0.165362
0.56022 0.580407 0.166079
0.599161 0.59939 0.172763
0.643931 0.622934 0.189471
0.692073 0.64773 0.207706
0.740658 0.670665 0.224292
0.786908 0.688869 0.236545
0.829114 0.701656 0.243946
0.866728 0.709773 0.247013
0.901045 0.71458 0.246952
0.933028 0.717205 0.244999
0.961517 0.718257 0.241917
0.966796 0.71783 0.240497
0.966812 0.717678 0.240711
0.966873 0.717739 0.241779
0.966949 0.717617 0.242695
0.246418 0.616693 0.242344
0.27686 0.616571 0.253315
0.305791 0.616785 0.262989
0.332326 0.616968 0.270314
0.35613 0.616861 0.274769
0.377157 0.616266 0.27602
0.395666 0.614939 0.274266
0.411917 0.612772 0.269734
0.426123 0.60972 0.262715
0.438514 0.605814 0.253605
0.449378 0.601221 0.242939
0.458991 0.596216 0.231266
0.466514 0.587839 0.210483
0.474815 0.58378 0.199908
0.483253 0.580743 0.190784
0.492836 0.579751 0.184863
0.50663 0.579446 0.178363
0.527962 0.58204 0.170916
0.556252 0.591257 0.168978
0.591714 0.607187 0.172824
0.633402 0.628748 0.183139
