RED_IPP2_Creative/RED_BW_0700.cube
# RED Digital Cinema Output Transform LUT for IPP2
# Creatives by Eric Weidt
# BMD cube from Truelight v4.0
# Settings used in creation of this LUT are:
# Development Color Space = USER SELECTABLE
# Output Gamma Curve = USER SELECTABLE
# Output Tonemap = USER SELECTABLE
# Highlight Rolloff = USER SELECTABLE
LUT_3D_SIZE 9
0.036407 0.036407 0.036407
0.056885 0.056885 0.056885
0.111145 0.111145 0.111145
0.251709 0.251709 0.251709
0.365234 0.365234 0.365234
0.439697 0.439697 0.439697
0.535156 0.535156 0.535156
0.654297 0.654297 0.654297
0.796387 0.796387 0.796387
0.074280 0.074280 0.074280
0.090149 0.090149 0.090149
0.149170 0.149170 0.149170
0.264648 0.264648 0.264648
0.367676 0.367676 0.367676
0.440430 0.440430 0.440430
0.535156 0.535156 0.535156
0.654297 0.654297 0.654297
0.796387 0.796387 0.796387
0.197754 0.197754 0.197754
0.207764 0.207764 0.207764
0.237061 0.237061 0.237061
0.299805 0.299805 0.299316
0.374756 0.374756 0.374756
0.442627 0.442627 0.442627
0.536133 0.536133 0.536133
0.654785 0.654785 0.654785
0.796387 0.796387 0.796387
0.332520 0.332520 0.332520
0.334473 0.334473 0.334473
0.341064 0.341064 0.341064
0.359375 0.359375 0.359375
0.392822 0.392822 0.392822
0.450439 0.450439 0.450439
0.539062 0.539062 0.539062
0.655762 0.655762 0.655762
0.797363 0.797363 0.797363
0.412842 0.412842 0.412842
0.413330 0.413330 0.413086
0.414551 0.414551 0.414551
0.419434 0.419434 0.419434
0.434570 0.434570 0.434570
0.474121 0.474121 0.474121
0.549316 0.549316 0.549316
0.659668 0.659668 0.659668
0.798828 0.798828 0.798828
0.500000 0.500000 0.500000
0.500488 0.500488 0.500488
0.500977 0.500977 0.500977
0.502441 0.502441 0.502441
0.508789 0.508789 0.508789
0.528809 0.528809 0.528809
0.578613 0.578613 0.578613
0.671387 0.671387 0.671387
0.802734 0.802734 0.802734
0.611816 0.611816 0.611816
0.611816 0.611816 0.611816
0.611816 0.611816 0.611816
0.612793 0.612793 0.612793
0.614746 0.614746 0.614746
0.622559 0.622559 0.622559
0.646973 0.646973 0.646973
0.707520 0.707520 0.707520
0.816406 0.816406 0.816406
0.746582 0.746582 0.746582
0.746582 0.746582 0.746582
0.746582 0.746582 0.746582
0.746582 0.746582 0.746582
0.747559 0.747559 0.747559
0.750488 0.750488 0.750488
0.758789 0.758789 0.758789
0.788086 0.788086 0.788086
0.857422 0.857422 0.857422
0.901855 0.901855 0.901855
0.901855 0.901855 0.901855
0.901855 0.901855 0.901855
0.901855 0.901855 0.901855
0.901855 0.901855 0.901855
0.903320 0.903320 0.903320
0.905762 0.905762 0.905762
0.916016 0.916016 0.916016
0.947266 0.947266 0.947266
0.067139 0.067139 0.067139
0.082092 0.082092 0.082092
0.141357 0.141357 0.141357
0.261963 0.261963 0.261963
0.367188 0.367188 0.367188
0.440186 0.440186 0.440186
0.535156 0.535156 0.535156
0.654297 0.654297 0.654297
0.796387 0.796387 0.796387
0.104004 0.104004 0.104004
0.120728 0.120728 0.120728
0.174805 0.174805 0.174805
0.273682 0.273682 0.273682
0.369141 0.369141 0.369141
0.440918 0.440918 0.440918
0.535156 0.535156 0.535156
0.654297 0.654297 0.654297
0.796387 0.796387 0.796387
0.215210 0.215210 0.215210
0.223755 0.223755 0.223755
0.249268 0.249268 0.249268
0.305664 0.305664 0.305664
0.375977 0.375977 0.375977
0.443115 0.443115 0.443115
0.536133 0.536133 0.536133
0.654785 0.654785 0.654785
0.796387 0.796387 0.796387
0.335938 0.335938 0.335938
0.337891 0.337891 0.337891
0.343994 0.343994 0.343994
0.361084 0.361084 0.361084
0.393799 0.393799 0.393799
0.450928 0.450928 0.450928
0.539062 0.539062 0.539062
0.655762 0.655762 0.655762
0.797363 0.797363 0.797363
0.413574 0.413574 0.413574
0.413818 0.413818 0.413818
0.415283 0.415283 0.415283
0.419922 0.419922 0.419922
0.435059 0.435059 0.435059
0.474365 0.474365 0.474365
0.549316 0.549316 0.549316
0.659668 0.659668 0.659668
0.798828 0.798828 0.798828
0.500488 0.500488 0.500488
0.500488 0.500488 0.500488
0.500977 0.500977 0.500977
0.502930 0.502930 0.502930
0.509277 0.509277 0.509277
0.528809 0.528809 0.528809
0.578613 0.578613 0.578613
0.671387 0.671387 0.671387
0.802734 0.802734 0.802734
0.611816 0.611816 0.611816
0.611816 0.611816 0.611816
0.612793 0.612793 0.612793
0.612793 0.612793 0.612793
0.614746 0.614746 0.614746
0.622559 0.622559 0.622559
0.646973 0.646973 0.646973
0.707520 0.707520 0.707520
0.816406 0.816406 0.816406
0.746582 0.746582 0.746582
0.746582 0.746582 0.746582
0.746582 0.746582 0.746582
0.746582 0.746582 0.746582
0.747559 0.747559 0.747559
0.750488 0.750488 0.750488
0.758789 0.758789 0.758789
0.788086 0.788086 0.788086
0.857422 0.857422 0.857422
0.901855 0.901855 0.901855
0.901855 0.901855 0.901855
0.901855 0.901855 0.901855
0.901855 0.901855 0.901855
0.901855 0.901855 0.901855
0.903320 0.903320 0.903320
0.905762 0.905762 0.905762
0.916016 0.916016 0.916016
0.947266 0.947266 0.947266
0.171265 0.171021 0.171021
0.183594 0.183594 0.183594
0.219482 0.219482 0.219482
0.291504 0.291504 0.291504
0.372803 0.372803 0.372803
0.442139 0.442139 0.442139
0.535645 0.535645 0.535645
0.654785 0.654785 0.654785
0.796387 0.796387 0.796387
0.198120 0.198120 0.198120
0.208130 0.208130 0.208130
0.237427 0.237427 0.237427
0.299805 0.299805 0.299805
0.374756 0.374756 0.374756
0.442627 0.442627 0.442627
0.536133 0.536133 0.536133
0.654785 0.654785 0.654785
0.796387 0.796387 0.796387
0.260986 0.260986 0.260986
0.266357 0.266357 0.266357
0.282959 0.282959 0.282959
0.323242 0.323242 0.323242
0.380615 0.380615 0.380615
0.444824 0.444824 0.444824
0.537109 0.537109 0.537109
0.654785 0.654785 0.654785
0.796387 0.796387 0.796387
0.347168 0.347168 0.347168
0.348633 0.348633 0.348633
0.353516 0.353516 0.353516
0.367920 0.367920 0.367920
0.396973 0.396973 0.396973
0.452637 0.452637 0.452637
0.540039 0.540039 0.540039
0.655762 0.655762 0.655762
0.797363 0.797363 0.797363
0.416016 0.416016 0.416016
0.416504 0.416504 0.416504
0.417725 0.417725 0.417725
0.422363 0.422363 0.422363
0.437012 0.437012 0.437012
0.475342 0.475342 0.475342
0.549805 0.549805 0.549805
0.659668 0.659668 0.659668
0.798828 0.798828 0.798828
0.501465 0.501465 0.501465
0.501465 0.501465 0.501465
0.501953 0.501953 0.501953
0.503418 0.503418 0.503418
0.509766 0.509766 0.509766
0.529785 0.529785 0.529785
0.579102 0.579102 0.579102
0.671387 0.671387 0.671387
0.802734 0.802734 0.802734
0.612793 0.612793 0.612793
0.612793 0.612793 0.612793
0.612793 0.612793 0.612793
0.612793 0.612793 0.612793
0.615234 0.615234 0.615234
0.623047 0.623047 0.623047
0.646973 0.646973 0.646973
0.707520 0.707520 0.707520
0.816406 0.816406 0.816406
0.746582 0.746582 0.746582
0.746582 0.746582 0.746582
0.746582 0.746582 0.746582
0.747070 0.747070 0.747070
0.747559 0.747559 0.747559
0.750977 0.750977 0.750488
0.758789 0.758789 0.758789
0.788086 0.788086 0.788086
0.857422 0.857422 0.857422
0.901855 0.901855 0.901855
0.901855 0.901855 0.901855
0.901855 0.901855 0.901855
0.901855 0.901855 0.901855
0.901855 0.901855 0.901855
0.903320 0.903320 0.903320
0.905762 0.905762 0.905762
0.916016 0.916016 0.916016
0.947266 0.947266 0.947266
0.312012 0.312012 0.312012
0.314697 0.314697 0.314697
0.323486 0.323486 0.323486
0.347900 0.347900 0.347900
0.388428 0.388428 0.388428
0.448486 0.448486 0.448486
0.538086 0.538086 0.538086
0.655273 0.655273 0.655273
0.797363 0.797363 0.797363
0.318115 0.318115 0.318115
0.320557 0.320557 0.320557
0.328857 0.328857 0.328857
0.351074 0.351074 0.351074
0.389404 0.389404 0.389404
0.448975 0.448975 0.448975
0.538086 0.538086 0.538086
0.655273 0.655273 0.655273
0.797363 0.797363 0.797363
0.336670 0.336670 0.336670
0.338379 0.338379 0.338379
0.344238 0.344238 0.344238
0.361572 0.361572 0.361572
0.393799 0.393799 0.393799
0.450928 0.450928 0.450928
0.539062 0.539062 0.539062
0.655762 0.655762 0.655762
0.797363 0.797363 0.797363
0.373535 0.373535 0.373535
0.374268 0.374268 0.374268
0.376953 0.376953 0.376953
0.385254 0.385254 0.385254
0.407715 0.407715 0.407715
0.458008 0.458008 0.458008
0.542480 0.542480 0.542480
0.657227 0.657227 0.657227
0.797363 0.797363 0.797363
0.424561 0.424561 0.424561
0.424805 0.424805 0.424805
0.426025 0.426025 0.426025
0.430176 0.430176 0.430176
0.443848 0.443848 0.443848
0.479736 0.479736 0.479736
0.552246 0.552246 0.551758
0.661133 0.661133 0.661133
0.798828 0.798828 0.798828
0.504883 0.504883 0.504883
0.504883 0.504883 0.504883
0.505371 0.505371 0.505371
0.507324 0.507324 0.507324
0.513184 0.513184 0.513184
0.532227 0.532227 0.532227
0.581055 0.581055 0.581055
0.672852 0.672852 0.672852
0.802734 0.802734 0.802734
0.613770 0.613770 0.613770
0.613770 0.613770 0.613770
0.614258 0.614258 0.614258
0.614258 0.614258 0.614258
0.616211 0.616211 0.616211
0.624023 0.624023 0.624023
0.647949 0.647949 0.647949
0.708008 0.708008 0.708008
0.816406 0.816406 0.816406
0.747070 0.747070 0.747070
0.747070 0.747070 0.747070
0.747070 0.747070 0.747070
0.747070 0.747070 0.747070
0.748047 0.748047 0.748047
0.750977 0.750977 0.750977
0.759766 0.759766 0.759766
0.788086 0.788086 0.788086
0.857422 0.857422 0.857422
0.901855 0.901855 0.901855
0.901855 0.901855 0.901855
0.901855 0.901855 0.901855
0.901855 0.901855 0.901855
0.901855 0.901855 0.901855
0.903320 0.903320 0.903320
0.905762 0.905762 0.905762
0.916016 0.916016 0.916016
0.947266 0.947266 0.947266
0.399170 0.399170 0.399170
0.399658 0.399658 0.399658
0.401367 0.401367 0.401367
0.406982 0.406982 0.406982
0.424316 0.424316 0.424316
0.467529 0.467529 0.467529
0.546875 0.546875 0.546875
0.659180 0.659180 0.659180
0.798340 0.798340 0.798340
0.400391 0.400391 0.400391
0.400879 0.400879 0.400879
0.402344 0.402344 0.402344
0.407959 0.407959 0.407959
0.425293 0.425049 0.425049
0.468262 0.468262 0.468262
0.546875 0.546875 0.546875
0.659180 0.659180 0.659180
0.798340 0.798340 0.798340
0.404053 0.404053 0.404053
0.404541 0.404541 0.404541
0.406006 0.406006 0.406006
0.411377 0.411377 0.411377
0.427979 0.427979 0.427979
0.469727 0.469727 0.469727
0.547363 0.547363 0.547363
0.659180 0.659180 0.659180
0.798340 0.798340 0.798340
0.416260 0.416260 0.416260
0.416748 0.416748 0.416748
0.417969 0.417969 0.417969
0.422363 0.422363 0.422363
0.437256 0.437256 0.437256
0.475586 0.475586 0.475586
0.549805 0.549805 0.549805
0.659668 0.659668 0.659668
0.798828 0.798828 0.798828
0.449219 0.449219 0.449219
0.449707 0.449707 0.449707
0.450439 0.450439 0.450439
0.453369 0.453369 0.453369
0.464111 0.464111 0.464111
0.494141 0.494141 0.494141
0.558594 0.558594 0.558594
0.663574 0.663574 0.663574
0.799805 0.799805 0.799805
0.515625 0.515625 0.515625
0.515625 0.515625 0.515625
0.516602 0.516602 0.516602
0.518066 0.518066 0.518066
0.523438 0.523438 0.523438
0.540527 0.540527 0.540527
0.586426 0.586426 0.586426
0.674805 0.674805 0.674805
0.804199 0.804199 0.804199
0.617188 0.617188 0.617188
0.617676 0.617676 0.617676
0.617676 0.617676 0.617676
0.618164 0.618164 0.618164
0.620117 0.620117 0.620117
0.627930 0.627930 0.627930
0.650879 0.650879 0.650879
0.709473 0.709473 0.709473
0.817871 0.817871 0.817871
0.748047 0.748047 0.748047
0.748047 0.748047 0.748047
0.748047 0.748047 0.748047
0.749023 0.749023 0.749023
0.749512 0.749512 0.749512
0.751953 0.751953 0.751953
0.760742 0.760742 0.760742
0.789062 0.789062 0.789062
0.858887 0.858887 0.858887
0.902344 0.902344 0.902344
0.902344 0.902344 0.902344
0.902344 0.902344 0.902344
0.902344 0.902344 0.902344
0.902344 0.902344 0.902344
0.903320 0.903320 0.903320
0.906250 0.906250 0.906250
0.916504 0.916504 0.916504
0.947266 0.947266 0.947266
0.482422 0.482422 0.482422
0.482422 0.482422 0.482422
0.483154 0.483154 0.483154
0.485352 0.485352 0.485352
0.492676 0.492676 0.492676
0.515625 0.515625 0.515625
0.571289 0.571289 0.571289
0.667969 0.667969 0.667969
0.801758 0.801758 0.801758
0.482910 0.482910 0.482910
0.482910 0.482910 0.482910
0.483643 0.483643 0.483643
0.485840 0.485840 0.485840
0.492920 0.492920 0.492920
0.515625 0.515625 0.515625
0.571289 0.571289 0.571289
0.668457 0.668457 0.668457
0.801758 0.801758 0.801758
0.484375 0.484375 0.484375
0.484375 0.484375 0.484375
0.485107 0.485107 0.485107
0.486816 0.486816 0.486816
0.494385 0.494385 0.494385
0.516602 0.516602 0.516602
0.571777 0.571777 0.571777
0.668457 0.668457 0.668457
0.801758 0.801758 0.801758
0.489258 0.489258 0.489258
0.489258 0.489258 0.489258
0.489990 0.489990 0.489990
0.491699 0.491699 0.491699
0.498779 0.498779 0.498779
0.520508 0.520508 0.520508
0.573730 0.573730 0.573730
0.669434 0.669434 0.669434
0.801758 0.801758 0.801758
0.504883 0.504883 0.504883
0.505371 0.505371 0.505371
0.505371 0.505371 0.505371
0.507324 0.507324 0.507324
0.513184 0.513184 0.513184
0.532227 0.532227 0.532227
0.581543 0.581543 0.581543
0.672852 0.672852 0.672852
0.802734 0.802734 0.802734
0.547852 0.547852 0.547852
0.547852 0.547852 0.547852
0.548340 0.548340 0.548340
0.549316 0.549316 0.549316
0.553223 0.553223 0.553223
0.566406 0.566406 0.566406
0.604004 0.604004 0.604004
0.683594 0.683594 0.683594
0.806641 0.806641 0.806641
0.630859 0.630859 0.630859
0.630859 0.630859 0.630859
0.631348 0.631348 0.631348
0.631836 0.631836 0.631836
0.633301 0.633301 0.633301
0.640137 0.640137 0.640137
0.661621 0.661621 0.661621
0.716309 0.716309 0.716309
0.820312 0.820312 0.820312
0.753418 0.753418 0.753418
0.753418 0.753418 0.753418
0.753418 0.753418 0.753418
0.753418 0.753418 0.753418
0.753906 0.753906 0.753906
0.756836 0.756836 0.756836
0.765625 0.765625 0.765625
0.792480 0.792480 0.792480
0.860352 0.860352 0.860352
0.903809 0.903809 0.903809
0.903809 0.903809 0.903809
0.903809 0.903809 0.903809
0.903809 0.903809 0.903809
0.904297 0.904297 0.904297
0.904785 0.904785 0.904785
0.908203 0.908203 0.908203
0.917480 0.917480 0.917480
0.948730 0.948730 0.948730
0.589355 0.589355 0.589355
0.589355 0.589355 0.589355
0.589355 0.589355 0.589355
0.590332 0.590332 0.590332
0.592773 0.592773 0.592773
0.602539 0.602539 0.602539
0.630859 0.630859 0.630859
0.697266 0.697266 0.697266
0.812500 0.812500 0.812500
0.589355 0.589355 0.589355
0.589355 0.589355 0.589355
0.589355 0.589355 0.589355
0.590332 0.590332 0.590332
0.593262 0.593262 0.593262
0.602539 0.602539 0.602539
0.630859 0.630859 0.630859
0.697266 0.697266 0.697266
0.812500 0.812500 0.812500
0.589844 0.589844 0.589844
0.589844 0.589844 0.589844
0.589844 0.589844 0.589844
0.590820 0.590820 0.590820
0.593750 0.593750 0.593750
0.603027 0.603027 0.603027
0.631348 0.631348 0.631348
0.698730 0.698730 0.698730
0.812988 0.812988 0.812988
0.591797 0.591797 0.591309
0.591797 0.591797 0.591309
0.591797 0.591797 0.591797
0.592773 0.592773 0.592773
0.595215 0.595215 0.595215
0.604492 0.604492 0.604492
0.632324 0.632324 0.632324
0.699219 0.699219 0.699219
0.812988 0.812988 0.812988
0.598145 0.598145 0.598145
0.598145 0.598145 0.598145
0.598145 0.598145 0.598145
0.599121 0.599121 0.599121
0.601562 0.601562 0.601562
0.609863 0.609863 0.609863
0.636719 0.636719 0.636719
0.701660 0.701660 0.701660
0.814453 0.814453 0.814453
0.617676 0.617676 0.617676
0.617676 0.617676 0.617676
0.618164 0.618164 0.618164
0.618652 0.618652 0.618652
0.620605 0.620605 0.620605
0.627930 0.627930 0.627930
0.651367 0.651367 0.651367
0.709961 0.709961 0.709961
0.817871 0.817871 0.817871
0.670410 0.670410 0.670410
0.670410 0.670410 0.670410
0.670410 0.670410 0.670410
0.670410 0.670410 0.670410
0.671387 0.671387 0.671387
0.676758 0.676758 0.676270
0.692383 0.692383 0.692383
0.737793 0.737793 0.737793
0.830566 0.830566 0.830566
0.769043 0.769043 0.769043
0.769043 0.769043 0.769043
0.769043 0.769043 0.769043
0.769531 0.769531 0.769531
0.770020 0.770020 0.770020
0.771973 0.771973 0.771973
0.780273 0.780273 0.780273
0.804688 0.804688 0.804688
0.867676 0.867676 0.867676
0.909180 0.909180 0.909180
0.909180 0.909180 0.909180
0.909668 0.909668 0.909668
0.909668 0.909668 0.909668
0.909668 0.909668 0.909668
0.910645 0.910645 0.910645
0.913574 0.913574 0.913574
0.923340 0.923340 0.923340
0.952148 0.952148 0.952148
0.719727 0.719727 0.719727
0.719727 0.719727 0.719727
0.719727 0.719727 0.719727
0.720215 0.720215 0.720215
0.721191 0.721191 0.721191
0.724121 0.724121 0.724121
0.734863 0.734863 0.734863
0.769043 0.769043 0.769043
0.847168 0.847168 0.847168
0.719727 0.719727 0.719727
0.719727 0.719727 0.719727
0.719727 0.719727 0.719727
0.720215 0.720215 0.720215
0.721191 0.721191 0.721191
0.724121 0.724121 0.724121
0.734863 0.734863 0.734863
0.769043 0.769043 0.769043
0.847168 0.847168 0.847168
0.720215 0.720215 0.720215
0.720215 0.720215 0.720215
0.720215 0.720215 0.720215
0.720215 0.720215 0.720215
0.721191 0.721191 0.721191
0.725098 0.725098 0.725098
0.734863 0.734863 0.734863
0.769043 0.769043 0.769043
0.847168 0.847168 0.847168
0.720703 0.720703 0.720703
0.720703 0.720703 0.720703
0.720703 0.720703 0.720703
0.720703 0.720703 0.720703
0.721680 0.721680 0.721680
0.725586 0.725586 0.725586
0.735840 0.735840 0.735840
0.769043 0.769043 0.769043
0.847656 0.847656 0.847656
0.722656 0.722656 0.722656
0.722656 0.722656 0.722656
0.722656 0.722656 0.722656
0.722656 0.722656 0.722656
0.724121 0.724121 0.724121
0.727051 0.727051 0.727051
0.738281 0.738281 0.738281
0.770508 0.770508 0.770508
0.848145 0.848145 0.848145
0.729980 0.729980 0.729980
0.729980 0.729980 0.729980
0.729980 0.729980 0.729980
0.729980 0.729980 0.729980
0.731445 0.731445 0.731445
0.733887 0.733887 0.733887
0.744141 0.744141 0.744141
0.776367 0.776367 0.776367
0.851074 0.851074 0.851074
0.753418 0.753418 0.753418
0.753418 0.753418 0.753418
0.753418 0.753418 0.753418
0.753906 0.753906 0.753906
0.754395 0.754395 0.754395
0.756836 0.756836 0.756836
0.765625 0.765625 0.765625
0.792969 0.792969 0.792969
0.861328 0.861328 0.861328
0.814941 0.814941 0.814941
0.814941 0.814941 0.814941
0.814941 0.814941 0.814941
0.814941 0.814941 0.814941
0.815430 0.815430 0.815430
0.816406 0.816406 0.816406
0.822754 0.822754 0.821777
0.840332 0.840332 0.840332
0.891602 0.891602 0.891602
0.926758 0.926758 0.926758
0.926758 0.926758 0.926758
0.926758 0.926758 0.926758
0.926758 0.926758 0.926758
0.927246 0.927246 0.927246
0.928223 0.928223 0.928223
0.929688 0.929688 0.929688
0.938965 0.938965 0.938965
0.964844 0.964844 0.964844
0.872070 0.872070 0.872070
0.872070 0.872070 0.872070
0.872070 0.872070 0.872070
0.872070 0.872070 0.872070
0.872559 0.872559 0.872559
0.873535 0.873535 0.873535
0.876953 0.876953 0.876953
0.889160 0.889160 0.889160
0.926758 0.926758 0.926758
0.872070 0.872070 0.872070
0.872070 0.872070 0.872070
0.872070 0.872070 0.872070
0.872070 0.872070 0.872070
0.872559 0.872559 0.872559
0.873535 0.873535 0.873535
0.876953 0.876953 0.876953
0.889160 0.889160 0.889160
0.926758 0.926758 0.926758
0.872070 0.872070 0.872070
0.872070 0.872070 0.872070
0.872070 0.872070 0.872070
0.872559 0.872559 0.872070
0.872559 0.872559 0.872559
0.873535 0.873535 0.873535
0.876953 0.876953 0.876953
0.889160 0.889160 0.889160
0.926758 0.926758 0.926758
0.872559 0.872559 0.872070
0.872559 0.872559 0.872070
0.872559 0.872559 0.872559
0.872559 0.872559 0.872559
0.872559 0.872559 0.872559
0.873535 0.873535 0.873535
0.877441 0.877441 0.877441
0.889160 0.889160 0.889160
0.926758 0.926758 0.926758
0.873047 0.873047 0.873047
0.873047 0.873047 0.873047
0.873047 0.873047 0.873047
0.873047 0.873047 0.873047
0.873047 0.873047 0.873047
0.874023 0.874023 0.874023
0.877930 0.877930 0.877930
0.890137 0.890137 0.890137
0.927246 0.927246 0.927246
0.875000 0.875000 0.875000
0.875000 0.875000 0.875000
0.875488 0.875488 0.875488
0.875488 0.875488 0.875488
0.875488 0.875488 0.875488
0.876953 0.876953 0.876953
0.879883 0.879883 0.879883
0.892090 0.892090 0.892090
0.928711 0.928711 0.928711
0.883789 0.883789 0.883789
0.883789 0.883789 0.883789
0.883789 0.883789 0.883789
0.883789 0.883789 0.883789
0.883789 0.883789 0.883789
0.885254 0.885254 0.885254
0.888184 0.888184 0.888184
0.899414 0.899414 0.899414
0.934570 0.934570 0.934570
0.909668 0.909668 0.909668
0.909668 0.909668 0.909668
0.909668 0.909668 0.909668
0.909668 0.909668 0.909668
0.910645 0.910645 0.910645
0.911133 0.911133 0.911133
0.913574 0.913574 0.913574
0.923340 0.923340 0.923340
0.953125 0.953125 0.953125
0.975586 0.975586 0.975586
0.975586 0.975586 0.975586
0.975586 0.975586 0.975586
0.975586 0.975586 0.975586
0.975586 0.975586 0.975586
0.976562 0.976562 0.976562
0.977539 0.977539 0.977539
0.982422 0.982422 0.982422
0.998535 0.998535 0.998535
