RED_IPP2_Creative/RED_BLEACH_1.cube
# RED Digital Cinema Output Transform LUT for IPP2
# Creatives by Eric Weidt
# BMD cube from Truelight v4.0
# Settings used in creation of this LUT are:
# Development Color Space = USER SELECTABLE
# Output Gamma Curve = USER SELECTABLE
# Output Tonemap = USER SELECTABLE
# Highlight Rolloff = USER SELECTABLE
LUT_3D_SIZE 5
0.033875 0.033875 0.033875
0.214478 0.037964 0.037750
0.430420 0.041809 0.041687
0.688477 0.041748 0.040985
0.981445 0.067444 0.067139
0.060730 0.219482 0.060699
0.240723 0.245728 0.075317
0.451660 0.287354 0.110718
0.742188 0.317871 0.120728
0.943359 0.337402 0.116272
0.137695 0.514160 0.148682
0.362305 0.531250 0.223267
0.545898 0.570312 0.206299
0.777832 0.586426 0.218140
0.909668 0.590820 0.216919
0.179810 0.774414 0.205078
0.392090 0.766113 0.243042
0.572266 0.770508 0.265625
0.776855 0.790527 0.219971
0.932129 0.789551 0.220215
0.215820 0.899414 0.168823
0.386475 0.895996 0.213013
0.579102 0.889160 0.291748
0.755371 0.929199 0.199951
0.948730 0.949707 0.180908
0.035004 0.035156 0.248169
0.214844 0.039673 0.240234
0.434814 0.042572 0.247925
0.692383 0.040894 0.256836
0.984375 0.065002 0.273926
0.042358 0.240723 0.261963
0.250732 0.257812 0.280029
0.496338 0.288818 0.312988
0.787109 0.313232 0.339111
0.976074 0.329102 0.355713
0.139648 0.533203 0.353516
0.351562 0.555176 0.384521
0.551758 0.575195 0.409424
0.784180 0.587402 0.411865
0.939941 0.582520 0.391846
0.197144 0.776855 0.400391
0.377441 0.782227 0.406982
0.574219 0.773438 0.447510
0.776855 0.790527 0.418945
0.934570 0.790039 0.415771
0.173218 0.902344 0.390137
0.373047 0.914551 0.391846
0.557129 0.914062 0.421631
0.758789 0.929199 0.440430
0.953613 0.953613 0.387207
0.037933 0.037781 0.483643
0.216309 0.041290 0.483154
0.437988 0.042450 0.492188
0.695801 0.045715 0.501953
0.984375 0.043304 0.520508
0.041199 0.244629 0.506836
0.258545 0.266602 0.531738
0.504883 0.297852 0.564941
0.795410 0.319580 0.588867
0.976562 0.334717 0.604492
0.107361 0.565918 0.597168
0.322998 0.577637 0.608398
0.550781 0.581055 0.612305
0.814941 0.575684 0.606445
0.971680 0.567871 0.598633
0.122986 0.806641 0.602051
0.358398 0.791016 0.602539
0.559082 0.786621 0.607910
0.775879 0.790039 0.615723
0.937988 0.789551 0.611816
0.218506 0.920898 0.582031
0.367676 0.918945 0.586914
0.541016 0.930176 0.587891
0.763672 0.928711 0.631348
0.957031 0.957520 0.586914
0.043671 0.035706 0.725586
0.221680 0.045135 0.729980
0.440674 0.043030 0.740234
0.701660 0.039886 0.750977
0.983398 0.016083 0.773438
0.022614 0.249634 0.757324
0.268799 0.278564 0.787109
0.513184 0.306152 0.814453
0.803223 0.326416 0.834961
0.975586 0.336670 0.846680
0.117737 0.570801 0.839844
0.326172 0.580566 0.848145
0.548340 0.579102 0.847168
0.812988 0.573730 0.841309
0.970703 0.564941 0.833496
0.037109 0.824707 0.838867
0.308105 0.815918 0.830566
0.520020 0.803711 0.819824
0.773438 0.791504 0.808105
0.966797 0.776855 0.794922
0.088318 0.955566 0.797852
0.295654 0.951660 0.786621
0.514648 0.945312 0.778809
0.745605 0.946777 0.781250
0.960938 0.961426 0.780762
0.000000 0.030731 0.958008
0.242798 0.096619 0.966797
0.443115 0.103699 0.975586
0.708496 0.000000 0.984375
0.981445 0.132690 0.982422
0.000000 0.269531 0.983398
0.269775 0.286133 0.979980
0.522949 0.318848 0.978516
0.809570 0.330811 0.976562
0.975586 0.342773 0.975586
0.000000 0.575195 0.975586
0.330811 0.581543 0.973633
0.546875 0.578613 0.972656
0.809570 0.570312 0.971680
0.971191 0.561035 0.971191
0.133667 0.822266 0.970703
0.309326 0.812012 0.969727
0.516113 0.801270 0.969727
0.767578 0.786133 0.967773
0.966797 0.771484 0.966797
0.000000 0.968750 0.968750
0.266846 0.967773 0.967773
0.463623 0.965820 0.964844
0.706543 0.965820 0.965820
0.965332 0.965332 0.965332
