RED_IPP2_Creative/RED_PASTEL.cube
# RED Digital Cinema Output Transform LUT for IPP2
# Creatives by Eric Weidt
# BMD cube from Truelight v4.0
# Settings used in creation of this LUT are:
# Development Color Space = USER SELECTABLE
# Output Gamma Curve = USER SELECTABLE
# Output Tonemap = USER SELECTABLE
# Highlight Rolloff = USER SELECTABLE 
LUT_3D_SIZE 9
0.001226 0.000000 0.000126
0.078796 0.009705 0.012840
0.158081 0.056152 0.065918
0.278076 0.140137 0.144409
0.391357 0.204224 0.182617
0.489746 0.250488 0.199341
0.614746 0.326904 0.242920
0.755371 0.435059 0.327393
0.890625 0.572754 0.459229
0.046692 0.112000 0.065369
0.126953 0.139526 0.082275
0.247681 0.172729 0.122681
0.323730 0.216919 0.176514
0.400391 0.250977 0.201050
0.500488 0.290771 0.218628
0.623535 0.360352 0.263916
0.761719 0.458984 0.345215
0.895020 0.586426 0.470459
0.150024 0.253418 0.171021
0.193726 0.257812 0.169067
0.272461 0.274414 0.178101
0.345459 0.288574 0.202759
0.416992 0.309570 0.227051
0.517578 0.347168 0.249634
0.636230 0.407959 0.296143
0.770508 0.493408 0.371094
0.900391 0.606445 0.485840
0.211426 0.336914 0.202637
0.245361 0.337646 0.208984
0.290527 0.340820 0.217529
0.370361 0.365234 0.246216
0.452148 0.390869 0.274170
0.543945 0.422852 0.300537
0.654785 0.473145 0.345947
0.782715 0.542969 0.409668
0.909180 0.636230 0.506836
0.294922 0.447998 0.264648
0.319824 0.449219 0.269775
0.356934 0.452393 0.278564
0.408203 0.458252 0.293457
0.497559 0.488037 0.336914
0.586914 0.519043 0.374756
0.684570 0.556641 0.413574
0.799805 0.609375 0.462646
0.920410 0.678711 0.535156
0.408936 0.583984 0.363770
0.426758 0.584473 0.368164
0.453857 0.586426 0.375488
0.493408 0.590332 0.387207
0.550781 0.599609 0.407959
0.636719 0.624512 0.451660
0.725586 0.654785 0.492920
0.824707 0.690430 0.529297
0.934082 0.736816 0.575684
0.538086 0.729004 0.481201
0.549316 0.729492 0.483887
0.566406 0.730469 0.487793
0.594727 0.731934 0.495117
0.636719 0.735840 0.506836
0.696289 0.744141 0.530762
0.773926 0.761719 0.568359
0.858398 0.783691 0.602539
0.951660 0.811035 0.631348
0.667480 0.859863 0.604492
0.672852 0.860352 0.604492
0.682617 0.860840 0.605957
0.698730 0.861328 0.606934
0.724609 0.862793 0.610352
0.764648 0.865723 0.617676
0.823242 0.871094 0.636719
0.895508 0.881348 0.666016
0.976074 0.897461 0.695312
0.793945 0.975098 0.730957
0.797363 0.975098 0.730957
0.802246 0.975586 0.731445
0.811035 0.976074 0.731445
0.825684 0.976562 0.731934
0.849609 0.978027 0.733398
0.885742 0.980469 0.735352
0.939453 0.984863 0.746094
1.000000 0.992188 0.765625
0.001944 0.003189 0.081543
0.069580 0.017822 0.091248
0.153320 0.062042 0.115540
0.278320 0.143433 0.181641
0.383057 0.207886 0.222290
0.483643 0.254883 0.244995
0.608887 0.333984 0.294434
0.752930 0.438965 0.369385
0.892090 0.572266 0.481934
0.038605 0.121643 0.136230
0.128174 0.142334 0.153076
0.266113 0.172241 0.178711
0.336182 0.214600 0.212036
0.395508 0.254883 0.241699
0.494873 0.296387 0.265625
0.618164 0.366455 0.313721
0.758789 0.462646 0.385254
0.895508 0.585938 0.491943
0.133423 0.259521 0.201294
0.175903 0.264404 0.193848
0.272217 0.277344 0.196533
0.358887 0.286133 0.219360
0.416748 0.311279 0.263184
0.510254 0.352295 0.297119
0.630371 0.413086 0.342285
0.767090 0.497314 0.408691
0.900879 0.606445 0.506348
0.213745 0.336426 0.245728
0.243042 0.338135 0.247925
0.284424 0.343018 0.248413
0.368408 0.367676 0.270020
0.450439 0.392578 0.307617
0.537109 0.426514 0.344971
0.650391 0.476562 0.384766
0.779297 0.546387 0.443115
0.909180 0.636719 0.526367
0.296143 0.447510 0.303955
0.320801 0.448975 0.309326
0.357422 0.452148 0.318604
0.406738 0.458496 0.332031
0.494873 0.489014 0.373535
0.583008 0.520508 0.410889
0.681152 0.558105 0.443359
0.796387 0.611328 0.489990
0.919434 0.679199 0.552734
0.410645 0.583496 0.394287
0.427490 0.584473 0.398193
0.454102 0.586426 0.404541
0.492920 0.590820 0.415039
0.546875 0.598145 0.431396
0.634766 0.625488 0.476318
0.723633 0.655273 0.515137
0.821777 0.691895 0.550781
0.933105 0.737793 0.591797
0.538086 0.729004 0.500977
0.549316 0.729492 0.503418
0.566895 0.729980 0.507812
0.594727 0.731934 0.514648
0.636230 0.735840 0.526855
0.693848 0.743164 0.546875
0.772949 0.761719 0.585938
0.856934 0.784180 0.618652
0.950684 0.811523 0.644043
0.665527 0.860352 0.613770
0.670898 0.860352 0.614746
0.680664 0.860840 0.615723
0.697266 0.861816 0.617188
0.723633 0.862793 0.620605
0.764160 0.865723 0.628418
0.821777 0.870605 0.646484
0.894531 0.881348 0.676758
0.975586 0.897461 0.704590
0.792969 0.975098 0.735352
0.795898 0.975586 0.735840
0.801270 0.975586 0.735840
0.809570 0.976074 0.735840
0.824219 0.977051 0.736816
0.848145 0.978027 0.737793
0.885254 0.980957 0.740234
0.938477 0.984863 0.749512
1.000000 0.992188 0.770020
0.017746 0.015884 0.116333
0.070557 0.038635 0.133667
0.154663 0.081665 0.172607
0.276611 0.151489 0.233887
0.371094 0.205811 0.266357
0.471436 0.254639 0.291748
0.598633 0.335205 0.341797
0.746094 0.440674 0.412842
0.891602 0.569824 0.510254
0.064209 0.130249 0.219482
0.140137 0.147461 0.240845
0.239746 0.171753 0.254395
0.315430 0.204834 0.262207
0.384033 0.250244 0.281738
0.483887 0.298828 0.312988
0.610840 0.371582 0.363037
0.754883 0.468262 0.432373
0.895996 0.585938 0.522949
0.106628 0.266113 0.268555
0.150513 0.269287 0.272949
0.260986 0.270752 0.273926
0.372803 0.281250 0.281494
0.427246 0.308838 0.304199
0.503906 0.358398 0.344727
0.625977 0.418701 0.389648
0.763184 0.501953 0.452881
0.901367 0.606934 0.536621
0.201050 0.340332 0.285645
0.221313 0.344482 0.283203
0.264160 0.350342 0.277344
0.368164 0.371582 0.290039
0.463867 0.391357 0.326904
0.534180 0.430176 0.385010
0.645508 0.481445 0.427734
0.775391 0.550781 0.484131
0.908203 0.637695 0.555664
0.303223 0.447021 0.349365
0.325684 0.448975 0.353516
0.358643 0.452637 0.359619
0.404053 0.460205 0.366699
0.493408 0.491455 0.401123
0.580078 0.522949 0.445312
0.675293 0.561523 0.481445
0.791992 0.614258 0.524902
0.917969 0.680664 0.579590
0.414062 0.583496 0.432373
0.429932 0.584473 0.435547
0.455811 0.586426 0.441162
0.493408 0.590820 0.451172
0.546387 0.598145 0.467529
0.631836 0.626465 0.510742
0.719727 0.656738 0.546387
0.817871 0.693848 0.579590
0.930664 0.738770 0.615723
0.539551 0.728516 0.530762
0.550781 0.729004 0.532715
0.567871 0.729980 0.536621
0.596191 0.731934 0.543457
0.636719 0.734863 0.554688
0.691406 0.742188 0.571777
0.770996 0.762207 0.610840
0.854004 0.784668 0.641602
0.948730 0.812500 0.664062
0.662598 0.860352 0.629883
0.668945 0.860840 0.630371
0.678711 0.861328 0.631836
0.695801 0.861816 0.634277
0.722656 0.863281 0.638184
0.763672 0.865723 0.646484
0.820312 0.870117 0.663086
0.893555 0.881348 0.694336
0.974121 0.897949 0.719727
0.790527 0.975586 0.743652
0.793457 0.975586 0.743652
0.798340 0.976074 0.744141
0.807617 0.976562 0.744141
0.822266 0.977051 0.744629
0.845703 0.978516 0.746094
0.883301 0.980957 0.747559
0.937500 0.985352 0.756836
1.000000 0.992676 0.778320
0.059479 0.039062 0.181396
0.104614 0.063599 0.207275
0.192383 0.105042 0.252930
0.291016 0.164673 0.296631
0.373779 0.209961 0.319336
0.467285 0.257568 0.342773
0.590332 0.336670 0.390625
0.739258 0.442871 0.461182
0.890137 0.567871 0.547363
0.127563 0.150879 0.262207
0.174683 0.169678 0.279297
0.236450 0.193848 0.297119
0.302734 0.219849 0.311279
0.373047 0.247559 0.323975
0.469238 0.291748 0.352295
0.598633 0.367920 0.405273
0.745117 0.467285 0.475342
0.894043 0.583984 0.558594
0.145752 0.262939 0.337891
0.186646 0.264404 0.345459
0.254150 0.264160 0.348633
0.332031 0.267578 0.342041
0.398438 0.292969 0.342529
0.490234 0.352783 0.381592
0.617676 0.419678 0.434326
0.756836 0.506836 0.500488
0.899902 0.609375 0.577148
0.173706 0.347168 0.345459
0.193237 0.351318 0.350342
0.240234 0.356445 0.355713
0.355713 0.364502 0.363770
0.474365 0.384766 0.383057
0.541504 0.431396 0.426270
0.640625 0.487549 0.474854
0.770020 0.556641 0.529785
0.906738 0.640625 0.594727
0.308105 0.449219 0.394775
0.323242 0.452393 0.396484
0.345703 0.458496 0.397461
0.388672 0.468018 0.395996
0.490967 0.493164 0.416016
0.590332 0.522949 0.466553
0.669922 0.565430 0.522949
0.787109 0.618652 0.566406
0.915039 0.683105 0.616211
0.421387 0.583496 0.477051
0.437012 0.584473 0.480225
0.461914 0.586426 0.485840
0.497803 0.591309 0.495117
0.546875 0.600098 0.507812
0.630371 0.628418 0.545898
0.714844 0.659180 0.584473
0.813477 0.696289 0.614746
0.926758 0.741699 0.649414
0.544922 0.728516 0.569824
0.555664 0.729004 0.571777
0.572266 0.729980 0.575195
0.599121 0.731445 0.581543
0.637695 0.734863 0.591309
0.690918 0.742676 0.606445
0.769043 0.762695 0.643066
0.850586 0.786133 0.671875
0.944824 0.813965 0.693848
0.660645 0.860840 0.655762
0.666504 0.860840 0.656250
0.677246 0.861328 0.658203
0.694336 0.861816 0.660645
0.722656 0.863281 0.666016
0.763184 0.865723 0.675293
0.818359 0.870117 0.688965
0.891602 0.881836 0.720703
0.971680 0.898438 0.743652
0.786133 0.976074 0.757324
0.789551 0.976074 0.757324
0.794922 0.976562 0.757324
0.803711 0.977051 0.757324
0.818359 0.977539 0.757812
0.842773 0.979004 0.758301
0.880371 0.981445 0.760254
0.935547 0.985352 0.769043
1.000000 0.992676 0.792480
0.127075 0.077881 0.304443
0.177368 0.101868 0.326660
0.244019 0.139404 0.352539
0.313721 0.178711 0.372314
0.383545 0.214355 0.383789
0.472412 0.264893 0.405518
0.591309 0.344971 0.451172
0.735352 0.448975 0.517578
0.887207 0.569336 0.595703
0.184692 0.180176 0.349854
0.217407 0.192383 0.357178
0.261475 0.208496 0.365723
0.315674 0.227173 0.374268
0.382812 0.251953 0.385254
0.476074 0.298096 0.412598
0.594727 0.370850 0.458984
0.737793 0.467529 0.523926
0.890137 0.582520 0.603027
0.213989 0.263428 0.368652
0.237671 0.266602 0.371582
0.272949 0.272217 0.375488
0.322998 0.283203 0.382080
0.391113 0.307129 0.396484
0.482422 0.348877 0.426025
0.603027 0.410645 0.473145
0.746582 0.502930 0.541504
0.895020 0.606934 0.616699
0.216675 0.346924 0.411865
0.238403 0.349854 0.418945
0.279541 0.354004 0.428711
0.349609 0.359619 0.437500
0.435059 0.374268 0.441162
0.511719 0.413818 0.455566
0.626953 0.482666 0.511230
0.762695 0.558594 0.574219
0.902344 0.643555 0.639648
0.294678 0.457275 0.452148
0.303467 0.461426 0.456299
0.321533 0.467529 0.463379
0.366211 0.476074 0.472656
0.482910 0.489990 0.487305
0.598633 0.514648 0.512695
0.670410 0.569336 0.565430
0.782715 0.623535 0.611816
0.910645 0.687988 0.661621
0.437988 0.584473 0.527832
0.450928 0.585938 0.529785
0.469727 0.588867 0.533203
0.496094 0.595215 0.538086
0.537109 0.605957 0.540039
0.627441 0.628906 0.559082
0.720215 0.660645 0.612793
0.807617 0.700684 0.657227
0.921387 0.745605 0.691406
0.554199 0.728516 0.616699
0.563965 0.729004 0.618652
0.579590 0.729980 0.621094
0.604492 0.731934 0.626465
0.642090 0.735840 0.635254
0.691895 0.743164 0.650391
0.766602 0.764160 0.683594
0.845703 0.788086 0.710938
0.939453 0.816895 0.731934
0.662598 0.860840 0.693848
0.668945 0.860840 0.694824
0.679199 0.861328 0.696289
0.697266 0.861816 0.699707
0.724609 0.862793 0.704590
0.764648 0.864746 0.713867
0.818359 0.870117 0.727539
0.889648 0.882324 0.755859
0.967773 0.899902 0.777832
0.780273 0.977051 0.777832
0.783203 0.977051 0.777832
0.788574 0.977539 0.777832
0.797363 0.978027 0.777832
0.812500 0.978516 0.778320
0.837891 0.979980 0.779297
0.877930 0.981934 0.783691
0.934570 0.985840 0.793945
1.000000 0.993164 0.817871
0.228271 0.138062 0.443848
0.255615 0.151855 0.449219
0.292725 0.170288 0.454590
0.340088 0.192993 0.458252
0.400635 0.223022 0.463135
0.487305 0.275391 0.482910
0.600586 0.354980 0.522949
0.737793 0.458496 0.583496
0.885742 0.577148 0.656250
0.242065 0.204956 0.448242
0.263184 0.211304 0.450195
0.294678 0.220581 0.452148
0.338867 0.234985 0.455078
0.402344 0.261230 0.464600
0.490479 0.308594 0.487305
0.603516 0.380371 0.528809
0.739746 0.476562 0.588867
0.887207 0.587891 0.660156
0.251221 0.270508 0.447266
0.270020 0.273682 0.448486
0.300293 0.280273 0.451660
0.346191 0.292969 0.458496
0.411377 0.316650 0.472656
0.498779 0.357178 0.498047
0.610352 0.420166 0.539551
0.744141 0.505371 0.598145
0.890625 0.605957 0.666504
0.286133 0.352783 0.459961
0.303711 0.355957 0.462646
0.331299 0.362305 0.467529
0.373535 0.373291 0.475586
0.433838 0.393066 0.490967
0.515625 0.427002 0.517090
0.623047 0.478271 0.558594
0.751953 0.550293 0.613770
0.895996 0.640625 0.682617
0.338379 0.462158 0.516602
0.349854 0.465088 0.521484
0.371338 0.469727 0.530273
0.411133 0.477295 0.542969
0.479248 0.488037 0.556641
0.564941 0.510254 0.567871
0.648926 0.555664 0.592285
0.773926 0.621094 0.651855
0.905273 0.689941 0.708008
0.448242 0.590820 0.583008
0.454346 0.592773 0.585449
0.463135 0.597168 0.590820
0.478271 0.604980 0.599121
0.516602 0.616211 0.610840
0.625488 0.630371 0.626465
0.729492 0.654297 0.651367
0.802734 0.704590 0.700195
0.916016 0.750977 0.738770
0.571777 0.729004 0.668945
0.580566 0.729492 0.670410
0.595215 0.730469 0.672852
0.617676 0.732422 0.677246
0.648926 0.737793 0.683594
0.689453 0.747559 0.688965
0.764160 0.765137 0.704102
0.842773 0.790039 0.747559
0.934082 0.820801 0.774902
0.672852 0.860352 0.743652
0.678711 0.860352 0.744141
0.688965 0.860840 0.746094
0.705566 0.861328 0.748535
0.731445 0.862305 0.753418
0.769043 0.864746 0.760742
0.819336 0.870117 0.772949
0.886719 0.883301 0.797852
0.962891 0.901855 0.818359
0.772461 0.978516 0.808594
0.775879 0.978516 0.809082
0.781738 0.978516 0.809082
0.791504 0.979004 0.810059
0.808594 0.979492 0.811523
0.835938 0.980469 0.814941
0.877441 0.982422 0.821777
0.934082 0.985840 0.833984
1.000000 0.993164 0.855957
0.295898 0.180908 0.549316
0.310547 0.186523 0.549805
0.334717 0.196045 0.551270
0.372559 0.212280 0.553711
0.431152 0.242798 0.562012
0.513184 0.293457 0.579590
0.619629 0.369629 0.611816
0.748047 0.470947 0.662598
0.887207 0.587402 0.726074
0.294922 0.223511 0.549805
0.310059 0.227905 0.550293
0.335449 0.236084 0.551758
0.375732 0.251221 0.555664
0.435791 0.278809 0.564941
0.517578 0.324219 0.583496
0.623535 0.393799 0.616211
0.750488 0.488037 0.666504
0.889160 0.598145 0.729004
0.302734 0.285156 0.549805
0.319092 0.289307 0.551270
0.345215 0.296875 0.554199
0.385742 0.310059 0.560059
0.444580 0.333008 0.570801
0.525391 0.372070 0.590332
0.629395 0.432617 0.623535
0.753906 0.515625 0.672852
0.892090 0.615234 0.733887
0.333008 0.369385 0.558594
0.347656 0.372559 0.560547
0.371826 0.378906 0.564453
0.409424 0.389404 0.570801
0.465088 0.408447 0.582520
0.541016 0.439941 0.603027
0.640625 0.489746 0.636230
0.761230 0.559570 0.684570
0.895508 0.643555 0.742188
0.394531 0.474609 0.587402
0.406738 0.477295 0.589355
0.426758 0.481934 0.592285
0.458496 0.489746 0.598633
0.505859 0.503906 0.609375
0.572754 0.528320 0.628906
0.661621 0.566406 0.660156
0.773926 0.620605 0.704102
0.901367 0.687012 0.755859
0.485107 0.599121 0.646484
0.492920 0.600586 0.648926
0.505859 0.604004 0.653320
0.526855 0.609863 0.661621
0.563477 0.618652 0.675781
0.625977 0.632812 0.691895
0.706055 0.658203 0.706055
0.793945 0.699707 0.735840
0.911621 0.750977 0.783691
0.597656 0.731934 0.724609
0.604004 0.732910 0.725586
0.613281 0.734863 0.727539
0.625488 0.738281 0.731934
0.640137 0.746094 0.740234
0.669922 0.756836 0.751953
0.765137 0.767578 0.764648
0.854492 0.786621 0.783691
0.927734 0.824219 0.819824
0.691406 0.859863 0.798340
0.696777 0.860352 0.799316
0.705078 0.860352 0.800293
0.719727 0.861328 0.802246
0.743652 0.862305 0.805664
0.778320 0.864746 0.812012
0.822266 0.871582 0.820312
0.884766 0.884766 0.831543
0.956543 0.904785 0.862793
0.774902 0.978516 0.856445
0.777832 0.979004 0.856445
0.784180 0.979004 0.857422
0.795410 0.979004 0.858887
0.812988 0.979492 0.861328
0.841309 0.979980 0.865234
0.881836 0.981445 0.872559
0.935059 0.985352 0.884766
0.999023 0.994141 0.902832
0.365723 0.236206 0.635742
0.376953 0.241455 0.637695
0.395752 0.250732 0.642090
0.427246 0.267090 0.648926
0.476074 0.294189 0.660645
0.547852 0.338135 0.680176
0.645020 0.404541 0.710449
0.762695 0.496338 0.752441
0.891602 0.605469 0.804199
0.370850 0.269287 0.645508
0.382324 0.273926 0.647461
0.401611 0.282227 0.651855
0.433594 0.296875 0.658203
0.482910 0.321289 0.669434
0.554199 0.361572 0.687500
0.650391 0.423584 0.716309
0.766113 0.509766 0.756348
0.894043 0.614258 0.807129
0.380615 0.320557 0.661621
0.392578 0.324707 0.663574
0.412354 0.331787 0.666992
0.444580 0.344238 0.672363
0.494141 0.365723 0.682617
0.564941 0.400879 0.698730
0.658203 0.455811 0.724609
0.771973 0.533691 0.763184
0.897949 0.628906 0.811523
0.402588 0.396973 0.679199
0.414062 0.400146 0.680664
0.433838 0.405762 0.684082
0.465088 0.415771 0.688477
0.512695 0.432861 0.697266
0.580566 0.461670 0.712402
0.670898 0.506836 0.736328
0.780273 0.572266 0.772461
0.902832 0.654297 0.818359
0.448975 0.497314 0.699219
0.459229 0.500000 0.700684
0.476074 0.503906 0.703125
0.503418 0.511230 0.708008
0.545898 0.523926 0.715820
0.606934 0.545898 0.729980
0.689453 0.580078 0.751953
0.791992 0.631348 0.786133
0.908691 0.694336 0.827637
0.525391 0.615723 0.734375
0.533203 0.617188 0.735352
0.546387 0.620117 0.737305
0.567871 0.625000 0.741211
0.602051 0.633789 0.747559
0.651855 0.648438 0.758789
0.720703 0.671875 0.777832
0.809570 0.707031 0.805664
0.915527 0.751465 0.841797
0.627441 0.741211 0.789062
0.632812 0.741699 0.789551
0.642090 0.743164 0.791504
0.657227 0.746094 0.793457
0.679688 0.750977 0.798340
0.714355 0.759277 0.809082
0.768555 0.771973 0.824219
0.839355 0.793457 0.838379
0.927734 0.824219 0.865234
0.719727 0.861328 0.855469
0.724609 0.861328 0.855957
0.731934 0.861816 0.856445
0.744141 0.862793 0.857422
0.762207 0.864746 0.860352
0.781738 0.870117 0.866211
0.804199 0.880371 0.877441
0.887207 0.887207 0.886230
0.964844 0.904297 0.902344
0.795410 0.978027 0.915527
0.798340 0.978027 0.915527
0.804199 0.978027 0.916504
0.814453 0.978027 0.917480
0.830566 0.978516 0.919434
0.855469 0.979492 0.922363
0.891602 0.981445 0.928223
0.939941 0.985840 0.938477
0.997559 0.995117 0.950684
0.471436 0.331543 0.741211
0.478760 0.335938 0.743164
0.491943 0.343994 0.746582
0.513672 0.357422 0.751953
0.549316 0.379883 0.762695
0.603516 0.416504 0.778809
0.680664 0.471436 0.804199
0.781250 0.547852 0.840820
0.896484 0.641113 0.884766
0.478271 0.355713 0.749023
0.485596 0.359619 0.750488
0.498291 0.366943 0.753906
0.520020 0.379395 0.759277
0.554688 0.400391 0.769531
0.608887 0.434326 0.785156
0.685547 0.485840 0.810059
0.784668 0.559082 0.844727
0.898926 0.647461 0.887695
0.489258 0.394287 0.762207
0.496582 0.397949 0.763672
0.509766 0.404297 0.766602
0.530762 0.415039 0.771973
0.565430 0.433594 0.780762
0.618652 0.463623 0.795898
0.693359 0.510254 0.818848
0.791016 0.577148 0.852051
0.902344 0.659668 0.891602
0.508301 0.452881 0.783203
0.515137 0.455811 0.785156
0.527344 0.460938 0.787598
0.548340 0.469727 0.792480
0.582031 0.484375 0.800293
0.633789 0.509766 0.812988
0.707031 0.549316 0.833984
0.801270 0.605957 0.863281
0.908691 0.678711 0.898926
0.536621 0.534668 0.816406
0.543457 0.536621 0.817383
0.555664 0.540039 0.819824
0.576172 0.546875 0.823730
0.608398 0.558105 0.830078
0.657715 0.576660 0.840820
0.727051 0.606934 0.856934
0.816895 0.651367 0.881348
0.919434 0.709961 0.910645
0.583984 0.640137 0.851074
0.590332 0.641602 0.852051
0.600586 0.643555 0.853516
0.619141 0.648438 0.855957
0.647461 0.655273 0.860352
0.691895 0.667969 0.868164
0.753906 0.687500 0.880371
0.834961 0.718262 0.899414
0.930664 0.758789 0.923828
0.659668 0.756348 0.881348
0.664062 0.756836 0.881836
0.671875 0.758301 0.882812
0.685547 0.760742 0.884277
0.707031 0.764648 0.886719
0.740723 0.771484 0.892090
0.790039 0.783203 0.900391
0.856445 0.801758 0.915039
0.941406 0.829102 0.937012
0.745117 0.868164 0.922363
0.749023 0.868652 0.922363
0.754883 0.869141 0.922363
0.765137 0.870117 0.922852
0.781738 0.871582 0.923828
0.806641 0.875000 0.926270
0.842773 0.881836 0.931641
0.893066 0.893066 0.942383
0.960449 0.912109 0.958496
0.824219 0.978516 0.975586
0.826660 0.978516 0.975586
0.831543 0.979004 0.976074
0.839844 0.979004 0.976562
0.854004 0.979492 0.977051
0.876953 0.980469 0.978516
0.905762 0.983398 0.982422
0.928711 0.992676 0.992188
1.000000 0.998535 1.000000
