RED_IPP2_Creative/RED_BLAU.cube
# RED Digital Cinema Output Transform LUT for IPP2
# Creatives by Eric Weidt
# BMD cube from Truelight v4.0
# Settings used in creation of this LUT are:
# Development Color Space = USER SELECTABLE
# Output Gamma Curve = USER SELECTABLE
# Output Tonemap = USER SELECTABLE
# Highlight Rolloff = USER SELECTABLE
LUT_3D_SIZE 33
0.000000 0.004059 0.015717
0.012619 0.003975 0.015396
0.044220 0.003897 0.015091
0.075806 0.003819 0.014786
0.107422 0.003740 0.014481
0.139038 0.003662 0.014175
0.170654 0.003586 0.013878
0.202148 0.003510 0.013580
0.233765 0.003435 0.013298
0.265137 0.003361 0.013008
0.296875 0.003284 0.012711
0.328369 0.003210 0.012436
0.360107 0.003139 0.012154
0.391602 0.003067 0.011871
0.423340 0.002996 0.011597
0.454834 0.002926 0.011322
0.486328 0.002855 0.011055
0.517578 0.002787 0.010780
0.549316 0.002718 0.010521
0.580566 0.002649 0.010254
0.612793 0.002583 0.009995
0.644043 0.002518 0.009743
0.675293 0.002453 0.009491
0.707520 0.002388 0.009239
0.738770 0.002321 0.008987
0.770020 0.002258 0.008743
0.801758 0.002197 0.008499
0.833496 0.002136 0.008270
0.864746 0.002075 0.008034
0.896484 0.002012 0.007793
0.927734 0.001953 0.007561
0.959473 0.001895 0.007336
0.991211 0.001837 0.007111
0.000000 0.035217 0.015366
0.013863 0.034943 0.014366
0.045441 0.034851 0.014076
0.077026 0.034790 0.013771
0.108643 0.034698 0.013474
0.140137 0.034637 0.013191
0.171875 0.034546 0.012901
0.203491 0.034485 0.012604
0.234985 0.034424 0.012329
0.266357 0.034332 0.012047
0.298096 0.034271 0.011772
0.329590 0.034210 0.011505
0.361328 0.034119 0.011223
0.392822 0.034058 0.010956
0.424316 0.033966 0.010689
0.455811 0.033905 0.010429
0.487549 0.033844 0.010170
0.519043 0.033783 0.009903
0.550293 0.033722 0.009651
0.582031 0.033661 0.009399
0.613770 0.033600 0.009148
0.645020 0.033539 0.008904
0.676758 0.033447 0.008659
0.708008 0.033386 0.008415
0.739746 0.033325 0.008179
0.771484 0.033295 0.007942
0.802734 0.033234 0.007706
0.833984 0.033173 0.007477
0.865723 0.033112 0.007252
0.897461 0.033051 0.007027
0.928711 0.032990 0.006805
0.960449 0.032928 0.006584
0.992188 0.032867 0.006367
0.000000 0.066345 0.015015
0.013222 0.066345 0.014908
0.046661 0.065796 0.013084
0.078186 0.065735 0.012794
0.109802 0.065674 0.012512
0.141357 0.065613 0.012230
0.172974 0.065491 0.011948
0.204468 0.065491 0.011673
0.236084 0.065430 0.011406
0.267578 0.065308 0.011124
0.299072 0.065247 0.010857
0.330811 0.065186 0.010590
0.362305 0.065125 0.010330
0.393799 0.065063 0.010071
0.425293 0.065002 0.009811
0.457031 0.064880 0.009560
0.488525 0.064880 0.009308
0.520020 0.064819 0.009056
0.551270 0.064697 0.008820
0.583008 0.064697 0.008568
0.614258 0.064575 0.008324
0.645996 0.064575 0.008095
0.677734 0.064453 0.007858
0.708984 0.064453 0.007629
0.740723 0.064331 0.007393
0.772461 0.064331 0.007172
0.803711 0.064270 0.006947
0.834961 0.064209 0.006725
0.866699 0.064148 0.006504
0.898438 0.064087 0.006290
0.929688 0.064026 0.006077
0.961426 0.063965 0.005871
0.992676 0.063904 0.005665
0.000000 0.097534 0.014664
0.013641 0.097473 0.014557
0.045715 0.097290 0.013870
0.079346 0.096741 0.011848
0.110962 0.096680 0.011566
0.142456 0.096619 0.011299
0.173950 0.096558 0.011032
0.205688 0.096436 0.010757
0.237183 0.096436 0.010490
0.268799 0.096375 0.010239
0.300293 0.096252 0.009979
0.331787 0.096252 0.009720
0.363281 0.096130 0.009468
0.395020 0.096069 0.009216
0.426514 0.096008 0.008965
0.458008 0.095947 0.008728
0.489502 0.095886 0.008476
0.520996 0.095825 0.008240
0.552246 0.095764 0.008003
0.583984 0.095703 0.007774
0.615234 0.095642 0.007542
0.646973 0.095581 0.007309
0.678711 0.095520 0.007088
0.709961 0.095459 0.006866
0.741699 0.095398 0.006645
0.772949 0.095398 0.006432
0.804688 0.095337 0.006210
0.835938 0.095276 0.006001
0.867676 0.095215 0.005795
0.899414 0.095154 0.005589
0.930664 0.095093 0.005383
0.961914 0.095032 0.005184
0.993652 0.094971 0.004986
0.000000 0.128662 0.014313
0.014069 0.128662 0.014206
0.045441 0.128540 0.014107
0.078613 0.128052 0.012466
0.112061 0.127686 0.010658
0.143555 0.127563 0.010399
0.175171 0.127441 0.010139
0.206665 0.127441 0.009880
0.238281 0.127441 0.009628
0.269775 0.127319 0.009377
0.301270 0.127319 0.009125
0.332764 0.127197 0.008881
0.364258 0.127075 0.008636
0.395752 0.127075 0.008400
0.427490 0.127075 0.008148
0.458984 0.126953 0.007919
0.490479 0.126831 0.007690
0.521484 0.126831 0.007458
0.553223 0.126831 0.007229
0.584961 0.126709 0.007004
0.616211 0.126587 0.006783
0.647949 0.126587 0.006565
0.679688 0.126587 0.006351
0.710938 0.126465 0.006134
0.742188 0.126465 0.005924
0.773926 0.126343 0.005718
0.805664 0.126343 0.005512
0.836914 0.126343 0.005310
0.868164 0.126221 0.005112
0.899902 0.126221 0.004917
0.931641 0.126099 0.004719
0.962891 0.126099 0.004532
0.994141 0.126099 0.004341
0.000000 0.159790 0.013962
0.014496 0.159790 0.013855
0.045868 0.159790 0.013748
0.077393 0.159546 0.013466
0.111511 0.158936 0.011101
0.144531 0.158569 0.009537
0.176147 0.158569 0.009285
0.207642 0.158569 0.009033
0.239258 0.158447 0.008789
0.270752 0.158325 0.008553
0.302246 0.158325 0.008308
0.333740 0.158325 0.008064
0.365479 0.158203 0.007835
0.396729 0.158081 0.007607
0.428467 0.158081 0.007374
0.459961 0.158081 0.007153
0.491455 0.157959 0.006924
0.522461 0.157837 0.006702
0.554199 0.157837 0.006485
0.585938 0.157837 0.006275
0.617188 0.157715 0.006062
0.648926 0.157593 0.005848
0.680176 0.157593 0.005646
0.711914 0.157593 0.005440
0.743164 0.157471 0.005238
0.774902 0.157471 0.005039
0.806152 0.157349 0.004845
0.837891 0.157349 0.004650
0.869141 0.157349 0.004463
0.900879 0.157227 0.004272
0.932129 0.157227 0.004086
0.963867 0.157227 0.003906
0.995117 0.157104 0.003727
0.000000 0.190918 0.013611
0.014915 0.190918 0.013504
0.046295 0.190918 0.013397
0.077637 0.190918 0.013298
0.110291 0.190430 0.012123
0.144287 0.189941 0.009789
0.177124 0.189575 0.008461
0.208740 0.189575 0.008224
0.240234 0.189453 0.007988
0.271729 0.189331 0.007751
0.303223 0.189331 0.007519
0.334717 0.189331 0.007294
0.366211 0.189209 0.007072
0.397705 0.189087 0.006844
0.429199 0.189087 0.006622
0.460938 0.189087 0.006405
0.492188 0.188965 0.006195
0.523438 0.188965 0.005985
0.555176 0.188843 0.005772
0.586914 0.188843 0.005569
0.618164 0.188843 0.005363
0.649414 0.188721 0.005165
0.681152 0.188721 0.004971
0.712891 0.188599 0.004772
0.744141 0.188599 0.004581
0.775391 0.188599 0.004391
0.807129 0.188477 0.004208
0.838379 0.188477 0.004021
0.870117 0.188354 0.003839
0.901367 0.188354 0.003666
0.933105 0.188354 0.003487
0.964355 0.188232 0.003315
0.996094 0.188232 0.003145
0.000000 0.222168 0.013260
0.015343 0.222046 0.013153
0.046722 0.222046 0.013046
0.078064 0.222046 0.012947
0.109436 0.222046 0.012840
0.142944 0.221436 0.010826
0.177002 0.220825 0.008553
0.209595 0.220581 0.007435
0.241211 0.220581 0.007210
0.272461 0.220459 0.006989
0.304199 0.220337 0.006767
0.335693 0.220337 0.006542
0.367188 0.220337 0.006329
0.398682 0.220215 0.006119
0.430176 0.220215 0.005909
0.461670 0.220093 0.005695
0.493164 0.220093 0.005497
0.524414 0.220093 0.005295
0.556152 0.219971 0.005093
0.587402 0.219849 0.004898
0.619141 0.219849 0.004704
0.650391 0.219849 0.004513
0.681641 0.219849 0.004322
0.713379 0.219727 0.004139
0.745117 0.219727 0.003956
0.776367 0.219604 0.003777
0.807617 0.219604 0.003601
0.839355 0.219604 0.003424
0.870605 0.219482 0.003252
0.902344 0.219482 0.003086
0.933594 0.219482 0.002918
0.965332 0.219360 0.002756
0.996582 0.219360 0.002594
0.000000 0.253174 0.012909
0.015762 0.253174 0.012802
0.047119 0.253174 0.012695
0.078491 0.253174 0.012596
0.109863 0.253174 0.012489
0.141968 0.252930 0.011719
0.175781 0.252197 0.009590
0.209717 0.251709 0.007370
0.242065 0.251465 0.006462
0.273438 0.251465 0.006248
0.304932 0.251465 0.006039
0.336426 0.251221 0.005829
0.367920 0.251221 0.005623
0.399414 0.251221 0.005421
0.430908 0.251221 0.005219
0.462402 0.251221 0.005020
0.493896 0.250977 0.004826
0.525391 0.250977 0.004635
0.556641 0.250977 0.004440
0.588379 0.250977 0.004257
0.619629 0.250977 0.004070
0.651367 0.250732 0.003891
0.682617 0.250732 0.003712
0.713867 0.250732 0.003536
0.745605 0.250732 0.003363
0.776855 0.250732 0.003191
0.808594 0.250488 0.003025
0.839844 0.250488 0.002857
0.871582 0.250488 0.002697
0.902832 0.250488 0.002537
0.934082 0.250488 0.002382
0.965820 0.250488 0.002228
0.997070 0.250488 0.002077
0.000000 0.284424 0.012558
0.016190 0.284424 0.012451
0.047546 0.284424 0.012344
0.078918 0.284180 0.012245
0.110291 0.284180 0.012138
0.141602 0.284180 0.012032
0.174683 0.283691 0.010490
0.208496 0.283203 0.008400
0.242310 0.282715 0.006252
0.274414 0.282471 0.005550
0.305908 0.282471 0.005348
0.337402 0.282471 0.005146
0.368896 0.282227 0.004951
0.400391 0.282227 0.004757
0.431885 0.282227 0.004562
0.463379 0.282227 0.004372
0.494873 0.282227 0.004189
0.525879 0.282227 0.004005
0.557617 0.281982 0.003824
0.588867 0.281982 0.003649
0.620605 0.281982 0.003471
0.651855 0.281982 0.003300
0.683594 0.281982 0.003128
0.714844 0.281738 0.002964
0.746582 0.281738 0.002798
0.777832 0.281738 0.002638
0.809082 0.281738 0.002481
0.840820 0.281738 0.002325
0.872070 0.281738 0.002171
0.903320 0.281738 0.002022
0.935059 0.281494 0.001874
0.966309 0.281494 0.001729
0.998047 0.281494 0.001589
0.000000 0.315430 0.012207
0.016617 0.315430 0.012100
0.047974 0.315430 0.011993
0.079346 0.315430 0.011894
0.110718 0.315430 0.011787
0.142090 0.315430 0.011681
0.173828 0.315186 0.011269
0.207397 0.314697 0.009300
0.241089 0.314209 0.007275
0.274902 0.313721 0.005196
0.306641 0.313477 0.004684
0.338135 0.313477 0.004494
0.369629 0.313477 0.004303
0.401123 0.313477 0.004124
0.432617 0.313477 0.003941
0.464111 0.313232 0.003759
0.495361 0.313232 0.003584
0.526855 0.313232 0.003408
0.558105 0.313232 0.003237
0.589844 0.313232 0.003069
0.621094 0.312988 0.002903
0.652832 0.312988 0.002741
0.684082 0.312988 0.002579
0.715332 0.312988 0.002424
0.747070 0.312988 0.002268
0.778320 0.312988 0.002115
0.810059 0.312988 0.001968
0.841309 0.312744 0.001822
0.872559 0.312744 0.001678
0.904297 0.312744 0.001538
0.935547 0.312744 0.001399
0.966797 0.312744 0.001264
0.998535 0.312744 0.001131
0.000000 0.346680 0.011856
0.017044 0.346680 0.011749
0.048401 0.346680 0.011642
0.079773 0.346680 0.011536
0.111145 0.346680 0.011436
0.142456 0.346436 0.011330
0.173828 0.346436 0.011223
0.206421 0.345947 0.010086
0.239990 0.345703 0.008171
0.273438 0.345215 0.006203
0.307129 0.344727 0.004208
0.338867 0.344482 0.003874
0.370361 0.344482 0.003695
0.401855 0.344482 0.003521
0.433350 0.344482 0.003347
0.464844 0.344482 0.003176
0.496094 0.344238 0.003008
0.527344 0.344238 0.002844
0.559082 0.344238 0.002682
0.590332 0.344238 0.002522
0.621582 0.344238 0.002367
0.653320 0.344238 0.002213
0.684570 0.344238 0.002062
0.716309 0.344238 0.001915
0.747559 0.343994 0.001769
0.778809 0.343994 0.001626
0.810547 0.343994 0.001487
0.841797 0.343994 0.001350
0.873047 0.343994 0.001216
0.904785 0.343994 0.001084
0.936035 0.343750 0.000956
0.967285 0.343750 0.000830
0.999023 0.343750 0.000706
0.000000 0.377930 0.011497
0.017456 0.377930 0.011398
0.048828 0.377686 0.011292
0.080200 0.377686 0.011185
0.111572 0.377686 0.011086
0.142944 0.377686 0.010979
0.174316 0.377686 0.010872
0.205688 0.377686 0.010773
0.239136 0.377197 0.008942
0.272461 0.376709 0.007092
0.306152 0.376221 0.005203
0.339600 0.375732 0.003284
0.371094 0.375732 0.003113
0.402588 0.375488 0.002949
0.434082 0.375488 0.002783
0.465332 0.375488 0.002623
0.496826 0.375488 0.002466
0.528320 0.375488 0.002312
0.559570 0.375488 0.002157
0.590820 0.375488 0.002007
0.622559 0.375244 0.001862
0.653809 0.375244 0.001717
0.685547 0.375244 0.001575
0.716797 0.375244 0.001437
0.748047 0.375244 0.001301
0.779297 0.375244 0.001167
0.811035 0.375244 0.001038
0.842285 0.375000 0.000910
0.873535 0.375000 0.000784
0.905273 0.375000 0.000662
0.936523 0.375000 0.000543
0.967773 0.375000 0.000427
0.999512 0.375000 0.000313
0.000000 0.408936 0.011147
0.017883 0.408936 0.011047
0.049255 0.408936 0.010941
0.080627 0.408936 0.010834
0.112000 0.408936 0.010735
0.143311 0.408936 0.010628
0.174683 0.408936 0.010521
0.206055 0.408936 0.010422
0.238159 0.408447 0.009628
0.271484 0.407959 0.007858
0.304932 0.407715 0.006081
0.338379 0.407227 0.004265
0.371826 0.406738 0.002565
0.403076 0.406738 0.002407
0.434570 0.406738 0.002254
0.466064 0.406738 0.002102
0.497559 0.406738 0.001953
0.528809 0.406494 0.001809
0.560059 0.406494 0.001665
0.591797 0.406494 0.001524
0.623047 0.406494 0.001387
0.654297 0.406494 0.001251
0.686035 0.406494 0.001119
0.717285 0.406494 0.000991
0.748535 0.406250 0.000864
0.780273 0.406250 0.000740
0.811523 0.406250 0.000618
0.842773 0.406250 0.000501
0.874512 0.406250 0.000385
0.905762 0.406250 0.000272
0.937012 0.406250 0.000162
0.968262 0.406250 0.000055
1.000000 0.406250 0.000000
0.000000 0.440186 0.010796
0.018311 0.440186 0.010696
0.049683 0.440186 0.010590
0.081055 0.440186 0.010483
0.112427 0.439941 0.010384
0.143799 0.439941 0.010277
0.175171 0.439941 0.010170
0.206543 0.439941 0.010071
0.237915 0.439941 0.009964
0.270752 0.439453 0.008537
0.303955 0.439209 0.006840
0.337402 0.438721 0.005127
0.370605 0.438232 0.003386
0.403809 0.437744 0.001901
0.435303 0.437744 0.001756
0.466553 0.437744 0.001614
0.498047 0.437744 0.001473
0.529297 0.437744 0.001337
0.560547 0.437744 0.001204
0.592285 0.437744 0.001072
0.623535 0.437500 0.000944
0.654785 0.437500 0.000819
0.686523 0.437500 0.000695
0.717773 0.437500 0.000575
0.749023 0.437500 0.000458
0.780762 0.437500 0.000344
0.812012 0.437500 0.000232
0.843262 0.437500 0.000123
0.874512 0.437500 0.000017
0.906250 0.437500 0.000000
0.937500 0.437500 0.000000
0.968750 0.437500 0.000000
1.000000 0.437500 0.000000
0.000000 0.471436 0.010445
0.018738 0.471191 0.010345
0.050110 0.471191 0.010239
0.081482 0.471191 0.010132
0.112854 0.471191 0.010033
0.144165 0.471191 0.009926
0.175537 0.471191 0.009819
0.206909 0.471191 0.009712
0.238281 0.471191 0.009613
0.269775 0.470947 0.009125
0.303223 0.470459 0.007507
0.336426 0.469971 0.005878
0.369629 0.469727 0.004230
0.402832 0.469238 0.002573
0.435791 0.468994 0.001288
0.467285 0.468994 0.001155
0.498535 0.468994 0.001025
0.529785 0.468750 0.000898
0.561523 0.468750 0.000773
0.592773 0.468750 0.000651
0.624023 0.468750 0.000533
0.655273 0.468750 0.000416
0.687012 0.468750 0.000303
0.718262 0.468750 0.000192
0.749512 0.468750 0.000084
0.781250 0.468750 0.000000
0.812500 0.468750 0.000000
0.843750 0.468750 0.000000
0.875000 0.468750 0.000000
0.906250 0.468750 0.000000
0.937500 0.468750 0.000000
0.968750 0.468750 0.000000
1.000000 0.468750 0.000000
0.000000 0.502441 0.010094
0.019165 0.502441 0.009995
0.050537 0.502441 0.009888
0.081909 0.502441 0.009781
0.113281 0.502441 0.009674
0.144653 0.502441 0.009575
0.176025 0.502441 0.009468
0.207397 0.501953 0.009361
0.238770 0.501953 0.009262
0.270020 0.501953 0.009155
0.302490 0.501465 0.008080
0.335693 0.500977 0.006535
0.368896 0.500977 0.004971
0.401855 0.500488 0.003401
0.435059 0.500000 0.001825
0.467773 0.500000 0.000729
0.499023 0.500000 0.000607
0.530273 0.500000 0.000490
0.562012 0.500000 0.000375
0.593262 0.500000 0.000262
0.624512 0.500000 0.000152
0.655762 0.500000 0.000045
0.687500 0.500000 0.000000
0.718750 0.500000 0.000000
0.750000 0.500000 0.000000
0.781250 0.500000 0.000000
0.812500 0.500000 0.000000
0.843750 0.500000 0.000000
0.875000 0.500000 0.000000
0.906250 0.500000 0.000000
0.937500 0.500000 0.000000
0.968750 0.500000 0.000000
1.000000 0.500000 0.000000
0.000000 0.533691 0.009743
0.019592 0.533691 0.009644
0.050964 0.533691 0.009537
0.082336 0.533203 0.009430
0.113708 0.533203 0.009323
0.145020 0.533203 0.009224
0.176392 0.533203 0.009117
0.207764 0.533203 0.009010
0.239136 0.533203 0.008911
0.270508 0.533203 0.008804
0.301758 0.532715 0.008575
0.334961 0.532715 0.007107
0.367920 0.532227 0.005615
0.401123 0.531738 0.004128
0.434082 0.531738 0.002636
0.467285 0.531250 0.001141
0.499512 0.531250 0.000222
0.530762 0.531250 0.000113
0.562012 0.531250 0.000007
0.593750 0.531250 0.000000
0.625000 0.531250 0.000000
0.656250 0.531250 0.000000
0.687500 0.531250 0.000000
0.718750 0.531250 0.000000
0.750000 0.531250 0.000000
0.781250 0.531250 0.000000
0.812500 0.531250 0.000000
0.843750 0.531250 0.000000
0.875000 0.531250 0.000000
0.906250 0.531250 0.000000
0.937500 0.531250 0.000000
0.968750 0.531250 0.000000
1.000000 0.531250 0.000000
0.000000 0.564453 0.009392
0.020004 0.564453 0.009285
0.051392 0.564453 0.009186
0.082764 0.564453 0.009079
0.114136 0.564453 0.008972
0.145508 0.564453 0.008873
0.176880 0.564453 0.008766
0.208252 0.564453 0.008659
0.239624 0.564453 0.008560
0.270996 0.564453 0.008453
0.302246 0.564453 0.008347
0.334473 0.563965 0.007587
0.367188 0.563965 0.006176
0.400391 0.563477 0.004761
0.433350 0.562988 0.003345
0.466309 0.562988 0.001957
0.499023 0.562500 0.000643
0.531250 0.562500 0.000000
0.562500 0.562500 0.000000
0.593750 0.562500 0.000000
0.625000 0.562500 0.000000
0.656250 0.562500 0.000000
0.687500 0.562500 0.000000
0.718750 0.562500 0.000000
0.750000 0.562500 0.000000
0.781250 0.562500 0.000000
0.812500 0.562500 0.000000
0.843750 0.562500 0.000000
0.875000 0.562500 0.000000
0.906250 0.562500 0.000000
0.937500 0.562500 0.000000
0.968750 0.562500 0.000000
1.000000 0.562500 0.000000
0.000000 0.595703 0.009041
0.020432 0.595703 0.008934
0.051819 0.595703 0.008835
0.083191 0.595703 0.008728
0.114563 0.595703 0.008621
0.145874 0.595703 0.008522
0.177246 0.595703 0.008415
0.208618 0.595703 0.008308
0.239990 0.595703 0.008209
0.271240 0.595703 0.008102
0.302734 0.595703 0.007996
0.333984 0.595703 0.007896
0.366699 0.595215 0.006657
0.399414 0.594727 0.005356
0.432373 0.594727 0.004086
0.465088 0.594238 0.002850
0.497803 0.593750 0.001649
0.530273 0.593750 0.000478
0.562500 0.593750 0.000000
0.593750 0.593750 0.000000
0.625000 0.593750 0.000000
0.656250 0.593750 0.000000
0.687500 0.593750 0.000000
0.718750 0.593750 0.000000
0.750000 0.593750 0.000000
0.781250 0.593750 0.000000
0.812500 0.593750 0.000000
0.843750 0.593750 0.000000
0.875000 0.593750 0.000000
0.906250 0.593750 0.000000
0.937500 0.593750 0.000000
0.968750 0.593750 0.000000
1.000000 0.593750 0.000000
0.000000 0.626953 0.008690
0.020859 0.626953 0.008583
0.052216 0.626953 0.008484
0.083618 0.626953 0.008377
0.114990 0.626953 0.008270
0.146362 0.626953 0.008171
0.177734 0.626953 0.008064
0.209106 0.626953 0.007957
0.240479 0.626953 0.007858
0.271729 0.626953 0.007751
0.303223 0.626953 0.007648
0.334473 0.626465 0.007542
0.366211 0.625977 0.007061
0.398926 0.625977 0.005867
0.431641 0.625488 0.004696
0.464355 0.625488 0.003563
0.496826 0.625488 0.002455
0.529297 0.625000 0.001383
0.562012 0.625000 0.000340
0.593750 0.625000 0.000000
0.625000 0.625000 0.000000
0.656250 0.625000 0.000000
0.687500 0.625000 0.000000
0.718750 0.625000 0.000000
0.750000 0.625000 0.000000
0.781250 0.625000 0.000000
0.812500 0.625000 0.000000
0.843750 0.625000 0.000000
0.875000 0.625000 0.000000
0.906250 0.625000 0.000000
0.937500 0.625000 0.000000
0.968750 0.625000 0.000000
1.000000 0.625000 0.000000
0.000000 0.658203 0.008339
0.021286 0.658203 0.008232
0.052643 0.658203 0.008133
0.083984 0.658203 0.008026
0.115417 0.658203 0.007919
0.146729 0.658203 0.007820
0.178101 0.658203 0.007713
0.209473 0.658203 0.007610
0.240845 0.657715 0.007504
0.272217 0.657715 0.007401
0.303467 0.657715 0.007298
0.334961 0.657715 0.007191
0.366211 0.657715 0.007088
0.398438 0.657227 0.006233
0.430908 0.657227 0.005157
0.463623 0.656738 0.004108
0.496094 0.656738 0.003094
0.528320 0.656250 0.002108
0.561035 0.656250 0.001153
0.593262 0.656250 0.000227
0.625000 0.656250 0.000000
0.656250 0.656250 0.000000
0.687500 0.656250 0.000000
0.718750 0.656250 0.000000
0.750000 0.656250 0.000000
0.781250 0.656250 0.000000
0.812500 0.656250 0.000000
0.843750 0.656250 0.000000
0.875000 0.656250 0.000000
0.906250 0.656250 0.000000
0.937500 0.656250 0.000000
0.968750 0.656250 0.000000
1.000000 0.656250 0.000000
0.000000 0.689453 0.007988
0.021713 0.689453 0.007881
0.053070 0.689453 0.007782
0.084412 0.689453 0.007675
0.115845 0.689453 0.007572
0.147217 0.688965 0.007465
0.178589 0.688965 0.007362
0.209961 0.688965 0.007259
0.241333 0.688965 0.007153
0.272705 0.688965 0.007050
0.303955 0.688965 0.006947
0.335449 0.688965 0.006840
0.366699 0.688965 0.006737
0.398193 0.688477 0.006477
0.430664 0.688477 0.005486
0.463135 0.688477 0.004520
0.495361 0.687988 0.003586
0.527832 0.687988 0.002682
0.560059 0.687500 0.001803
0.592285 0.687500 0.000955
0.624512 0.687500 0.000134
0.656250 0.687500 0.000000
0.687500 0.687500 0.000000
0.718750 0.687500 0.000000
0.750000 0.687500 0.000000
0.781250 0.687500 0.000000
0.812500 0.687500 0.000000
0.843750 0.687500 0.000000
0.875000 0.687500 0.000000
0.906250 0.687500 0.000000
0.937500 0.687500 0.000000
0.968750 0.687500 0.000000
1.000000 0.687500 0.000000
0.000000 0.720703 0.007637
0.022141 0.720215 0.007534
0.053497 0.720215 0.007431
0.084839 0.720215 0.007324
0.116211 0.720215 0.007221
0.147583 0.720215 0.007114
0.178955 0.720215 0.007011
0.210327 0.720215 0.006908
0.241699 0.720215 0.006802
0.272949 0.720215 0.006699
0.304443 0.720215 0.006592
0.335693 0.720215 0.006489
0.367188 0.720215 0.006386
0.398438 0.720215 0.006279
0.430420 0.719727 0.005703
0.462646 0.719727 0.004818
0.495117 0.719238 0.003952
0.527344 0.719238 0.003120
0.559082 0.719238 0.002314
0.591797 0.718750 0.001535
0.624023 0.718750 0.000783
0.655762 0.718750 0.000059
0.687500 0.718750 0.000000
0.718750 0.718750 0.000000
0.750000 0.718750 0.000000
0.781250 0.718750 0.000000
0.812500 0.718750 0.000000
0.843750 0.718750 0.000000
0.875000 0.718750 0.000000
0.906250 0.718750 0.000000
0.937500 0.718750 0.000000
0.968750 0.718750 0.000000
1.000000 0.718750 0.000000
0.000000 0.751465 0.007286
0.022552 0.751465 0.007183
0.053925 0.751465 0.007076
0.085266 0.751465 0.006973
0.116638 0.751465 0.006870
0.148071 0.751465 0.006763
0.179443 0.751465 0.006660
0.210815 0.751465 0.006554
0.242188 0.751465 0.006451
0.273438 0.751465 0.006348
0.304932 0.751465 0.006241
0.336182 0.751465 0.006138
0.367676 0.751465 0.006035
0.398926 0.751465 0.005928
0.430420 0.751465 0.005825
0.462402 0.750977 0.004997
0.494873 0.750488 0.004211
0.526855 0.750488 0.003445
0.559082 0.750488 0.002703
0.590820 0.750000 0.001986
0.623047 0.750000 0.001300
0.655273 0.750000 0.000637
0.687500 0.750000 0.000000
0.718750 0.750000 0.000000
0.750000 0.750000 0.000000
0.781250 0.750000 0.000000
0.812500 0.750000 0.000000
0.843750 0.750000 0.000000
0.875000 0.750000 0.000000
0.906250 0.750000 0.000000
0.937500 0.750000 0.000000
0.968750 0.750000 0.000000
1.000000 0.750000 0.000000
0.000000 0.782715 0.006935
0.022980 0.782715 0.006832
0.054352 0.782715 0.006725
0.085693 0.782715 0.006622
0.117065 0.782715 0.006516
0.148438 0.782715 0.006413
0.179810 0.782715 0.006310
0.211182 0.782715 0.006203
0.242554 0.782715 0.006100
0.273926 0.782715 0.005997
0.305176 0.782715 0.005890
0.336670 0.782715 0.005787
0.367920 0.782715 0.005680
0.399414 0.782227 0.005577
0.430664 0.782227 0.005474
0.462402 0.781738 0.005096
0.494385 0.781738 0.004364
0.526367 0.781738 0.003664
0.558594 0.781738 0.002981
0.590332 0.781250 0.002327
0.622559 0.781250 0.001695
0.654785 0.781250 0.001090
0.686523 0.781250 0.000510
0.718750 0.781250 0.000000
0.750000 0.781250 0.000000
0.781250 0.781250 0.000000
0.812500 0.781250 0.000000
0.843750 0.781250 0.000000
0.875000 0.781250 0.000000
0.906250 0.781250 0.000000
0.937500 0.781250 0.000000
0.968750 0.781250 0.000000
1.000000 0.781250 0.000000
0.000000 0.813965 0.006584
0.023407 0.813965 0.006481
0.054779 0.813965 0.006374
0.086121 0.813965 0.006271
0.117493 0.813965 0.006165
0.148804 0.813965 0.006062
0.180176 0.813965 0.005959
0.211670 0.813965 0.005852
0.243042 0.813965 0.005749
0.274414 0.813477 0.005646
0.305664 0.813477 0.005539
0.337158 0.813477 0.005436
0.368408 0.813477 0.005329
0.399902 0.813477 0.005226
0.431152 0.813477 0.005123
0.462646 0.813477 0.005016
0.494385 0.812988 0.004440
0.526367 0.812988 0.003786
