RED_IPP2_Creative/RED_BW_0600.cube
# RED Digital Cinema Output Transform LUT for IPP2
# Creatives by Eric Weidt
# BMD cube from Truelight v4.0
# Settings used in creation of this LUT are:
# Development Color Space = USER SELECTABLE
# Output Gamma Curve = USER SELECTABLE
# Output Tonemap = USER SELECTABLE
# Highlight Rolloff = USER SELECTABLE
LUT_3D_SIZE 5
0.127441 0.127441 0.127441
0.129883 0.129883 0.129883
0.374756 0.374756 0.374756
0.609863 0.609863 0.609863
0.829590 0.829590 0.829590
0.140747 0.140747 0.140747
0.156982 0.156982 0.156860
0.391846 0.391846 0.391846
0.610840 0.610840 0.610840
0.829590 0.829590 0.829590
0.453369 0.453369 0.453369
0.455811 0.455811 0.455811
0.484619 0.484619 0.484619
0.625000 0.625000 0.625000
0.831055 0.831055 0.831055
0.685059 0.685059 0.685059
0.685059 0.685059 0.685059
0.687988 0.687988 0.687988
0.715820 0.715820 0.715820
0.843262 0.843262 0.843262
0.899902 0.899902 0.899902
0.899902 0.899902 0.899902
0.899902 0.899902 0.899902
0.902344 0.902344 0.902344
0.929199 0.929199 0.929199
0.135742 0.135742 0.135742
0.147705 0.147705 0.147705
0.388672 0.388672 0.388672
0.610840 0.610840 0.610352
0.829590 0.829590 0.829590
0.179077 0.179077 0.179077
0.214478 0.214478 0.214478
0.401611 0.401611 0.401367
0.612305 0.612305 0.612305
0.829590 0.829590 0.829590
0.457764 0.457764 0.458008
0.460693 0.460693 0.460693
0.488037 0.488037 0.488037
0.625977 0.625977 0.625977
0.831055 0.831055 0.831055
0.685547 0.685547 0.685547
0.685547 0.685547 0.685547
0.688477 0.688477 0.688477
0.715820 0.715820 0.715820
0.843262 0.843262 0.843262
0.899902 0.899902 0.899902
0.899902 0.899902 0.899902
0.899902 0.899902 0.899902
0.902344 0.902344 0.902344
0.929199 0.929199 0.929199
0.432617 0.432373 0.432373
0.435791 0.435791 0.435791
0.470459 0.470459 0.470459
0.622559 0.622559 0.622559
0.830566 0.830566 0.830566
0.440186 0.440186 0.440186
0.443115 0.443115 0.443115
0.475586 0.475586 0.475342
0.623047 0.623047 0.623047
0.830566 0.830566 0.830566
0.504883 0.504883 0.504883
0.506348 0.506348 0.506348
0.524414 0.524414 0.524414
0.635254 0.635254 0.635254
0.831055 0.831543 0.831055
0.689941 0.689941 0.689941
0.690430 0.690430 0.690430
0.692871 0.692871 0.692871
0.719238 0.719238 0.719238
0.843750 0.843750 0.843750
0.900391 0.900391 0.900391
0.900391 0.900391 0.900391
0.900391 0.900391 0.900391
0.902344 0.902344 0.902344
0.929199 0.929199 0.929199
0.664062 0.664062 0.664062
0.664551 0.664551 0.664551
0.667969 0.667969 0.667969
0.702148 0.702148 0.702148
0.839844 0.839844 0.839844
0.665039 0.665039 0.665039
0.665039 0.665039 0.665039
0.668457 0.668457 0.668457
0.702637 0.702637 0.702637
0.840332 0.840332 0.840332
0.672363 0.672363 0.672363
0.672363 0.672363 0.672363
0.675781 0.675781 0.675781
0.707031 0.707031 0.707031
0.841309 0.841309 0.841309
0.734375 0.734375 0.734375
0.734375 0.734375 0.734375
0.735840 0.735840 0.735840
0.752441 0.752441 0.752441
0.852539 0.852539 0.852539
0.904297 0.904297 0.904297
0.904785 0.904785 0.904785
0.904785 0.904785 0.904785
0.907227 0.907227 0.907227
0.932129 0.932129 0.932129
0.879883 0.879883 0.879883
0.879883 0.879883 0.879883
0.880371 0.880371 0.880371
0.883301 0.883301 0.883301
0.915527 0.915527 0.915527
0.879883 0.879883 0.879883
0.879883 0.879883 0.879883
0.880371 0.880371 0.880371
0.883301 0.883301 0.883301
0.915527 0.915527 0.915527
0.880859 0.880859 0.880859
0.880859 0.880859 0.880859
0.880859 0.880859 0.880859
0.884277 0.884277 0.884277
0.916016 0.916016 0.916016
0.887695 0.887695 0.887695
0.887695 0.887695 0.887695
0.887695 0.887695 0.887695
0.890625 0.890625 0.890625
0.920898 0.920898 0.920898
0.947266 0.947266 0.947266
0.947266 0.947266 0.947266
0.947266 0.947266 0.947266
0.949219 0.949219 0.948730
0.964844 0.964844 0.964844
