RED_IPP2_Creative/RED_LUSH.cube
# RED Digital Cinema Output Transform LUT for IPP2
# Creatives by Eric Weidt
# BMD cube from Truelight v4.0
# Settings used in creation of this LUT are:
# Development Color Space = USER SELECTABLE
# Output Gamma Curve = USER SELECTABLE
# Output Tonemap = USER SELECTABLE
# Highlight Rolloff = USER SELECTABLE
LUT_3D_SIZE 9
0.000000 0.006214 0.030731
0.097412 0.026886 0.033783
0.255615 0.010422 0.011101
0.410889 0.000000 0.000000
0.547852 0.000000 0.000000
0.686035 0.000000 0.000000
0.823730 0.000000 0.000000
0.962891 0.000000 0.000000
1.000000 0.000000 0.000000
0.013046 0.131470 0.053528
0.105408 0.129639 0.057587
0.229126 0.139282 0.035187
0.373535 0.132080 0.000000
0.512695 0.125854 0.000000
0.651855 0.119934 0.000000
0.791992 0.114563 0.000000
0.931641 0.109314 0.000000
1.000000 0.102783 0.000000
0.018539 0.288330 0.024155
0.132080 0.275635 0.042145
0.245728 0.282715 0.019043
0.372070 0.282715 0.016495
0.488525 0.285156 0.032288
0.624023 0.284424 0.017975
0.764648 0.281006 0.004410
0.906250 0.276855 0.001094
1.000000 0.271729 0.000000
0.000000 0.447021 0.000000
0.121216 0.434570 0.000000
0.261475 0.428467 0.019745
0.383301 0.438232 0.020340
0.509766 0.437012 0.031616
0.630371 0.437256 0.045258
0.746094 0.440186 0.061646
0.876953 0.440430 0.050385
1.000000 0.436768 0.029831
0.000000 0.604492 0.000000
0.119080 0.591797 0.000000
0.270508 0.577148 0.020767
0.397217 0.582031 0.034576
0.517578 0.591309 0.034149
0.643066 0.587402 0.043823
0.765137 0.585938 0.055023
0.882324 0.585938 0.068115
0.994629 0.587402 0.082458
0.000000 0.759277 0.000000
0.113586 0.746094 0.000000
0.265625 0.731934 0.011627
0.406250 0.721680 0.044281
0.524902 0.729004 0.042328
0.644531 0.736328 0.039978
0.769531 0.730957 0.047821
0.890625 0.727539 0.057190
1.000000 0.725586 0.067871
0.000000 0.908691 0.000000
0.103149 0.895508 0.000000
0.254395 0.881348 0.003567
0.403564 0.863770 0.028900
0.529297 0.863281 0.046295
0.647461 0.869141 0.043030
0.764648 0.874023 0.038910
0.889648 0.868652 0.046295
1.000000 0.864746 0.054077
0.000000 1.000000 0.000000
0.089050 1.000000 0.000000
0.239868 1.000000 0.000000
0.388672 1.000000 0.006996
0.530273 0.994629 0.047119
0.646973 1.000000 0.042816
0.764648 1.000000 0.038330
0.886230 1.000000 0.033997
1.000000 0.999512 0.040161
0.000000 1.000000 0.000000
0.079346 1.000000 0.000000
0.228516 1.000000 0.000000
0.378174 1.000000 0.000000
0.524902 1.000000 0.025223
0.652832 1.000000 0.048431
0.770020 1.000000 0.044250
0.892090 1.000000 0.039795
1.000000 1.000000 0.035004
0.024246 0.009796 0.156616
0.107361 0.030899 0.147827
0.246948 0.004448 0.131714
0.401123 0.000000 0.113892
0.538574 0.000000 0.105896
0.675781 0.000000 0.097900
0.814453 0.000000 0.090393
0.953613 0.000000 0.083618
1.000000 0.000000 0.076416
0.025528 0.119690 0.158691
0.102356 0.123230 0.138794
0.242676 0.120911 0.127075
0.395508 0.104980 0.108398
0.534180 0.098083 0.101501
0.672852 0.091675 0.094727
0.812988 0.085815 0.088745
0.952637 0.080200 0.082886
1.000000 0.073425 0.075806
0.007782 0.273193 0.140503
0.120361 0.265137 0.130493
0.244751 0.263916 0.134277
0.367432 0.265381 0.142578
0.504883 0.263428 0.127930
0.645996 0.259033 0.117798
0.786621 0.253906 0.110229
0.927246 0.249512 0.103943
1.000000 0.243652 0.096436
0.000000 0.435059 0.119080
0.104797 0.424805 0.108398
0.257812 0.411865 0.136841
0.382812 0.419434 0.144531
0.507812 0.418457 0.155640
0.624512 0.421387 0.170654
0.759766 0.420166 0.156860
0.899414 0.416016 0.141113
1.000000 0.410889 0.128906
0.000000 0.592285 0.116516
0.102051 0.582031 0.105713
0.256592 0.570312 0.124451
0.396484 0.563477 0.158081
0.517090 0.571777 0.157471
0.642578 0.569336 0.167114
0.761719 0.568848 0.178589
0.875977 0.568848 0.192383
1.000000 0.568359 0.180298
0.000000 0.748047 0.111755
0.096741 0.736328 0.100281
0.250244 0.723145 0.114136
0.400635 0.707520 0.154175
0.525391 0.710449 0.165771
0.644043 0.717285 0.163330
0.768066 0.712891 0.171265
0.889160 0.709961 0.180664
1.000000 0.708984 0.191528
0.000000 0.896973 0.101135
0.085999 0.885254 0.089111
0.239014 0.872070 0.100403
0.389648 0.855957 0.129150
0.528320 0.845215 0.169556
0.646973 0.850586 0.166504
0.765137 0.856445 0.162842
0.888672 0.851562 0.169556
1.000000 0.846191 0.177612
0.000000 1.000000 0.087097
0.071838 1.000000 0.074585
0.224121 1.000000 0.083618
0.374268 1.000000 0.105713
0.522461 0.982910 0.150757
0.647461 0.981445 0.166504
0.764648 0.986816 0.162476
0.881348 0.991211 0.158203
1.000000 0.984863 0.164429
0.000000 1.000000 0.074951
0.060364 1.000000 0.062622
0.212402 1.000000 0.070801
0.363037 1.000000 0.089294
0.510742 1.000000 0.123779
0.651367 1.000000 0.170898
0.769043 1.000000 0.166748
0.886719 1.000000 0.162842
1.000000 1.000000 0.158691
0.016068 0.016647 0.293213
0.129639 0.006706 0.282227
0.265869 0.000000 0.269531
0.403809 0.000000 0.251465
0.528809 0.000000 0.239258
0.666016 0.000000 0.231689
0.804688 0.000000 0.224731
0.943848 0.000000 0.218994
1.000000 0.000000 0.212769
0.002728 0.128174 0.281006
0.116699 0.119080 0.268799
0.248047 0.101746 0.260254
0.385742 0.095459 0.241699
0.524414 0.088440 0.235107
0.663574 0.082214 0.229126
0.803223 0.076050 0.223511
0.943359 0.070618 0.218262
1.000000 0.063782 0.211914
0.000000 0.266357 0.269287
0.101990 0.255615 0.258545
0.240845 0.248291 0.244019
0.386475 0.241333 0.242432
0.526367 0.235962 0.237305
0.666992 0.230835 0.232422
0.807129 0.225708 0.227539
0.948242 0.220947 0.223022
1.000000 0.214355 0.216797
0.000000 0.423828 0.262939
0.093140 0.413086 0.253174
0.243286 0.403320 0.244385
0.382080 0.400391 0.260498
0.503418 0.401367 0.272949
0.640625 0.399414 0.259766
0.781738 0.394775 0.250244
0.921387 0.389160 0.242676
1.000000 0.383301 0.235596
0.000000 0.581543 0.260986
0.090454 0.569824 0.250732
0.240356 0.560059 0.241577
0.393311 0.546875 0.267334
0.516602 0.553223 0.272949
0.640625 0.551270 0.282715
0.756348 0.552246 0.295410
0.890137 0.549805 0.281006
1.000000 0.544434 0.265137
0.000000 0.736328 0.256592
0.085205 0.724609 0.245850
0.234009 0.713867 0.235718
0.386719 0.700195 0.250977
0.524414 0.692383 0.280762
0.644043 0.698730 0.278809
0.768066 0.695312 0.286133
0.886230 0.692871 0.295898
0.998535 0.692383 0.307617
0.000000 0.885254 0.246704
0.074524 0.874512 0.235962
0.222290 0.862305 0.224487
0.374512 0.847168 0.236206
0.522949 0.831055 0.271973
0.646973 0.832520 0.281250
0.764648 0.837891 0.278320
0.888184 0.833008 0.284912
1.000000 0.829102 0.292725
0.000000 1.000000 0.233521
0.059875 1.000000 0.222046
0.207031 1.000000 0.209717
0.358887 0.991699 0.219116
0.508789 0.975098 0.245239
0.646973 0.963379 0.281982
0.764160 0.968262 0.277832
0.881836 0.973633 0.274658
1.000000 0.967285 0.280029
0.000000 1.000000 0.222290
0.048187 1.000000 0.210938
0.194946 1.000000 0.198242
0.346924 1.000000 0.206421
0.496338 1.000000 0.226196
0.643555 1.000000 0.267090
0.768555 1.000000 0.281494
0.885742 1.000000 0.277344
1.000000 1.000000 0.273926
0.000000 0.000000 0.423096
0.111023 0.000000 0.412109
0.257568 0.000000 0.400879
0.404785 0.000000 0.389404
0.541016 0.000000 0.373047
0.670898 0.000000 0.359375
0.795410 0.000000 0.349121
0.935059 0.000000 0.343506
1.000000 0.000000 0.337646
0.000000 0.108826 0.410400
0.096680 0.096802 0.399902
0.244141 0.084778 0.389160
0.392334 0.072693 0.378906
0.527344 0.069946 0.363770
0.653809 0.072388 0.353271
0.793945 0.066528 0.347900
0.933594 0.061005 0.342773
1.000000 0.054504 0.336670
0.000000 0.256592 0.399902
0.085571 0.245605 0.389648
0.225708 0.243530 0.379639
0.348145 0.225464 0.399414
0.512207 0.226196 0.363525
0.657227 0.221191 0.355957
0.798340 0.216064 0.351318
0.938477 0.211060 0.346924
1.000000 0.205078 0.341797
0.000000 0.412354 0.396240
0.081238 0.401367 0.385986
0.230591 0.391846 0.377197
0.376465 0.383545 0.365479
0.521973 0.376709 0.364990
0.662109 0.372070 0.360840
0.802734 0.366699 0.355957
0.942383 0.361084 0.351074
1.000000 0.354492 0.345459
0.000000 0.569824 0.394043
0.078613 0.558105 0.384277
0.229004 0.548340 0.375488
0.378418 0.538086 0.366699
0.515625 0.534180 0.381104
0.635742 0.534668 0.392334
0.773926 0.531250 0.378662
0.912598 0.525391 0.368164
1.000000 0.518555 0.359619
0.000000 0.724609 0.389404
0.073669 0.713379 0.379395
0.222290 0.702148 0.369873
0.370850 0.690430 0.359863
0.521484 0.675781 0.382812
0.643555 0.680176 0.386719
0.766602 0.677246 0.394531
0.880859 0.676270 0.405518
1.000000 0.673340 0.390625
0.000000 0.874023 0.380127
0.062622 0.862305 0.370117
0.210693 0.850586 0.359375
0.358154 0.838379 0.348633
0.509766 0.823730 0.362549
0.646484 0.814453 0.389648
0.765137 0.819824 0.386719
0.888184 0.814941 0.393066
1.000000 0.812012 0.401855
0.000000 1.000000 0.367676
0.048248 1.000000 0.357422
0.195557 0.995117 0.346191
0.342285 0.982422 0.334473
0.493408 0.967285 0.344727
0.641602 0.949219 0.378174
0.764648 0.950195 0.386230
0.881348 0.955078 0.382812
1.000000 0.949219 0.388184
0.000000 1.000000 0.357422
0.036285 1.000000 0.346680
0.183105 1.000000 0.334961
0.329346 1.000000 0.323242
0.480957 1.000000 0.331055
0.628906 1.000000 0.354248
0.767090 1.000000 0.388916
0.884277 1.000000 0.385010
1.000000 1.000000 0.381836
0.000000 0.000000 0.555176
0.098694 0.000000 0.542969
0.245483 0.000000 0.530762
0.393066 0.000000 0.519531
0.540039 0.000000 0.508301
0.677246 0.000000 0.491211
0.811523 0.000000 0.477539
0.940918 0.000000 0.466797
1.000000 0.000000 0.457275
0.000000 0.097107 0.541504
0.084961 0.085205 0.530273
0.232666 0.072998 0.519043
0.380371 0.061188 0.507812
0.528320 0.049500 0.497314
0.666016 0.046600 0.482178
0.797852 0.047302 0.469971
0.923828 0.051331 0.461426
1.000000 0.044769 0.455811
0.000000 0.245239 0.530762
0.073853 0.233887 0.520020
0.219971 0.226562 0.509766
0.364014 0.215088 0.505859
0.506836 0.203369 0.503906
0.660156 0.202515 0.479248
0.788086 0.206665 0.469971
0.928711 0.201538 0.465576
1.000000 0.195190 0.460693
0.000000 0.400635 0.526855
0.069641 0.389404 0.516113
0.217773 0.381836 0.506836
0.353271 0.385742 0.496582
0.454834 0.361084 0.541504
0.633301 0.362305 0.493896
0.789551 0.356934 0.476562
0.933594 0.351562 0.469727
1.000000 0.345215 0.463867
0.000000 0.558105 0.524414
0.067200 0.546387 0.513672
0.216675 0.536621 0.504395
0.365723 0.526367 0.494385
0.511719 0.517578 0.483398
0.655762 0.510254 0.481445
0.794922 0.504395 0.476318
0.934082 0.497559 0.469971
1.000000 0.490723 0.464111
0.000000 0.712891 0.519531
0.061554 0.701172 0.508301
0.210571 0.690430 0.498779
0.359131 0.679199 0.488770
0.507324 0.667480 0.478760
0.643555 0.661621 0.492188
0.761719 0.660645 0.501465
0.897949 0.654785 0.486572
1.000000 0.648438 0.475342
0.000000 0.862305 0.509766
0.051086 0.850586 0.499268
0.199097 0.838867 0.488770
0.346436 0.826172 0.478027
0.494385 0.813965 0.467529
0.644043 0.798340 0.489258
0.764648 0.801758 0.491699
0.886230 0.797852 0.499268
1.000000 0.795898 0.509277
0.000000 1.000000 0.496582
0.036774 0.996094 0.486572
0.183594 0.983398 0.474854
0.330811 0.970703 0.464111
0.477539 0.957520 0.452881
0.627930 0.941895 0.465088
0.764160 0.932129 0.492188
0.881836 0.937012 0.487793
1.000000 0.931152 0.493896
0.000000 1.000000 0.485596
0.024399 1.000000 0.475830
0.171021 1.000000 0.464355
0.317627 1.000000 0.452881
0.463623 1.000000 0.440674
0.613281 1.000000 0.449707
0.760742 1.000000 0.481445
0.883301 1.000000 0.489502
1.000000 1.000000 0.486084
0.000000 0.000000 0.704590
0.086853 0.000000 0.691406
0.233765 0.000000 0.678223
0.380859 0.000000 0.665527
0.528320 0.000000 0.652344
0.676758 0.000000 0.640137
0.816406 0.000000 0.622070
0.952637 0.000000 0.606934
1.000000 0.000000 0.592773
0.000000 0.085388 0.689941
0.073486 0.073486 0.677734
0.221069 0.061340 0.664551
0.368896 0.049530 0.652344
0.516602 0.037933 0.640137
0.666016 0.026855 0.629395
0.804688 0.023987 0.611328
0.938965 0.023834 0.596680
1.000000 0.024979 0.583496
0.000000 0.233643 0.677734
0.062164 0.222168 0.666016
0.211548 0.211792 0.654785
0.361084 0.201538 0.644043
0.510742 0.191772 0.634277
0.661133 0.181885 0.624023
0.799805 0.180542 0.608398
0.933105 0.181885 0.595215
1.000000 0.185913 0.584961
0.000000 0.389404 0.673340
0.058014 0.377930 0.661133
0.208374 0.368408 0.651855
0.343262 0.373535 0.640137
0.470703 0.356445 0.659668
0.599609 0.339111 0.677734
0.780762 0.338379 0.619141
0.923828 0.342285 0.595215
1.000000 0.335693 0.589355
0.000000 0.546387 0.670898
0.055389 0.534668 0.658691
0.205444 0.524902 0.648438
0.347900 0.521484 0.636719
0.488770 0.519531 0.625488
0.595215 0.494629 0.670410
0.763672 0.494629 0.622070
0.917969 0.488037 0.601074
1.000000 0.480713 0.590332
0.000000 0.701172 0.665039
0.049896 0.689453 0.652832
0.199097 0.678711 0.642090
0.346924 0.666992 0.629883
0.495361 0.655762 0.617676
0.641113 0.644043 0.604492
0.782227 0.636719 0.599609
0.919434 0.628906 0.592285
1.000000 0.621094 0.584473
0.000000 0.850586 0.654297
0.039551 0.838867 0.642090
0.187256 0.827148 0.629883
0.334961 0.814453 0.617188
0.482666 0.802734 0.604980
0.629883 0.790039 0.593262
0.765137 0.783203 0.606934
0.882324 0.780762 0.616211
1.000000 0.774902 0.598145
0.000000 0.995605 0.638672
0.024933 0.984375 0.627441
0.172119 0.971680 0.613770
0.319336 0.958984 0.601562
0.465820 0.945801 0.588867
0.612793 0.932617 0.576172
0.761719 0.916016 0.599609
0.881348 0.918457 0.601562
1.000000 0.914551 0.609863
0.000000 1.000000 0.625977
0.014046 1.000000 0.613770
0.158691 1.000000 0.601074
0.305176 1.000000 0.588379
0.451416 1.000000 0.574707
0.596680 1.000000 0.561035
0.747070 1.000000 0.574219
0.882324 1.000000 0.603516
0.999512 1.000000 0.599121
0.000000 0.000000 0.869629
0.074829 0.000000 0.854980
0.221924 0.000000 0.840332
0.369385 0.000000 0.827148
0.516602 0.000000 0.812988
0.665527 0.000000 0.799805
0.814941 0.000000 0.788574
0.955566 0.000000 0.769531
1.000000 0.000000 0.750488
0.000000 0.073608 0.853516
0.061707 0.061859 0.840332
0.209351 0.049805 0.827148
0.357422 0.037781 0.813477
0.504883 0.026230 0.799805
0.654297 0.015053 0.788086
0.803223 0.004608 0.775391
0.943359 0.001824 0.756348
1.000000 0.000000 0.738770
0.000000 0.222046 0.840820
0.050354 0.210571 0.827637
0.200073 0.200073 0.816406
0.349854 0.189941 0.804199
0.499512 0.179932 0.793457
0.649414 0.170166 0.782227
0.799805 0.160522 0.771484
0.939941 0.158813 0.753906
1.000000 0.157959 0.737305
0.000000 0.377930 0.836426
0.046326 0.366455 0.823242
0.196533 0.356445 0.812012
0.340332 0.353027 0.800781
0.484863 0.341309 0.798340
0.628418 0.329346 0.795898
0.773926 0.317627 0.792480
0.935547 0.315674 0.750488
1.000000 0.315918 0.734863
0.000000 0.535156 0.833496
0.043854 0.523438 0.820312
0.193726 0.513672 0.808594
0.339355 0.506836 0.797363
0.475098 0.510254 0.784668
0.599609 0.490967 0.808594
0.728027 0.471680 0.829102
0.896973 0.469238 0.774414
1.000000 0.471436 0.736816
0.000000 0.689453 0.827637
0.038361 0.677734 0.813965
0.187134 0.666992 0.800781
0.334229 0.656738 0.788574
0.476807 0.650391 0.774902
0.619629 0.643066 0.761230
0.737793 0.620605 0.793945
0.893066 0.619629 0.749512
1.000000 0.611816 0.730469
0.000000 0.839355 0.815430
0.027679 0.827148 0.801270
0.175659 0.815430 0.788574
0.322998 0.802734 0.773926
0.470459 0.790527 0.760742
0.618164 0.778320 0.746582
0.764648 0.765137 0.732422
0.902832 0.757324 0.725098
1.000000 0.749023 0.715332
0.000000 0.983887 0.798340
0.015144 0.972656 0.785156
0.160522 0.960449 0.771484
0.307373 0.947266 0.756836
0.454346 0.934082 0.742676
0.601074 0.921387 0.728516
0.748047 0.907715 0.714844
0.882324 0.900391 0.729004
0.998535 0.897461 0.738770
0.000000 1.000000 0.783691
0.008522 1.000000 0.770508
0.146851 1.000000 0.756348
0.292725 1.000000 0.740723
0.438965 1.000000 0.726074
0.584473 1.000000 0.711914
0.730957 1.000000 0.696777
0.879395 1.000000 0.721680
0.999023 1.000000 0.724609
0.000000 0.000000 1.000000
0.062927 0.000000 1.000000
0.210205 0.000000 1.000000
0.357666 0.000000 0.995605
0.504883 0.000000 0.983887
0.654297 0.000000 0.972168
0.803711 0.000000 0.960449
0.954102 0.000000 0.948242
1.000000 0.000000 0.926758
0.000000 0.061981 1.000000
0.050079 0.050262 1.000000
0.197632 0.038116 0.995605
0.345459 0.026169 0.983887
0.494141 0.014565 0.970703
0.642578 0.003496 0.958008
0.791992 0.000000 0.946289
0.942383 0.000000 0.934082
1.000000 0.000000 0.913574
0.000000 0.210571 1.000000
0.038757 0.198853 0.996094
0.188354 0.188477 0.986328
0.337646 0.178223 0.975586
0.488037 0.168335 0.964844
0.637695 0.158691 0.952148
0.788574 0.148926 0.941406
0.938477 0.139404 0.930176
1.000000 0.135620 0.909180
0.000000 0.366455 1.000000
0.034546 0.354736 0.993652
0.184937 0.344971 0.982910
0.335205 0.335205 0.972656
0.485596 0.325684 0.960938
0.635254 0.315918 0.949707
0.785156 0.305908 0.937988
0.935547 0.296143 0.926758
1.000000 0.292725 0.905762
0.000000 0.523438 1.000000
0.032196 0.511719 0.991211
0.182007 0.501953 0.979980
0.332031 0.491943 0.968750
0.467529 0.495117 0.955566
0.604492 0.479492 0.962402
0.742188 0.463867 0.967773
0.882812 0.448975 0.969238
1.000000 0.445312 0.913574
0.000000 0.678223 0.997559
0.026535 0.666016 0.984863
0.175659 0.655273 0.972656
0.323975 0.644043 0.958984
0.465088 0.639160 0.945801
0.604980 0.634766 0.931641
0.734375 0.615723 0.949219
0.866699 0.597168 0.960449
1.000000 0.592773 0.913574
0.000000 0.827148 0.986328
0.017929 0.815430 0.972656
0.164062 0.803711 0.959961
0.311523 0.791016 0.944336
0.456543 0.780762 0.930176
0.600586 0.770996 0.915039
0.746582 0.760254 0.899414
0.877441 0.741699 0.912109
1.000000 0.739258 0.877441
0.000000 0.972168 0.969238
0.009956 0.960938 0.955566
0.148682 0.948242 0.940918
0.295898 0.935547 0.926270
0.442383 0.922363 0.910156
0.588867 0.909180 0.895020
0.735840 0.896484 0.880371
0.882812 0.882812 0.864258
1.000000 0.874023 0.855469
0.000000 1.000000 0.954102
0.003016 1.000000 0.939941
0.134399 1.000000 0.924316
0.280518 1.000000 0.908691
0.426758 1.000000 0.892578
0.572754 1.000000 0.876465
0.718750 1.000000 0.860352
0.864746 1.000000 0.844727
0.998047 1.000000 0.859375
0.000000 0.000000 1.000000
0.051453 0.000000 1.000000
0.198242 0.000000 1.000000
0.345947 0.000000 1.000000
0.493652 0.000000 1.000000
0.642090 0.000000 1.000000
0.792480 0.000000 1.000000
0.942383 0.000000 1.000000
1.000000 0.000000 1.000000
0.000000 0.050568 1.000000
0.038757 0.038849 1.000000
0.186157 0.026657 1.000000
0.333740 0.014633 1.000000
0.482178 0.002829 1.000000
0.630859 0.000000 1.000000
0.780273 0.000000 1.000000
0.930664 0.000000 1.000000
1.000000 0.000000 1.000000
0.000000 0.198364 1.000000
0.026642 0.186768 1.000000
0.176147 0.176270 1.000000
0.325439 0.166016 1.000000
0.475830 0.155884 1.000000
0.625488 0.146240 1.000000
0.775391 0.136597 1.000000
0.926270 0.126953 1.000000
1.000000 0.116272 1.000000
0.000000 0.354004 1.000000
0.022217 0.342041 1.000000
0.172241 0.332275 1.000000
0.322754 0.322998 1.000000
0.472656 0.313477 1.000000
0.623535 0.303711 1.000000
0.773438 0.293945 1.000000
0.923340 0.283691 1.000000
1.000000 0.273193 1.000000
0.000000 0.511230 1.000000
0.019684 0.499268 1.000000
0.169922 0.489746 1.000000
0.319824 0.479736 1.000000
0.462891 0.475586 1.000000
0.607910 0.463623 1.000000
0.753906 0.450928 1.000000
0.899414 0.438477 1.000000
1.000000 0.425781 1.000000
0.000000 0.666016 1.000000
0.016479 0.653809 1.000000
0.163696 0.643555 1.000000
0.312256 0.632324 1.000000
0.457031 0.624512 1.000000
0.594727 0.622070 1.000000
0.731934 0.604980 1.000000
0.870117 0.588867 1.000000
1.000000 0.572754 1.000000
0.000000 0.815430 1.000000
0.013123 0.804199 1.000000
0.152466 0.791992 1.000000
0.300049 0.779785 1.000000
0.446289 0.769531 1.000000
0.588867 0.760742 1.000000
0.732910 0.750488 1.000000
0.870117 0.732910 1.000000
1.000000 0.717285 1.000000
0.000000 0.960938 1.000000
0.005276 0.949219 1.000000
0.137329 0.937012 1.000000
0.284180 0.923828 1.000000
0.430664 0.910645 1.000000
0.576172 0.898926 1.000000
0.722656 0.886719 1.000000
0.869141 0.872559 1.000000
1.000000 0.858398 1.000000
0.000000 1.000000 1.000000
0.000000 1.000000 1.000000
0.122681 1.000000 1.000000
0.269043 1.000000 1.000000
0.414551 1.000000 1.000000
0.560547 1.000000 1.000000
0.706543 1.000000 1.000000
0.852539 1.000000 1.000000
0.998535 0.998535 0.998047
