RED_IPP2_Creative/RED_FLUORESCE.cube
# RED Digital Cinema Output Transform LUT for IPP2
# Creatives by Eric Weidt
# BMD cube from Truelight v4.0
# Settings used in creation of this LUT are:
# Development Color Space = USER SELECTABLE
# Output Gamma Curve = USER SELECTABLE
# Output Tonemap = USER SELECTABLE
# Highlight Rolloff = USER SELECTABLE
LUT_3D_SIZE 33
0.000000 0.000000 0.000000
0.043854 0.000000 0.000000
0.088806 0.000091 0.000000
0.132812 0.000149 0.000004
0.173828 0.000193 0.000000
0.210938 0.000034 0.000000
0.241699 0.000206 0.000000
0.269043 0.000044 0.000000
0.294922 0.000000 0.000000
0.318848 0.000116 0.000000
0.342529 0.000026 0.000000
0.365723 0.000160 0.000000
0.388672 0.000110 0.000000
0.411377 0.000060 0.000000
0.433350 0.000051 0.000000
0.454346 0.000037 0.000000
0.475342 0.000000 0.000000
0.495361 0.000050 0.000000
0.515137 0.000000 0.000000
0.535645 0.000119 0.000000
0.555176 0.000000 0.000000
0.576172 0.000010 0.000000
0.597168 0.000000 0.000000
0.620117 0.000000 0.000000
0.643066 0.000000 0.000000
0.666992 0.000000 0.000000
0.692871 0.000000 0.000000
0.720703 0.000000 0.000000
0.750977 0.000000 0.000000
0.783691 0.000010 0.000000
0.818848 0.000000 0.000000
0.855957 0.000000 0.000000
0.894043 0.000000 0.000000
0.000000 0.044128 0.000000
0.042908 0.042999 0.011002
0.078735 0.047363 0.014961
0.123657 0.047974 0.009483
0.166870 0.047394 0.007492
0.205078 0.046600 0.006081
0.238647 0.044739 0.005177
0.267090 0.042450 0.004696
0.293213 0.040710 0.004539
0.317383 0.039093 0.004078
0.341064 0.037872 0.003801
0.363770 0.036560 0.003218
0.386719 0.035553 0.003382
0.409912 0.034729 0.003286
0.432129 0.033966 0.003006
0.453369 0.033264 0.003050
0.473633 0.032532 0.002848
0.494141 0.031860 0.002707
0.513672 0.031464 0.002626
0.533203 0.030853 0.002302
0.553711 0.030243 0.002222
0.573242 0.029984 0.002264
0.594727 0.029556 0.002108
0.616699 0.029266 0.002073
0.638672 0.029205 0.002281
0.663086 0.028900 0.002415
0.687012 0.028976 0.002226
0.713867 0.028915 0.002085
0.743164 0.028961 0.002232
0.774902 0.029251 0.002102
0.809570 0.029419 0.002020
0.845215 0.029846 0.002424
0.882812 0.030151 0.002188
0.000000 0.089050 0.000000
0.050842 0.082947 0.018814
0.086792 0.086975 0.022537
0.122192 0.090881 0.026443
0.156738 0.093872 0.030014
0.197632 0.092407 0.022034
0.232910 0.089722 0.017548
0.262451 0.085815 0.014641
0.289795 0.082336 0.012939
0.314209 0.079041 0.011261
0.338379 0.076172 0.010262
0.361572 0.073608 0.009331
0.384521 0.071594 0.008759
0.406982 0.069946 0.008316
0.429199 0.068298 0.007866
0.450928 0.067017 0.007545
0.471680 0.065674 0.006977
0.492188 0.064087 0.006607
0.512207 0.062927 0.006485
0.531250 0.062042 0.006359
0.551270 0.061066 0.005913
0.571289 0.060181 0.006031
0.591797 0.059448 0.005829
0.613281 0.058899 0.005550
0.635742 0.058258 0.005394
0.658203 0.058136 0.005283
0.683105 0.057831 0.005413
0.708496 0.057587 0.005348
0.736328 0.057953 0.005375
0.767090 0.058197 0.005444
0.800293 0.058563 0.005116
0.835938 0.059265 0.005322
0.872559 0.059814 0.005085
0.000000 0.133057 0.000000
0.051117 0.127930 0.013039
0.094238 0.126343 0.030273
0.129639 0.129883 0.033875
0.163940 0.132568 0.037201
0.195923 0.133911 0.040253
0.223755 0.133789 0.042694
0.255371 0.128662 0.033173
0.282959 0.123962 0.027298
0.310059 0.119263 0.023621
0.333740 0.115234 0.020691
0.357910 0.111511 0.018585
0.380615 0.108337 0.017044
0.403564 0.105530 0.015427
0.426270 0.103210 0.014488
0.447998 0.101074 0.013557
0.468994 0.098999 0.012939
0.489990 0.096802 0.012207
0.509277 0.095154 0.011589
0.528809 0.093506 0.011421
0.549316 0.091797 0.010490
0.569824 0.090576 0.010483
0.589844 0.089478 0.009918
0.609863 0.088562 0.010033
0.632324 0.087708 0.009636
0.654785 0.087158 0.009598
0.678223 0.086731 0.008919
0.703613 0.086365 0.008736
0.730469 0.086548 0.008835
0.760254 0.086792 0.008659
0.792480 0.087463 0.008896
0.826660 0.088379 0.008858
0.862793 0.089233 0.008743
0.000000 0.174561 0.000000
0.050964 0.170532 0.010979
0.100952 0.164673 0.037415
0.136230 0.167969 0.040924
0.170166 0.170288 0.044312
0.201904 0.171265 0.047577
0.229858 0.170288 0.049835
0.253906 0.167114 0.050995
0.275146 0.164062 0.052551
0.302734 0.158691 0.042816
0.327881 0.153564 0.036530
0.352783 0.148804 0.031891
0.375732 0.144897 0.028427
0.398682 0.141113 0.025955
0.422363 0.137939 0.023636
0.444580 0.135254 0.021896
0.466064 0.132568 0.020920
0.487061 0.129639 0.019257
0.506836 0.127319 0.018585
0.526367 0.125000 0.017487
0.546875 0.123108 0.016876
0.566895 0.121155 0.016144
0.586426 0.119812 0.015335
0.606934 0.118347 0.015083
0.628906 0.117065 0.014320
0.650879 0.116333 0.014038
0.674316 0.115601 0.013565
0.698730 0.115173 0.013573
0.724121 0.115234 0.013306
0.753418 0.115540 0.013008
0.784180 0.116028 0.012886
0.817383 0.117065 0.012726
0.853027 0.118408 0.012856
0.000000 0.211304 0.000000
0.049469 0.209595 0.009651
0.099365 0.205200 0.029190
0.140991 0.203613 0.047516
0.174438 0.205811 0.051117
0.205811 0.206421 0.054016
0.234131 0.204834 0.055908
0.258057 0.201660 0.057648
0.280518 0.197998 0.058960
0.301270 0.194336 0.060455
0.320312 0.190918 0.061157
0.345459 0.185913 0.052063
0.369873 0.180908 0.045197
0.393311 0.176758 0.040253
0.417236 0.172974 0.036591
0.440186 0.169189 0.033203
0.461914 0.165894 0.030869
0.482666 0.162842 0.028519
0.503418 0.159546 0.026932
0.522949 0.156982 0.025574
0.543457 0.154419 0.024475
0.562988 0.151978 0.023254
0.583008 0.150146 0.022202
0.603516 0.148315 0.021133
0.625000 0.146851 0.020691
0.646484 0.145508 0.019806
0.669922 0.144775 0.019333
0.693848 0.144043 0.018967
0.718262 0.143921 0.018341
0.746094 0.144165 0.018250
0.777344 0.144531 0.017990
0.809570 0.145508 0.017593
0.844238 0.147095 0.017715
0.000000 0.241943 0.000000
0.047852 0.242554 0.008926
0.096436 0.240356 0.024567
0.144165 0.234863 0.053223
0.177002 0.237549 0.056641
0.207886 0.238159 0.059418
0.235596 0.236328 0.061523
0.260986 0.233643 0.063293
0.284424 0.229980 0.064941
0.305908 0.226196 0.065979
0.325684 0.222656 0.067261
0.343750 0.219360 0.068420
0.362061 0.216064 0.069092
0.386719 0.211548 0.060303
0.410889 0.207275 0.053894
0.434326 0.203125 0.048523
0.456299 0.199341 0.044342
0.478271 0.195557 0.040741
0.498535 0.192017 0.037903
0.519531 0.188843 0.035553
0.540039 0.185547 0.033386
0.559082 0.182739 0.031372
0.579590 0.180298 0.029831
0.599609 0.178223 0.028534
0.621094 0.176392 0.027710
0.642090 0.174927 0.026703
0.665039 0.173706 0.025742
0.688965 0.172852 0.024811
0.713867 0.172729 0.024628
0.740234 0.172729 0.024048
0.770508 0.173340 0.023788
0.801758 0.174316 0.023148
0.835449 0.175781 0.023026
0.000000 0.269287 0.000000
0.045349 0.270264 0.007843
0.092163 0.269531 0.021317
0.138550 0.265869 0.043396
0.177246 0.264160 0.061432
0.208008 0.265625 0.064331
0.236450 0.265137 0.066650
0.262207 0.262939 0.068604
0.286377 0.259766 0.070312
0.308350 0.256592 0.071899
0.328857 0.252930 0.072693
0.348633 0.249268 0.073975
0.366699 0.245850 0.074524
0.385254 0.243042 0.076050
0.403076 0.240601 0.077393
0.427246 0.236328 0.068665
0.450439 0.232178 0.061707
0.471924 0.228027 0.056305
0.493652 0.224121 0.052002
0.514160 0.219971 0.047913
0.534668 0.216675 0.044739
0.554688 0.213623 0.042267
0.574707 0.210693 0.039795
0.595215 0.208252 0.037811
0.616699 0.205811 0.036072
0.638184 0.204224 0.035034
0.660645 0.202881 0.033386
0.684570 0.201782 0.032227
0.708496 0.201172 0.031555
0.734863 0.200928 0.030731
0.763184 0.201660 0.030243
0.793945 0.202637 0.029785
0.828125 0.204468 0.029480
0.000000 0.295166 0.000000
0.043610 0.296387 0.007427
0.088318 0.295898 0.018890
0.132935 0.293457 0.037079
0.176636 0.288330 0.065552
0.207397 0.290771 0.068787
0.236084 0.291504 0.071228
0.262939 0.290527 0.073669
0.287842 0.288330 0.075378
0.310791 0.285156 0.076721
0.331787 0.281738 0.078064
0.352295 0.277832 0.079285
0.371338 0.274658 0.080139
0.389893 0.271729 0.081665
0.408447 0.268799 0.082703
0.426270 0.266357 0.083557
0.442871 0.264404 0.084900
0.465576 0.260010 0.076111
0.487549 0.255371 0.069580
0.507812 0.251221 0.063477
0.528809 0.247681 0.059174
0.549316 0.244385 0.055145
0.569824 0.240967 0.051971
0.590820 0.238159 0.048859
0.611328 0.235718 0.046417
0.633301 0.233521 0.044495
0.655273 0.231812 0.042572
0.678711 0.230469 0.041168
0.703613 0.229736 0.039612
0.729004 0.229492 0.038544
0.757324 0.229736 0.037567
0.787109 0.231201 0.037354
0.819824 0.232788 0.036560
0.000000 0.319336 0.000000
0.041779 0.320557 0.006680
0.084595 0.321045 0.017242
0.127930 0.319336 0.032593
0.170898 0.315430 0.055267
0.206665 0.313721 0.072571
0.235352 0.315430 0.075256
0.262451 0.315430 0.077576
0.287842 0.314209 0.080017
0.311523 0.311768 0.081238
0.333984 0.308838 0.083252
0.354248 0.305908 0.084106
0.374268 0.302490 0.085632
0.393555 0.299316 0.086670
0.412354 0.296875 0.088013
0.430176 0.294434 0.088867
0.447754 0.291504 0.090149
0.464600 0.288818 0.090942
0.479736 0.286621 0.092224
0.501465 0.282227 0.083435
0.522949 0.278320 0.076721
0.544922 0.274170 0.071289
0.565430 0.270996 0.066345
0.585449 0.267578 0.062317
0.606445 0.264893 0.058746
0.628418 0.262695 0.055939
0.651367 0.260742 0.053345
0.673828 0.259277 0.051239
0.698242 0.258301 0.049438
0.723145 0.257568 0.047882
0.750000 0.257812 0.046661
0.779785 0.259277 0.045563
0.812988 0.260986 0.044769
0.000000 0.343018 0.000000
0.039978 0.344482 0.006451
0.081665 0.344727 0.016205
0.123779 0.343506 0.029678
0.164917 0.340576 0.048340
0.205811 0.335449 0.076233
0.234497 0.337891 0.079407
0.261719 0.338867 0.082031
0.287109 0.338623 0.083862
0.311523 0.336914 0.085815
0.333984 0.334717 0.087463
0.355957 0.332520 0.089294
0.377197 0.329590 0.090393
0.396729 0.326660 0.091675
0.416504 0.323975 0.092834
0.434326 0.321533 0.093872
0.451660 0.318604 0.095154
0.469238 0.315674 0.096436
0.484863 0.312744 0.096985
0.500977 0.310303 0.098267
0.516113 0.308105 0.099060
0.537598 0.303955 0.090759
0.559082 0.300293 0.084229
0.580566 0.296875 0.078430
0.601074 0.293945 0.073730
0.623047 0.291016 0.069275
0.645020 0.289307 0.066284
0.667969 0.287842 0.063293
0.692383 0.286621 0.060364
0.716797 0.286377 0.058594
0.744141 0.286133 0.056702
0.773926 0.287109 0.055115
0.804688 0.288818 0.053833
0.000000 0.365967 0.000000
0.038910 0.366943 0.005932
0.078979 0.367188 0.014763
0.119507 0.366699 0.027145
0.160034 0.364746 0.043396
0.200073 0.360840 0.066223
0.233765 0.359375 0.082825
0.260498 0.360596 0.085693
0.286377 0.361572 0.088074
0.311035 0.360840 0.090271
0.334961 0.359375 0.091797
0.357178 0.357666 0.093689
0.377930 0.354980 0.095032
0.398926 0.352783 0.096191
0.418701 0.350342 0.097717
0.437744 0.347900 0.098816
0.455322 0.344971 0.100098
0.472412 0.341797 0.100708
0.489258 0.339111 0.101929
0.504395 0.336182 0.102722
0.520508 0.333740 0.104004
0.535645 0.331299 0.104797
0.552246 0.329102 0.105896
0.573242 0.326172 0.097839
0.595703 0.322754 0.091370
0.616699 0.320312 0.086060
0.639648 0.317627 0.081238
0.663574 0.315918 0.077332
0.686035 0.315186 0.073730
0.711426 0.313965 0.070618
0.738281 0.313965 0.067993
0.766602 0.315186 0.066406
0.797852 0.316895 0.064453
0.000000 0.388916 0.000000
0.037750 0.389893 0.005657
0.076721 0.390381 0.014046
0.116089 0.389404 0.025253
0.155518 0.387939 0.039734
0.194580 0.384277 0.059235
0.232788 0.379395 0.086182
0.259521 0.381592 0.089294
0.285889 0.383301 0.091736
0.310547 0.383545 0.093811
0.334717 0.382812 0.096008
0.357666 0.381592 0.097961
0.379395 0.380127 0.099426
0.400635 0.378418 0.101074
0.421143 0.375732 0.102173
0.440186 0.373291 0.103699
0.458496 0.370117 0.104553
0.476318 0.367432 0.106018
0.492676 0.364502 0.106628
0.508789 0.361328 0.107422
0.524902 0.359131 0.108887
0.541016 0.356445 0.109924
0.556152 0.354492 0.110535
0.572266 0.352783 0.111877
0.588379 0.350830 0.112732
0.610352 0.348145 0.105164
0.633301 0.345703 0.098999
0.656250 0.344238 0.093567
0.680176 0.343018 0.089050
0.705566 0.342285 0.085266
0.731445 0.342041 0.081543
0.759766 0.343018 0.078613
0.791016 0.344727 0.076660
0.000000 0.411865 0.000000
0.036957 0.412598 0.005383
0.074768 0.412598 0.013481
0.113037 0.412109 0.023346
0.151855 0.410400 0.036713
0.190308 0.407959 0.054016
0.227905 0.404053 0.076782
0.258789 0.402344 0.092712
0.285156 0.404297 0.095337
0.310303 0.405029 0.097473
0.334473 0.405518 0.099976
0.357910 0.404785 0.101929
0.380371 0.404053 0.103699
0.402100 0.402588 0.105591
0.422119 0.400146 0.106934
0.441895 0.397949 0.108276
0.460205 0.394775 0.109131
0.478271 0.392334 0.110413
0.495361 0.389160 0.111023
0.511719 0.386230 0.112000
0.528809 0.383545 0.112854
0.544922 0.381348 0.114380
0.560547 0.378662 0.114929
0.576172 0.376953 0.116272
0.593262 0.375244 0.117371
0.609375 0.374023 0.118713
0.625977 0.373779 0.119934
0.649902 0.372070 0.112732
0.673828 0.370361 0.106812
0.699707 0.370117 0.101501
0.725586 0.369873 0.097351
0.753906 0.370850 0.093506
0.783691 0.372559 0.090637
0.000000 0.433594 0.000000
0.036041 0.434814 0.005505
0.073364 0.435303 0.012962
0.111023 0.434570 0.022583
0.148071 0.433350 0.034393
0.185791 0.431152 0.049927
0.223022 0.427490 0.070007
0.259521 0.422607 0.096069
0.285156 0.425049 0.098938
0.309570 0.426270 0.101318
0.334473 0.427246 0.103882
0.357422 0.427002 0.105652
0.380859 0.426270 0.107666
0.402100 0.425293 0.109314
0.423584 0.423584 0.110962
0.442871 0.421387 0.112366
0.462402 0.418945 0.113464
0.480225 0.416260 0.114502
0.498047 0.413574 0.116028
0.515137 0.410400 0.116638
0.532227 0.407959 0.117676
0.548340 0.405762 0.118713
0.563965 0.403076 0.119751
0.580566 0.400879 0.120850
0.596191 0.399414 0.121948
0.613281 0.398193 0.123108
0.630371 0.397705 0.124512
0.648438 0.397461 0.125732
0.667480 0.398193 0.128174
0.692871 0.397705 0.121277
0.718750 0.397217 0.115295
0.747070 0.398193 0.110596
0.776855 0.400146 0.106201
0.000000 0.454834 0.000000
0.035370 0.456055 0.005142
0.071716 0.456543 0.012352
0.108215 0.456299 0.021530
0.145142 0.455566 0.032257
0.182251 0.453369 0.046661
0.218628 0.450684 0.064331
0.254639 0.446533 0.087097
0.284912 0.444824 0.102295
0.309814 0.447021 0.104919
0.333984 0.447754 0.107239
0.357666 0.448486 0.109314
0.380859 0.448242 0.111572
0.402588 0.447754 0.113281
0.423340 0.446045 0.114929
0.444092 0.444580 0.116577
0.463135 0.442139 0.117676
0.481689 0.439697 0.118591
0.499512 0.437012 0.120056
0.517090 0.434326 0.121155
0.533691 0.431641 0.121948
0.550293 0.429443 0.123047
0.567871 0.426758 0.124084
0.584473 0.424805 0.125000
0.601074 0.423096 0.126465
0.617188 0.421875 0.127441
0.635254 0.421631 0.129272
0.653809 0.421631 0.130737
0.671875 0.421875 0.132690
0.691406 0.422852 0.134521
0.711914 0.424316 0.136597
0.740234 0.425537 0.130127
0.769531 0.427979 0.124817
0.000000 0.475342 0.000000
0.034119 0.476318 0.004684
0.069946 0.477295 0.011703
0.105835 0.477051 0.020203
0.142578 0.477051 0.030960
0.178467 0.475342 0.044037
0.214478 0.472900 0.059967
0.249878 0.468750 0.079773
0.284668 0.464111 0.105591
0.309326 0.466309 0.108215
0.333496 0.467773 0.110596
0.357178 0.468750 0.112915
0.380371 0.469238 0.114746
0.402100 0.468262 0.116699
0.423584 0.467529 0.118591
0.443848 0.466064 0.119812
0.463623 0.464600 0.121643
0.482666 0.462158 0.122742
0.500488 0.459717 0.124084
0.518555 0.457520 0.124939
0.536621 0.455078 0.126221
0.553223 0.452637 0.127319
0.570801 0.450439 0.128662
0.586914 0.448486 0.129517
0.604004 0.447021 0.130859
0.621094 0.446045 0.131958
0.639160 0.445312 0.133667
0.657227 0.445312 0.135620
0.675781 0.445557 0.137085
0.696289 0.446533 0.138672
0.716797 0.448242 0.140991
0.739258 0.451416 0.143555
0.762695 0.455322 0.146362
0.000000 0.495605 0.000000
0.033875 0.496582 0.004917
0.068848 0.497070 0.011444
0.103821 0.497559 0.019745
0.139038 0.497070 0.029327
0.175049 0.496094 0.041107
0.210693 0.493652 0.056183
0.245850 0.490723 0.074280
0.279785 0.486572 0.096497
0.309082 0.485107 0.111267
0.333008 0.487061 0.113892
0.356445 0.488037 0.116211
0.379639 0.489014 0.118530
0.402100 0.488770 0.120056
0.423340 0.488037 0.122009
0.444092 0.486816 0.123413
0.463867 0.485596 0.125000
0.483643 0.484131 0.126465
0.501953 0.481934 0.128052
0.520508 0.479980 0.129395
0.538086 0.477539 0.130249
0.555664 0.475342 0.131592
0.573242 0.473877 0.132935
0.589844 0.471924 0.133789
0.607910 0.470703 0.135620
0.625000 0.469238 0.136475
0.643555 0.468506 0.137695
0.661133 0.468750 0.139648
0.679688 0.469238 0.141357
0.699707 0.470215 0.143433
0.720703 0.471924 0.145264
0.743164 0.474609 0.147705
0.767578 0.478760 0.150635
0.000000 0.515625 0.000000
0.033142 0.516113 0.004658
0.067078 0.516602 0.010941
0.102112 0.517090 0.018799
0.136719 0.516602 0.028137
0.171875 0.516113 0.039276
0.206421 0.514160 0.052765
0.240967 0.510742 0.069275
0.275391 0.507812 0.089600
0.308594 0.502441 0.114685
0.332764 0.505371 0.116882
0.355957 0.506348 0.119446
0.379150 0.507812 0.121521
0.401367 0.507812 0.123352
0.422852 0.507812 0.125244
0.443604 0.506836 0.126953
0.464355 0.506348 0.128906
0.483887 0.504883 0.130127
0.502441 0.503418 0.131958
0.520996 0.501465 0.133301
0.539551 0.499756 0.134155
0.558105 0.497803 0.135498
0.575684 0.496094 0.136841
0.592773 0.494873 0.138306
0.610840 0.493408 0.139404
0.627930 0.492432 0.140869
0.646484 0.491699 0.141968
0.665527 0.492188 0.143799
0.685059 0.492676 0.145996
0.704590 0.493652 0.147705
0.725586 0.496094 0.150146
0.748535 0.498535 0.152588
0.772949 0.502930 0.155518
0.000000 0.535156 0.000000
0.032623 0.536133 0.004646
0.065979 0.536621 0.010681
0.099854 0.536133 0.017807
0.134399 0.536621 0.026993
0.168823 0.535645 0.037842
0.203003 0.534180 0.050262
0.236938 0.532227 0.065063
0.270508 0.528320 0.083313
0.303711 0.524414 0.105530
0.332275 0.523438 0.120300
0.355469 0.524902 0.122681
0.378662 0.526367 0.124817
0.400635 0.526855 0.126831
0.422363 0.527344 0.128784
0.443604 0.527344 0.130493
0.464355 0.526367 0.132446
0.484863 0.525879 0.134155
0.502930 0.524414 0.135376
0.522461 0.522949 0.136719
0.540527 0.521484 0.138306
0.559570 0.520020 0.139526
0.577148 0.518555 0.141113
0.595215 0.517090 0.142212
0.613281 0.515625 0.143433
0.631348 0.515625 0.145142
0.649902 0.514648 0.146362
0.669434 0.514648 0.148438
0.688477 0.515625 0.150269
0.708984 0.517090 0.152100
0.729004 0.519043 0.153931
0.751953 0.521973 0.156860
0.777832 0.527344 0.160400
0.000000 0.555664 0.000000
0.031891 0.555664 0.004387
0.064880 0.556152 0.010429
0.098633 0.556641 0.017792
0.132080 0.556152 0.025803
0.165771 0.555664 0.035767
0.199585 0.553711 0.047485
0.233154 0.551758 0.061401
0.266357 0.548828 0.078125
0.299316 0.545410 0.098389
0.331543 0.540527 0.123047
0.354980 0.542969 0.125366
0.377930 0.544434 0.127930
0.400391 0.546387 0.130127
0.421875 0.546875 0.132080
0.443604 0.546387 0.134033
0.464111 0.546387 0.135864
0.484619 0.545898 0.137451
0.503418 0.544434 0.138672
0.522949 0.543457 0.140381
0.541504 0.541992 0.141968
0.560547 0.541016 0.143188
0.579102 0.540039 0.144775
0.597656 0.539062 0.146484
0.616211 0.538086 0.147705
0.635254 0.538086 0.149292
0.653809 0.538574 0.151123
0.672852 0.538086 0.152832
0.692871 0.539062 0.154663
0.712891 0.540527 0.156860
0.734863 0.542969 0.158813
0.757812 0.546875 0.161743
0.781738 0.550781 0.164673
0.000000 0.576172 0.000000
0.031372 0.575684 0.003933
0.064209 0.576660 0.010216
0.097107 0.576660 0.017090
0.130005 0.576172 0.025299
0.163086 0.574707 0.034332
0.196289 0.573242 0.045624
0.229614 0.572266 0.058899
0.262695 0.569336 0.074097
0.295410 0.566406 0.092590
0.327393 0.561523 0.114319
0.355225 0.561035 0.128540
0.377686 0.562988 0.130981
0.400146 0.563965 0.133301
0.421875 0.565430 0.135376
0.443359 0.565430 0.137085
0.463867 0.565430 0.138916
0.484863 0.565918 0.141113
0.504395 0.564941 0.142822
0.523438 0.563965 0.143921
0.542969 0.562988 0.145630
0.562012 0.562500 0.147339
0.581055 0.561523 0.148560
0.600098 0.561035 0.150635
0.618652 0.561035 0.152344
0.637695 0.560547 0.153564
0.656738 0.561035 0.155273
0.676270 0.561523 0.157104
0.696777 0.562988 0.159424
0.717773 0.564941 0.161255
0.739258 0.566895 0.163574
0.763184 0.571289 0.166626
0.787598 0.575684 0.169678
0.000000 0.597656 0.000000
0.031311 0.597168 0.004452
0.063354 0.596680 0.009758
0.095642 0.596191 0.016388
0.128296 0.596680 0.024399
0.161255 0.594727 0.033630
0.193848 0.594238 0.043823
0.226562 0.591797 0.056366
0.259766 0.589844 0.070923
0.291748 0.586426 0.087341
0.323486 0.582520 0.107605
0.354492 0.577637 0.131470
0.377441 0.580078 0.133667
0.399414 0.582031 0.135986
0.421387 0.583496 0.138306
0.443115 0.584473 0.140137
0.464600 0.585449 0.142456
0.484863 0.585449 0.144165
0.504883 0.584961 0.146362
0.524902 0.584473 0.147583
0.544434 0.583984 0.149292
0.563965 0.583496 0.151001
0.583008 0.583008 0.152710
0.602051 0.583496 0.154419
0.621094 0.583008 0.156128
0.640625 0.583008 0.157837
0.660156 0.583496 0.159180
0.680664 0.584473 0.161865
0.700684 0.585938 0.163696
0.722168 0.588379 0.166016
0.744629 0.591309 0.168457
0.768066 0.595215 0.171021
0.793945 0.600098 0.174072
0.000000 0.620117 0.000000
0.030838 0.618164 0.004086
0.062683 0.617676 0.009590
0.094727 0.617676 0.016220
0.126831 0.616211 0.023697
0.159302 0.615234 0.032318
0.191772 0.613770 0.042450
0.224121 0.612305 0.054108
0.255859 0.610352 0.067505
0.287842 0.606934 0.082886
0.320068 0.603516 0.101562
0.350830 0.599609 0.123352
0.377441 0.598145 0.137085
0.399902 0.600098 0.139404
0.421631 0.601562 0.141357
0.443115 0.603027 0.143677
0.464111 0.603516 0.145386
0.485352 0.604004 0.147705
0.505371 0.604492 0.149414
0.525879 0.604980 0.151245
0.545898 0.604980 0.152954
0.565918 0.604980 0.154663
0.585449 0.604492 0.156372
0.604004 0.604980 0.158081
0.624023 0.604980 0.159912
0.643555 0.605957 0.162109
0.664062 0.606445 0.163818
0.684082 0.608398 0.166138
0.705566 0.609375 0.167969
0.726562 0.611816 0.170410
0.750000 0.616211 0.173340
0.774414 0.620117 0.175903
0.799805 0.625977 0.179443
0.000000 0.642578 0.000000
0.030792 0.640625 0.004257
0.062317 0.639648 0.009712
0.094055 0.638672 0.016083
0.125854 0.637695 0.023331
0.157715 0.636230 0.031677
0.189697 0.634766 0.041107
0.221069 0.632812 0.051636
0.253662 0.630371 0.064575
0.284668 0.627930 0.079346
0.316406 0.624512 0.096191
0.347900 0.621094 0.116699
0.377686 0.616211 0.140137
0.400391 0.618652 0.142456
0.422119 0.620117 0.144775
0.443848 0.622559 0.147217
0.465332 0.623047 0.149414
0.486572 0.624512 0.151245
0.506836 0.625000 0.153076
0.526855 0.625488 0.154785
0.547363 0.625977 0.157104
0.566895 0.625977 0.158813
0.586914 0.626953 0.160645
0.606934 0.626953 0.162720
0.626953 0.627441 0.164551
0.647461 0.628906 0.166382
0.667480 0.629395 0.168213
0.688477 0.631348 0.170044
0.709473 0.633789 0.172852
0.732422 0.636230 0.175293
0.755859 0.640625 0.177734
0.780273 0.645020 0.181030
0.805664 0.650879 0.184204
0.000000 0.666504 0.000000
0.030594 0.664551 0.004070
0.061951 0.662598 0.009682
0.093384 0.661133 0.015778
0.124451 0.659668 0.022537
0.156006 0.658203 0.030869
0.187744 0.656250 0.039825
0.219604 0.654297 0.050598
0.250977 0.651855 0.062622
0.282227 0.648926 0.076233
0.313721 0.645996 0.092285
0.344482 0.642090 0.110413
0.375000 0.638184 0.132202
0.401123 0.636719 0.145996
0.422852 0.638672 0.148315
0.444580 0.640625 0.150635
0.466309 0.642578 0.152954
0.487061 0.643555 0.154785
0.507812 0.644531 0.156616
0.528809 0.645508 0.158936
0.548340 0.646484 0.160645
0.569824 0.647461 0.162476
0.589844 0.647949 0.164795
0.608887 0.648438 0.166016
0.630859 0.649902 0.168335
0.650391 0.650879 0.170166
0.671875 0.652832 0.172974
0.691895 0.654785 0.174805
0.714844 0.657715 0.177612
0.738281 0.661133 0.180176
0.761719 0.665527 0.182983
0.786621 0.670898 0.186279
0.812500 0.676758 0.189575
0.000000 0.692871 0.000000
0.030197 0.688965 0.003889
0.061615 0.687012 0.009521
0.093018 0.685547 0.015823
0.123962 0.683105 0.022293
0.155518 0.681152 0.030380
0.186890 0.678711 0.039337
0.217896 0.676270 0.049133
0.249390 0.674316 0.060791
0.280762 0.671387 0.073669
0.311523 0.668457 0.088806
0.342041 0.665039 0.105652
0.372559 0.660645 0.125977
0.402588 0.656250 0.149536
0.424316 0.658203 0.151855
0.446289 0.660645 0.153809
0.467773 0.662109 0.156128
0.488770 0.664062 0.158447
