RED_IPP2_Creative/RED_TECH.cube
# RED Digital Cinema Output Transform LUT for IPP2
# Creatives by Eric Weidt
# BMD cube from Truelight v4.0
# Settings used in creation of this LUT are:
# Development Color Space = USER SELECTABLE
# Output Gamma Curve = USER SELECTABLE
# Output Tonemap = USER SELECTABLE
# Highlight Rolloff = USER SELECTABLE
LUT_3D_SIZE 9
0.028931 0.028931 0.028931
0.121216 0.027298 0.026138
0.207520 0.033936 0.028931
0.317139 0.046844 0.036224
0.418701 0.057129 0.042480
0.508789 0.067932 0.049805
0.604980 0.081360 0.059998
0.704590 0.094849 0.070190
0.809082 0.105103 0.077148
0.013206 0.116211 0.013206
0.114075 0.114624 0.016647
0.218018 0.125854 0.037903
0.336670 0.146851 0.058563
0.436523 0.163696 0.069458
0.527344 0.175415 0.076111
0.618164 0.183716 0.079468
0.711914 0.189941 0.080994
0.811035 0.194336 0.080872
0.019073 0.244873 0.019073
0.122375 0.246216 0.019882
0.243042 0.244263 0.027298
0.348389 0.260010 0.075134
0.435791 0.268066 0.077637
0.519531 0.272705 0.077820
0.607910 0.277100 0.077271
0.700684 0.280273 0.076233
0.800781 0.283691 0.075073
0.011833 0.383301 0.011444
0.108826 0.375732 0.004826
0.219238 0.366455 0.000000
0.353760 0.355469 0.004177
0.426270 0.354492 0.074036
0.505371 0.356689 0.072449
0.592773 0.359131 0.071655
0.688477 0.362305 0.071533
0.792969 0.366455 0.072144
0.000000 0.494385 0.000000
0.085083 0.484375 0.000000
0.187988 0.474365 0.000000
0.321777 0.464844 0.000000
0.449463 0.451660 0.000000
0.510742 0.434570 0.055542
0.584961 0.433105 0.071899
0.687988 0.440430 0.076416
0.801758 0.449219 0.082458
0.000000 0.599121 0.000000
0.063110 0.591797 0.000000
0.164185 0.585449 0.000000
0.296143 0.580078 0.000000
0.437744 0.577148 0.000000
0.564453 0.567871 0.000000
0.636230 0.549316 0.051727
0.715332 0.547852 0.102356
0.836426 0.562988 0.113586
0.000000 0.711426 0.000000
0.051605 0.708496 0.000000
0.156738 0.708496 0.000000
0.294922 0.711426 0.000000
0.444092 0.715332 0.000000
0.587891 0.720215 0.000000
0.712402 0.716797 0.000000
0.800293 0.703613 0.071045
0.893066 0.708008 0.148193
0.000000 0.843750 0.000000
0.058167 0.848145 0.000000
0.168579 0.852539 0.000000
0.314209 0.858398 0.000000
0.465088 0.865234 0.000000
0.609863 0.872559 0.000000
0.750000 0.880371 0.000000
0.875488 0.880859 0.020126
0.986328 0.880859 0.102417
0.000000 0.993652 0.000000
0.073914 1.000000 0.000000
0.189575 1.000000 0.000000
0.343018 1.000000 0.000000
0.493896 1.000000 0.000000
0.637695 1.000000 0.000000
0.778809 1.000000 0.002037
0.917969 1.000000 0.010147
1.000000 1.000000 0.059235
0.027664 0.028183 0.129639
0.124512 0.022888 0.124390
0.213379 0.031494 0.111450
0.320557 0.047058 0.113647
0.421875 0.058167 0.121826
0.514160 0.069946 0.131470
0.610840 0.084473 0.143799
0.710449 0.096558 0.154175
0.813965 0.105713 0.161011
0.012917 0.115417 0.115417
0.115845 0.115845 0.115845
0.236450 0.123474 0.121826
0.345703 0.147705 0.140137
0.439941 0.165283 0.152710
0.529297 0.175781 0.159424
0.620605 0.183472 0.163208
0.714844 0.189331 0.165283
0.813965 0.193359 0.165771
0.019623 0.245972 0.122009
0.122070 0.245972 0.122070
0.242676 0.243164 0.125000
0.353760 0.258545 0.154907
0.437256 0.267334 0.162231
0.520996 0.271973 0.163086
0.609375 0.275879 0.163086
0.703125 0.279297 0.162720
0.803711 0.282715 0.162109
0.009453 0.381104 0.112671
0.106628 0.372803 0.106628
0.216187 0.363037 0.099731
0.351318 0.352295 0.103943
0.424805 0.352783 0.159424
0.506348 0.355469 0.159302
0.594727 0.358154 0.159180
0.690918 0.361572 0.159790
0.796387 0.366211 0.161377
0.000000 0.491211 0.089783
0.082458 0.480713 0.082458
0.185181 0.470947 0.075623
0.318359 0.461670 0.069092
0.447266 0.449219 0.080139
0.503418 0.430176 0.151489
0.589355 0.433594 0.161987
0.692871 0.440918 0.166992
0.808105 0.450928 0.174927
0.000000 0.596680 0.066772
0.061340 0.589355 0.061340
0.162476 0.583008 0.056641
0.295166 0.579102 0.053558
0.436768 0.576660 0.051605
0.565918 0.568848 0.074402
0.633789 0.546387 0.154541
0.721191 0.549805 0.198120
0.845215 0.566895 0.213257
0.000000 0.710449 0.052795
0.051605 0.708496 0.051483
0.157471 0.709473 0.052460
0.296875 0.712891 0.054993
0.445557 0.716797 0.057953
0.590332 0.721680 0.062195
0.714844 0.718750 0.094604
0.801758 0.703613 0.181641
0.896484 0.708496 0.261963
0.000000 0.844727 0.055817
0.059235 0.848633 0.059143
0.170166 0.854980 0.063293
0.316650 0.860840 0.068237
0.467529 0.867676 0.073181
0.612793 0.875000 0.079346
0.751953 0.882812 0.085083
0.879883 0.884766 0.126221
0.990234 0.883301 0.221191
0.000000 0.996094 0.070374
0.075623 1.000000 0.075745
0.192627 1.000000 0.081909
0.345703 1.000000 0.087708
0.496582 1.000000 0.094421
0.641602 1.000000 0.101501
0.781250 1.000000 0.108765
0.921875 1.000000 0.116333
1.000000 1.000000 0.163818
0.026138 0.026581 0.253906
0.122620 0.021530 0.246460
0.240479 0.016006 0.240356
0.364258 0.025085 0.224365
0.441895 0.052063 0.216797
0.520020 0.072754 0.226440
0.617188 0.087158 0.241333
0.715820 0.098328 0.251465
0.819824 0.106262 0.257812
0.012131 0.114990 0.235474
0.114746 0.115295 0.235596
0.240234 0.118652 0.240112
0.357178 0.145752 0.238892
0.443848 0.166748 0.249756
0.532715 0.176392 0.255859
0.623535 0.183228 0.259521
0.716797 0.188477 0.261230
0.816895 0.192505 0.261719
0.019867 0.246460 0.246460
0.121399 0.244873 0.244873
0.245239 0.245239 0.245239
0.367432 0.251465 0.248901
0.440430 0.265381 0.256836
0.522949 0.270996 0.258545
0.611328 0.274902 0.258789
0.704590 0.278076 0.258545
0.806152 0.281494 0.258545
0.007030 0.378174 0.230591
0.104370 0.369629 0.222412
0.213013 0.359619 0.213013
0.348145 0.348877 0.212402
0.428467 0.350586 0.251953
0.507812 0.354248 0.256104
0.597168 0.356934 0.256836
0.693848 0.361084 0.258301
0.800293 0.366211 0.260986
0.000000 0.487549 0.199707
0.080139 0.477295 0.190552
0.182251 0.467529 0.182251
0.315186 0.458740 0.174561
0.445801 0.447021 0.183716
0.499268 0.427490 0.258301
0.593262 0.433838 0.262207
0.698730 0.442139 0.268555
0.814453 0.452148 0.276611
0.000000 0.594238 0.171997
0.059601 0.586914 0.165771
0.161133 0.581543 0.161133
0.293701 0.577637 0.157715
0.436768 0.576660 0.156616
0.567383 0.569824 0.179077
0.625000 0.542480 0.277832
0.729492 0.553223 0.299805
0.853027 0.569336 0.312012
0.000000 0.708984 0.157104
0.051636 0.708496 0.156494
0.158081 0.710449 0.158081
0.297852 0.713379 0.161011
0.447754 0.718750 0.165405
0.591797 0.723633 0.169800
0.718750 0.721680 0.205566
0.798828 0.702637 0.306152
0.904785 0.711914 0.353760
0.000000 0.845703 0.162354
0.060974 0.852051 0.167236
0.172363 0.856934 0.172119
0.319092 0.862793 0.177734
0.470215 0.870117 0.184692
0.614746 0.877441 0.191895
0.754883 0.885742 0.200317
0.883789 0.887695 0.244507
0.992676 0.886230 0.340576
0.000000 0.998047 0.180176
0.077881 1.000000 0.187622
0.194946 1.000000 0.194946
0.349121 1.000000 0.203003
0.500000 1.000000 0.212280
0.644043 1.000000 0.221191
0.784668 1.000000 0.231323
0.924805 1.000000 0.240967
1.000000 1.000000 0.288574
0.024261 0.024704 0.398193
0.120972 0.019760 0.391357
0.238647 0.015289 0.385986
0.383057 0.012596 0.383057
0.522461 0.012947 0.382324
0.604004 0.041138 0.368164
0.682129 0.065125 0.364990
0.753906 0.086487 0.361816
0.828125 0.105652 0.358887
0.011978 0.114929 0.382568
0.115601 0.116028 0.384033
0.242676 0.120422 0.389648
0.392578 0.122620 0.392334
0.514160 0.131470 0.383789
0.577148 0.156982 0.366943
0.636719 0.178101 0.358398
0.720703 0.187988 0.356201
0.820312 0.191406 0.354736
0.020370 0.246460 0.392334
0.120483 0.243896 0.389893
0.238037 0.238403 0.384766
0.377686 0.231201 0.377441
0.462158 0.252197 0.357666
0.524902 0.270020 0.351562
0.612793 0.273682 0.350098
0.707520 0.277100 0.349365
0.809082 0.280518 0.348389
0.004597 0.375488 0.375488
0.101929 0.366211 0.366211
0.209839 0.356201 0.356201
0.346680 0.346680 0.346680
0.443359 0.343018 0.341064
0.514648 0.350830 0.344238
0.598633 0.356201 0.345947
0.696777 0.360596 0.347412
0.804199 0.365967 0.349609
0.000000 0.484131 0.342041
0.077759 0.474121 0.331299
0.179565 0.464600 0.321533
0.312012 0.455811 0.312012
0.444092 0.444824 0.312256
0.505859 0.426270 0.343018
0.597656 0.434570 0.351807
0.703613 0.443115 0.357666
0.821289 0.454346 0.365479
0.000000 0.591797 0.308838
0.058044 0.584961 0.301270
0.159790 0.580078 0.296143
0.292969 0.577148 0.292969
0.436523 0.576172 0.291748
0.569336 0.570801 0.309082
0.622559 0.540527 0.375244
0.736816 0.556641 0.385254
0.862793 0.573242 0.395752
0.000000 0.708496 0.291748
0.051880 0.708496 0.291992
0.158691 0.711426 0.294922
0.299805 0.715332 0.299805
0.449219 0.720215 0.304688
0.594238 0.726562 0.312012
0.721680 0.724609 0.337891
0.792480 0.700684 0.412598
0.916016 0.717285 0.433838
0.000000 0.847656 0.301270
0.061951 0.852539 0.307129
0.173950 0.858398 0.313965
0.322510 0.865234 0.322510
0.472900 0.872559 0.330078
0.618164 0.880371 0.339355
0.757812 0.888184 0.348389
0.888184 0.891113 0.378662
0.994141 0.888184 0.449707
0.000000 1.000000 0.325195
0.079773 1.000000 0.333740
0.197876 1.000000 0.343018
0.352783 1.000000 0.352539
0.502441 1.000000 0.361816
0.647461 1.000000 0.372070
0.787598 1.000000 0.382080
0.928223 1.000000 0.391846
1.000000 1.000000 0.421143
0.022232 0.023178 0.536621
0.119263 0.017563 0.529297
0.237427 0.014221 0.525391
0.382812 0.011955 0.523438
0.525391 0.013123 0.524902
0.664062 0.017685 0.530273
0.785156 0.024399 0.525879
0.859863 0.045013 0.500000
0.935547 0.063416 0.479980
0.012131 0.114990 0.523438
0.116821 0.117188 0.526367
0.243896 0.121643 0.531738
0.392578 0.122620 0.533203
0.530762 0.120789 0.530762
0.660156 0.116821 0.525879
0.742676 0.128784 0.496582
0.802734 0.149170 0.467773
0.870605 0.167969 0.449463
0.020004 0.245972 0.532227
0.119446 0.242310 0.528809
0.235596 0.236084 0.522949
0.375000 0.228516 0.515625
0.506348 0.219604 0.506348
0.623535 0.214233 0.491455
0.672363 0.243164 0.452881
0.727051 0.267822 0.433350
0.812500 0.279785 0.427490
0.002174 0.373047 0.512695
0.099731 0.363281 0.503418
0.206543 0.353027 0.493408
0.341797 0.342285 0.483154
0.473389 0.332031 0.473145
0.544922 0.340576 0.438477
0.600586 0.355469 0.423584
0.699707 0.360352 0.423828
0.808594 0.365967 0.426025
0.000000 0.480713 0.480713
0.075439 0.470703 0.470703
0.176880 0.461426 0.461426
0.309570 0.453125 0.453125
0.435791 0.435791 0.435791
0.529297 0.425537 0.423828
0.609375 0.432373 0.426514
0.710449 0.444824 0.435059
0.828613 0.456299 0.443115
0.000000 0.589355 0.450195
0.056488 0.582520 0.443848
0.159058 0.579102 0.439453
0.291992 0.576660 0.436768
0.437256 0.576660 0.437256
0.572266 0.573242 0.442627
0.633789 0.541992 0.449463
0.745605 0.560059 0.465332
0.871094 0.576660 0.477539
0.000000 0.708496 0.436523
0.052460 0.709473 0.437744
0.160400 0.712891 0.441406
0.301025 0.716797 0.445557
0.451660 0.721680 0.451660
0.596191 0.728027 0.458008
0.725586 0.727051 0.472168
0.793457 0.700195 0.505859
0.924805 0.721680 0.520996
0.000000 0.848633 0.447510
0.063293 0.854980 0.453125
0.176147 0.860840 0.460449
0.324951 0.868164 0.467773
0.476074 0.875000 0.476074
0.621094 0.883301 0.484619
0.760742 0.891113 0.493896
0.892090 0.894531 0.512695
0.992676 0.890137 0.566406
0.000000 1.000000 0.470703
0.081909 1.000000 0.479492
0.200562 1.000000 0.488037
0.355469 1.000000 0.496582
0.505859 1.000000 0.505859
0.649902 1.000000 0.515625
0.791016 1.000000 0.525879
0.930664 1.000000 0.534668
1.000000 1.000000 0.558594
0.020905 0.021301 0.667969
0.117920 0.015900 0.662109
0.236328 0.013245 0.658203
0.382812 0.012032 0.657227
0.526367 0.014336 0.660645
0.666016 0.019135 0.666016
0.797852 0.020142 0.666992
0.926758 0.018692 0.664551
1.000000 0.025040 0.638672
0.012596 0.115295 0.657715
0.118286 0.118652 0.662109
0.245117 0.122314 0.666504
0.392090 0.122314 0.666504
0.529297 0.119751 0.663574
0.657715 0.115112 0.657715
0.781738 0.109375 0.650391
0.901367 0.103088 0.637207
0.968750 0.121704 0.593262
0.019318 0.245117 0.666016
0.118103 0.240601 0.661621
0.233032 0.233521 0.654785
0.371826 0.225586 0.646973
0.503418 0.216553 0.638672
0.629395 0.206909 0.629395
0.751465 0.197510 0.619629
0.836426 0.208374 0.583496
0.898926 0.235474 0.545898
0.000000 0.369629 0.644043
0.097290 0.360107 0.635254
0.203247 0.349609 0.625977
0.337891 0.338379 0.616699
0.469971 0.328369 0.607422
0.598633 0.318604 0.598633
0.716309 0.311035 0.584473
0.763184 0.336182 0.533203
0.826660 0.360352 0.512695
0.000000 0.477295 0.612793
0.073242 0.467773 0.604004
0.174561 0.458740 0.595703
0.306885 0.451172 0.588379
0.443848 0.444580 0.582031
0.578125 0.439453 0.577637
0.645508 0.436035 0.534668
0.716309 0.446045 0.519531
0.836426 0.458740 0.529785
0.000000 0.586914 0.586914
0.055695 0.581543 0.581543
0.157715 0.577637 0.577637
0.291992 0.576660 0.576660
0.438232 0.577637 0.577637
0.559570 0.559570 0.559570
0.666504 0.551270 0.548340
0.761230 0.560059 0.553223
0.880371 0.580566 0.568848
0.000000 0.708496 0.576172
0.053009 0.710449 0.578125
0.161011 0.713379 0.581543
0.303223 0.718750 0.586426
0.453613 0.724121 0.592285
0.598145 0.730469 0.598145
0.730957 0.731445 0.605469
0.806641 0.703125 0.595703
0.935547 0.727051 0.617676
0.000000 0.851074 0.588379
0.065125 0.856934 0.594238
0.178223 0.863281 0.600098
0.328125 0.870605 0.608398
0.478516 0.877441 0.614746
0.623535 0.885742 0.623535
0.764160 0.894531 0.632812
0.896484 0.897461 0.645020
0.999512 0.894531 0.673340
0.000000 1.000000 0.610840
0.083740 1.000000 0.618652
0.203003 1.000000 0.626465
0.359131 1.000000 0.635742
0.509277 1.000000 0.644043
0.653809 1.000000 0.653809
0.793945 1.000000 0.662598
0.933594 1.000000 0.671875
1.000000 1.000000 0.688965
0.019073 0.019135 0.796875
0.116638 0.014534 0.791504
0.235596 0.012192 0.788574
0.383301 0.012268 0.788574
0.528320 0.015900 0.792969
0.666504 0.019882 0.797363
0.797363 0.019745 0.797363
0.925781 0.017700 0.794434
1.000000 0.012283 0.788574
0.013329 0.115906 0.790039
0.119995 0.120422 0.795898
0.245605 0.122620 0.797852
0.391357 0.121643 0.796875
0.527832 0.118347 0.792480
0.655273 0.113220 0.786621
0.779785 0.107178 0.778809
0.901367 0.100281 0.770508
1.000000 0.093018 0.760742
0.018417 0.243652 0.795898
0.116455 0.238403 0.790527
0.230469 0.231079 0.784180
0.368896 0.222534 0.775391
0.500000 0.213379 0.767090
0.626465 0.203857 0.757812
0.748535 0.194336 0.748535
0.870605 0.185791 0.739258
0.992676 0.179688 0.724609
0.000000 0.366455 0.772461
0.094849 0.356445 0.764160
0.200073 0.345703 0.754395
0.334229 0.334961 0.744629
0.467041 0.325195 0.736328
0.596191 0.315674 0.728027
0.720703 0.307129 0.720215
0.845215 0.300537 0.714844
0.940918 0.311035 0.679688
0.000000 0.474121 0.742188
0.071045 0.464844 0.733398
0.172241 0.456055 0.725098
0.304199 0.448486 0.718750
0.441895 0.442627 0.712891
0.577148 0.438721 0.708984
0.707520 0.436768 0.707520
0.832031 0.435547 0.700195
0.899414 0.450439 0.657227
0.000000 0.584961 0.715820
0.054382 0.579590 0.711426
0.157349 0.577637 0.708496
0.291992 0.576660 0.707520
0.438721 0.578613 0.709473
0.581055 0.581543 0.712891
0.717285 0.586426 0.717285
0.797363 0.574707 0.679199
0.890137 0.583984 0.669434
0.000000 0.708496 0.708496
0.053711 0.711426 0.711426
0.162842 0.715332 0.715332
0.304688 0.720215 0.720215
0.456055 0.726562 0.726562
0.600098 0.732422 0.732422
0.717285 0.717285 0.717285
0.841797 0.714844 0.712402
0.956055 0.730957 0.723145
0.000000 0.852539 0.721680
0.066528 0.858398 0.727539
0.180420 0.865234 0.734863
0.330811 0.873047 0.742676
0.481934 0.880371 0.750000
0.626953 0.888672 0.758301
0.767090 0.897461 0.767090
0.901855 0.902344 0.775879
1.000000 0.899902 0.778320
0.000000 1.000000 0.744629
0.086304 1.000000 0.753418
0.206421 1.000000 0.761230
0.362061 1.000000 0.770020
0.513184 1.000000 0.778809
0.656250 1.000000 0.787598
0.796875 1.000000 0.796875
0.937012 1.000000 0.805664
1.000000 1.000000 0.819336
0.016678 0.017334 0.925781
0.115601 0.013390 0.921387
0.235474 0.011955 0.919434
0.384033 0.013123 0.920410
0.530273 0.017807 0.926270
0.666992 0.020142 0.928711
0.796875 0.019135 0.928223
0.923828 0.016220 0.923828
1.000000 0.010231 0.917480
0.014793 0.117065 0.922363
0.121033 0.121521 0.927246
0.245605 0.122681 0.928711
0.390137 0.120728 0.926758
0.525879 0.116821 0.921875
0.652344 0.111206 0.914062
0.775879 0.104858 0.906738
0.897949 0.097717 0.897949
1.000000 0.090515 0.888672
0.016556 0.242310 0.924805
0.114563 0.235962 0.919434
0.227661 0.228149 0.911133
0.365723 0.219604 0.903809
0.497070 0.210205 0.894531
0.623535 0.200439 0.885254
0.745605 0.191406 0.875977
0.867676 0.182739 0.867188
0.991211 0.174927 0.858398
0.000000 0.363037 0.899902
0.092285 0.352783 0.890625
0.196899 0.342285 0.881348
0.330811 0.331299 0.872559
0.463623 0.321777 0.863770
0.593262 0.312256 0.855469
0.719238 0.304688 0.849609
0.844238 0.298340 0.844238
0.972168 0.294189 0.840332
0.000000 0.470703 0.869141
0.068848 0.461670 0.860840
0.169922 0.453125 0.853516
0.302002 0.446289 0.847168
0.440674 0.440918 0.842285
0.576172 0.437744 0.838867
0.707520 0.437256 0.838379
0.840332 0.438721 0.839844
0.976074 0.442871 0.844238
0.000000 0.582520 0.845215
0.053497 0.578613 0.840820
0.156616 0.576660 0.838379
0.292480 0.577148 0.838867
0.439453 0.579102 0.840820
0.582520 0.583008 0.845215
0.719727 0.588379 0.850098
0.855469 0.593750 0.855469
0.987793 0.596191 0.854492
0.000000 0.709473 0.839355
0.054993 0.712891 0.842285
0.164062 0.716797 0.846680
0.307373 0.722656 0.852051
0.458008 0.728027 0.857910
0.603027 0.735352 0.865234
0.741211 0.742188 0.871094
0.878906 0.750000 0.878906
0.982910 0.745605 0.855957
0.000000 0.854980 0.854980
0.068359 0.860840 0.860840
0.182495 0.868164 0.868164
0.334229 0.875488 0.875488
0.484619 0.883301 0.883301
0.629883 0.892090 0.892090
0.770020 0.899902 0.899902
0.896973 0.896973 0.896973
1.000000 0.904785 0.902344
0.000000 1.000000 0.877930
0.088135 1.000000 0.886230
0.208862 1.000000 0.894043
0.365967 1.000000 0.903809
0.515625 1.000000 0.912598
0.660156 1.000000 0.921875
0.800293 1.000000 0.931152
0.939941 1.000000 0.939941
1.000000 1.000000 0.950195
0.016006 0.015778 1.000000
0.114929 0.012604 1.000000
0.235474 0.012283 1.000000
0.385742 0.014336 1.000000
0.531738 0.019135 1.000000
0.666992 0.019989 1.000000
0.796387 0.018295 1.000000
0.921875 0.014313 1.000000
1.000000 0.007793 1.000000
0.015900 0.118652 1.000000
0.121704 0.122131 1.000000
0.245117 0.122131 1.000000
0.388672 0.119446 1.000000
0.523438 0.114929 1.000000
0.649902 0.109070 1.000000
0.773438 0.102356 1.000000
0.895020 0.095337 1.000000
1.000000 0.087952 1.000000
0.014938 0.240356 1.000000
0.112671 0.233521 1.000000
0.224854 0.225464 1.000000
0.362061 0.216309 1.000000
0.493408 0.206665 1.000000
0.620117 0.197510 1.000000
0.742676 0.188477 1.000000
0.864746 0.180176 0.996582
0.988281 0.172607 0.988281
0.000000 0.359619 1.000000
0.089783 0.349365 1.000000
0.193604 0.338379 1.000000
0.327637 0.328125 1.000000
0.460938 0.318604 0.994141
0.591309 0.309814 0.985840
0.716797 0.302246 0.979980
0.842285 0.296875 0.974121
0.970703 0.292969 0.970703
0.000000 0.467529 0.999512
0.066772 0.458740 0.991211
0.167725 0.450928 0.982910
0.299561 0.444092 0.976562
0.438721 0.439453 0.972656
0.576172 0.437500 0.970703
0.707520 0.437256 0.970215
0.841797 0.440186 0.973145
0.977051 0.444580 0.977051
0.000000 0.581055 0.975098
0.052765 0.577637 0.971191
0.156616 0.576660 0.970215
0.293213 0.577637 0.971191
0.441650 0.581055 0.974609
0.583984 0.584961 0.979004
0.720703 0.590332 0.983887
0.858398 0.596680 0.991211
0.996582 0.602539 0.996582
0.000000 0.710938 0.972656
0.055664 0.713379 0.975098
0.165649 0.718750 0.980469
0.309570 0.724121 0.985840
0.460693 0.730957 0.992676
0.605957 0.737305 0.999512
0.744141 0.744629 1.000000
0.882812 0.753418 1.000000
1.000000 0.760742 1.000000
0.000000 0.856934 0.987793
0.070129 0.863281 0.994629
0.185303 0.870605 1.000000
0.337158 0.877930 1.000000
0.488037 0.887207 1.000000
0.632812 0.894531 1.000000
0.772461 0.903809 1.000000
0.911621 0.912598 1.000000
1.000000 0.921875 1.000000
0.000000 1.000000 1.000000
0.090759 1.000000 1.000000
0.213013 1.000000 1.000000
0.369141 1.000000 1.000000
0.520020 1.000000 1.000000
0.662598 1.000000 1.000000
0.803223 1.000000 1.000000
0.942383 1.000000 1.000000
1.000000 1.000000 1.000000
