RED_IPP2_Creative/RED_BW_0500.cube
# RED Digital Cinema Output Transform LUT for IPP2
# Creatives by Eric Weidt
# BMD cube from Truelight v4.0
# Settings used in creation of this LUT are:
# Development Color Space = USER SELECTABLE
# Output Gamma Curve = USER SELECTABLE
# Output Tonemap = USER SELECTABLE
# Highlight Rolloff = USER SELECTABLE
LUT_3D_SIZE 33
0.000082 0.000086 0.000098
0.006901 0.006905 0.006916
0.015671 0.015671 0.015671
0.026489 0.026489 0.026505
0.039703 0.039703 0.039734
0.055389 0.055389 0.055389
0.073547 0.073547 0.073547
0.094116 0.094116 0.094116
0.116760 0.116760 0.116760
0.141235 0.141235 0.141235
0.167236 0.167236 0.167236
0.194580 0.194580 0.194458
0.222900 0.222900 0.222900
0.251709 0.251709 0.251709
0.281494 0.281494 0.281494
0.311523 0.311523 0.311523
0.341797 0.341797 0.341797
0.372314 0.372314 0.372314
0.403076 0.403076 0.403076
0.434082 0.434082 0.434082
0.465088 0.465088 0.465088
0.496094 0.496094 0.496094
0.527344 0.527344 0.527344
0.558105 0.558105 0.558105
0.589355 0.589355 0.589355
0.620605 0.620605 0.620605
0.651855 0.651855 0.651855
0.683105 0.683105 0.683105
0.714355 0.714355 0.714355
0.745605 0.745605 0.745605
0.776855 0.776855 0.776855
0.808105 0.808105 0.808105
0.839355 0.839355 0.839355
0.015472 0.015472 0.015488
0.021317 0.021317 0.021332
0.028839 0.028854 0.028854
0.038391 0.038391 0.038391
0.050171 0.050171 0.050171
0.064331 0.064331 0.064331
0.081055 0.081055 0.081055
0.100220 0.100220 0.100220
0.121643 0.121643 0.121643
0.145020 0.145020 0.145020
0.170166 0.170166 0.170166
0.196777 0.196777 0.196777
0.224487 0.224487 0.224487
0.252930 0.252930 0.252930
0.282227 0.282227 0.282227
0.312012 0.312012 0.312012
0.342285 0.342285 0.342285
0.372803 0.372803 0.372803
0.403320 0.403320 0.403320
0.434326 0.434326 0.434326
0.465332 0.465332 0.465332
0.496338 0.496338 0.496338
0.527344 0.527344 0.527344
0.558594 0.558594 0.558594
0.589355 0.589355 0.589355
0.620605 0.620605 0.620605
0.651855 0.651855 0.651855
0.683105 0.683105 0.683105
0.714355 0.714355 0.714355
0.745605 0.745605 0.745605
0.776855 0.776855 0.776855
0.808105 0.808105 0.808105
0.839355 0.839355 0.839355
0.033234 0.033234 0.033234
0.038116 0.038116 0.038116
0.044556 0.044556 0.044556
0.052734 0.052734 0.052734
0.062988 0.062988 0.062988
0.075562 0.075562 0.075562
0.090576 0.090576 0.090576
0.108093 0.108093 0.108093
0.127930 0.127930 0.127930
0.150146 0.150146 0.150146
0.174194 0.174194 0.174072
0.199707 0.199707 0.199707
0.226807 0.226807 0.226807
0.254639 0.254639 0.254639
0.283691 0.283691 0.283691
0.312988 0.312988 0.312988
0.343018 0.343018 0.343018
0.373291 0.373291 0.373291
0.403809 0.403809 0.403809
0.434570 0.434570 0.434570
0.465576 0.465576 0.465576
0.496338 0.496338 0.496338
0.527344 0.527344 0.527344
0.558594 0.558594 0.558594
0.589844 0.589844 0.589844
0.620605 0.620605 0.620605
0.651855 0.651855 0.651855
0.683105 0.683105 0.683105
0.714355 0.714355 0.714355
0.745605 0.745605 0.745605
0.776855 0.776855 0.776855
0.808105 0.808105 0.808105
0.839355 0.839355 0.839355
0.053467 0.053467 0.053467
0.057465 0.057465 0.057465
0.062744 0.062744 0.062744
0.069519 0.069519 0.069519
0.078247 0.078247 0.078247
0.089111 0.089111 0.089111
0.102295 0.102295 0.102295
0.117920 0.117920 0.117920
0.136108 0.136108 0.136108
0.156616 0.156616 0.156616
0.179321 0.179321 0.179321
0.203735 0.203735 0.203735
0.229858 0.229858 0.229736
0.257080 0.257080 0.257080
0.285400 0.285400 0.285400
0.314209 0.314209 0.314209
0.343994 0.343994 0.343994
0.374023 0.374023 0.374023
0.404297 0.404297 0.404297
0.435059 0.435059 0.435059
0.465820 0.465820 0.465820
0.496582 0.496582 0.496582
0.527344 0.527344 0.527344
0.558594 0.558594 0.558594
0.589844 0.589844 0.589844
0.621094 0.621094 0.621094
0.651855 0.651855 0.651855
0.683105 0.683105 0.683105
0.714355 0.714355 0.714355
0.745605 0.745605 0.745605
0.776855 0.776855 0.776855
0.808105 0.808105 0.808105
0.839355 0.839355 0.839355
0.075806 0.075806 0.075806
0.078979 0.078979 0.078979
0.083252 0.083252 0.083252
0.088806 0.088806 0.088806
0.096008 0.096008 0.096008
0.105103 0.105103 0.105103
0.116455 0.116455 0.116455
0.130127 0.130127 0.130127
0.146362 0.146362 0.146362
0.165039 0.165039 0.165039
0.185913 0.185913 0.185913
0.208984 0.208984 0.208984
0.233887 0.233887 0.233887
0.260010 0.260010 0.260010
0.287598 0.287598 0.287598
0.315918 0.315918 0.315918
0.345215 0.345215 0.345215
0.375000 0.375000 0.375000
0.405029 0.405029 0.405029
0.435303 0.435303 0.435303
0.466064 0.466064 0.466064
0.496826 0.496826 0.496826
0.527832 0.527832 0.527832
0.558594 0.558594 0.558594
0.589844 0.589844 0.589844
0.621094 0.621094 0.621094
0.651855 0.651855 0.651855
0.683105 0.683105 0.683105
0.714355 0.714355 0.714355
0.745605 0.745605 0.745605
0.776855 0.776855 0.776855
0.808105 0.808105 0.808105
0.839355 0.839355 0.839355
0.100098 0.100098 0.100098
0.102539 0.102539 0.102539
0.105896 0.105896 0.105896
0.110352 0.110352 0.110352
0.116150 0.116150 0.116150
0.123657 0.123657 0.123657
0.133057 0.133057 0.133057
0.144775 0.144775 0.144653
0.158813 0.158813 0.158813
0.175415 0.175415 0.175415
0.194458 0.194458 0.194458
0.215820 0.215820 0.215820
0.239136 0.239136 0.239136
0.264160 0.264160 0.264160
0.290771 0.290771 0.290527
0.318359 0.318359 0.318359
0.346924 0.346924 0.346924
0.376221 0.376221 0.376221
0.406006 0.406006 0.406006
0.436035 0.436035 0.436035
0.466553 0.466553 0.466553
0.497314 0.497314 0.497314
0.527832 0.527832 0.527832
0.559082 0.559082 0.559082
0.589844 0.589844 0.589844
0.621094 0.621094 0.621094
0.651855 0.651855 0.651855
0.683105 0.683105 0.683105
0.714355 0.714355 0.714355
0.745605 0.745605 0.745605
0.776855 0.776855 0.776855
0.808105 0.808105 0.808105
0.839355 0.839355 0.839355
0.125854 0.125854 0.125854
0.127808 0.127808 0.127808
0.130371 0.130371 0.130371
0.133911 0.133911 0.133911
0.138428 0.138428 0.138428
0.144409 0.144409 0.144409
0.152100 0.152100 0.152100
0.161865 0.161865 0.161865
0.173828 0.173828 0.173828
0.188232 0.188232 0.188232
0.205078 0.205078 0.205078
0.224365 0.224365 0.224365
0.245972 0.245972 0.245972
0.269531 0.269531 0.269531
0.294678 0.294678 0.294678
0.321533 0.321289 0.321289
0.349121 0.349121 0.349121
0.377930 0.377930 0.377930
0.407227 0.407227 0.407227
0.437012 0.437012 0.437012
0.467285 0.467285 0.467285
0.497803 0.497803 0.497803
0.528320 0.528320 0.528320
0.559082 0.559082 0.559082
0.590332 0.590332 0.590332
0.621094 0.621094 0.621094
0.652344 0.652344 0.652344
0.683594 0.683594 0.683594
0.714355 0.714355 0.714355
0.745605 0.745605 0.745605
0.776855 0.776855 0.776855
0.808105 0.808105 0.808105
0.839355 0.839355 0.839355
0.152954 0.152954 0.152954
0.154541 0.154541 0.154541
0.156494 0.156494 0.156372
0.159058 0.159058 0.159058
0.162720 0.162720 0.162720
0.167358 0.167358 0.167358
0.173462 0.173462 0.173462
0.181396 0.181396 0.181396
0.191284 0.191284 0.191284
0.203369 0.203369 0.203369
0.218018 0.218018 0.218018
0.235229 0.235107 0.235107
0.254639 0.254639 0.254639
0.276367 0.276367 0.276367
0.300049 0.300049 0.300049
0.325439 0.325439 0.325439
0.352295 0.352295 0.352295
0.380127 0.380127 0.380127
0.408936 0.408936 0.408936
0.438232 0.438232 0.438232
0.468262 0.468262 0.468262
0.498535 0.498535 0.498535
0.528809 0.528809 0.528809
0.559570 0.559570 0.559570
0.590332 0.590332 0.590332
0.621582 0.621582 0.621094
0.652344 0.652344 0.652344
0.683594 0.683594 0.683594
0.714844 0.714844 0.714355
0.745605 0.745605 0.745605
0.776855 0.776855 0.776855
0.808105 0.808105 0.808105
0.839355 0.839355 0.839355
0.181152 0.181152 0.181152
0.182251 0.182251 0.182251
0.183716 0.183716 0.183716
0.185791 0.185791 0.185791
0.188477 0.188477 0.188477
0.192139 0.192139 0.192139
0.196899 0.196899 0.196899
0.203125 0.203125 0.203125
0.211182 0.211182 0.211182
0.221191 0.221191 0.221191
0.233521 0.233521 0.233521
0.248169 0.248169 0.248169
0.265625 0.265625 0.265381
0.285156 0.285156 0.285156
0.307129 0.307129 0.307129
0.330811 0.330811 0.330811
0.356445 0.356445 0.356445
0.383301 0.383301 0.383301
0.411133 0.411133 0.411133
0.439941 0.439941 0.439941
0.469482 0.469482 0.469482
0.499268 0.499268 0.499268
0.529297 0.529297 0.529297
0.560059 0.560059 0.560059
0.590820 0.590820 0.590820
0.621582 0.621582 0.621582
0.652344 0.652344 0.652344
0.683594 0.683594 0.683594
0.714844 0.714844 0.714844
0.745605 0.745605 0.745605
0.776855 0.776855 0.776855
0.808105 0.808105 0.808105
0.839355 0.839355 0.839355
0.210083 0.210083 0.210083
0.210815 0.210815 0.210815
0.212036 0.212036 0.212036
0.213501 0.213501 0.213501
0.215576 0.215576 0.215576
0.218384 0.218384 0.218384
0.222046 0.222046 0.222046
0.226929 0.226929 0.226929
0.233154 0.233154 0.233154
0.241333 0.241333 0.241333
0.251221 0.251221 0.251221
0.263916 0.263916 0.263916
0.278809 0.278809 0.278809
0.296143 0.296143 0.296143
0.315918 0.315918 0.315918
0.337891 0.337891 0.337891
0.361816 0.361816 0.361816
0.387451 0.387451 0.387451
0.414307 0.414307 0.414307
0.442383 0.442383 0.442383
0.471191 0.471191 0.471191
0.500488 0.500488 0.500488
0.530273 0.530273 0.530273
0.560547 0.560547 0.560547
0.591309 0.591309 0.591309
0.622070 0.622070 0.622070
0.652832 0.652832 0.652832
0.684082 0.684082 0.684082
0.714844 0.714844 0.714844
0.746094 0.746094 0.746094
0.777344 0.777344 0.777344
0.808105 0.808105 0.808105
0.839355 0.839355 0.839355
0.239624 0.239624 0.239624
0.240234 0.240234 0.240234
0.241089 0.241089 0.241089
0.242188 0.242188 0.242188
0.243774 0.243774 0.243774
0.245850 0.245850 0.245850
0.248535 0.248535 0.248535
0.252197 0.252197 0.252197
0.257080 0.257080 0.257080
0.263428 0.263428 0.263428
0.271729 0.271729 0.271729
0.281982 0.281982 0.281982
0.294434 0.294434 0.294434
0.309326 0.309326 0.309326
0.326904 0.326904 0.326904
0.346680 0.346680 0.346680
0.368896 0.368896 0.368896
0.392822 0.392822 0.392822
0.418457 0.418457 0.418457
0.445557 0.445557 0.445557
0.473633 0.473633 0.473633
0.502441 0.502441 0.502441
0.531738 0.531738 0.531738
0.561523 0.561523 0.561523
0.591797 0.591797 0.591797
0.622559 0.622559 0.622559
0.653320 0.653320 0.653320
0.684082 0.684082 0.684082
0.714844 0.714844 0.714844
0.746094 0.746094 0.746094
0.777344 0.777344 0.777344
0.808105 0.808105 0.808105
0.839355 0.839355 0.839355
0.269531 0.269531 0.269531
0.270020 0.270020 0.270020
0.270508 0.270508 0.270508
0.271484 0.271484 0.271484
0.272461 0.272461 0.272461
0.274170 0.274170 0.274170
0.276123 0.276123 0.276123
0.279053 0.279053 0.279053
0.282715 0.282715 0.282715
0.287598 0.287598 0.287598
0.294189 0.294189 0.294189
0.302246 0.302246 0.302246
0.312500 0.312500 0.312500
0.325195 0.325195 0.325195
0.340332 0.340332 0.340332
0.357910 0.357910 0.357910
0.377686 0.377686 0.377686
0.399902 0.399902 0.399902
0.424072 0.424072 0.424072
0.449707 0.449707 0.449463
0.476562 0.476562 0.476562
0.504395 0.504395 0.504395
0.533203 0.533203 0.533203
0.562988 0.562988 0.562988
0.592773 0.592773 0.592773
0.623047 0.623047 0.623047
0.653809 0.653809 0.653809
0.684570 0.684570 0.684570
0.715332 0.715332 0.715332
0.746094 0.746094 0.746094
0.777344 0.777344 0.777344
0.808594 0.808594 0.808594
0.839844 0.839844 0.839355
0.299805 0.299805 0.299805
0.300293 0.300293 0.300293
0.300537 0.300537 0.300537
0.301270 0.301270 0.301270
0.302002 0.302002 0.302002
0.303223 0.303223 0.303223
0.304688 0.304688 0.304688
0.306885 0.306885 0.306885
0.309814 0.309814 0.309814
0.313477 0.313477 0.313477
0.318359 0.318359 0.318359
0.324951 0.324951 0.324707
0.333252 0.333252 0.333252
0.343506 0.343506 0.343506
0.356201 0.356201 0.356201
0.371094 0.371094 0.371094
0.388916 0.388916 0.388916
0.408691 0.408691 0.408691
0.430908 0.430908 0.430908
0.455078 0.455078 0.455078
0.480713 0.480713 0.480713
0.507812 0.507812 0.507812
0.535645 0.535645 0.535645
0.564453 0.564453 0.564453
0.594238 0.594238 0.594238
0.624023 0.624023 0.624023
0.654297 0.654297 0.654297
0.685059 0.685059 0.685059
0.715820 0.715820 0.715820
0.746582 0.746582 0.746582
0.777344 0.777344 0.777344
0.808594 0.808594 0.808594
0.839844 0.839844 0.839844
0.330566 0.330566 0.330566
0.330566 0.330566 0.330566
0.331055 0.331055 0.331055
0.331543 0.331543 0.331543
0.332031 0.332031 0.332031
0.333008 0.333008 0.333008
0.333984 0.333984 0.333984
0.335693 0.335693 0.335693
0.337646 0.337646 0.337646
0.340576 0.340576 0.340576
0.344482 0.344482 0.344482
0.349365 0.349365 0.349365
0.355713 0.355713 0.355713
0.364014 0.364014 0.364014
0.374512 0.374512 0.374512
0.387207 0.387207 0.387207
0.402344 0.402344 0.402344
0.419922 0.419922 0.419922
0.439941 0.439941 0.439941
0.462158 0.462158 0.462158
0.486328 0.486328 0.486328
0.511719 0.511719 0.511719
0.539062 0.539062 0.539062
0.566895 0.566895 0.566895
0.595703 0.595703 0.595703
0.625488 0.625488 0.625488
0.655273 0.655273 0.655273
0.685547 0.685547 0.685547
0.716309 0.716309 0.716309
0.747070 0.747070 0.747070
0.777832 0.777832 0.777832
0.808594 0.808594 0.808594
0.839844 0.839844 0.839844
0.361084 0.361084 0.361084
0.361328 0.361328 0.361328
0.361572 0.361572 0.361572
0.361816 0.361816 0.361816
0.362305 0.362305 0.362305
0.363037 0.363037 0.363037
0.363770 0.363770 0.363770
0.364990 0.364990 0.364990
0.366699 0.366699 0.366455
0.368652 0.368652 0.368652
0.371582 0.371582 0.371582
0.375488 0.375488 0.375244
0.380371 0.380371 0.380371
0.386719 0.386719 0.386719
0.395020 0.395020 0.395020
0.405518 0.405518 0.405518
0.418213 0.418213 0.418213
0.433350 0.433350 0.433350
0.450928 0.450928 0.450928
0.470947 0.470947 0.470947
0.493408 0.493408 0.493408
0.517090 0.517090 0.517090
0.542969 0.542969 0.542969
0.570312 0.570312 0.570312
0.598145 0.598145 0.598145
0.626953 0.626953 0.626953
0.656738 0.656738 0.656738
0.686523 0.686523 0.686523
0.716797 0.716797 0.716797
0.747559 0.747559 0.747559
0.778320 0.778320 0.778320
0.809082 0.809082 0.809082
0.839844 0.839844 0.839844
0.392090 0.392090 0.392090
0.392334 0.392334 0.392334
0.392334 0.392334 0.392334
0.392578 0.392578 0.392578
0.392822 0.392822 0.392822
0.393555 0.393555 0.393555
0.394043 0.394043 0.394043
0.394775 0.394775 0.394775
0.395996 0.395996 0.395996
0.397705 0.397705 0.397705
0.399658 0.399658 0.399658
0.402588 0.402588 0.402588
0.406494 0.406494 0.406494
0.411377 0.411377 0.411377
0.417969 0.417969 0.417725
0.426270 0.426270 0.426270
0.436523 0.436523 0.436523
0.449219 0.449219 0.449219
0.464600 0.464600 0.464600
0.482178 0.482178 0.482178
0.501953 0.501953 0.501953
0.524414 0.524414 0.524414
0.548340 0.548340 0.548340
0.574219 0.574219 0.574219
0.601562 0.601562 0.601562
0.629395 0.629395 0.629395
0.658203 0.658203 0.658203
0.687988 0.687988 0.687988
0.717773 0.717773 0.717773
0.748047 0.748047 0.748047
0.778809 0.778809 0.778809
0.809570 0.809570 0.809570
0.840332 0.840332 0.840332
0.423096 0.423096 0.423096
0.423096 0.423096 0.423096
0.423340 0.423340 0.423340
0.423584 0.423584 0.423584
0.423828 0.423828 0.423584
0.424072 0.424072 0.424072
0.424561 0.424561 0.424561
0.425049 0.425049 0.425049
0.426025 0.426025 0.426025
0.427246 0.427246 0.427246
0.428711 0.428711 0.428711
0.430908 0.430908 0.430908
0.433594 0.433594 0.433594
0.437500 0.437500 0.437500
0.442627 0.442627 0.442627
0.448975 0.448975 0.448975
0.457275 0.457275 0.457275
0.467773 0.467773 0.467773
0.480469 0.480469 0.480469
0.495605 0.495605 0.495605
0.513184 0.513184 0.513184
0.533203 0.533203 0.533203
0.555664 0.555664 0.555664
0.579590 0.579590 0.579590
0.605469 0.605469 0.605469
0.632812 0.632812 0.632324
0.660645 0.660645 0.660645
0.689453 0.689453 0.689453
0.719238 0.719238 0.719238
0.749023 0.749023 0.749023
0.779297 0.779297 0.779297
0.810059 0.810059 0.810059
0.840820 0.840820 0.840820
0.454102 0.454102 0.454102
0.454346 0.454346 0.454346
0.454346 0.454346 0.454346
0.454346 0.454346 0.454346
0.454590 0.454590 0.454590
0.454834 0.454834 0.454834
0.455078 0.455078 0.455078
0.455566 0.455566 0.455566
0.456299 0.456299 0.456299
0.457031 0.457031 0.457031
0.458252 0.458252 0.458252
0.459717 0.459717 0.459717
0.461914 0.461914 0.461914
0.464844 0.464844 0.464844
0.468750 0.468750 0.468750
0.473633 0.473633 0.473633
0.480225 0.480225 0.480225
0.488525 0.488525 0.488525
0.498779 0.498779 0.498779
0.511719 0.511719 0.511719
0.526855 0.526855 0.526855
0.544434 0.544434 0.544434
0.564453 0.564453 0.564453
0.586914 0.586914 0.586914
0.610840 0.610840 0.610840
0.636719 0.636719 0.636719
0.664062 0.664062 0.664062
0.691895 0.691895 0.691895
0.720703 0.720703 0.720703
0.750488 0.750488 0.750488
0.780273 0.780273 0.780273
0.810547 0.810547 0.810547
0.841309 0.841309 0.841309
0.485352 0.485352 0.485107
0.485352 0.485352 0.485352
0.485352 0.485352 0.485352
0.485596 0.485596 0.485596
0.485596 0.485596 0.485596
0.485840 0.485840 0.485840
0.485840 0.485840 0.485840
0.486328 0.486328 0.486328
0.486816 0.486816 0.486816
0.487305 0.487305 0.487305
0.488281 0.488281 0.488281
0.489502 0.489502 0.489502
0.490967 0.490967 0.490967
0.493164 0.493164 0.493164
0.496094 0.496094 0.496094
0.499756 0.499756 0.499756
0.504883 0.504883 0.504883
0.511230 0.511230 0.511230
0.519531 0.519531 0.519531
0.529785 0.529785 0.529785
0.542969 0.542969 0.542969
0.558105 0.558105 0.558105
0.575684 0.575684 0.575684
0.595703 0.595703 0.595703
0.618164 0.618164 0.618164
0.642090 0.642090 0.642090
0.667969 0.667969 0.667969
0.694824 0.694824 0.694824
0.723145 0.723145 0.723145
0.751953 0.751953 0.751953
0.781738 0.781738 0.781738
0.811523 0.811523 0.811523
0.841797 0.841797 0.841797
0.516113 0.516113 0.516113
0.516113 0.516113 0.516113
0.516113 0.516113 0.516113
0.516602 0.516602 0.516602
0.516602 0.516602 0.516602
0.516602 0.516602 0.516602
0.517090 0.517090 0.516602
0.517090 0.517090 0.517090
0.517578 0.517578 0.517578
0.517578 0.517578 0.517578
0.518555 0.518555 0.518555
0.519531 0.519531 0.519531
0.520508 0.520508 0.520508
0.521973 0.521973 0.521973
0.524414 0.524414 0.524414
0.526855 0.526855 0.526855
0.530762 0.530762 0.530762
0.536133 0.536133 0.536133
0.542480 0.542480 0.542480
0.550781 0.550781 0.550781
0.561035 0.561035 0.561035
0.573730 0.573730 0.573730
0.589355 0.589355 0.589355
0.606934 0.606934 0.606934
0.626953 0.626953 0.626953
0.649414 0.649414 0.649414
0.673340 0.673340 0.673340
0.699219 0.699219 0.699219
0.726074 0.726074 0.726074
0.754395 0.754395 0.754395
0.783203 0.783203 0.783203
0.812988 0.812988 0.812988
0.842773 0.842773 0.842773
0.547363 0.547363 0.547363
0.547363 0.547363 0.547363
0.547363 0.547363 0.547363
0.547363 0.547363 0.547363
0.547852 0.547852 0.547852
0.547852 0.547852 0.547852
0.547852 0.547852 0.547852
0.547852 0.547852 0.547852
0.548340 0.548340 0.548340
0.548828 0.548828 0.548340
0.548828 0.548828 0.548828
0.549805 0.549805 0.549805
0.550293 0.550293 0.550293
0.551758 0.551758 0.551758
0.553223 0.553223 0.553223
0.555176 0.555176 0.555176
0.558105 0.558105 0.558105
0.562012 0.562012 0.562012
0.566895 0.566895 0.566895
0.573730 0.573730 0.573730
0.582031 0.582031 0.582031
0.592285 0.592285 0.592285
0.604980 0.604980 0.604980
0.620605 0.620605 0.620605
0.638184 0.638184 0.638184
0.658203 0.658203 0.658203
0.680664 0.680664 0.680664
0.704590 0.704590 0.704590
0.730469 0.730469 0.730469
0.757324 0.757324 0.757324
0.785645 0.785645 0.785645
0.814453 0.814453 0.814453
0.844238 0.844238 0.844238
0.578613 0.578613 0.578613
0.578613 0.578613 0.578613
0.578613 0.578613 0.578613
0.578613 0.578613 0.578613
0.578613 0.578613 0.578613
0.578613 0.578613 0.578613
0.579102 0.579102 0.579102
0.579102 0.579102 0.579102
0.579102 0.579102 0.579102
0.579590 0.579590 0.579590
0.579590 0.579590 0.579590
0.580078 0.580078 0.580078
0.581055 0.581055 0.581055
0.581543 0.581543 0.581543
0.583008 0.583008 0.583008
0.584473 0.584473 0.584473
0.586426 0.586426 0.586426
0.589355 0.589355 0.589355
0.593262 0.593262 0.593262
0.598145 0.598145 0.598145
0.604980 0.604980 0.604980
0.613281 0.613281 0.613281
0.623535 0.623535 0.623535
0.636230 0.636230 0.636230
0.651855 0.651855 0.651367
0.669434 0.669434 0.669434
0.689453 0.689453 0.689453
0.711914 0.711914 0.711914
0.735840 0.735840 0.735840
0.761719 0.761719 0.761719
0.789062 0.789062 0.788574
0.816895 0.816895 0.816895
0.845703 0.845703 0.845703
0.609863 0.609863 0.609863
0.609863 0.609863 0.609863
0.609863 0.609863 0.609863
0.609863 0.609863 0.609863
0.609863 0.609863 0.609863
0.609863 0.609863 0.609863
0.609863 0.609863 0.609863
0.610352 0.610352 0.610352
0.610352 0.610352 0.610352
0.610352 0.610352 0.610352
0.610840 0.610840 0.610840
0.610840 0.610840 0.610840
0.611328 0.611328 0.611328
0.612305 0.612305 0.612305
0.612793 0.612793 0.612793
0.614258 0.614258 0.614258
0.615723 0.615723 0.615723
0.617676 0.617676 0.617676
0.620605 0.620605 0.620605
0.624512 0.624512 0.624512
0.629395 0.629395 0.629395
0.636230 0.636230 0.636230
0.644531 0.644531 0.644531
0.654785 0.654785 0.654785
0.667480 0.667480 0.667480
0.682617 0.682617 0.682617
0.700684 0.700684 0.700684
0.720703 0.720703 0.720703
0.743164 0.743164 0.743164
0.767090 0.767090 0.767090
0.792969 0.792969 0.792969
0.819824 0.819824 0.819824
0.848145 0.848145 0.848145
0.641113 0.641113 0.641113
0.641113 0.641113 0.641113
0.641113 0.641113 0.641113
0.641113 0.641113 0.641113
0.641113 0.641113 0.641113
0.641113 0.641113 0.641113
0.641113 0.641113 0.641113
0.641113 0.641113 0.641113
0.641602 0.641602 0.641602
0.641602 0.641602 0.641602
0.641602 0.641602 0.641602
0.642090 0.642090 0.642090
0.642090 0.642090 0.642090
0.642578 0.642578 0.642578
0.643555 0.643555 0.643555
0.644043 0.644043 0.644043
0.645508 0.645508 0.645508
0.646973 0.646973 0.646973
0.648926 0.648926 0.648926
0.651855 0.651855 0.651855
0.655762 0.655762 0.655762
0.660645 0.660645 0.660645
0.667480 0.667480 0.667480
0.675781 0.675781 0.675781
0.686035 0.686035 0.686035
0.698730 0.698730 0.698730
0.714355 0.714355 0.714355
0.731934 0.731934 0.731934
0.751953 0.751953 0.751953
0.774414 0.774414 0.774414
0.798340 0.798340 0.798340
0.824219 0.824219 0.824219
0.851074 0.851074 0.851074
0.672363 0.672363 0.672363
0.672363 0.672363 0.672363
0.672363 0.672363 0.672363
0.672363 0.672363 0.672363
0.672363 0.672363 0.672363
0.672363 0.672363 0.672363
0.672363 0.672363 0.672363
0.672363 0.672363 0.672363
0.672363 0.672363 0.672363
0.672852 0.672852 0.672852
0.672852 0.672852 0.672852
0.672852 0.672852 0.672852
0.673340 0.673340 0.673340
0.673340 0.673340 0.673340
0.673828 0.673828 0.673828
0.674316 0.674316 0.674316
0.675293 0.675293 0.675293
0.676758 0.676758 0.676758
0.678223 0.678223 0.678223
0.680176 0.680176 0.680176
0.683105 0.683105 0.683105
0.687012 0.687012 0.687012
0.691895 0.691895 0.691895
0.698730 0.698730 0.698730
0.707031 0.707031 0.707031
0.717285 0.717285 0.717285
0.729980 0.729980 0.729980
0.745605 0.745605 0.745117
0.763184 0.763184 0.763184
0.783203 0.783203 0.783203
0.805664 0.805664 0.805664
0.829590 0.829590 0.829590
0.855469 0.855469 0.855469
0.703613 0.703613 0.703613
0.703613 0.703613 0.703613
0.703613 0.703613 0.703613
0.703613 0.703613 0.703613
0.703613 0.703613 0.703613
0.703613 0.703613 0.703613
0.703613 0.703613 0.703613
0.703613 0.703613 0.703613
0.703613 0.703613 0.703613
0.703613 0.703613 0.703613
0.703613 0.703613 0.703613
0.704102 0.704102 0.704102
0.704102 0.704102 0.704102
0.704590 0.704590 0.704590
0.704590 0.704590 0.704590
0.705078 0.705078 0.705078
0.706055 0.706055 0.705566
0.706543 0.706543 0.706543
0.708008 0.708008 0.708008
0.709473 0.709473 0.709473
0.711426 0.711426 0.711426
0.714355 0.714355 0.714355
0.718262 0.718262 0.718262
0.723145 0.723145 0.723145
0.729980 0.729980 0.729980
0.738281 0.738281 0.738281
0.748535 0.748535 0.748535
0.761230 0.761230 0.761230
0.776367 0.776367 0.776367
0.794434 0.794434 0.794434
0.814453 0.814453 0.814453
0.836914 0.836914 0.836914
0.860840 0.860840 0.860840
0.734863 0.734863 0.734863
0.734863 0.734863 0.734863
0.734863 0.734863 0.734863
0.734863 0.734863 0.734863
0.734863 0.734863 0.734863
0.734863 0.734863 0.734863
0.734863 0.734863 0.734863
0.734863 0.734863 0.734863
0.734863 0.734863 0.734863
0.734863 0.734863 0.734863
0.734863 0.734863 0.734863
0.735352 0.735352 0.734863
0.735352 0.735352 0.735352
0.735352 0.735352 0.735352
0.735840 0.735840 0.735840
0.735840 0.735840 0.735840
0.736328 0.736328 0.736328
0.737305 0.737305 0.737305
