RED_IPP2_Creative/RED_TECH.cube
# RED Digital Cinema Output Transform LUT for IPP2
# Creatives by Eric Weidt
# BMD cube from Truelight v4.0
# Settings used in creation of this LUT are:
# Development Color Space = USER SELECTABLE
# Output Gamma Curve = USER SELECTABLE
# Output Tonemap = USER SELECTABLE
# Highlight Rolloff = USER SELECTABLE
LUT_3D_SIZE 5
0.028931 0.028931 0.028931
0.207520 0.033936 0.028931
0.418701 0.057129 0.042480
0.604980 0.081360 0.059998
0.809082 0.105103 0.077148
0.019073 0.244873 0.019073
0.243042 0.244263 0.027298
0.435791 0.268066 0.077637
0.607910 0.277100 0.077271
0.800781 0.283691 0.075073
0.000000 0.494385 0.000000
0.187988 0.474365 0.000000
0.449463 0.451660 0.000000
0.584961 0.433105 0.071899
0.801758 0.449219 0.082458
0.000000 0.711426 0.000000
0.156738 0.708496 0.000000
0.444092 0.715332 0.000000
0.712402 0.716797 0.000000
0.893066 0.708008 0.148193
0.000000 0.993652 0.000000
0.189575 1.000000 0.000000
0.493896 1.000000 0.000000
0.778809 1.000000 0.002037
1.000000 1.000000 0.059235
0.026138 0.026581 0.253906
0.240479 0.016006 0.240356
0.441895 0.052063 0.216797
0.617188 0.087158 0.241333
0.819824 0.106262 0.257812
0.019867 0.246460 0.246460
0.245239 0.245239 0.245239
0.440430 0.265381 0.256836
0.611328 0.274902 0.258789
0.806152 0.281494 0.258545
0.000000 0.487549 0.199707
0.182251 0.467529 0.182251
0.445801 0.447021 0.183716
0.593262 0.433838 0.262207
0.814453 0.452148 0.276611
0.000000 0.708984 0.157104
0.158081 0.710449 0.158081
0.447754 0.718750 0.165405
0.718750 0.721680 0.205566
0.904785 0.711914 0.353760
0.000000 0.998047 0.180176
0.194946 1.000000 0.194946
0.500000 1.000000 0.212280
0.784668 1.000000 0.231323
1.000000 1.000000 0.288574
0.022232 0.023178 0.536621
0.237427 0.014221 0.525391
0.525391 0.013123 0.524902
0.785156 0.024399 0.525879
0.935547 0.063416 0.479980
0.020004 0.245972 0.532227
0.235596 0.236084 0.522949
0.506348 0.219604 0.506348
0.672363 0.243164 0.452881
0.812500 0.279785 0.427490
0.000000 0.480713 0.480713
0.176880 0.461426 0.461426
0.435791 0.435791 0.435791
0.609375 0.432373 0.426514
0.828613 0.456299 0.443115
0.000000 0.708496 0.436523
0.160400 0.712891 0.441406
0.451660 0.721680 0.451660
0.725586 0.727051 0.472168
0.924805 0.721680 0.520996
0.000000 1.000000 0.470703
0.200562 1.000000 0.488037
0.505859 1.000000 0.505859
0.791016 1.000000 0.525879
1.000000 1.000000 0.558594
0.019073 0.019135 0.796875
0.235596 0.012192 0.788574
0.528320 0.015900 0.792969
0.797363 0.019745 0.797363
1.000000 0.012283 0.788574
0.018417 0.243652 0.795898
0.230469 0.231079 0.784180
0.500000 0.213379 0.767090
0.748535 0.194336 0.748535
0.992676 0.179688 0.724609
0.000000 0.474121 0.742188
0.172241 0.456055 0.725098
0.441895 0.442627 0.712891
0.707520 0.436768 0.707520
0.899414 0.450439 0.657227
0.000000 0.708496 0.708496
0.162842 0.715332 0.715332
0.456055 0.726562 0.726562
0.717285 0.717285 0.717285
0.956055 0.730957 0.723145
0.000000 1.000000 0.744629
0.206421 1.000000 0.761230
0.513184 1.000000 0.778809
0.796875 1.000000 0.796875
1.000000 1.000000 0.819336
0.016006 0.015778 1.000000
0.235474 0.012283 1.000000
0.531738 0.019135 1.000000
0.796387 0.018295 1.000000
1.000000 0.007793 1.000000
0.014938 0.240356 1.000000
0.224854 0.225464 1.000000
0.493408 0.206665 1.000000
0.742676 0.188477 1.000000
0.988281 0.172607 0.988281
0.000000 0.467529 0.999512
0.167725 0.450928 0.982910
0.438721 0.439453 0.972656
0.707520 0.437256 0.970215
0.977051 0.444580 0.977051
0.000000 0.710938 0.972656
0.165649 0.718750 0.980469
0.460693 0.730957 0.992676
0.744141 0.744629 1.000000
1.000000 0.760742 1.000000
0.000000 1.000000 1.000000
0.213013 1.000000 1.000000
0.520020 1.000000 1.000000
0.803223 1.000000 1.000000
1.000000 1.000000 1.000000
