RED_IPP2_Creative/RED_DEEP_CHROMA.cube
# RED Digital Cinema Output Transform LUT for IPP2
# Creatives by Eric Weidt
# BMD cube from Truelight v4.0
# Settings used in creation of this LUT are:
# Development Color Space = USER SELECTABLE
# Output Gamma Curve = USER SELECTABLE
# Output Tonemap = USER SELECTABLE
# Highlight Rolloff = USER SELECTABLE
LUT_3D_SIZE 33
0.059204 0.065857 0.062683
0.068176 0.068787 0.061798
0.079712 0.068909 0.059845
0.091431 0.067078 0.057831
0.101196 0.066284 0.056274
0.112305 0.066101 0.054993
0.124329 0.065674 0.052856
0.135742 0.065369 0.050751
0.147827 0.063599 0.048828
0.161621 0.061035 0.045868
0.175659 0.060638 0.041260
0.192749 0.059784 0.035156
0.211792 0.057251 0.027557
0.231567 0.053833 0.018707
0.254639 0.050049 0.008247
0.285400 0.046417 0.000000
0.335449 0.033203 0.000000
0.388184 0.054565 0.028091
0.432373 0.077026 0.076904
0.470947 0.073914 0.086060
0.510254 0.070557 0.097778
0.548828 0.066895 0.113098
0.586426 0.062500 0.131104
0.624023 0.058441 0.157227
0.661621 0.053955 0.184326
0.700195 0.049988 0.220825
0.741699 0.048126 0.261963
0.783691 0.047516 0.314697
0.827148 0.053375 0.372070
0.870117 0.067200 0.442627
0.905762 0.101074 0.510742
0.929688 0.139282 0.563477
0.951172 0.191406 0.620605
0.057465 0.074280 0.059906
0.067383 0.073303 0.059387
0.078979 0.073242 0.057556
0.091064 0.072632 0.056213
0.100708 0.071899 0.054962
0.111206 0.071289 0.053375
0.123291 0.070740 0.051422
0.134766 0.069946 0.049652
0.146240 0.068848 0.047272
0.160400 0.067505 0.044189
0.174683 0.066467 0.040039
0.190918 0.064880 0.034454
0.209839 0.062286 0.027039
0.230347 0.059265 0.017792
0.254883 0.056091 0.006641
0.286133 0.054016 0.000000
0.334229 0.045166 0.000000
0.386475 0.065613 0.024628
0.431152 0.088501 0.075989
0.471191 0.086609 0.083862
0.509766 0.084656 0.095825
0.548828 0.082214 0.110596
0.587402 0.079102 0.129150
0.625000 0.076111 0.155396
0.661621 0.072815 0.183716
0.700684 0.069702 0.218384
0.741699 0.067444 0.259766
0.784180 0.067688 0.312012
0.828125 0.075439 0.370117
0.871094 0.080444 0.441895
0.906250 0.110657 0.510254
0.929688 0.139282 0.563477
0.951660 0.196533 0.619629
0.054504 0.084229 0.056519
0.064636 0.083374 0.056183
0.077515 0.081604 0.054718
0.088745 0.080383 0.053467
0.099731 0.079956 0.052460
0.110107 0.079468 0.051544
0.121094 0.078918 0.049988
0.132568 0.077515 0.048584
0.145996 0.076111 0.045837
0.160400 0.074036 0.042603
0.174805 0.072327 0.038849
0.189453 0.070618 0.033661
0.204590 0.067993 0.028137
0.225708 0.065002 0.018646
0.253174 0.062347 0.005394
0.284424 0.061493 0.000000
0.332275 0.056274 0.000000
0.384033 0.075989 0.019867
0.430420 0.099915 0.075012
0.470703 0.099182 0.082336
0.509766 0.098633 0.094177
0.548828 0.097595 0.109009
0.587891 0.095642 0.128052
0.625488 0.093384 0.150879
0.662598 0.090393 0.179443
0.702148 0.089600 0.215820
0.743164 0.088074 0.259766
0.786133 0.081726 0.308350
0.828613 0.092529 0.370850
0.872070 0.108093 0.437744
0.906738 0.124512 0.508789
0.930176 0.149170 0.562500
0.951660 0.199951 0.618652
0.051941 0.096313 0.054169
0.060120 0.095886 0.053101
0.076233 0.093079 0.051819
0.087402 0.089600 0.051483
0.097290 0.088684 0.050323
0.108154 0.088318 0.049377
0.119812 0.088318 0.047577
0.131592 0.087219 0.046021
0.145386 0.086060 0.043030
0.159302 0.084106 0.039886
0.172363 0.082214 0.036591
0.188354 0.079956 0.031372
0.205200 0.076477 0.025116
0.223755 0.072632 0.016876
0.250244 0.070496 0.004215
0.282471 0.071106 0.000000
0.331543 0.069458 0.000000
0.384521 0.089844 0.019684
0.430420 0.112244 0.074341
0.469727 0.112671 0.082153
0.509766 0.113403 0.093262
0.551758 0.113708 0.107788
0.590820 0.113037 0.127930
0.628418 0.111511 0.149902
0.666016 0.109375 0.178101
0.705566 0.108459 0.215942
0.747559 0.106934 0.259277
0.789062 0.107849 0.309814
0.831055 0.117737 0.367188
0.873047 0.131592 0.436279
0.907227 0.141113 0.505859
0.931152 0.166870 0.559570
0.952148 0.204956 0.617676
0.049072 0.108765 0.051025
0.055389 0.108337 0.049744
0.069153 0.105713 0.049347
0.084167 0.101501 0.049377
0.095581 0.098450 0.048767
0.106934 0.097351 0.047028
0.117798 0.097961 0.045166
0.131104 0.097534 0.042603
0.144775 0.096680 0.039825
0.158691 0.095093 0.036469
0.172852 0.093201 0.032654
0.189575 0.091125 0.027100
0.207031 0.087708 0.020721
0.226074 0.084351 0.011879
0.250244 0.081909 0.000936
0.281006 0.082397 0.000000
0.330322 0.083984 0.000000
0.383789 0.105164 0.018036
0.429688 0.126709 0.073364
0.469238 0.128174 0.080688
0.509766 0.129517 0.091370
0.552734 0.130127 0.106018
0.595215 0.130005 0.126343
0.634277 0.128906 0.151367
0.673340 0.127930 0.180176
0.712891 0.128174 0.216064
0.751953 0.129639 0.257324
0.791992 0.136475 0.303955
0.833496 0.136963 0.364258
0.874512 0.151367 0.432373
0.908691 0.158813 0.501465
0.932129 0.181641 0.556641
0.954102 0.219482 0.614258
0.046295 0.120239 0.048676
0.052002 0.120117 0.047913
0.063965 0.118347 0.047180
0.081116 0.115601 0.046265
0.095581 0.111694 0.045380
0.105774 0.109192 0.044098
0.117310 0.108215 0.041870
0.128540 0.107727 0.039856
0.142456 0.107300 0.036682
0.156250 0.106201 0.033508
0.170898 0.105042 0.028854
0.188721 0.103516 0.022552
0.206665 0.101624 0.015579
0.226929 0.098511 0.006817
0.249878 0.095520 0.000000
0.278809 0.095581 0.000000
0.327393 0.099670 0.000000
0.381348 0.120544 0.013153
0.427246 0.142456 0.072510
0.467285 0.145020 0.079773
0.508789 0.146729 0.089478
0.551270 0.147827 0.103455
0.594238 0.148071 0.123962
0.636719 0.148315 0.148926
0.678223 0.148682 0.176147
0.716797 0.151001 0.210693
0.754395 0.153320 0.253418
0.794922 0.159790 0.299072
0.835449 0.163452 0.356201
0.875977 0.170654 0.426758
0.910156 0.179565 0.497314
0.933105 0.193604 0.553711
0.955566 0.231323 0.610352
0.043671 0.132080 0.046265
0.048798 0.132202 0.045990
0.059082 0.131714 0.045013
0.076416 0.129395 0.042603
0.093018 0.125366 0.041168
0.104919 0.120850 0.040466
0.116028 0.120056 0.037872
0.127441 0.118652 0.035736
0.138672 0.117310 0.033569
0.152100 0.117188 0.030304
0.167358 0.116638 0.025238
0.185181 0.115784 0.018829
0.205078 0.114685 0.010361
0.228149 0.113281 0.000000
0.251221 0.111633 0.000000
0.278809 0.111572 0.000000
0.326904 0.117493 0.000000
0.379150 0.137207 0.009590
0.425049 0.158447 0.071655
0.465820 0.161987 0.078003
0.506348 0.164185 0.088074
0.548828 0.165771 0.101074
0.591309 0.167725 0.119568
0.634277 0.170288 0.143555
0.676270 0.173218 0.170532
0.716309 0.176880 0.200928
0.754883 0.180664 0.239258
0.796387 0.184204 0.286621
0.837402 0.189819 0.347412
0.877441 0.195435 0.417725
0.912109 0.204346 0.488525
0.935059 0.215332 0.547852
0.957520 0.244263 0.605957
0.040039 0.144775 0.042938
0.045410 0.145020 0.042572
0.054840 0.144653 0.040894
0.071045 0.142822 0.038116
0.090576 0.138916 0.036530
0.104980 0.135498 0.034576
0.115662 0.132324 0.032806
0.126221 0.130615 0.030685
0.138184 0.128906 0.028183
0.151245 0.128296 0.024872
0.165527 0.128052 0.020126
0.181763 0.127441 0.014061
0.202515 0.127319 0.004864
0.226562 0.127319 0.000000
0.251221 0.127197 0.000000
0.278564 0.128418 0.000000
0.327148 0.136719 0.000000
0.378906 0.156128 0.009300
0.425049 0.176025 0.071228
0.465820 0.180176 0.077698
0.506836 0.183350 0.086731
0.548340 0.186157 0.099792
0.590820 0.190186 0.117310
0.634277 0.194946 0.140625
0.676270 0.199341 0.165771
0.715820 0.204224 0.195801
0.756836 0.207886 0.231445
0.799316 0.211548 0.271484
0.840332 0.217041 0.329834
0.880859 0.223999 0.402344
0.914551 0.228638 0.476562
0.938477 0.239990 0.537109
0.959961 0.258057 0.598633
0.035278 0.158325 0.037842
0.041229 0.158569 0.037079
0.050598 0.158569 0.034943
0.069092 0.156494 0.032471
0.088684 0.153564 0.030045
0.103394 0.149780 0.027588
0.114990 0.146606 0.025635
0.125977 0.144409 0.023941
0.136475 0.141724 0.021927
0.150024 0.140137 0.018356
0.163940 0.139404 0.013992
0.178833 0.138916 0.008064
0.198730 0.139404 0.000000
0.222168 0.140381 0.000000
0.247437 0.141357 0.000000
0.277588 0.144287 0.000000
0.326904 0.155884 0.000000
0.379395 0.176636 0.011581
0.425293 0.194702 0.071167
0.468018 0.199829 0.077209
0.509277 0.204468 0.086243
0.550781 0.209106 0.099182
0.594238 0.214355 0.116638
0.637207 0.220215 0.139404
0.678223 0.225342 0.165894
0.719238 0.230103 0.193848
0.760742 0.235229 0.228394
0.803711 0.240723 0.264404
0.845215 0.245972 0.310303
0.885254 0.252686 0.379395
0.918457 0.255615 0.459717
0.941895 0.262695 0.523438
0.962891 0.276367 0.589844
0.028976 0.172852 0.030136
0.035614 0.173218 0.029160
0.045776 0.173462 0.027359
0.065796 0.171631 0.024567
0.085083 0.168335 0.021805
0.101868 0.165161 0.018494
0.115967 0.162842 0.015045
0.127808 0.160278 0.013382
0.136963 0.156738 0.012115
0.147949 0.153687 0.009583
0.161987 0.151733 0.005894
0.177124 0.149658 0.001430
0.195312 0.150757 0.000000
0.217041 0.152466 0.000000
0.242554 0.154663 0.000000
0.274170 0.159180 0.000000
0.325684 0.174072 0.000000
0.378906 0.196411 0.012573
0.425781 0.213867 0.071655
0.468018 0.220337 0.076965
0.511719 0.226440 0.085327
0.554199 0.232178 0.098389
0.598633 0.238647 0.116699
0.643555 0.244629 0.140503
0.685059 0.250244 0.165894
0.725586 0.255859 0.195068
0.767090 0.261719 0.227295
0.807617 0.267578 0.259766
0.848145 0.273926 0.297852
0.888672 0.279297 0.347656
0.923340 0.286133 0.427490
0.947266 0.289551 0.501953
0.968262 0.295654 0.574707
0.021317 0.188232 0.019989
0.028961 0.188843 0.019272
0.039093 0.189331 0.017838
0.059479 0.187622 0.014572
0.080933 0.184082 0.010857
0.099731 0.181885 0.006355
0.116760 0.180054 0.001567
0.129517 0.177490 0.000000
0.139526 0.173828 0.000000
0.149170 0.169800 0.000000
0.161743 0.166138 0.000000
0.175903 0.163452 0.000000
0.191895 0.162109 0.000000
0.211914 0.163940 0.000000
0.237183 0.167114 0.000000
0.268311 0.173218 0.000000
0.321777 0.191284 0.000000
0.378418 0.216064 0.014099
0.425537 0.233276 0.072876
0.468262 0.240723 0.075745
0.511719 0.248047 0.084656
0.556152 0.255127 0.098450
0.602539 0.262207 0.116333
0.648926 0.269043 0.140259
0.692871 0.275879 0.166992
0.734375 0.282227 0.197266
0.772949 0.289307 0.229004
0.811035 0.296143 0.256104
0.850098 0.303467 0.291260
0.890625 0.311035 0.333984
0.928223 0.314209 0.382568
0.953613 0.315186 0.461426
0.975586 0.320801 0.548340
0.015839 0.203247 0.008507
0.025467 0.203491 0.007957
0.036530 0.204346 0.006142
0.054352 0.203857 0.001604
0.075439 0.202393 0.000000
0.097473 0.200806 0.000000
0.117188 0.198364 0.000000
0.131226 0.195068 0.000000
0.143433 0.191406 0.000000
0.154785 0.188965 0.000000
0.165894 0.185181 0.000000
0.179443 0.182007 0.000000
0.192017 0.177734 0.000000
0.208496 0.176880 0.000000
0.230957 0.179688 0.000000
0.264404 0.187378 0.000000
0.319824 0.208496 0.000000
0.376953 0.234863 0.015190
0.425537 0.252686 0.074036
0.468018 0.260986 0.075500
0.512207 0.269531 0.082947
0.557617 0.277832 0.095520
0.604492 0.286133 0.113892
0.652832 0.294678 0.139771
0.698730 0.302002 0.170410
0.740723 0.309326 0.197876
0.778320 0.317139 0.228882
0.814453 0.324951 0.260498
0.852051 0.332275 0.292236
0.891602 0.340820 0.325684
0.929199 0.344727 0.366943
0.958984 0.345703 0.412842
0.984863 0.347168 0.496094
0.014236 0.218018 0.000000
0.025803 0.218262 0.000000
0.037720 0.219360 0.000000
0.053253 0.220825 0.000000
0.072205 0.221436 0.000000
0.096130 0.220581 0.000000
0.119080 0.217529 0.000000
0.134888 0.213745 0.000000
0.148193 0.211792 0.000000
0.161621 0.210815 0.000000
0.174194 0.208008 0.000000
0.184937 0.202515 0.000000
0.198364 0.198608 0.000000
0.212646 0.195679 0.000000
0.230591 0.194824 0.000000
0.258545 0.200317 0.000000
0.315674 0.224365 0.000000
0.375244 0.252441 0.015038
0.423096 0.270996 0.075256
0.466309 0.280762 0.076233
0.511719 0.291260 0.079407
0.558105 0.301025 0.092346
0.606934 0.310791 0.112854
0.655762 0.320312 0.136841
0.703125 0.328857 0.168091
0.745117 0.336670 0.197510
0.782227 0.345215 0.225220
0.817871 0.353516 0.254395
0.854004 0.362549 0.289551
0.892578 0.371094 0.322754
0.930176 0.376221 0.354248
0.959961 0.375732 0.400391
0.992188 0.377197 0.427979
0.015030 0.234009 0.000000
0.028595 0.234253 0.000000
0.041321 0.236206 0.000000
0.057129 0.238159 0.000000
0.076538 0.239746 0.000000
0.100708 0.239014 0.000000
0.123596 0.237183 0.000000
0.140137 0.235474 0.000000
0.154907 0.235474 0.000000
0.169067 0.234741 0.000000
0.181885 0.232178 0.000000
0.192261 0.226685 0.000000
0.204224 0.220825 0.000000
0.218018 0.216187 0.000000
0.234375 0.213745 0.000000
0.255127 0.215088 0.000000
0.306885 0.237549 0.000000
0.367920 0.267578 0.000049
0.418945 0.289062 0.075500
0.463623 0.301270 0.077332
0.509277 0.312500 0.080505
0.558594 0.324463 0.088501
0.607422 0.335449 0.109680
0.657715 0.346191 0.134644
0.705566 0.355469 0.162720
0.747559 0.364502 0.195801
0.784668 0.373779 0.222778
0.820312 0.383057 0.251953
0.856445 0.392578 0.282715
0.894043 0.401611 0.319336
0.930176 0.407227 0.350586
0.960938 0.406738 0.384277
0.993164 0.407715 0.413330
0.017639 0.252197 0.000000
0.031403 0.253174 0.000000
0.046356 0.254639 0.000000
0.063721 0.256104 0.000000
0.085022 0.257324 0.000000
0.109192 0.258057 0.000000
0.130615 0.257812 0.000000
0.148071 0.258301 0.000000
0.163574 0.259521 0.000000
0.177490 0.259033 0.000000
0.189453 0.256592 0.000000
0.199707 0.251709 0.000000
0.212158 0.246704 0.000000
0.224854 0.239624 0.000000
0.240845 0.234985 0.000000
0.260986 0.235718 0.000000
0.302979 0.253906 0.000000
0.360596 0.283203 0.000000
0.412598 0.306396 0.076965
0.458496 0.320557 0.078430
0.506348 0.334229 0.080811
0.556152 0.347168 0.085876
0.607910 0.360107 0.103760
0.657715 0.372070 0.130493
0.706543 0.382812 0.159180
0.749023 0.393066 0.191772
0.786621 0.402588 0.220093
0.822754 0.412598 0.248413
0.858887 0.422607 0.272461
0.895020 0.432129 0.311523
0.930664 0.437988 0.346191
0.960938 0.438232 0.384521
0.993164 0.438721 0.411133
0.012756 0.275635 0.000000
0.030533 0.276367 0.000000
0.048920 0.277344 0.000000
0.070129 0.278809 0.000000
0.094055 0.279541 0.000000
0.118713 0.280029 0.000000
0.140015 0.280762 0.000000
0.158081 0.282471 0.000000
0.173950 0.283203 0.000000
0.188232 0.282959 0.000000
0.200073 0.281494 0.000000
0.210693 0.278076 0.000000
0.225098 0.275146 0.000000
0.240112 0.270508 0.000000
0.251953 0.262451 0.000000
0.272217 0.261230 0.000000
0.313965 0.280762 0.000000
0.362061 0.304932 0.001498
0.409424 0.325928 0.078125
0.455078 0.341797 0.079224
0.503418 0.356445 0.081665
0.554688 0.370850 0.085938
0.606445 0.385498 0.096375
0.656250 0.398193 0.121704
0.705566 0.410156 0.152832
0.751465 0.421387 0.185059
0.789062 0.431885 0.213989
0.825195 0.442383 0.243164
0.860840 0.452148 0.273193
0.896973 0.462646 0.301025
0.931152 0.468994 0.333252
0.961914 0.469238 0.371826
0.994141 0.469238 0.393555
0.014984 0.316650 0.000000
0.036987 0.316895 0.000000
0.061127 0.317871 0.000000
0.085754 0.318604 0.000000
0.112305 0.318848 0.000000
0.137695 0.320312 0.000000
0.160278 0.321533 0.000000
0.178467 0.322266 0.000000
0.195557 0.323242 0.000000
0.211304 0.323730 0.000000
0.224976 0.322510 0.000000
0.239258 0.321289 0.000000
0.254883 0.319824 0.000000
0.271484 0.317871 0.000000
0.285400 0.312500 0.000000
0.301025 0.307129 0.000000
0.338135 0.323975 0.000000
0.380371 0.343750 0.068542
0.419434 0.357666 0.078430
0.460938 0.372070 0.080383
0.507812 0.386475 0.082092
0.557617 0.401367 0.088623
0.607910 0.415771 0.096497
0.657227 0.428711 0.111877
0.705078 0.440674 0.141602
0.750977 0.452881 0.177124
0.791992 0.462891 0.208984
0.828613 0.473389 0.238770
0.863770 0.483154 0.265625
0.898438 0.493896 0.295898
0.931152 0.499756 0.327148
0.962402 0.500488 0.367920
0.994141 0.500000 0.387939
0.077637 0.359619 0.049622
0.092529 0.359619 0.050140
0.109802 0.360107 0.050385
0.129761 0.360840 0.051514
0.151001 0.361572 0.051544
0.171997 0.362305 0.052917
0.190674 0.363770 0.054169
0.207520 0.364746 0.055817
0.223999 0.365234 0.056366
0.240356 0.366211 0.058167
0.255859 0.366455 0.058044
0.272217 0.367432 0.059113
0.288818 0.366455 0.055450
0.305420 0.365479 0.051300
0.321533 0.363525 0.041504
0.336914 0.359375 0.019638
0.365234 0.368896 0.068481
0.394775 0.379150 0.079590
0.429443 0.390625 0.079590
0.468750 0.404053 0.080933
0.512695 0.417969 0.083191
0.558594 0.432373 0.090942
0.607910 0.446533 0.099060
0.655762 0.459473 0.106323
0.703613 0.472168 0.130859
0.749512 0.483887 0.169556
0.791016 0.494385 0.202881
0.830078 0.504883 0.234497
0.865723 0.515137 0.263916
0.898926 0.524414 0.292236
0.931641 0.531250 0.318848
0.962402 0.531250 0.357422
0.994141 0.531250 0.383301
0.099731 0.397217 0.086243
0.113831 0.396973 0.086365
0.129150 0.397705 0.086487
0.147705 0.398438 0.086426
0.166138 0.398438 0.084717
0.184814 0.399170 0.084045
0.203003 0.400391 0.084167
0.219727 0.401367 0.084473
0.236206 0.401855 0.082275
0.252930 0.403564 0.082642
0.270508 0.404785 0.082825
0.288330 0.406006 0.083984
0.305908 0.405762 0.084290
0.324219 0.405029 0.084839
0.342285 0.404297 0.085449
0.360596 0.402100 0.084900
0.386230 0.409180 0.082825
0.412598 0.416992 0.081238
0.441895 0.426514 0.082092
0.477051 0.437988 0.082397
0.517578 0.451172 0.088684
0.561035 0.464844 0.096985
0.607910 0.478271 0.101318
0.654297 0.491699 0.115601
0.701660 0.503906 0.130127
0.747070 0.515137 0.150879
0.789551 0.526367 0.187866
0.829102 0.536621 0.224731
0.866211 0.546387 0.250000
0.899414 0.556152 0.284424
0.932617 0.562500 0.309570
0.963379 0.562012 0.343262
0.994141 0.562500 0.382568
0.098389 0.434570 0.089539
0.113892 0.434570 0.089478
0.130249 0.434814 0.088196
0.149048 0.435303 0.088379
0.166870 0.435303 0.084473
0.186646 0.435791 0.084045
0.206055 0.436768 0.085571
0.224365 0.437256 0.080505
0.243286 0.438721 0.081665
0.260742 0.440430 0.082397
0.280029 0.442871 0.083313
0.299561 0.444824 0.082886
0.318848 0.444824 0.083740
0.337891 0.443848 0.084045
0.357910 0.443359 0.084656
0.378418 0.442871 0.086304
0.404053 0.449951 0.083984
0.430908 0.457520 0.084595
0.458252 0.465820 0.084778
0.489258 0.475342 0.088074
0.525391 0.487305 0.094910
0.565430 0.499023 0.097961
0.609375 0.512207 0.109924
0.654297 0.524902 0.128052
0.700195 0.536621 0.139160
0.746094 0.548340 0.148315
0.788574 0.558594 0.171509
0.828125 0.568848 0.209839
0.865723 0.578125 0.244751
0.899902 0.587891 0.269531
0.932617 0.593750 0.300781
0.963379 0.593750 0.334473
0.994141 0.593262 0.373779
0.098145 0.473877 0.097046
0.113953 0.473877 0.096741
0.131714 0.474365 0.097961
0.149902 0.474365 0.097412
0.167358 0.473877 0.089722
0.187378 0.474365 0.089355
0.207886 0.475342 0.090576
0.227783 0.476318 0.091064
0.248169 0.477783 0.088379
0.269043 0.479980 0.086853
0.288574 0.482422 0.087036
0.309326 0.484375 0.086670
0.329590 0.485596 0.090393
0.350342 0.484375 0.087219
0.371826 0.484375 0.088562
0.394043 0.485107 0.092041
0.420166 0.492676 0.090942
0.447021 0.500000 0.089844
0.474121 0.507324 0.092163
0.503418 0.515625 0.095215
0.537109 0.524902 0.100952
0.573730 0.535156 0.107727
0.613281 0.547363 0.123779
0.655762 0.559570 0.143555
0.699707 0.571289 0.159546
0.744141 0.582520 0.180664
0.786621 0.592773 0.187500
0.828613 0.601562 0.185425
0.865723 0.610352 0.228516
0.899902 0.619629 0.262207
0.933105 0.625000 0.285400
0.963379 0.625000 0.336426
0.994141 0.625000 0.365234
0.100525 0.515625 0.111816
0.114624 0.515625 0.112549
0.132202 0.515625 0.112122
0.151245 0.515625 0.112610
0.171143 0.515625 0.112000
0.189941 0.515625 0.106201
0.209473 0.516113 0.107422
0.229492 0.517090 0.100098
0.250977 0.518555 0.102417
0.274170 0.520996 0.104248
0.296387 0.522949 0.100464
0.318604 0.525391 0.103088
0.339844 0.526855 0.102539
0.361572 0.526855 0.103638
0.383789 0.526855 0.097778
0.406982 0.527832 0.099365
0.433350 0.536133 0.109070
0.459961 0.543457 0.109314
0.487793 0.550781 0.112976
0.517578 0.557617 0.122070
0.549805 0.564941 0.127197
0.583008 0.574219 0.136353
0.619629 0.584961 0.151245
0.659180 0.595703 0.163940
0.701660 0.607422 0.185181
0.743164 0.617676 0.213745
0.785156 0.627441 0.224243
0.827148 0.635742 0.224487
0.866211 0.643555 0.203247
0.899902 0.651367 0.248779
0.932617 0.656250 0.281006
0.963379 0.655762 0.326172
0.995117 0.656250 0.348877
0.115601 0.559082 0.141846
0.127441 0.559082 0.142334
0.142700 0.558594 0.142456
0.160278 0.558594 0.142090
0.174561 0.558105 0.135498
0.194824 0.558105 0.134766
0.215454 0.559082 0.135498
0.235718 0.560059 0.137695
0.256836 0.561523 0.131958
0.279053 0.562988 0.124939
0.302734 0.564453 0.127563
0.325684 0.565918 0.120728
0.349854 0.568359 0.123108
0.372070 0.569336 0.126099
0.394287 0.569336 0.119080
0.417725 0.569336 0.111206
0.444336 0.578125 0.132202
0.470947 0.585449 0.136108
0.499023 0.592773 0.138428
0.528809 0.599609 0.142456
0.560547 0.605957 0.159790
0.592285 0.614258 0.170410
0.627441 0.622559 0.179810
0.664062 0.633301 0.206421
0.703125 0.644531 0.230713
0.743652 0.653320 0.244263
0.782715 0.662109 0.265381
0.821777 0.669922 0.278320
0.860840 0.676758 0.279541
0.900879 0.682129 0.220337
0.933594 0.687012 0.260010
0.964844 0.687500 0.296631
0.995605 0.687012 0.334717
0.141113 0.604004 0.186890
0.147461 0.603516 0.185425
0.160400 0.603516 0.184326
0.176636 0.603516 0.191162
0.192383 0.603516 0.190918
0.206665 0.603027 0.177002
0.224487 0.603516 0.178101
0.244263 0.604492 0.179565
0.265869 0.605957 0.182617
0.287109 0.606934 0.183105
0.309814 0.608398 0.179443
0.333740 0.610352 0.181396
0.357910 0.611816 0.176392
0.382568 0.612305 0.159790
0.405518 0.612305 0.150879
0.427979 0.612305 0.154785
0.454102 0.620117 0.164917
0.480957 0.627441 0.169312
0.508301 0.634277 0.172852
0.538086 0.641113 0.188232
0.567871 0.647949 0.202881
0.599609 0.654297 0.212036
0.631836 0.661621 0.226929
0.667480 0.671875 0.250244
0.704102 0.681152 0.272217
0.740234 0.689941 0.292969
0.778320 0.698242 0.314697
0.815430 0.705078 0.332031
0.854004 0.710938 0.342285
0.891602 0.715820 0.337646
0.932617 0.718262 0.259033
0.964844 0.717773 0.270264
0.995605 0.717773 0.329834
0.198364 0.651367 0.254639
0.203735 0.651367 0.254639
0.208740 0.651367 0.254639
0.216309 0.650879 0.254395
0.229004 0.650879 0.254150
0.237305 0.650391 0.249268
0.251709 0.650879 0.249146
0.267334 0.651367 0.250000
0.284668 0.652832 0.251953
0.304199 0.653320 0.252686
0.322754 0.653809 0.248535
0.345703 0.655762 0.247192
0.368408 0.656738 0.240234
0.392578 0.657227 0.228760
0.417480 0.657715 0.222778
0.440918 0.657227 0.205688
0.465576 0.663574 0.207275
0.491699 0.671387 0.223511
0.517578 0.678711 0.237549
0.544922 0.685547 0.251709
0.574707 0.690430 0.263428
0.604492 0.696777 0.270264
0.635742 0.703125 0.288086
0.667969 0.711426 0.303955
0.702148 0.719238 0.324463
0.735840 0.727051 0.344238
0.770996 0.734375 0.366699
0.806152 0.740723 0.382568
0.841309 0.746094 0.396729
0.879395 0.750000 0.407227
0.920410 0.751953 0.395020
0.963379 0.749512 0.307129
0.995605 0.749023 0.313721
0.271240 0.703125 0.340088
0.275146 0.702637 0.339600
0.272949 0.701660 0.334717
0.277832 0.701660 0.334473
0.283691 0.701172 0.333984
0.290283 0.701172 0.333496
0.300049 0.701660 0.334717
0.312500 0.702148 0.334961
0.320312 0.702148 0.331299
0.334717 0.703125 0.333496
0.351562 0.704590 0.334473
0.366943 0.705566 0.331787
0.387207 0.706543 0.329346
0.408936 0.706055 0.320068
0.431152 0.706055 0.311768
0.455078 0.705566 0.294678
0.482666 0.711426 0.292236
0.505859 0.718262 0.297363
0.529297 0.724609 0.309814
0.554199 0.729492 0.319824
0.580078 0.734863 0.329590
0.606934 0.739746 0.341553
0.635254 0.745605 0.354004
0.666016 0.751953 0.364502
0.697266 0.758789 0.385986
0.728027 0.765137 0.399658
0.760742 0.771484 0.418945
0.793457 0.776367 0.433105
0.827637 0.781738 0.452148
0.863770 0.785156 0.462891
0.903320 0.786133 0.465576
0.946777 0.783691 0.448730
0.996094 0.780762 0.299561
0.360107 0.758301 0.431152
0.360352 0.757812 0.430908
0.362305 0.757812 0.430664
0.362305 0.757812 0.430664
0.363525 0.756836 0.427246
0.365479 0.756836 0.427246
0.369385 0.756836 0.427246
0.376465 0.757324 0.427979
0.383301 0.757324 0.427734
0.391113 0.758789 0.429688
0.399658 0.758789 0.428223
0.412354 0.759766 0.428711
0.426270 0.760254 0.427734
0.440674 0.759766 0.421875
0.458008 0.760254 0.417725
0.477539 0.759766 0.409180
0.501953 0.765137 0.409424
0.527344 0.769043 0.401611
