RED_IPP2_Creative/RED_BLAU.cube
# RED Digital Cinema Output Transform LUT for IPP2
# Creatives by Eric Weidt
# BMD cube from Truelight v4.0
# Settings used in creation of this LUT are:
# Development Color Space = USER SELECTABLE
# Output Gamma Curve = USER SELECTABLE
# Output Tonemap = USER SELECTABLE
# Highlight Rolloff = USER SELECTABLE
LUT_3D_SIZE 9
0.000000 0.004059 0.015717
0.107422 0.003740 0.014481
0.233765 0.003435 0.013298
0.360107 0.003139 0.012154
0.486328 0.002855 0.011055
0.612793 0.002583 0.009995
0.738770 0.002321 0.008987
0.864746 0.002075 0.008034
0.991211 0.001837 0.007111
0.000000 0.128662 0.014313
0.112061 0.127686 0.010658
0.238281 0.127441 0.009628
0.364258 0.127075 0.008636
0.490479 0.126831 0.007690
0.616211 0.126587 0.006783
0.742188 0.126465 0.005924
0.868164 0.126221 0.005112
0.994141 0.126099 0.004341
0.000000 0.253174 0.012909
0.109863 0.253174 0.012489
0.242065 0.251465 0.006462
0.367920 0.251221 0.005623
0.493896 0.250977 0.004826
0.619629 0.250977 0.004070
0.745605 0.250732 0.003363
0.871582 0.250488 0.002697
0.997070 0.250488 0.002077
0.000000 0.377930 0.011497
0.111572 0.377686 0.011086
0.239136 0.377197 0.008942
0.371094 0.375732 0.003113
0.496826 0.375488 0.002466
0.622559 0.375244 0.001862
0.748047 0.375244 0.001301
0.873535 0.375000 0.000784
0.999512 0.375000 0.000313
0.000000 0.502441 0.010094
0.113281 0.502441 0.009674
0.238770 0.501953 0.009262
0.368896 0.500977 0.004971
0.499023 0.500000 0.000607
0.624512 0.500000 0.000152
0.750000 0.500000 0.000000
0.875000 0.500000 0.000000
1.000000 0.500000 0.000000
0.000000 0.626953 0.008690
0.114990 0.626953 0.008270
0.240479 0.626953 0.007858
0.366211 0.625977 0.007061
0.496826 0.625488 0.002455
0.625000 0.625000 0.000000
0.750000 0.625000 0.000000
0.875000 0.625000 0.000000
1.000000 0.625000 0.000000
0.000000 0.751465 0.007286
0.116638 0.751465 0.006870
0.242188 0.751465 0.006451
0.367676 0.751465 0.006035
0.494873 0.750488 0.004211
0.623047 0.750000 0.001300
0.750000 0.750000 0.000000
0.875000 0.750000 0.000000
1.000000 0.750000 0.000000
0.000000 0.876465 0.005882
0.118347 0.875977 0.005463
0.243896 0.875977 0.005047
0.369385 0.875977 0.004627
0.494873 0.875977 0.004211
0.621582 0.875488 0.002302
0.749023 0.875000 0.000602
0.875000 0.875000 0.000000
1.000000 0.875000 0.000000
0.000000 1.000000 0.004475
0.120056 1.000000 0.004059
0.245483 1.000000 0.003641
0.371094 1.000000 0.003223
0.496582 1.000000 0.002806
0.622070 1.000000 0.002087
0.748535 1.000000 0.000985
0.874512 1.000000 0.000194
1.000000 1.000000 0.000000
0.000000 0.004025 0.140503
0.106628 0.003914 0.140137
0.233154 0.003593 0.138794
0.360352 0.003075 0.136841
0.486816 0.002762 0.135498
0.612793 0.002493 0.134521
0.739258 0.002235 0.133545
0.865234 0.001993 0.132568
0.991211 0.001759 0.131714
0.000000 0.128540 0.139160
0.109375 0.128296 0.137695
0.238647 0.127319 0.134155
0.364746 0.127075 0.133179
0.490967 0.126831 0.132324
0.616699 0.126587 0.131470
0.742676 0.126343 0.130493
0.868652 0.126099 0.129761
0.994629 0.125977 0.129028
0.000000 0.253174 0.137695
0.110046 0.253174 0.137329
0.242432 0.251465 0.131104
0.368408 0.251221 0.130249
0.494385 0.250977 0.129517
0.620117 0.250732 0.128784
0.746094 0.250732 0.128052
0.871582 0.250488 0.127441
0.997559 0.250244 0.126831
0.000000 0.377930 0.136353
0.111755 0.377686 0.135864
0.237183 0.377686 0.135498
0.371338 0.375488 0.127808
0.497070 0.375488 0.127197
0.622559 0.375244 0.126587
0.748535 0.375244 0.126099
0.874023 0.375000 0.125610
0.999512 0.375000 0.125122
0.000000 0.502441 0.134888
0.113464 0.502441 0.134521
0.238892 0.501953 0.134033
0.366455 0.501465 0.131714
0.499268 0.500000 0.125366
0.624512 0.500000 0.125000
0.750000 0.500000 0.125000
0.875000 0.500000 0.125000
1.000000 0.500000 0.125000
0.000000 0.626953 0.133545
0.115112 0.626953 0.133057
0.240601 0.626953 0.132690
0.365967 0.626465 0.132202
0.495605 0.625488 0.128418
0.625000 0.625000 0.125000
0.750000 0.625000 0.125000
0.875000 0.625000 0.125000
1.000000 0.625000 0.125000
0.000000 0.751465 0.132080
0.116821 0.751465 0.131714
0.242310 0.751465 0.131226
0.367676 0.751465 0.130859
0.493408 0.750488 0.130005
0.622559 0.750000 0.126709
0.750000 0.750000 0.125000
0.875000 0.750000 0.125000
1.000000 0.750000 0.125000
0.000000 0.876465 0.130737
0.118530 0.875977 0.130249
0.244019 0.875977 0.129883
0.369385 0.875977 0.129395
0.494873 0.875977 0.129028
0.621094 0.875000 0.127563
0.748535 0.875000 0.125732
0.875000 0.875000 0.125000
1.000000 0.875000 0.125000
0.000000 1.000000 0.129272
0.120239 1.000000 0.128906
0.245728 1.000000 0.128418
0.371094 1.000000 0.128052
0.496582 1.000000 0.127563
0.622070 1.000000 0.127197
0.748047 1.000000 0.125977
0.874512 1.000000 0.125122
1.000000 1.000000 0.125000
0.000000 0.003986 0.265381
0.106812 0.003880 0.264893
0.232300 0.003771 0.264404
0.357666 0.003664 0.264160
0.484863 0.003155 0.261963
0.611816 0.002666 0.260010
0.739258 0.002213 0.258301
0.865723 0.001912 0.257324
0.991699 0.001682 0.256348
0.000000 0.128540 0.263916
0.108521 0.128418 0.263428
0.234009 0.128296 0.263184
0.361816 0.127686 0.260498
0.490967 0.126831 0.257080
0.617188 0.126465 0.255859
0.743164 0.126343 0.255127
0.869141 0.126099 0.254395
0.995117 0.125854 0.253662
0.000000 0.253174 0.262451
0.110229 0.252930 0.262207
0.237549 0.252441 0.260010
0.368164 0.251221 0.255371
0.494629 0.250977 0.254150
0.620117 0.250732 0.253418
0.746094 0.250488 0.252686
0.872070 0.250488 0.252197
0.997559 0.250244 0.251465
0.000000 0.377686 0.260986
0.111938 0.377686 0.260742
0.237427 0.377441 0.260254
0.370850 0.375732 0.252930
0.497314 0.375488 0.251953
0.623047 0.375244 0.251221
0.748535 0.375000 0.250732
0.874023 0.375000 0.250244
0.999512 0.375000 0.250000
0.000000 0.502441 0.259766
0.113586 0.501953 0.259277
0.239136 0.501953 0.258789
0.364502 0.501953 0.258545
0.499512 0.500000 0.250244
0.625000 0.500000 0.250000
0.750000 0.500000 0.250000
0.875000 0.500000 0.250000
1.000000 0.500000 0.250000
0.000000 0.626953 0.258301
0.115295 0.626953 0.257812
0.240723 0.626953 0.257568
0.366211 0.626465 0.257080
0.493652 0.625977 0.254883
0.625000 0.625000 0.250000
0.750000 0.625000 0.250000
0.875000 0.625000 0.250000
1.000000 0.625000 0.250000
0.000000 0.751465 0.256836
0.117004 0.751465 0.256348
0.242432 0.751465 0.256104
0.367920 0.751465 0.255615
0.493408 0.750977 0.255127
0.621582 0.750488 0.252441
0.750000 0.750000 0.250000
0.875000 0.750000 0.250000
1.000000 0.750000 0.250000
0.000000 0.875977 0.255371
0.118713 0.875977 0.255127
0.244141 0.875977 0.254639
0.369629 0.875977 0.254150
0.495117 0.875977 0.253906
0.620605 0.875000 0.253174
0.748535 0.875000 0.250977
0.875000 0.875000 0.250000
1.000000 0.875000 0.250000
0.000000 1.000000 0.254150
0.120422 1.000000 0.253662
0.245850 1.000000 0.253174
0.371338 1.000000 0.252930
0.496826 1.000000 0.252441
0.622070 1.000000 0.251953
0.748047 1.000000 0.250977
0.874512 1.000000 0.250244
1.000000 1.000000 0.250000
0.000000 0.003948 0.390137
0.106995 0.003843 0.389648
0.232422 0.003735 0.389404
0.357910 0.003628 0.388916
0.483398 0.003519 0.388428
0.609375 0.003244 0.387451
0.736816 0.002748 0.385498
0.863770 0.002289 0.383545
0.990723 0.001866 0.382080
0.000000 0.128540 0.388672
0.108704 0.128418 0.388428
0.234131 0.128296 0.387939
0.359619 0.128174 0.387451
0.485107 0.128052 0.387207
0.613281 0.127197 0.384033
0.741699 0.126709 0.381348
0.869141 0.126099 0.379395
0.995117 0.125854 0.378418
0.000000 0.253174 0.387451
0.110413 0.252930 0.386963
0.235840 0.252930 0.386475
0.361328 0.252686 0.386230
0.490479 0.251709 0.382568
0.620117 0.250732 0.378418
0.746582 0.250488 0.377441
0.872070 0.250488 0.376953
0.998047 0.250244 0.376465
0.000000 0.377686 0.385986
0.112061 0.377686 0.385498
0.237549 0.377441 0.385010
0.365723 0.376709 0.381348
0.496094 0.375488 0.376465
0.623535 0.375000 0.374023
0.749512 0.374756 0.373535
0.875000 0.374756 0.372803
1.000000 0.375000 0.375000
0.000000 0.502441 0.384521
0.113770 0.501953 0.384033
0.239258 0.501953 0.383789
0.365479 0.501465 0.380859
0.498779 0.500000 0.373535
0.625977 0.499756 0.371338
0.751465 0.499756 0.371094
0.876465 0.499756 0.370850
1.000000 0.500000 0.375000
0.000000 0.626953 0.383057
0.115479 0.626953 0.382812
0.240967 0.626465 0.382324
0.367432 0.625977 0.379150
0.493408 0.625977 0.377441
0.626465 0.624512 0.370850
0.751465 0.624512 0.370361
0.876953 0.624512 0.370361
1.000000 0.625000 0.375000
0.000000 0.751465 0.381836
0.117188 0.751465 0.381348
0.242676 0.751465 0.380859
0.369385 0.750488 0.377197
0.495605 0.750488 0.375488
0.622559 0.750000 0.373535
0.751953 0.749512 0.369873
0.876953 0.749512 0.369873
1.000000 0.750000 0.375000
0.000000 0.875977 0.380371
0.118896 0.875977 0.379883
0.244385 0.875977 0.379395
0.371338 0.875488 0.375488
0.497559 0.875488 0.373535
0.622559 0.875000 0.372559
0.750000 0.874512 0.370850
0.876953 0.874512 0.369141
1.000000 0.875000 0.375000
0.000000 1.000000 0.378906
0.120605 1.000000 0.378418
0.246094 1.000000 0.378174
0.371582 1.000000 0.377686
0.497070 1.000000 0.377197
0.622559 1.000000 0.376953
0.748047 1.000000 0.376221
0.874023 1.000000 0.375244
1.000000 1.000000 0.375000
0.000000 0.003914 0.515137
0.107178 0.003807 0.514648
0.232666 0.003698 0.514160
0.358154 0.003590 0.513672
0.483643 0.003483 0.513184
0.608887 0.003374 0.512695
0.734375 0.003267 0.512207
0.861328 0.002827 0.510742
0.988281 0.002365 0.508789
0.000000 0.128540 0.513672
0.108887 0.128418 0.513184
0.234375 0.128296 0.512695
0.359863 0.128174 0.512207
0.485352 0.128052 0.511719
0.610840 0.127930 0.511230
0.737305 0.127563 0.510254
0.865234 0.126831 0.507324
0.992676 0.126465 0.505371
0.000000 0.253174 0.512207
0.110535 0.252930 0.511719
0.236084 0.252930 0.511230
0.361572 0.252686 0.510742
0.487061 0.252686 0.510254
0.612305 0.252441 0.510254
0.741699 0.251465 0.506348
0.870117 0.250732 0.503418
0.997559 0.250244 0.501465
0.000000 0.377686 0.510742
0.112244 0.377686 0.510254
0.237671 0.377441 0.509766
0.364014 0.377197 0.507324
0.489746 0.376953 0.505371
0.619141 0.375977 0.501465
0.749512 0.374756 0.497559
0.875488 0.374756 0.496582
1.000000 0.375000 0.500000
0.000000 0.502441 0.509277
0.113953 0.501953 0.508789
0.239380 0.501953 0.508301
0.366211 0.501465 0.504395
0.494873 0.500488 0.500488
0.623535 0.500000 0.497314
0.751465 0.499756 0.495117
0.877441 0.499756 0.494385
1.000000 0.500000 0.500000
0.000000 0.626953 0.507812
0.115662 0.626953 0.507324
0.241089 0.626465 0.506836
0.367920 0.625977 0.502441
0.494873 0.625977 0.500488
0.624512 0.625000 0.495850
0.751953 0.624512 0.493652
0.877930 0.624512 0.493408
1.000000 0.625000 0.500000
0.000000 0.751465 0.506348
0.117371 0.751465 0.505859
0.242798 0.751465 0.505859
0.370117 0.750488 0.500488
0.496582 0.750488 0.498291
0.622070 0.750488 0.497559
0.752441 0.749512 0.492920
0.878418 0.749512 0.492676
1.000000 0.750000 0.500000
0.000000 0.875977 0.504883
0.119080 0.875977 0.504883
0.244507 0.875977 0.504395
0.372070 0.875488 0.498779
0.498779 0.875000 0.495850
0.624512 0.875000 0.495117
0.750488 0.874512 0.493408
0.878906 0.874512 0.491699
1.000000 0.875000 0.500000
0.000000 1.000000 0.503906
0.120728 1.000000 0.503418
0.246216 1.000000 0.502930
0.371582 1.000000 0.502441
0.497070 1.000000 0.501953
0.622559 1.000000 0.501465
0.748047 1.000000 0.500977
0.874023 1.000000 0.500488
1.000000 1.000000 0.500000
0.000000 0.003878 0.639648
0.107300 0.003769 0.639160
0.232788 0.003662 0.639160
0.358154 0.003553 0.638672
0.483643 0.003447 0.638184
0.609375 0.003338 0.637695
0.734863 0.003229 0.637207
0.860352 0.003122 0.636719
0.986328 0.002895 0.635742
0.000000 0.128418 0.638184
0.109009 0.128296 0.638184
0.234497 0.128296 0.637695
0.359863 0.128174 0.637207
0.485352 0.128052 0.636719
0.610840 0.127930 0.636230
0.736328 0.127808 0.635742
0.861816 0.127686 0.635254
0.989258 0.127075 0.633301
0.000000 0.252930 0.636719
0.110718 0.252930 0.636719
0.236206 0.252930 0.636230
0.361572 0.252686 0.635742
0.487061 0.252686 0.635254
0.612305 0.252441 0.634766
0.738281 0.252441 0.634277
0.864746 0.251709 0.632324
0.993164 0.251221 0.629883
0.000000 0.377686 0.635742
0.112427 0.377441 0.635254
0.237915 0.377441 0.634766
0.364014 0.377197 0.632324
0.489746 0.376953 0.630371
0.615234 0.376953 0.629883
0.740723 0.376709 0.629395
0.870117 0.375732 0.625488
0.997559 0.375244 0.626465
0.000000 0.501953 0.634277
0.114136 0.501953 0.633789
0.239624 0.501953 0.633301
0.366455 0.501465 0.629395
0.492676 0.501465 0.626953
0.618164 0.500977 0.626465
0.747070 0.500000 0.623047
0.876953 0.499756 0.619141
1.000000 0.500000 0.625000
0.000000 0.626953 0.632812
0.115845 0.626953 0.632324
0.241333 0.626465 0.631836
0.368164 0.625977 0.626953
0.494873 0.625977 0.625000
0.621582 0.625488 0.622559
0.750000 0.624512 0.620605
0.876465 0.624512 0.618652
1.000000 0.625000 0.625000
0.000000 0.751465 0.631348
0.117493 0.751465 0.630859
0.243042 0.751465 0.630371
0.370361 0.750488 0.625000
0.497070 0.750488 0.623047
0.622070 0.750488 0.622070
0.750977 0.749512 0.619141
0.877441 0.749512 0.617676
1.000000 0.750000 0.625000
0.000000 0.875977 0.629883
0.119202 0.875977 0.629395
0.244751 0.875977 0.628906
0.372314 0.875488 0.623535
0.499023 0.875000 0.620605
0.624512 0.875000 0.620117
0.750000 0.875000 0.619141
0.877930 0.874512 0.616699
1.000000 0.875000 0.625000
0.000000 1.000000 0.628418
0.120911 1.000000 0.627930
0.246338 1.000000 0.627930
0.371826 1.000000 0.627441
0.497314 1.000000 0.626953
0.622559 1.000000 0.626465
0.748047 1.000000 0.625977
0.873535 1.000000 0.625000
1.000000 1.000000 0.625000
0.000000 0.003841 0.764648
0.107483 0.003733 0.764160
0.233032 0.003626 0.763672
0.358398 0.003517 0.763184
0.483887 0.003408 0.763184
0.609375 0.003302 0.762695
0.734863 0.003193 0.762207
0.860352 0.003086 0.761719
0.985840 0.002977 0.761230
0.000000 0.128418 0.763184
0.109192 0.128296 0.762695
0.234619 0.128174 0.762207
0.360107 0.128052 0.762207
0.485596 0.127930 0.761719
0.610840 0.127930 0.761230
0.736328 0.127808 0.760742
0.861816 0.127686 0.760254
0.987305 0.127563 0.759766
0.000000 0.252930 0.761719
0.110901 0.252930 0.761230
0.236328 0.252686 0.760742
0.361816 0.252686 0.760742
0.487305 0.252441 0.760254
0.612793 0.252441 0.759766
0.738281 0.252441 0.759277
0.863770 0.252197 0.758789
0.989258 0.252197 0.758301
0.000000 0.377686 0.760254
0.112610 0.377441 0.759766
0.238037 0.377441 0.759766
0.364258 0.376953 0.757324
0.490234 0.376953 0.755371
0.615234 0.376953 0.754883
0.740723 0.376709 0.754395
0.866211 0.376709 0.753418
0.991699 0.376221 0.755371
0.000000 0.501953 0.758789
0.114319 0.501953 0.758789
0.239746 0.501953 0.758301
0.366699 0.501465 0.754395
0.492920 0.501465 0.751953
0.618652 0.500977 0.751465
0.744141 0.500977 0.750488
0.869629 0.500977 0.750000
0.995605 0.500488 0.752930
0.000000 0.626953 0.757812
0.115967 0.626465 0.757324
0.241455 0.626465 0.756836
0.368408 0.625977 0.751953
0.495117 0.625977 0.750000
0.620605 0.625977 0.749023
0.746094 0.625488 0.748047
0.873535 0.625000 0.746094
0.999512 0.625000 0.750000
0.000000 0.751465 0.756348
0.117676 0.751465 0.755859
0.243164 0.750977 0.755371
0.370605 0.750488 0.750000
0.497314 0.750488 0.747559
0.622559 0.750488 0.746582
0.749512 0.750000 0.745117
0.875977 0.749512 0.743652
0.999023 0.750000 0.750488
0.000000 0.875977 0.754883
0.119385 0.875977 0.754395
0.244873 0.875977 0.753906
0.372559 0.875000 0.748047
0.499268 0.875000 0.745117
0.624512 0.875000 0.744629
0.750000 0.875000 0.744141
0.877441 0.874512 0.741699
0.999023 0.875000 0.750000
0.000000 1.000000 0.753418
0.121094 1.000000 0.752930
0.246582 1.000000 0.752441
0.372070 1.000000 0.751953
0.497559 1.000000 0.751953
0.623047 1.000000 0.751465
0.748535 1.000000 0.750977
0.874023 1.000000 0.750488
0.999512 1.000000 0.750000
0.000000 0.003803 0.889648
0.107666 0.003696 0.889160
0.233154 0.003588 0.888672
0.358643 0.003481 0.888184
0.484131 0.003372 0.887695
0.609375 0.003265 0.887207
0.734863 0.003157 0.887207
0.860352 0.003048 0.886719
0.985840 0.002941 0.886230
0.000000 0.128418 0.888184
0.109375 0.128296 0.887695
0.234863 0.128174 0.887207
0.360352 0.128052 0.886719
0.485840 0.127930 0.886230
0.611328 0.127808 0.886230
0.736816 0.127686 0.885742
0.862305 0.127686 0.885254
0.987793 0.127563 0.884766
0.000000 0.252930 0.886719
0.111084 0.252930 0.886230
0.236572 0.252686 0.885742
0.362061 0.252686 0.885254
0.487549 0.252441 0.884766
0.612793 0.252441 0.884766
0.738281 0.252197 0.884277
0.863770 0.252197 0.883789
0.989258 0.252197 0.883301
0.000000 0.377686 0.885254
0.112793 0.377441 0.884766
0.238281 0.377441 0.884277
0.364502 0.376953 0.881348
0.490479 0.376953 0.880371
0.615723 0.376709 0.879883
0.741211 0.376709 0.879395
0.866699 0.376709 0.878418
0.991211 0.376709 0.881836
0.000000 0.501953 0.883789
0.114441 0.501953 0.883301
0.239990 0.501953 0.882812
0.366943 0.501465 0.879395
0.493164 0.500977 0.876953
0.618652 0.500977 0.876465
0.744141 0.500977 0.875488
0.869629 0.500977 0.875000
0.992676 0.501465 0.880371
0.000000 0.626953 0.882324
0.116150 0.626465 0.881836
0.241699 0.626465 0.881836
0.368896 0.625977 0.876953
0.495361 0.625977 0.874512
0.621094 0.625488 0.874023
0.746582 0.625488 0.873047
0.872070 0.625488 0.872559
0.994629 0.625977 0.878906
0.000000 0.751465 0.880859
0.117859 0.751465 0.880859
0.243286 0.750977 0.880371
0.370850 0.750488 0.875000
0.497559 0.750488 0.872559
0.622559 0.750488 0.871582
0.748535 0.750488 0.871094
0.874023 0.750000 0.870117
0.997070 0.750000 0.876465
0.000000 0.875977 0.879883
0.119568 0.875977 0.879395
0.244995 0.875977 0.878906
0.372559 0.875000 0.872559
0.499756 0.875000 0.870117
0.625000 0.875000 0.869141
0.750977 0.875000 0.868652
0.876953 0.874512 0.867188
0.999023 0.875000 0.875488
0.000000 1.000000 0.878418
0.121277 1.000000 0.877930
0.246704 1.000000 0.877441
0.372070 1.000000 0.876953
0.497803 1.000000 0.876465
0.623047 1.000000 0.875977
0.748535 1.000000 0.875977
0.874023 1.000000 0.875488
0.999512 1.000000 0.875000
0.000000 0.003767 1.000000
0.107849 0.003660 1.000000
0.233276 0.003551 1.000000
0.358643 0.003445 1.000000
0.484375 0.003336 1.000000
0.609863 0.003227 1.000000
0.735352 0.003120 1.000000
0.860840 0.003012 1.000000
0.986328 0.002905 1.000000
0.000000 0.128296 1.000000
0.109558 0.128296 1.000000
0.234985 0.128174 1.000000
0.360352 0.128052 1.000000
0.486084 0.127930 1.000000
0.611328 0.127808 1.000000
0.736816 0.127686 1.000000
0.862305 0.127563 1.000000
0.987793 0.127441 1.000000
0.000000 0.252930 1.000000
0.111267 0.252930 1.000000
0.236694 0.252686 1.000000
0.362061 0.252686 1.000000
0.487549 0.252441 1.000000
0.613281 0.252441 1.000000
0.738770 0.252197 1.000000
0.864258 0.252197 1.000000
0.989746 0.251953 1.000000
0.000000 0.377441 1.000000
0.112915 0.377441 1.000000
0.238403 0.377441 1.000000
0.363770 0.377197 1.000000
0.489258 0.377197 1.000000
0.614746 0.376953 1.000000
0.740234 0.376953 1.000000
0.865723 0.376709 1.000000
0.991211 0.376709 1.000000
0.000000 0.501953 1.000000
0.114624 0.501953 1.000000
0.240112 0.501953 1.000000
0.365479 0.501953 1.000000
0.490967 0.501465 1.000000
0.616211 0.501465 1.000000
0.742188 0.501465 1.000000
0.867676 0.501465 1.000000
0.993164 0.500977 1.000000
0.000000 0.626465 1.000000
0.116333 0.626465 1.000000
0.241821 0.626465 1.000000
0.367188 0.626465 1.000000
0.492676 0.626465 1.000000
0.618164 0.625977 1.000000
0.743652 0.625977 1.000000
0.869141 0.625977 1.000000
0.994629 0.625977 1.000000
0.000000 0.751465 1.000000
0.118042 0.751465 1.000000
0.243530 0.750977 1.000000
0.368896 0.750977 1.000000
0.494385 0.750977 1.000000
0.619629 0.750977 1.000000
0.745117 0.750488 1.000000
0.871094 0.750488 1.000000
0.996582 0.750488 1.000000
0.000000 0.875977 1.000000
0.119751 0.875977 1.000000
0.245239 0.875977 1.000000
0.370605 0.875488 1.000000
0.496094 0.875488 1.000000
0.621582 0.875488 1.000000
0.747070 0.875488 1.000000
0.872559 0.875000 1.000000
0.998047 0.875000 1.000000
0.000000 1.000000 1.000000
0.121460 1.000000 1.000000
0.246948 1.000000 1.000000
0.372314 1.000000 1.000000
0.497803 1.000000 1.000000
0.623047 1.000000 1.000000
0.748535 1.000000 1.000000
0.874023 1.000000 1.000000
0.999512 1.000000 1.000000
