RED_IPP2_Creative/RED_BW_0500.cube
# RED Digital Cinema Output Transform LUT for IPP2
# Creatives by Eric Weidt
# BMD cube from Truelight v4.0
# Settings used in creation of this LUT are:
# Development Color Space = USER SELECTABLE
# Output Gamma Curve = USER SELECTABLE
# Output Tonemap = USER SELECTABLE
# Highlight Rolloff = USER SELECTABLE
LUT_3D_SIZE 5
0.000082 0.000086 0.000098
0.116760 0.116760 0.116760
0.341797 0.341797 0.341797
0.589355 0.589355 0.589355
0.839355 0.839355 0.839355
0.181152 0.181152 0.181152
0.211182 0.211182 0.211182
0.356445 0.356445 0.356445
0.590820 0.590820 0.590820
0.839355 0.839355 0.839355
0.423096 0.423096 0.423096
0.426025 0.426025 0.426025
0.457275 0.457275 0.457275
0.605469 0.605469 0.605469
0.840820 0.840820 0.840820
0.672363 0.672363 0.672363
0.672363 0.672363 0.672363
0.675293 0.675293 0.675293
0.707031 0.707031 0.707031
0.855469 0.855469 0.855469
0.922363 0.922363 0.922363
0.922363 0.922363 0.922363
0.922363 0.922363 0.922363
0.925293 0.925293 0.925293
0.957031 0.957031 0.957031
0.161987 0.161865 0.161865
0.197388 0.197388 0.197388
0.353516 0.353516 0.353516
0.590332 0.590332 0.590332
0.839355 0.839355 0.839355
0.230835 0.230835 0.230835
0.249878 0.249878 0.249878
0.366699 0.366699 0.366455
0.591797 0.591797 0.591797
0.839355 0.839355 0.839355
0.428223 0.428223 0.428223
0.431152 0.431152 0.431152
0.461182 0.460938 0.460938
0.606445 0.606445 0.606445
0.840820 0.840820 0.840820
0.672852 0.672852 0.672852
0.672852 0.672852 0.672852
0.675781 0.675781 0.675781
0.707031 0.707031 0.707031
0.855469 0.855469 0.855469
0.922363 0.922363 0.922363
0.922363 0.922363 0.922363
0.922363 0.922363 0.922363
0.925293 0.925293 0.925293
0.957031 0.957031 0.957031
0.400146 0.400146 0.400146
0.403809 0.403809 0.403809
0.441650 0.441650 0.441650
0.602539 0.602539 0.602539
0.840332 0.840332 0.840332
0.408447 0.408447 0.408447
0.411865 0.411865 0.411865
0.447266 0.447266 0.447266
0.603516 0.603516 0.603516
0.840332 0.840332 0.840332
0.479004 0.479004 0.479004
0.480713 0.480713 0.480713
0.499756 0.499756 0.499756
0.616211 0.616211 0.616211
0.841797 0.841797 0.841797
0.677734 0.677734 0.677734
0.678223 0.678223 0.678223
0.680664 0.680664 0.680664
0.710938 0.710938 0.710938
0.856445 0.856445 0.856445
0.922852 0.922852 0.922852
0.922852 0.922852 0.922852
0.922852 0.922852 0.922852
0.925781 0.925781 0.925781
0.957031 0.957031 0.957031
0.648926 0.648926 0.648926
0.649414 0.649414 0.649414
0.652832 0.652832 0.652832
0.691406 0.691406 0.691406
0.852051 0.852051 0.852051
0.649902 0.649902 0.649902
0.649902 0.649902 0.649902
0.653809 0.653809 0.653809
0.691895 0.691895 0.691895
0.852539 0.852539 0.852539
0.658203 0.658203 0.658203
0.658203 0.658203 0.658203
0.661621 0.661621 0.661621
0.697266 0.697266 0.697266
0.853516 0.853516 0.853516
0.729004 0.729004 0.729004
0.729004 0.729004 0.729004
0.730469 0.730469 0.730469
0.749512 0.749512 0.749512
0.866699 0.866699 0.866699
0.927734 0.927734 0.927734
0.928223 0.928223 0.928223
0.928223 0.928223 0.928223
0.931152 0.931152 0.931152
0.960938 0.960938 0.960938
0.898926 0.898926 0.898926
0.898926 0.898926 0.898926
0.899414 0.899414 0.899414
0.902832 0.902832 0.902832
0.941406 0.941406 0.941406
0.898926 0.898926 0.898926
0.898926 0.898926 0.898926
0.899414 0.899414 0.899414
0.902832 0.902832 0.902832
0.941406 0.941406 0.941406
0.899902 0.899902 0.899902
0.899902 0.899902 0.899902
0.899902 0.899902 0.899902
0.903809 0.903809 0.903809
0.941895 0.941895 0.941895
0.908203 0.908203 0.908203
0.908203 0.908203 0.908203
0.908203 0.908203 0.908203
0.911621 0.911621 0.911621
0.947266 0.947266 0.947266
0.979004 0.979004 0.979004
0.979004 0.979004 0.979004
0.979004 0.979004 0.979004
0.980469 0.980469 0.980469
0.999512 0.999512 0.999512
