RED_IPP2_Creative/RED_FilmBias.cube
#RED_IPP2_CREATIVE_LUT
# RED_FilmBias - Color inspired by motion picture film
# created by Phil Holland - phfx.com
# Settings used in creation of this LUT are:
# Development Color Space = USER SELECTABLE
# Output Gamma Curve = USER SELECTABLE
# Output Tonemap = USER SELECTABLE
# Highlight Rolloff = USER SELECTABLE
LUT_3D_SIZE 5
0 0 0
0.225437 0.0742657 0.0801862
0.45127 0.148928 0.160815
0.677272 0.223819 0.241657
0.891783 0.295033 0.318853
0.111757 0.221744 0.104265
0.279011 0.228824 0.0808423
0.519646 0.238727 0.0706188
0.746944 0.274296 0.127031
0.942885 0.328603 0.200519
0.189899 0.416556 0.187396
0.334234 0.401282 0.165072
0.555077 0.454643 0.158556
0.784436 0.474296 0.156893
0.994781 0.47631 0.141314
0.236912 0.578912 0.233143
0.411582 0.570947 0.247532
0.502571 0.546639 0.163821
0.832059 0.681376 0.23714
0.967254 0.691127 0.231907
0.276677 0.732631 0.271641
0.461082 0.719387 0.29897
0.554299 0.690333 0.224048
0.753384 0.760159 0.217807
0.897917 0.832197 0.250065
0.0626078 0.0794385 0.137163
0.20528 0.10869 0.21474
0.42356 0.167422 0.308064
0.633341 0.255299 0.391836
0.850217 0.338537 0.475563
0.100984 0.235782 0.230488
0.250324 0.249866 0.250797
0.466972 0.278416 0.283101
0.674846 0.33547 0.346334
0.879911 0.399023 0.415824
0.172274 0.43154 0.298512
0.301274 0.448081 0.293599
0.518807 0.476417 0.32575
0.76585 0.490181 0.317174
0.975204 0.509712 0.353964
0.215244 0.597299 0.337102
0.350271 0.609171 0.334783
0.518868 0.6047 0.327031
0.790829 0.698512 0.400732
0.980484 0.721645 0.405921
0.249699 0.751492 0.368383
0.381079 0.748623 0.358144
0.564477 0.748592 0.368872
0.673274 0.728359 0.311543
0.899687 0.849653 0.409506
0.13257 0.15816 0.266529
0.210452 0.192248 0.290745
0.410422 0.218006 0.429587
0.646998 0.242084 0.538582
0.847944 0.335698 0.616968
0.143603 0.262318 0.374426
0.249058 0.28072 0.387976
0.442191 0.310277 0.456764
0.654032 0.356527 0.518502
0.853819 0.432273 0.582666
0.178943 0.448753 0.438163
0.29984 0.467475 0.463249
0.500694 0.499733 0.501625
0.729564 0.516182 0.516869
0.929229 0.556497 0.565881
0.226337 0.618296 0.482582
0.341543 0.638788 0.487495
0.509972 0.679881 0.503532
0.757015 0.721874 0.56672
0.992706 0.742519 0.565988
0.256245 0.774777 0.508721
0.358831 0.780453 0.493996
0.514305 0.807813 0.49897
0.706371 0.808606 0.503136
0.912367 0.880491 0.580468
0.197192 0.235538 0.398032
0.255207 0.256687 0.415946
0.392218 0.317571 0.480659
0.615976 0.327367 0.644755
0.871489 0.317464 0.772091
0.188174 0.309407 0.502312
0.279744 0.328405 0.494392
0.411536 0.384237 0.541253
0.633982 0.402975 0.658381
0.868284 0.427482 0.749676
0.22211 0.471397 0.586069
0.323919 0.48072 0.621408
0.480797 0.521553 0.657633
0.696941 0.545235 0.715602
0.911879 0.579171 0.758816
0.236408 0.641138 0.625238
0.349096 0.657832 0.647868
0.520974 0.704662 0.702037
0.751064 0.749599 0.752453
0.981918 0.762829 0.755779
0.280583 0.800015 0.663981
0.377523 0.80885 0.661875
0.527535 0.851133 0.687785
0.724315 0.909087 0.71989
0.956664 0.944472 0.784039
0.260502 0.31162 0.528267
0.310445 0.323857 0.530907
0.415915 0.377432 0.570138
0.581918 0.427771 0.676051
0.83418 0.405875 0.853941
0.237675 0.368704 0.621805
0.321279 0.385443 0.604837
0.42797 0.430808 0.652262
0.594369 0.491707 0.705867
0.842649 0.482689 0.859785
0.265995 0.503441 0.727718
0.350866 0.509941 0.749584
0.489235 0.55256 0.767117
0.645029 0.608255 0.812604
0.894514 0.608667 0.908919
0.286656 0.669993 0.781033
0.38349 0.677668 0.809567
0.534249 0.710887 0.870954
0.719066 0.765148 0.916625
0.956481 0.782834 0.966644
0.299092 0.835218 0.818372
0.391623 0.834577 0.822614
0.536263 0.870771 0.864713
0.749615 0.940673 0.939925
0.999939 0.999176 0.999954
