RED_IPP2_Creative/RED_BIPOLAR.cube
# RED Digital Cinema Output Transform LUT for IPP2
# Creatives by Eric Weidt
# BMD cube from Truelight v4.0
# Settings used in creation of this LUT are:
# Development Color Space = USER SELECTABLE
# Output Gamma Curve = USER SELECTABLE
# Output Tonemap = USER SELECTABLE
# Highlight Rolloff = USER SELECTABLE
LUT_3D_SIZE 5
0.070801 0.070801 0.070801
0.196655 0.068481 0.092651
0.443604 0.204712 0.218872
0.720703 0.371582 0.379639
0.981445 0.486816 0.489502
0.073730 0.230225 0.131836
0.225098 0.242798 0.096069
0.482910 0.343506 0.177490
0.745605 0.447266 0.252686
0.994629 0.524414 0.271973
0.324219 0.504883 0.362793
0.379395 0.508301 0.370850
0.523438 0.525879 0.132690
0.770996 0.604492 0.150513
1.000000 0.660156 0.186890
0.574707 0.750488 0.595703
0.585449 0.750488 0.596191
0.625977 0.754883 0.482422
0.765625 0.766113 0.134888
0.989258 0.824219 0.106873
0.781738 0.948730 0.786621
0.784180 0.948730 0.786621
0.794434 0.948242 0.787109
0.824219 0.960449 0.452393
0.966309 0.966309 0.130981
0.059204 0.098328 0.249756
0.193604 0.118347 0.251953
0.449463 0.249634 0.358398
0.722168 0.368896 0.487061
0.982422 0.464844 0.615723
0.112793 0.242188 0.262207
0.223877 0.251221 0.267578
0.478271 0.281006 0.284180
0.736328 0.354980 0.356934
0.989258 0.403076 0.403809
0.337158 0.508301 0.419678
0.358643 0.507812 0.392334
0.527832 0.527344 0.288330
0.770020 0.547363 0.315430
1.000000 0.569824 0.337891
0.576172 0.750977 0.607910
0.578125 0.750000 0.598145
0.611816 0.750488 0.599121
0.764648 0.764160 0.312256
0.992188 0.778320 0.328857
0.782715 0.949219 0.788574
0.782227 0.948730 0.787109
0.787598 0.949219 0.787598
0.805176 0.953613 0.667969
0.963379 0.963867 0.314941
0.266846 0.295654 0.487549
0.332764 0.307373 0.491699
0.466553 0.349854 0.509277
0.729980 0.540039 0.634277
0.975098 0.609863 0.749023
0.298096 0.374756 0.500488
0.316406 0.342285 0.492920
0.474365 0.379883 0.504395
0.736816 0.455811 0.571777
0.991699 0.409180 0.599609
0.382812 0.522461 0.536133
0.402344 0.523438 0.528320
0.520996 0.532715 0.520996
0.767578 0.523438 0.516113
1.000000 0.523926 0.523438
0.586426 0.752441 0.657715
0.584473 0.750977 0.632324
0.607910 0.750977 0.621094
0.762207 0.762695 0.520508
0.992676 0.753906 0.513184
0.784180 0.948730 0.799316
0.784180 0.948730 0.791992
0.785645 0.948730 0.790039
0.814941 0.948242 0.791992
0.960449 0.961426 0.483398
0.543945 0.562500 0.755859
0.557617 0.563965 0.756348
0.617188 0.573242 0.758789
0.739258 0.607422 0.764648
0.958008 0.755859 0.845215
0.548340 0.579590 0.757324
0.549316 0.567383 0.754883
0.592285 0.574219 0.754883
0.739258 0.610352 0.763672
0.957031 0.747559 0.816406
0.567871 0.641602 0.760254
0.562988 0.614746 0.755859
0.590332 0.606934 0.751953
0.740234 0.633301 0.761230
0.981445 0.651855 0.789062
0.627441 0.760254 0.767090
0.629883 0.759766 0.765137
0.645996 0.759766 0.764648
0.754883 0.762695 0.765625
0.983398 0.749512 0.750000
0.793457 0.949219 0.848633
0.789062 0.949219 0.829590
0.790039 0.948730 0.821777
0.812012 0.948242 0.815918
0.953613 0.955078 0.731445
0.774902 0.782715 0.971191
0.777344 0.783203 0.971191
0.791016 0.784180 0.970703
0.845215 0.789551 0.969238
0.957031 0.814453 0.966309
0.774902 0.784668 0.970703
0.775879 0.783691 0.971191
0.780762 0.783691 0.970215
0.824219 0.787598 0.969727
0.957031 0.814453 0.965332
0.776855 0.798828 0.969238
0.775879 0.789551 0.970703
0.779297 0.787598 0.970215
0.814453 0.789551 0.969238
0.957031 0.816406 0.965332
0.787598 0.851562 0.962891
0.783691 0.832031 0.965820
0.784668 0.823242 0.966309
0.811035 0.818359 0.966309
0.955566 0.836914 0.962402
0.832031 0.954590 0.955078
0.832031 0.954590 0.955078
0.834473 0.954590 0.954590
0.848145 0.954590 0.954102
0.953613 0.954590 0.954590
