RED_IPP2_Creative/RED_CAUSTIC.cube
# RED Digital Cinema Output Transform LUT for IPP2
# Creatives by Eric Weidt
# BMD cube from Truelight v4.0
# Settings used in creation of this LUT are:
# Development Color Space = USER SELECTABLE
# Output Gamma Curve = USER SELECTABLE
# Output Tonemap = USER SELECTABLE
# Highlight Rolloff = USER SELECTABLE
LUT_3D_SIZE 9
0.023254 0.014511 0.020447
0.135010 0.011177 0.028503
0.233887 0.025970 0.051544
0.331055 0.073914 0.088928
0.430420 0.138916 0.144653
0.527344 0.206421 0.219849
0.617676 0.267822 0.290283
0.704102 0.326660 0.362549
0.784180 0.380859 0.432373
0.039154 0.129761 0.041260
0.139648 0.138062 0.052002
0.249878 0.144775 0.071960
0.346436 0.168335 0.108093
0.440674 0.208252 0.163330
0.532715 0.256592 0.230103
0.620605 0.308105 0.296143
0.705078 0.359375 0.365723
0.784668 0.409180 0.434814
0.110718 0.250732 0.100281
0.185303 0.253174 0.111206
0.266602 0.261475 0.118835
0.355469 0.269531 0.145874
0.450195 0.289307 0.195435
0.537109 0.317871 0.247681
0.622559 0.355469 0.307617
0.706055 0.398193 0.372070
0.785156 0.441650 0.437744
0.200439 0.355225 0.170288
0.249756 0.355957 0.177734
0.307129 0.360840 0.186646
0.376709 0.367676 0.198364
0.460449 0.376953 0.239868
0.541504 0.390625 0.277344
0.625977 0.412598 0.325439
0.706055 0.444092 0.382812
0.783691 0.479004 0.443359
0.286133 0.454346 0.257812
0.320312 0.454834 0.262451
0.363281 0.455078 0.273193
0.413574 0.459961 0.279053
0.476562 0.465088 0.291260
0.549805 0.469727 0.316895
0.627441 0.480225 0.354736
0.708008 0.497314 0.399658
0.783203 0.521973 0.452881
0.352295 0.541992 0.329834
0.379395 0.541992 0.333008
0.412598 0.541992 0.338623
0.453125 0.542969 0.348389
0.500977 0.547363 0.353760
0.561523 0.550781 0.365234
0.633301 0.553223 0.390381
0.706543 0.560547 0.427246
0.781738 0.573242 0.468018
0.414062 0.623047 0.398193
0.435547 0.623535 0.400635
0.461670 0.623047 0.403809
0.494629 0.622559 0.410156
0.533203 0.622559 0.418213
0.579590 0.625977 0.423096
0.638184 0.628418 0.434326
0.708008 0.628418 0.457520
0.777344 0.632324 0.493164
0.468506 0.696289 0.461182
0.486816 0.696289 0.462891
0.507812 0.696289 0.465088
0.534180 0.695801 0.468994
0.566406 0.694824 0.474854
0.604004 0.695312 0.482422
0.650391 0.698242 0.486816
0.707520 0.698730 0.497314
0.774902 0.696289 0.519043
0.518555 0.762695 0.518555
0.533203 0.762207 0.519531
0.551758 0.762207 0.520996
0.573242 0.761719 0.523438
0.599121 0.761719 0.527344
0.631348 0.760742 0.534180
0.668945 0.761719 0.541504
0.713867 0.763184 0.545410
0.770996 0.762695 0.555664
0.005356 0.012291 0.105347
0.125000 0.015671 0.107483
0.233765 0.029922 0.118713
0.333008 0.077576 0.148315
0.433350 0.138550 0.191162
0.530762 0.204224 0.250244
0.620605 0.266357 0.312988
0.705566 0.325439 0.378418
0.784668 0.379883 0.443604
0.008385 0.133179 0.122803
0.142334 0.136475 0.126587
0.267334 0.136963 0.138062
0.358398 0.162598 0.163940
0.448730 0.203125 0.204590
0.538574 0.252441 0.259033
0.623535 0.304443 0.318115
0.707031 0.357422 0.382080
0.785645 0.408203 0.445801
0.095764 0.254639 0.156738
0.173462 0.257812 0.156128
0.266846 0.262451 0.164429
0.364014 0.266357 0.186035
0.459229 0.284912 0.225952
0.543945 0.313965 0.272461
0.626953 0.352295 0.327148
0.708984 0.395752 0.386963
0.786133 0.439697 0.448486
0.186890 0.358643 0.210938
0.237183 0.359619 0.212158
0.301270 0.362061 0.222168
0.375000 0.368164 0.229370
0.463379 0.375732 0.262695
0.547363 0.387451 0.295898
0.630371 0.409668 0.341797
0.709961 0.441406 0.396240
0.785645 0.477539 0.453857
0.276611 0.456543 0.280518
0.311279 0.456543 0.283203
0.355713 0.457275 0.289795
0.409424 0.460449 0.298340
0.475586 0.465576 0.308594
0.551270 0.468994 0.332764
0.631348 0.479004 0.366943
0.710938 0.496338 0.410889
0.785645 0.520508 0.462402
0.346924 0.543457 0.346436
0.374023 0.543457 0.348145
0.407471 0.543945 0.352539
0.449219 0.543457 0.362061
0.498535 0.546875 0.367188
0.560547 0.550781 0.377197
0.633301 0.553223 0.401123
0.708984 0.559082 0.435547
0.783691 0.571289 0.475830
0.410645 0.623535 0.410156
0.432373 0.623535 0.411865
0.458252 0.623535 0.414307
0.491211 0.623535 0.419678
0.531250 0.623047 0.428955
0.578125 0.625977 0.432861
0.638672 0.628418 0.443115
0.708496 0.627930 0.465332
0.778809 0.632324 0.499268
0.466553 0.696777 0.470459
0.484375 0.696289 0.471436
0.506348 0.696289 0.473389
0.532715 0.695801 0.476562
0.564941 0.695312 0.482178
0.603516 0.694824 0.489990
0.649414 0.698242 0.494141
0.707031 0.698730 0.503418
0.775391 0.696289 0.524902
0.517578 0.763184 0.526367
0.532227 0.762695 0.526367
0.550293 0.762695 0.527832
0.571289 0.762207 0.529785
0.598145 0.761719 0.533203
0.629883 0.761230 0.539551
0.668457 0.761230 0.547363
0.713867 0.763184 0.550781
0.770996 0.762695 0.560547
0.008194 0.014565 0.177002
0.116943 0.023102 0.183716
0.224487 0.042633 0.195312
0.328125 0.087708 0.223389
0.431396 0.141479 0.253662
0.531250 0.202881 0.293213
0.621582 0.264404 0.343994
0.706543 0.323730 0.400879
0.785645 0.378906 0.459473
0.029007 0.129395 0.220947
0.146362 0.134277 0.228271
0.256836 0.145508 0.233398
0.354980 0.166870 0.244751
0.448975 0.203125 0.264648
0.540039 0.250244 0.300781
0.625977 0.302246 0.349121
0.708984 0.355469 0.403809
0.786621 0.406982 0.461426
0.069153 0.257812 0.244019
0.150757 0.261230 0.248413
0.269775 0.259521 0.250488
0.380371 0.257812 0.255371
0.469971 0.277588 0.275391
0.550781 0.308594 0.310791
0.632324 0.348145 0.355957
0.712402 0.392578 0.408691
0.788574 0.437744 0.464844
0.167603 0.361816 0.268311
0.219116 0.363525 0.267334
0.287354 0.365967 0.266113
0.373535 0.368896 0.272949
0.470947 0.372070 0.294434
0.555176 0.382812 0.324951
0.636230 0.406006 0.366699
0.713867 0.438721 0.415283
0.789062 0.475098 0.468262
0.264404 0.458740 0.315186
0.298828 0.459229 0.314941
0.344482 0.460205 0.316895
0.403564 0.461426 0.326172
0.473877 0.466064 0.332764
0.554199 0.467773 0.354736
0.636230 0.475830 0.385010
0.714844 0.493408 0.426758
0.788574 0.518066 0.475342
0.339111 0.544922 0.370850
0.366211 0.544922 0.370605
0.399414 0.544922 0.372314
0.442383 0.545898 0.378662
0.495117 0.547363 0.386230
0.559570 0.550781 0.394043
0.634277 0.551758 0.416016
0.712402 0.557617 0.447510
0.787109 0.569824 0.487061
0.406250 0.625488 0.428223
0.427490 0.625488 0.428223
0.453369 0.625000 0.429932
0.486084 0.624512 0.433350
0.527344 0.624023 0.441650
0.575684 0.626465 0.446533
0.637207 0.629395 0.455078
0.708984 0.627441 0.475586
0.781250 0.630371 0.506836
0.463867 0.697754 0.483643
0.482422 0.697754 0.483643
0.502930 0.697266 0.485352
0.529297 0.697266 0.487793
0.561035 0.696289 0.491699
0.601562 0.695312 0.500977
0.647949 0.697754 0.503906
0.707031 0.698730 0.512207
0.775879 0.696289 0.532227
0.515625 0.763184 0.535645
0.531250 0.763184 0.535645
0.547852 0.762695 0.536621
0.569824 0.762695 0.538574
0.596680 0.762207 0.541016
0.627441 0.761230 0.546387
0.667480 0.761230 0.554688
0.713379 0.762695 0.558105
0.770996 0.762695 0.566895
0.052765 0.020447 0.241943
0.137817 0.032227 0.250244
0.227173 0.058624 0.266602
0.324707 0.101013 0.292725
0.425293 0.148560 0.321045
0.528320 0.201538 0.346680
0.621582 0.261719 0.385986
0.707031 0.321289 0.431641
0.786133 0.376953 0.481445
0.077576 0.130127 0.287354
0.163208 0.139648 0.295166
0.252686 0.155396 0.304443
0.346436 0.178101 0.317139
0.442139 0.208618 0.333252
0.537598 0.250488 0.354736
0.626465 0.301025 0.390381
0.709961 0.353760 0.434326
0.788086 0.405518 0.483398
0.073547 0.253418 0.331787
0.167358 0.255127 0.336914
0.268311 0.257812 0.341553
0.370605 0.263672 0.343506
0.464844 0.278320 0.346191
0.550293 0.307617 0.364258
0.633301 0.345947 0.396484
0.713379 0.390625 0.437988
0.789551 0.436523 0.485840
0.135864 0.363770 0.347412
0.192627 0.365723 0.350098
0.264404 0.368164 0.353027
0.374512 0.364746 0.353516
0.484863 0.362549 0.353027
0.564941 0.375732 0.372803
0.642578 0.400635 0.403564
0.718750 0.434570 0.443115
0.791504 0.472168 0.489502
0.243164 0.460693 0.364258
0.279053 0.461914 0.364014
0.325684 0.463379 0.363281
0.390137 0.464355 0.363037
0.472656 0.465820 0.368896
0.561523 0.463623 0.386230
0.644531 0.470703 0.413574
0.720703 0.489014 0.450928
0.792480 0.515137 0.494141
0.326660 0.546875 0.404785
0.354248 0.547363 0.404541
0.387451 0.547852 0.404053
0.431641 0.548340 0.405273
0.489502 0.548340 0.413574
0.557617 0.551270 0.418213
0.638184 0.550293 0.437988
0.717773 0.554688 0.465088
0.791016 0.567383 0.502930
0.398438 0.625977 0.452148
0.419189 0.626465 0.451904
0.445557 0.626465 0.451904
0.478027 0.626465 0.453125
0.520020 0.625977 0.458008
0.572266 0.626953 0.465088
0.636230 0.628418 0.470947
0.709961 0.626465 0.490479
0.785645 0.628418 0.518066
0.459961 0.698242 0.500977
0.477295 0.698242 0.500977
0.498047 0.698242 0.500488
0.523926 0.697754 0.501953
0.556152 0.696777 0.504883
0.597656 0.696289 0.512695
0.645508 0.698242 0.517090
0.706543 0.699219 0.523438
0.776855 0.695312 0.542480
0.513184 0.764160 0.548828
0.527832 0.764160 0.548828
0.545410 0.764160 0.549316
0.566895 0.763672 0.549805
0.592773 0.763672 0.552246
0.624512 0.762207 0.556152
0.665039 0.760742 0.565430
0.711426 0.762695 0.567383
0.770996 0.762695 0.575195
0.094727 0.027328 0.309082
0.164673 0.042725 0.320068
0.241577 0.068359 0.336426
0.328613 0.100952 0.355957
0.424561 0.141602 0.378418
0.521973 0.197754 0.407471
0.617676 0.257080 0.438232
0.706543 0.317139 0.472656
0.787109 0.373535 0.511719
0.096985 0.132568 0.349609
0.177612 0.141479 0.355225
0.258057 0.155029 0.363525
0.344971 0.177612 0.375244
0.437256 0.210449 0.393555
0.530762 0.250732 0.416260
0.623047 0.299316 0.442383
0.709473 0.351562 0.475098
0.788086 0.403076 0.513184
0.062256 0.245239 0.389648
0.179810 0.248413 0.393311
0.272461 0.255127 0.398193
0.362305 0.266357 0.404297
0.453613 0.283447 0.413574
0.543457 0.309570 0.427734
0.630859 0.345703 0.448975
0.714355 0.389160 0.478027
0.790527 0.434570 0.515137
0.038086 0.358643 0.424561
0.170898 0.359375 0.428223
0.270264 0.360352 0.433105
0.371338 0.361084 0.436279
0.472168 0.364258 0.436279
0.560547 0.375732 0.440674
0.642090 0.399414 0.456299
0.720215 0.432617 0.483154
0.792480 0.470215 0.518066
0.187012 0.461670 0.435547
0.236084 0.462646 0.437256
0.291992 0.464111 0.439453
0.362305 0.465332 0.441650
0.470459 0.461182 0.441406
0.576172 0.453369 0.444092
0.653320 0.463623 0.461182
0.726074 0.483643 0.487549
0.797363 0.511230 0.521484
0.303711 0.548828 0.453369
0.332275 0.548828 0.453125
0.368408 0.550293 0.452637
0.413086 0.550781 0.451172
0.475830 0.551270 0.449707
0.557129 0.551758 0.453613
0.645996 0.545898 0.468750
0.726074 0.548828 0.493408
0.796387 0.563477 0.526367
0.385742 0.628418 0.485840
0.407471 0.628418 0.485596
0.433350 0.628418 0.485107
0.466553 0.628418 0.484131
0.509277 0.627930 0.484131
0.566895 0.627441 0.491699
0.634766 0.628906 0.494385
0.713379 0.624512 0.511719
0.790527 0.625488 0.535645
0.452393 0.699219 0.524902
0.469727 0.699219 0.524414
0.490967 0.699219 0.524414
0.516113 0.699707 0.523438
0.548828 0.698242 0.524414
0.590332 0.698242 0.528809
0.642090 0.698242 0.534668
0.705078 0.698730 0.539551
0.778320 0.694336 0.556641
0.509277 0.764648 0.565918
0.523926 0.764648 0.565918
0.541504 0.764648 0.565918
0.561523 0.764648 0.565918
0.587891 0.764160 0.567383
0.620117 0.763184 0.569824
0.660645 0.762695 0.576660
0.708984 0.762695 0.580078
0.770020 0.763184 0.585938
0.081665 0.000000 0.383301
0.178467 0.000000 0.392334
0.257812 0.028732 0.405029
0.338379 0.072510 0.422852
0.424561 0.125244 0.444824
0.516602 0.183960 0.470459
0.611328 0.245728 0.497314
0.702637 0.307617 0.523926
0.786133 0.366211 0.552246
0.079529 0.126221 0.415771
0.188110 0.135864 0.421387
0.270264 0.151489 0.430176
0.350098 0.175049 0.442627
0.434082 0.208008 0.458740
0.523438 0.248291 0.479248
0.615723 0.294922 0.501953
0.706055 0.346436 0.525879
0.788086 0.398438 0.553711
0.044434 0.241211 0.452881
0.192139 0.245850 0.456299
0.281738 0.252930 0.460938
0.363281 0.265625 0.468506
0.446289 0.285400 0.478760
0.533691 0.311523 0.491943
0.622559 0.345459 0.508789
0.710449 0.386719 0.529297
0.790039 0.431152 0.555176
0.000000 0.348877 0.489990
0.180054 0.350586 0.491943
0.285400 0.353027 0.495117
0.372803 0.357422 0.499023
0.459717 0.366211 0.502441
0.546875 0.379639 0.508789
0.634766 0.400635 0.518066
0.716797 0.431396 0.534180
0.792480 0.468506 0.558105
0.000000 0.453857 0.517090
0.152832 0.454590 0.520020
0.269775 0.454346 0.523926
0.365479 0.454346 0.526855
0.463379 0.453857 0.529297
0.561523 0.454834 0.527344
0.648926 0.462891 0.528320
0.726074 0.481934 0.539551
0.797852 0.508301 0.560547
0.230103 0.548828 0.523438
0.276855 0.549316 0.523926
0.324463 0.550293 0.525391
0.377686 0.551270 0.526855
0.445801 0.551270 0.528320
0.555176 0.545410 0.526855
0.660645 0.535156 0.525879
0.734863 0.541504 0.540039
0.802734 0.557129 0.562012
0.359619 0.629395 0.533691
0.383057 0.629395 0.533203
0.411377 0.630371 0.533203
0.446289 0.630371 0.531738
0.490723 0.630859 0.529785
0.552246 0.630371 0.526855
0.633301 0.628906 0.529297
0.721680 0.620117 0.541992
0.798828 0.619629 0.563477
0.439209 0.701172 0.558105
0.456787 0.701172 0.557617
0.478516 0.701172 0.557129
0.503906 0.701172 0.556641
0.536621 0.701172 0.554688
0.578613 0.700195 0.554199
0.635254 0.698730 0.560547
0.703613 0.698730 0.561523
0.781738 0.692383 0.577148
0.501465 0.765625 0.590332
0.516113 0.766113 0.589844
0.533691 0.765625 0.589844
0.555176 0.765625 0.589844
0.579590 0.766113 0.588867
0.611816 0.765137 0.588867
0.653809 0.764160 0.592285
0.704590 0.763184 0.598145
0.768555 0.762695 0.601562
0.023392 0.000000 0.470947
0.192749 0.000000 0.476318
0.279785 0.000000 0.484619
0.355469 0.000000 0.496826
0.432861 0.038635 0.513672
0.515625 0.128540 0.534180
0.604492 0.208862 0.557617
0.695312 0.281982 0.581543
0.781738 0.349365 0.603027
0.000000 0.106384 0.491943
0.194214 0.116455 0.495605
0.285645 0.132324 0.501953
0.362061 0.155396 0.512207
0.438721 0.187866 0.525391
0.520508 0.230469 0.542969
0.607910 0.280518 0.562988
0.697754 0.333984 0.583496
0.783203 0.387939 0.604492
0.000000 0.236694 0.518555
0.188599 0.242065 0.521484
0.291504 0.249146 0.525879
0.371582 0.261719 0.532227
0.447754 0.280273 0.542480
0.528320 0.307373 0.555176
0.613770 0.341309 0.570801
0.702148 0.381592 0.587891
0.785645 0.426270 0.606445
0.000000 0.342285 0.549805
0.154785 0.344238 0.552246
0.291992 0.347656 0.555176
0.378662 0.354004 0.559570
0.457764 0.364014 0.564453
0.537598 0.380127 0.572754
0.623047 0.401367 0.581543
0.708008 0.430176 0.594238
0.788574 0.465576 0.608887
0.000000 0.441650 0.582520
0.000000 0.443115 0.584473
0.273682 0.444336 0.586914
0.377441 0.446289 0.588379
0.462891 0.449219 0.591309
0.547363 0.455811 0.593750
0.633789 0.465332 0.596191
0.716797 0.482666 0.601562
0.794434 0.507324 0.612305
0.000000 0.540527 0.603516
0.000000 0.541016 0.605957
0.236450 0.541504 0.608887
0.354736 0.541016 0.611328
0.448242 0.539551 0.614746
0.545410 0.537109 0.616211
0.644531 0.535645 0.610352
0.729004 0.540039 0.607910
0.801758 0.555664 0.614258
0.259033 0.629395 0.604004
0.307129 0.629395 0.604492
0.353760 0.629883 0.605469
0.400146 0.630371 0.605957
0.452881 0.630859 0.606934
0.519531 0.630371 0.607910
0.631836 0.621582 0.604004
0.736816 0.608398 0.600098
0.807617 0.611328 0.610840
0.410889 0.702637 0.605957
0.430420 0.702637 0.605957
0.452881 0.702637 0.605469
0.480713 0.703125 0.604980
0.515137 0.702637 0.603027
0.558594 0.703613 0.600098
0.619629 0.701660 0.596191
0.702148 0.698242 0.595703
0.790039 0.687012 0.607422
0.488281 0.767578 0.623047
0.503418 0.767578 0.623047
0.520508 0.767578 0.623047
0.541016 0.767578 0.622559
0.566895 0.767578 0.621582
0.598145 0.766602 0.619629
0.641113 0.766113 0.617676
0.698242 0.763672 0.624023
0.767090 0.762695 0.623535
0.000000 0.000000 0.555176
0.146484 0.000000 0.559570
0.291992 0.000000 0.564453
0.376709 0.000000 0.572266
0.449951 0.000000 0.583496
0.524902 0.000000 0.599609
0.603516 0.000000 0.619141
0.687988 0.182251 0.641113
0.773438 0.299316 0.659668
0.000000 0.000000 0.569336
0.127319 0.000000 0.573242
0.292236 0.000000 0.577637
0.377441 0.000000 0.584473
0.450684 0.066528 0.594727
0.524902 0.149414 0.608398
0.604980 0.224243 0.625488
0.689453 0.294189 0.644043
0.774414 0.361328 0.661133
0.000000 0.214355 0.587891
0.068848 0.218750 0.591797
0.291748 0.227783 0.594238
0.381836 0.239502 0.599609
0.455811 0.258545 0.607910
0.529297 0.286377 0.619141
0.608887 0.323975 0.632324
0.692383 0.365234 0.647949
0.776367 0.412354 0.663574
0.000000 0.333984 0.610840
0.000000 0.336914 0.613770
0.282227 0.340820 0.616699
0.385254 0.347168 0.620605
0.462402 0.356689 0.625977
0.536621 0.373291 0.633789
0.614746 0.395996 0.643066
0.696777 0.424805 0.654785
0.779297 0.458984 0.666992
0.000000 0.432373 0.637695
0.000000 0.433594 0.641113
0.246460 0.435791 0.644043
0.380859 0.438477 0.645996
0.466797 0.443604 0.648926
0.543945 0.451660 0.653320
0.622070 0.464600 0.657715
0.703613 0.482422 0.664062
0.784180 0.504883 0.671387
0.000000 0.526367 0.664062
0.000000 0.526367 0.666992
0.000000 0.527832 0.670898
0.353760 0.528320 0.672852
0.458496 0.529297 0.674805
0.543945 0.531250 0.676270
0.627930 0.535156 0.676270
0.712402 0.541992 0.676270
0.791992 0.554688 0.676758
0.000000 0.619141 0.680176
0.000000 0.619141 0.681641
0.000000 0.619141 0.686523
0.298340 0.619629 0.689453
0.425049 0.619141 0.691895
0.521484 0.616699 0.694824
0.621094 0.612793 0.694336
0.719238 0.608887 0.685547
0.801270 0.609863 0.679688
0.263916 0.702148 0.676758
0.321289 0.702148 0.676758
0.370117 0.702148 0.677734
0.416992 0.702148 0.677734
0.464600 0.702148 0.678223
0.517578 0.702148 0.678711
0.583008 0.701172 0.678711
0.699707 0.690918 0.672852
0.805664 0.674805 0.666992
0.457764 0.769043 0.671387
0.472900 0.769043 0.671387
0.492920 0.769043 0.670898
0.514648 0.769531 0.670410
0.542480 0.769043 0.669922
0.575684 0.769531 0.667969
0.620117 0.769043 0.664062
0.681641 0.766602 0.659180
0.765625 0.762207 0.657715
0.000000 0.000000 0.632324
0.000000 0.000000 0.635742
0.244507 0.000000 0.641113
0.391113 0.000000 0.645020
0.473633 0.000000 0.651855
0.546387 0.000000 0.661621
0.619141 0.000000 0.674316
0.695312 0.000000 0.691406
0.770996 0.000000 0.712402
0.000000 0.000000 0.641602
0.000000 0.000000 0.645508
0.234009 0.000000 0.650391
0.387939 0.000000 0.654297
0.470459 0.000000 0.661133
0.541504 0.000000 0.670410
0.613281 0.000000 0.684570
0.687500 0.000000 0.702148
0.765137 0.249512 0.719727
0.000000 0.000000 0.657227
0.000000 0.000000 0.661621
0.211304 0.000000 0.666504
0.381104 0.000000 0.670898
0.465332 0.080444 0.676270
0.538086 0.164185 0.685059
0.609863 0.238281 0.695801
0.686035 0.304932 0.708984
0.765625 0.368652 0.722656
0.000000 0.304932 0.673828
0.000000 0.309814 0.676758
0.148071 0.313477 0.682617
0.377441 0.320068 0.685547
0.467529 0.330078 0.689941
0.540527 0.347656 0.695801
0.613281 0.371826 0.704590
0.688477 0.404053 0.714355
0.768066 0.440918 0.725098
0.000000 0.420898 0.691406
0.000000 0.421875 0.695801
0.000000 0.424561 0.701172
0.367676 0.427734 0.704102
0.468750 0.433838 0.707031
0.544922 0.442383 0.711426
0.618652 0.455322 0.717285
0.693848 0.474365 0.723633
0.771973 0.498535 0.730469
0.000000 0.512695 0.712891
0.000000 0.514648 0.716797
0.000000 0.515137 0.722656
0.322510 0.518066 0.727539
0.460449 0.519531 0.729004
0.545410 0.523438 0.730957
0.621582 0.529785 0.733887
0.698242 0.540527 0.735352
0.776367 0.553711 0.738281
0.000000 0.601074 0.732910
0.000000 0.602051 0.736328
0.000000 0.603027 0.741211
0.000000 0.604492 0.749023
0.424072 0.604492 0.750977
0.530273 0.604004 0.752930
0.616699 0.604980 0.753418
0.700684 0.607422 0.750488
0.782715 0.610840 0.747070
0.000000 0.687988 0.743652
0.000000 0.688477 0.746094
0.000000 0.687988 0.750000
0.000000 0.689453 0.756348
0.331543 0.689941 0.762695
0.483154 0.688477 0.764648
0.585938 0.686035 0.766602
0.687012 0.680176 0.764648
0.785645 0.673828 0.754395
0.180298 0.767090 0.742188
0.306641 0.768066 0.742676
0.371338 0.768066 0.743164
0.425049 0.768066 0.743164
0.471924 0.768066 0.744141
0.519531 0.768066 0.744629
0.574707 0.767578 0.744629
0.641602 0.766602 0.744629
0.763184 0.754883 0.737305
