RED_IPP2_Creative/RED_LUSH.cube
# RED Digital Cinema Output Transform LUT for IPP2
# Creatives by Eric Weidt
# BMD cube from Truelight v4.0
# Settings used in creation of this LUT are:
# Development Color Space = USER SELECTABLE
# Output Gamma Curve = USER SELECTABLE
# Output Tonemap = USER SELECTABLE
# Highlight Rolloff = USER SELECTABLE
LUT_3D_SIZE 5
0.000000 0.006214 0.030731
0.255615 0.010422 0.011101
0.547852 0.000000 0.000000
0.823730 0.000000 0.000000
1.000000 0.000000 0.000000
0.018539 0.288330 0.024155
0.245728 0.282715 0.019043
0.488525 0.285156 0.032288
0.764648 0.281006 0.004410
1.000000 0.271729 0.000000
0.000000 0.604492 0.000000
0.270508 0.577148 0.020767
0.517578 0.591309 0.034149
0.765137 0.585938 0.055023
0.994629 0.587402 0.082458
0.000000 0.908691 0.000000
0.254395 0.881348 0.003567
0.529297 0.863281 0.046295
0.764648 0.874023 0.038910
1.000000 0.864746 0.054077
0.000000 1.000000 0.000000
0.228516 1.000000 0.000000
0.524902 1.000000 0.025223
0.770020 1.000000 0.044250
1.000000 1.000000 0.035004
0.016068 0.016647 0.293213
0.265869 0.000000 0.269531
0.528809 0.000000 0.239258
0.804688 0.000000 0.224731
1.000000 0.000000 0.212769
0.000000 0.266357 0.269287
0.240845 0.248291 0.244019
0.526367 0.235962 0.237305
0.807129 0.225708 0.227539
1.000000 0.214355 0.216797
0.000000 0.581543 0.260986
0.240356 0.560059 0.241577
0.516602 0.553223 0.272949
0.756348 0.552246 0.295410
1.000000 0.544434 0.265137
0.000000 0.885254 0.246704
0.222290 0.862305 0.224487
0.522949 0.831055 0.271973
0.764648 0.837891 0.278320
1.000000 0.829102 0.292725
0.000000 1.000000 0.222290
0.194946 1.000000 0.198242
0.496338 1.000000 0.226196
0.768555 1.000000 0.281494
1.000000 1.000000 0.273926
0.000000 0.000000 0.555176
0.245483 0.000000 0.530762
0.540039 0.000000 0.508301
0.811523 0.000000 0.477539
1.000000 0.000000 0.457275
0.000000 0.245239 0.530762
0.219971 0.226562 0.509766
0.506836 0.203369 0.503906
0.788086 0.206665 0.469971
1.000000 0.195190 0.460693
0.000000 0.558105 0.524414
0.216675 0.536621 0.504395
0.511719 0.517578 0.483398
0.794922 0.504395 0.476318
1.000000 0.490723 0.464111
0.000000 0.862305 0.509766
0.199097 0.838867 0.488770
0.494385 0.813965 0.467529
0.764648 0.801758 0.491699
1.000000 0.795898 0.509277
0.000000 1.000000 0.485596
0.171021 1.000000 0.464355
0.463623 1.000000 0.440674
0.760742 1.000000 0.481445
1.000000 1.000000 0.486084
0.000000 0.000000 0.869629
0.221924 0.000000 0.840332
0.516602 0.000000 0.812988
0.814941 0.000000 0.788574
1.000000 0.000000 0.750488
0.000000 0.222046 0.840820
0.200073 0.200073 0.816406
0.499512 0.179932 0.793457
0.799805 0.160522 0.771484
1.000000 0.157959 0.737305
0.000000 0.535156 0.833496
0.193726 0.513672 0.808594
0.475098 0.510254 0.784668
0.728027 0.471680 0.829102
1.000000 0.471436 0.736816
0.000000 0.839355 0.815430
0.175659 0.815430 0.788574
0.470459 0.790527 0.760742
0.764648 0.765137 0.732422
1.000000 0.749023 0.715332
0.000000 1.000000 0.783691
0.146851 1.000000 0.756348
0.438965 1.000000 0.726074
0.730957 1.000000 0.696777
0.999023 1.000000 0.724609
0.000000 0.000000 1.000000
0.198242 0.000000 1.000000
0.493652 0.000000 1.000000
0.792480 0.000000 1.000000
1.000000 0.000000 1.000000
0.000000 0.198364 1.000000
0.176147 0.176270 1.000000
0.475830 0.155884 1.000000
0.775391 0.136597 1.000000
1.000000 0.116272 1.000000
0.000000 0.511230 1.000000
0.169922 0.489746 1.000000
0.462891 0.475586 1.000000
0.753906 0.450928 1.000000
1.000000 0.425781 1.000000
0.000000 0.815430 1.000000
0.152466 0.791992 1.000000
0.446289 0.769531 1.000000
0.732910 0.750488 1.000000
1.000000 0.717285 1.000000
0.000000 1.000000 1.000000
0.122681 1.000000 1.000000
0.414551 1.000000 1.000000
0.706543 1.000000 1.000000
0.998535 0.998535 0.998047
