RED_IPP2_Creative/RED_TECH.cube
# RED Digital Cinema Output Transform LUT for IPP2
# Creatives by Eric Weidt
# BMD cube from Truelight v4.0
# Settings used in creation of this LUT are:
# Development Color Space = USER SELECTABLE
# Output Gamma Curve = USER SELECTABLE
# Output Tonemap = USER SELECTABLE
# Highlight Rolloff = USER SELECTABLE
LUT_3D_SIZE 33
0.028931 0.028931 0.028931
0.052979 0.028397 0.028183
0.076843 0.027649 0.026993
0.099609 0.027100 0.026321
0.121216 0.027298 0.026138
0.142700 0.028015 0.026138
0.164062 0.029266 0.026169
0.185791 0.031250 0.027649
0.207520 0.033936 0.028931
0.230469 0.038330 0.031494
0.256104 0.042084 0.033752
0.287598 0.044281 0.034851
0.317139 0.046844 0.036224
0.346436 0.049377 0.037720
0.373047 0.051941 0.039246
0.395752 0.054535 0.040833
0.418701 0.057129 0.042480
0.441406 0.059723 0.044128
0.463867 0.062408 0.045959
0.485840 0.065186 0.047791
0.508789 0.067932 0.049805
0.532227 0.070984 0.052002
0.556641 0.074219 0.054413
0.580078 0.077759 0.057068
0.604980 0.081360 0.059998
0.629883 0.085144 0.063049
0.654785 0.088989 0.065796
0.679688 0.092102 0.068237
0.704590 0.094849 0.070190
0.730469 0.097595 0.072144
0.755371 0.100281 0.074158
0.781738 0.102661 0.075500
0.809082 0.105103 0.077148
0.025345 0.050751 0.025345
0.049469 0.049469 0.023895
0.072693 0.048248 0.022903
0.095764 0.047516 0.022369
0.118408 0.047363 0.022491
0.140015 0.047943 0.023300
0.162109 0.049164 0.024628
0.184326 0.051147 0.026306
0.207520 0.054260 0.028931
0.230469 0.058441 0.032318
0.256592 0.062500 0.035400
0.288330 0.065247 0.037018
0.318848 0.068176 0.038818
0.347656 0.071350 0.040833
0.374268 0.074646 0.042877
0.398438 0.077820 0.045013
0.420898 0.080994 0.047180
0.444092 0.084412 0.049591
0.467529 0.087585 0.051941
0.490723 0.091064 0.054535
0.514648 0.094910 0.057434
0.538574 0.098755 0.060486
0.563477 0.102417 0.063416
0.587402 0.106018 0.066040
0.611328 0.109497 0.068726
0.635742 0.112427 0.070496
0.661133 0.115234 0.072754
0.685059 0.117981 0.074158
0.709473 0.120361 0.075745
0.734375 0.122314 0.077087
0.759277 0.124268 0.078125
0.784668 0.126221 0.079224
0.812012 0.128174 0.080139
0.021301 0.071350 0.021301
0.045013 0.070251 0.019501
0.068848 0.068970 0.019073
0.092346 0.068481 0.018951
0.115845 0.068359 0.020004
0.138916 0.068970 0.021530
0.161377 0.070374 0.023575
0.184570 0.072571 0.026520
0.208740 0.075562 0.030136
0.233276 0.079895 0.034760
0.259521 0.084351 0.038666
0.291260 0.087585 0.040710
0.322510 0.091309 0.043243
0.351562 0.094910 0.045685
0.377686 0.098999 0.048340
0.401855 0.102905 0.051270
0.426025 0.106873 0.054138
0.449463 0.111084 0.057251
0.473389 0.115112 0.060455
0.497559 0.119324 0.063477
0.521484 0.122925 0.066162
0.544434 0.126465 0.068726
0.569336 0.129517 0.070618
0.592285 0.132080 0.072571
0.616699 0.134888 0.074158
0.639160 0.137573 0.075867
0.664062 0.139648 0.076904
0.687988 0.141724 0.078003
0.711914 0.143799 0.078979
0.736328 0.145630 0.079773
0.761230 0.147217 0.080566
0.787109 0.148804 0.081055
0.813477 0.150269 0.081360
0.016220 0.093079 0.017090
0.041534 0.092041 0.015045
0.065613 0.091309 0.014793
0.089966 0.090393 0.016342
0.114380 0.091125 0.018417
0.138550 0.092041 0.020752
0.162598 0.093445 0.024033
0.186646 0.096069 0.028015
0.212158 0.099426 0.032776
0.237915 0.104065 0.038849
0.265625 0.108765 0.043610
0.296631 0.112610 0.046204
0.327881 0.117065 0.049377
0.357666 0.121643 0.052643
0.384277 0.126465 0.056244
0.407959 0.131226 0.059601
0.432129 0.135742 0.062866
0.455811 0.139526 0.065491
0.479004 0.143311 0.068115
0.502441 0.146606 0.070129
0.524902 0.149414 0.072144
0.548828 0.152466 0.073853
0.571289 0.154907 0.075073
0.595215 0.157593 0.076660
0.617676 0.159424 0.077576
0.641602 0.161499 0.078491
0.664551 0.163452 0.079346
0.688477 0.165161 0.079895
0.711914 0.166504 0.080200
0.736328 0.168213 0.080688
0.761230 0.169800 0.081238
0.786621 0.170898 0.081299
0.812500 0.172241 0.081604
0.013206 0.116211 0.013206
0.039062 0.115662 0.013161
0.063782 0.115112 0.012115
0.088684 0.114929 0.011879
0.114075 0.114624 0.016647
0.139404 0.117065 0.022278
0.165527 0.119324 0.026581
0.191772 0.122314 0.032104
0.218018 0.125854 0.037903
0.245117 0.131226 0.045532
0.274170 0.136475 0.051270
0.306152 0.141479 0.054871
0.336670 0.146851 0.058563
0.364990 0.151489 0.061798
0.390381 0.155884 0.064758
0.414062 0.159912 0.067383
0.436523 0.163696 0.069458
0.459473 0.166992 0.071716
0.481934 0.169922 0.073181
0.503906 0.172729 0.074768
0.527344 0.175415 0.076111
0.549805 0.177734 0.077148
0.572266 0.179810 0.078125
0.595215 0.182007 0.078918
0.618164 0.183716 0.079468
0.641113 0.185181 0.079773
0.664551 0.186768 0.080383
0.687988 0.188477 0.080688
0.711914 0.189941 0.080994
0.736328 0.190918 0.080994
0.761230 0.192139 0.081055
0.784668 0.193237 0.080994
0.811035 0.194336 0.080872
0.011833 0.141846 0.011444
0.038300 0.141602 0.011688
0.063232 0.141846 0.011444
0.088989 0.141968 0.011978
0.115295 0.142456 0.012192
0.142456 0.143188 0.018509
0.169189 0.147217 0.031250
0.198975 0.152100 0.038055
0.227783 0.156250 0.045776
0.255127 0.161987 0.054260
0.283936 0.167236 0.059998
0.314453 0.171753 0.062866
0.343506 0.176147 0.065735
0.369873 0.180298 0.067932
0.393799 0.184204 0.070129
0.416260 0.187500 0.072144
0.438721 0.190918 0.073669
0.460938 0.193604 0.075073
0.482910 0.196533 0.076294
0.504883 0.198730 0.077209
0.526855 0.201050 0.078003
0.549316 0.203125 0.078674
0.571289 0.204590 0.079041
0.594238 0.206421 0.079651
0.616211 0.208008 0.079773
0.639648 0.209839 0.080139
0.662598 0.210938 0.080139
0.686035 0.212158 0.080261
0.709473 0.213379 0.080139
0.734375 0.214600 0.080200
0.758789 0.215576 0.080017
0.783691 0.216553 0.079834
0.809082 0.217529 0.079590
0.012436 0.170654 0.012436
0.039062 0.171387 0.012436
0.064941 0.172119 0.013947
0.091064 0.173096 0.014336
0.118530 0.174561 0.015778
0.146851 0.176025 0.016907
0.176514 0.177246 0.025040
0.204956 0.182129 0.043640
0.235474 0.187622 0.052765
0.263428 0.193115 0.061707
0.290527 0.197632 0.066467
0.319580 0.201782 0.068848
0.347168 0.205444 0.070618
0.373047 0.209229 0.072449
0.395020 0.212402 0.074036
0.417236 0.215332 0.075195
0.439453 0.218384 0.076660
0.460938 0.220459 0.077271
0.482422 0.222778 0.078003
0.503906 0.224609 0.078491
0.525391 0.226196 0.078857
0.547363 0.228149 0.079346
0.569824 0.229492 0.079407
0.592285 0.231079 0.079773
0.614746 0.232178 0.079712
0.637207 0.233521 0.079773
0.660645 0.234741 0.079651
0.683594 0.235596 0.079468
0.708008 0.236572 0.079407
0.731445 0.237671 0.079041
0.755371 0.238403 0.078613
0.781250 0.239258 0.078552
0.806641 0.240479 0.078430
0.014633 0.205444 0.015289
0.042358 0.206909 0.016006
0.068237 0.208496 0.017441
0.094849 0.209839 0.018784
0.121643 0.210571 0.019348
0.149414 0.211182 0.019623
0.178833 0.211426 0.020126
0.210693 0.211792 0.027847
0.240845 0.216309 0.046539
0.267334 0.221924 0.064026
0.294922 0.227661 0.070679
0.322266 0.230957 0.072327
0.348633 0.233765 0.073486
0.373291 0.236694 0.074951
0.395508 0.239502 0.075989
0.416748 0.241821 0.076782
0.437744 0.243774 0.077271
0.459229 0.245605 0.077820
0.480469 0.247314 0.078125
0.500977 0.248779 0.078308
0.522949 0.250488 0.078674
0.544922 0.251709 0.078613
0.566895 0.252930 0.078857
0.589355 0.253906 0.078552
0.610840 0.255127 0.078430
0.634277 0.256104 0.078552
0.656738 0.257080 0.078186
0.680176 0.258057 0.077881
0.704102 0.258545 0.077576
0.728516 0.259766 0.077454
0.752930 0.260498 0.077087
0.777832 0.261230 0.076782
0.803711 0.262207 0.076416
0.019073 0.244873 0.019073
0.045013 0.245972 0.020004
0.070496 0.246216 0.019745
0.096130 0.246460 0.020508
0.122375 0.246216 0.019882
0.149170 0.245972 0.019989
0.178223 0.245361 0.019760
0.209595 0.244873 0.018753
0.243042 0.244263 0.027298
0.272461 0.247559 0.046722
0.298584 0.251953 0.064636
0.323242 0.257324 0.074463
0.348389 0.260010 0.075134
0.372314 0.262695 0.076172
0.394043 0.264404 0.076721
0.415283 0.266113 0.077271
0.435791 0.268066 0.077637
0.457031 0.269287 0.077759
0.478027 0.270752 0.078125
0.499268 0.271973 0.078125
0.519531 0.272705 0.077820
0.541504 0.274170 0.077820
0.563477 0.275146 0.077759
0.585449 0.276367 0.077698
0.607910 0.277100 0.077271
0.629883 0.277832 0.076965
0.653809 0.278320 0.076660
0.677246 0.279541 0.076538
0.700684 0.280273 0.076233
0.725586 0.281250 0.075989
0.750000 0.281738 0.075562
0.774902 0.282959 0.075317
0.800781 0.283691 0.075073
0.019745 0.282959 0.019745
0.045410 0.282959 0.019989
0.070129 0.282227 0.019348
0.095337 0.281738 0.019318
0.120789 0.280762 0.018295
0.147583 0.279785 0.017944
0.175415 0.278564 0.017319
0.206177 0.277100 0.015358
0.239380 0.275879 0.014793
0.273193 0.274414 0.023438
0.302246 0.276367 0.044464
0.326660 0.279541 0.062866
0.347900 0.283691 0.075745
0.370605 0.286865 0.076111
0.392334 0.288330 0.076538
0.412842 0.289795 0.076965
0.433594 0.291016 0.077026
0.453613 0.292236 0.076843
0.474609 0.293213 0.076843
0.495361 0.293945 0.076538
0.517090 0.295166 0.076782
0.538086 0.296143 0.076477
0.559570 0.296875 0.076172
0.582031 0.297607 0.075867
0.603516 0.298584 0.075745
0.626953 0.299316 0.075500
0.649902 0.299805 0.075134
0.673828 0.300781 0.074829
0.697266 0.301270 0.074280
0.721680 0.302246 0.074158
0.747070 0.302979 0.073914
0.772461 0.303955 0.073792
0.797852 0.304932 0.073547
0.018890 0.319092 0.018890
0.043915 0.318359 0.018295
0.068237 0.317139 0.017441
0.092712 0.316162 0.016220
0.117981 0.314209 0.015045
0.143555 0.312256 0.014313
0.171143 0.311035 0.012436
0.200562 0.308838 0.011147
0.233765 0.307129 0.009796
0.267334 0.304932 0.008034
0.301025 0.302490 0.018539
0.329102 0.303223 0.040649
0.352051 0.305420 0.059998
0.370605 0.309082 0.075867
0.389648 0.311279 0.076111
0.410156 0.312256 0.076172
0.430420 0.312744 0.075989
0.450928 0.314209 0.076050
0.471680 0.315186 0.075989
0.491455 0.315674 0.075745
0.513184 0.316162 0.075439
0.534180 0.317139 0.075134
0.555664 0.317627 0.074768
0.577637 0.318359 0.074524
0.600586 0.318848 0.074158
0.622559 0.319824 0.073853
0.645508 0.320557 0.073547
0.669922 0.321533 0.073486
0.694336 0.322021 0.073120
0.718750 0.322998 0.073120
0.743652 0.323486 0.072754
0.770020 0.324951 0.072876
0.796387 0.325439 0.072632
0.015671 0.353027 0.016327
0.041016 0.351562 0.014435
0.064636 0.349854 0.013588
0.088989 0.347656 0.011978
0.113525 0.345947 0.010361
0.139404 0.344238 0.008850
0.165894 0.342285 0.007092
0.194946 0.339844 0.005329
0.226562 0.337646 0.003323
0.260010 0.335205 0.001321
0.295166 0.333008 0.000000
0.328369 0.329590 0.011688
0.354248 0.329102 0.035431
0.374756 0.329590 0.054871
0.391113 0.331543 0.070862
0.407959 0.333252 0.075073
0.427246 0.334473 0.074707
0.447510 0.334961 0.074463
0.467773 0.335449 0.074219
0.488281 0.336426 0.074158
0.508789 0.336914 0.073792
0.530273 0.337402 0.073486
0.552246 0.337891 0.073181
0.573730 0.338379 0.072876
0.596680 0.339600 0.072815
0.619629 0.340088 0.072388
0.642578 0.340820 0.072144
0.666504 0.341553 0.072021
0.690918 0.342529 0.071899
0.716309 0.343506 0.071899
0.740723 0.344238 0.071777
0.767090 0.345215 0.071716
0.794434 0.346191 0.072083
0.011833 0.383301 0.011444
0.036774 0.381836 0.010101
0.060699 0.379883 0.008339
0.084229 0.377686 0.006580
0.108826 0.375732 0.004826
0.133667 0.373535 0.002819
0.159912 0.371338 0.000817
0.187988 0.369141 0.000000
0.219238 0.366455 0.000000
0.251953 0.364258 0.000000
0.286621 0.361816 0.000000
0.321533 0.359131 0.000000
0.353760 0.355469 0.004177
0.377686 0.353760 0.029282
0.395996 0.352783 0.049683
0.411377 0.353516 0.065613
0.426270 0.354492 0.074036
0.443604 0.354980 0.073181
0.464355 0.355713 0.073181
0.485107 0.355957 0.072815
0.505371 0.356689 0.072449
0.526855 0.356934 0.072144
0.548828 0.357910 0.072083
0.570801 0.358398 0.071777
0.592773 0.359131 0.071655
0.616211 0.359863 0.071533
0.639648 0.360352 0.071350
0.663086 0.361328 0.071289
0.688477 0.362305 0.071533
0.713379 0.363037 0.071350
0.739746 0.364258 0.071533
0.765625 0.365234 0.071960
0.792969 0.366455 0.072144
0.006313 0.411377 0.006321
0.032104 0.409180 0.004314
0.055420 0.406982 0.002319
0.079102 0.404785 0.000322
0.103027 0.402832 0.000000
0.127930 0.400635 0.000000
0.153564 0.397949 0.000000
0.181152 0.395752 0.000000
0.211182 0.393555 0.000000
0.243896 0.391357 0.000000
0.277344 0.388916 0.000000
0.312744 0.386230 0.000000
0.347656 0.383789 0.000000
0.377930 0.379883 0.000000
0.399170 0.376465 0.022766
0.416992 0.375000 0.042969
0.431885 0.374268 0.059357
0.444580 0.374756 0.072815
0.461670 0.374268 0.072021
0.481201 0.374756 0.071716
0.501953 0.375000 0.071289
0.522949 0.375977 0.071228
0.544922 0.376465 0.071045
0.567871 0.377197 0.071045
0.590332 0.377686 0.071106
0.612793 0.378662 0.070984
0.637207 0.379395 0.071167
0.661133 0.379883 0.071045
0.686035 0.381104 0.071350
0.711426 0.382080 0.071777
0.737793 0.383057 0.072144
0.765625 0.384277 0.072632
0.792969 0.385742 0.072998
0.000000 0.439453 0.000000
0.026871 0.437256 0.000000
0.050171 0.435059 0.000000
0.073242 0.432373 0.000000
0.097168 0.429688 0.000000
0.121399 0.427246 0.000000
0.146851 0.424805 0.000000
0.173828 0.422363 0.000000
0.203125 0.419922 0.000000
0.235107 0.417236 0.000000
0.268555 0.414795 0.000000
0.303223 0.412354 0.000000
0.338623 0.409912 0.000000
0.372803 0.407471 0.000000
0.400635 0.402588 0.000000
0.420898 0.398438 0.015594
0.438721 0.396240 0.036194
0.453125 0.394531 0.052643
0.465332 0.393799 0.066162
0.480713 0.393311 0.071045
0.498779 0.392822 0.070251
0.520020 0.393555 0.070374
0.541992 0.394043 0.070374
0.563965 0.394775 0.070496
0.586914 0.395508 0.070618
0.610840 0.396240 0.070740
0.634766 0.397461 0.071228
0.659180 0.398438 0.071411
0.685547 0.399414 0.072021
0.711426 0.400635 0.072449
0.738770 0.402100 0.073303
0.766113 0.403564 0.074158
0.794434 0.405029 0.074951
0.000000 0.467041 0.000000
0.020294 0.464600 0.000000
0.044342 0.461914 0.000000
0.067383 0.459473 0.000000
0.091064 0.457275 0.000000
0.115417 0.454590 0.000000
0.140259 0.451904 0.000000
0.166748 0.449463 0.000000
0.195190 0.447021 0.000000
0.227173 0.444580 0.000000
0.260010 0.442139 0.000000
0.294922 0.439453 0.000000
0.329590 0.436768 0.000000
0.364502 0.434814 0.000000
0.396729 0.432373 0.000000
0.424561 0.426514 0.000000
0.444580 0.421387 0.008049
0.460938 0.417480 0.029449
0.475098 0.415039 0.046265
0.487549 0.413574 0.060608
0.500488 0.412598 0.071045
0.517578 0.411133 0.070007
0.539551 0.411621 0.070129
0.562012 0.412598 0.070496
0.584961 0.413574 0.070862
0.609375 0.414551 0.071167
0.634766 0.416016 0.071838
0.659180 0.417236 0.072571
0.686035 0.418945 0.073486
0.712891 0.420654 0.074646
0.739746 0.422363 0.075562
0.768066 0.424072 0.076782
0.796875 0.426025 0.077881
0.000000 0.494385 0.000000
0.014313 0.491455 0.000000
0.038452 0.489258 0.000000
0.061798 0.486572 0.000000
0.085083 0.484375 0.000000
0.108765 0.481689 0.000000
0.133911 0.479492 0.000000
0.159668 0.476807 0.000000
0.187988 0.474365 0.000000
0.218872 0.471680 0.000000
0.251465 0.469238 0.000000
0.285889 0.467529 0.000000
0.321777 0.464844 0.000000
0.356445 0.462646 0.000000
0.389893 0.460449 0.000000
0.422363 0.458008 0.000000
0.449463 0.451660 0.000000
0.468750 0.445557 0.001260
0.484619 0.440430 0.022903
0.498291 0.436768 0.040375
0.510742 0.434570 0.055542
0.522949 0.433350 0.070007
0.540039 0.431641 0.071228
0.562012 0.431885 0.071533
0.584961 0.433105 0.071899
0.610352 0.435059 0.073120
0.636230 0.437012 0.074280
0.662109 0.438232 0.075073
0.687988 0.440430 0.076416
0.715332 0.442139 0.077515
0.743652 0.444580 0.079224
0.772461 0.447021 0.080994
0.801758 0.449219 0.082458
0.000000 0.520508 0.000000
0.006466 0.518066 0.000000
0.032379 0.515625 0.000000
0.055450 0.513672 0.000000
0.079224 0.510742 0.000000
0.102905 0.508301 0.000000
0.127441 0.505859 0.000000
0.153320 0.503906 0.000000
0.180664 0.501465 0.000000
0.211426 0.499268 0.000000
0.243896 0.497070 0.000000
0.278076 0.495361 0.000000
0.313477 0.492920 0.000000
0.349365 0.491211 0.000000
0.383057 0.489258 0.000000
0.416016 0.487061 0.000000
0.449463 0.485352 0.000000
0.475586 0.478027 0.000000
0.493896 0.470947 0.000000
0.509277 0.465332 0.017899
0.523926 0.461426 0.035492
0.537109 0.458496 0.051605
0.550781 0.457031 0.067261
0.567383 0.456055 0.074951
0.587402 0.454834 0.074646
0.612305 0.457275 0.076233
0.638184 0.458740 0.077148
0.665039 0.461426 0.079041
0.692871 0.463867 0.080872
0.720215 0.466309 0.082336
0.748535 0.468994 0.084412
0.778320 0.471680 0.086182
0.808105 0.474609 0.088745
0.000000 0.546875 0.000000
0.000000 0.544922 0.000000
0.026321 0.542969 0.000000
0.050018 0.540039 0.000000
0.073120 0.537598 0.000000
0.097290 0.535645 0.000000
0.121887 0.533203 0.000000
0.147339 0.531250 0.000000
0.174438 0.528809 0.000000
0.204102 0.527344 0.000000
0.237183 0.525391 0.000000
0.270996 0.523926 0.000000
0.306885 0.521484 0.000000
0.342773 0.520020 0.000000
0.377441 0.518066 0.000000
0.410156 0.516602 0.000000
0.444092 0.515137 0.000000
0.478516 0.514160 0.000000
0.503418 0.505859 0.000000
0.520996 0.498291 0.000000
0.537598 0.492920 0.013664
0.552734 0.488281 0.032776
0.567383 0.486084 0.049927
0.581543 0.484131 0.066162
0.596191 0.483154 0.080566
0.618652 0.482422 0.080994
0.642578 0.483643 0.082153
0.669922 0.486328 0.083984
0.697754 0.488770 0.086121
0.727051 0.492432 0.088684
0.755859 0.495605 0.091187
0.785645 0.498779 0.093323
0.817383 0.502441 0.096375
0.000000 0.573242 0.000000
0.000000 0.570801 0.000000
0.020905 0.568848 0.000000
0.044464 0.567383 0.000000
0.068115 0.564453 0.000000
0.091919 0.562988 0.000000
0.116577 0.561035 0.000000
0.141846 0.558594 0.000000
0.168823 0.557129 0.000000
0.198608 0.555664 0.000000
0.230591 0.553711 0.000000
0.264893 0.552246 0.000000
0.299805 0.550293 0.000000
0.337158 0.549316 0.000000
0.372803 0.548828 0.000000
0.405762 0.546387 0.000000
0.439941 0.545898 0.000000
0.474365 0.544922 0.000000
0.508789 0.544434 0.000000
0.533203 0.536621 0.000000
0.551270 0.528320 0.000000
0.567871 0.522949 0.011978
0.584473 0.518555 0.032013
0.599609 0.515625 0.049377
0.616211 0.514648 0.066833
0.630859 0.513184 0.083679
0.651855 0.513184 0.089478
0.677734 0.514648 0.091614
0.706055 0.517090 0.093628
0.735840 0.520996 0.096680
0.765137 0.524414 0.098877
0.794922 0.528320 0.101868
0.826660 0.531738 0.104980
0.000000 0.599121 0.000000
0.000000 0.597168 0.000000
0.015388 0.595215 0.000000
0.039642 0.593750 0.000000
0.063110 0.591797 0.000000
0.087158 0.590332 0.000000
0.111694 0.588379 0.000000
0.137329 0.586426 0.000000
0.164185 0.585449 0.000000
0.193115 0.583496 0.000000
0.226074 0.582520 0.000000
0.260254 0.581543 0.000000
0.296143 0.580078 0.000000
0.333008 0.579102 0.000000
0.368896 0.578125 0.000000
0.402588 0.577637 0.000000
0.437744 0.577148 0.000000
0.472168 0.576660 0.000000
0.507812 0.576660 0.000000
0.541504 0.575684 0.000000
0.564453 0.567871 0.000000
0.583496 0.561523 0.000000
0.601562 0.555664 0.012352
0.619141 0.551758 0.033234
0.636230 0.549316 0.051727
0.653320 0.547363 0.069763
0.670410 0.547363 0.087708
0.689453 0.547852 0.100586
0.715332 0.547852 0.102356
0.744629 0.551758 0.105347
0.774414 0.555176 0.107849
0.805664 0.559082 0.110901
0.836426 0.562988 0.113586
0.000000 0.625977 0.000000
0.000000 0.624023 0.000000
0.009438 0.622559 0.000000
0.035156 0.621094 0.000000
0.059052 0.619141 0.000000
0.083008 0.618164 0.000000
0.107788 0.616699 0.000000
0.133423 0.615723 0.000000
0.160767 0.613770 0.000000
0.189453 0.612793 0.000000
0.222046 0.612305 0.000000
0.256592 0.611328 0.000000
0.292969 0.610840 0.000000
0.330566 0.610352 0.000000
0.366943 0.609863 0.000000
0.401611 0.609863 0.000000
0.436035 0.609375 0.000000
0.472656 0.609863 0.000000
0.507812 0.610352 0.000000
0.543457 0.610352 0.000000
0.576660 0.610352 0.000000
0.599121 0.603027 0.000000
0.619141 0.596680 0.000000
0.638184 0.592285 0.015900
0.656738 0.587402 0.036011
0.674316 0.584961 0.054718
0.692871 0.583496 0.073242
0.711914 0.583496 0.091797
0.730957 0.583984 0.110291
0.754883 0.584473 0.114563
0.784668 0.586914 0.117432
0.816895 0.592285 0.121094
0.848145 0.595703 0.123779
0.000000 0.653809 0.000000
0.000000 0.651855 0.000000
0.004658 0.650391 0.000000
0.031311 0.649414 0.000000
0.055573 0.648438 0.000000
0.080139 0.646973 0.000000
0.104614 0.645508 0.000000
0.130859 0.645020 0.000000
0.157715 0.644043 0.000000
0.187378 0.644043 0.000000
0.220337 0.643555 0.000000
0.254883 0.643066 0.000000
0.291748 0.643066 0.000000
0.329102 0.642578 0.000000
0.367188 0.643066 0.000000
0.402344 0.644043 0.000000
0.437500 0.643555 0.000000
0.474365 0.644531 0.000000
0.509766 0.645020 0.000000
0.545410 0.645508 0.000000
0.580078 0.646973 0.000000
0.612793 0.646973 0.000000
0.636230 0.639648 0.000000
0.655273 0.633301 0.000000
0.675293 0.627930 0.019470
0.695801 0.625488 0.040588
0.714844 0.622559 0.059143
0.734863 0.621582 0.078613
0.754395 0.621582 0.096985
0.775391 0.622559 0.115723
0.797852 0.625000 0.128784
0.828125 0.625488 0.130859
0.860840 0.629883 0.134521
0.000000 0.681152 0.000000
0.000000 0.680176 0.000000
0.000611 0.679199 0.000000
0.028748 0.678711 0.000000
0.053314 0.678223 0.000000
0.077576 0.677246 0.000000
0.103088 0.676270 0.000000
0.129150 0.676270 0.000000
0.156616 0.675293 0.000000
0.186523 0.676270 0.000000
0.219604 0.675293 0.000000
0.255127 0.676270 0.000000
0.292725 0.677246 0.000000
0.331055 0.677246 0.000000
0.368896 0.677734 0.000000
0.404053 0.678711 0.000000
0.439941 0.678711 0.000000
0.477295 0.680176 0.000000
0.513184 0.680664 0.000000
0.549316 0.682129 0.000000
0.583008 0.683105 0.000000
0.617676 0.684082 0.000000
0.650879 0.685059 0.000000
0.673340 0.677734 0.000000
0.694336 0.672363 0.002151
0.715332 0.666992 0.024628
0.736328 0.664062 0.045349
0.756836 0.663086 0.064758
0.777832 0.661621 0.084229
0.799805 0.662109 0.103455
0.821289 0.663086 0.121948
0.843750 0.665039 0.140991
0.873535 0.667969 0.146240
0.000000 0.711426 0.000000
0.000000 0.710449 0.000000
0.000000 0.708984 0.000000
0.026917 0.708984 0.000000
0.051605 0.708496 0.000000
0.076721 0.708496 0.000000
0.102478 0.708496 0.000000
0.129028 0.708496 0.000000
0.156738 0.708496 0.000000
0.187378 0.709473 0.000000
0.220825 0.709473 0.000000
0.257812 0.710938 0.000000
0.294922 0.711426 0.000000
0.333740 0.712402 0.000000
0.372314 0.713379 0.000000
0.407471 0.713867 0.000000
0.444092 0.715332 0.000000
0.480713 0.716309 0.000000
0.517090 0.717285 0.000000
0.553711 0.719727 0.000000
0.587891 0.720215 0.000000
0.622559 0.721191 0.000000
0.656250 0.722656 0.000000
0.688965 0.723145 0.000000
0.712402 0.716797 0.000000
0.734375 0.711426 0.008980
0.755371 0.707520 0.030746
0.777344 0.704590 0.050690
0.800293 0.703613 0.071045
0.823242 0.703613 0.090515
0.845215 0.703613 0.109741
0.870117 0.706055 0.129639
0.893066 0.708008 0.148193
0.000000 0.742188 0.000000
0.000000 0.741211 0.000000
0.000000 0.741211 0.000000
0.026703 0.741211 0.000000
0.051727 0.741211 0.000000
0.077332 0.742188 0.000000
0.103210 0.742676 0.000000
0.130249 0.743164 0.000000
0.158691 0.743652 0.000000
0.189331 0.744629 0.000000
0.224487 0.745605 0.000000
0.260010 0.746094 0.000000
0.298584 0.747070 0.000000
0.337646 0.748047 0.000000
0.375488 0.750000 0.000000
0.411377 0.750488 0.000000
0.448486 0.752930 0.000000
0.485352 0.753418 0.000000
0.521973 0.754883 0.000000
0.557129 0.755371 0.000000
0.592773 0.757812 0.000000
0.627441 0.759277 0.000000
0.661621 0.760254 0.000000
0.696777 0.763184 0.000000
0.728027 0.762207 0.000000
0.751465 0.756836 0.000000
0.774414 0.752930 0.016220
0.797852 0.749512 0.037628
0.821289 0.746582 0.058197
0.844727 0.746094 0.077820
0.869141 0.746582 0.097595
0.894531 0.748047 0.117676
0.919434 0.749512 0.137329
0.000000 0.774414 0.000000
0.000000 0.774414 0.000000
0.000000 0.774902 0.000000
0.027267 0.774902 0.000000
0.052917 0.775391 0.000000
0.079041 0.776855 0.000000
0.104980 0.777344 0.000000
0.132446 0.778320 0.000000
0.161011 0.779785 0.000000
0.192505 0.780273 0.000000
0.227661 0.781738 0.000000
0.264648 0.783203 0.000000
0.303223 0.784180 0.000000
0.342041 0.784668 0.000000
0.380371 0.786621 0.000000
0.416260 0.788086 0.000000
0.452881 0.788574 0.000000
0.490234 0.790527 0.000000
