RED_IPP2_Creative/RED_BW_0100.cube
# RED Digital Cinema Output Transform LUT for IPP2
# Creatives by Eric Weidt
# BMD cube from Truelight v4.0
# Settings used in creation of this LUT are:
# Development Color Space = USER SELECTABLE
# Output Gamma Curve = USER SELECTABLE
# Output Tonemap = USER SELECTABLE
# Highlight Rolloff = USER SELECTABLE
LUT_3D_SIZE 33
0.050781 0.050781 0.050781
0.051636 0.051636 0.051636
0.052216 0.052216 0.052216
0.052765 0.052765 0.052765
0.053802 0.053802 0.053802
0.056122 0.056122 0.056122
0.060730 0.060730 0.060730
0.068787 0.068787 0.068787
0.081360 0.081360 0.081360
0.101074 0.101074 0.101074
0.132202 0.132202 0.132202
0.168091 0.168091 0.167969
0.207031 0.207031 0.207031
0.248169 0.248169 0.248169
0.293701 0.293701 0.293701
0.340576 0.340576 0.340576
0.386719 0.386719 0.386719
0.432617 0.432617 0.432617
0.477539 0.477539 0.477539
0.521484 0.521484 0.521484
0.564453 0.564453 0.564453
0.605469 0.605469 0.605469
0.645996 0.645996 0.645996
0.684082 0.684082 0.684082
0.722168 0.722168 0.722168
0.758789 0.758789 0.758789
0.793945 0.793945 0.793945
0.824707 0.824707 0.824707
0.850586 0.850586 0.850586
0.873047 0.873047 0.873047
0.892578 0.892578 0.892578
0.910156 0.910156 0.910156
0.925781 0.925781 0.925781
0.052216 0.052216 0.052216
0.052490 0.052490 0.052490
0.052917 0.052917 0.052917
0.053680 0.053680 0.053680
0.055176 0.055176 0.055176
0.058105 0.058105 0.058105
0.063293 0.063293 0.063293
0.071777 0.071777 0.071777
0.084595 0.084595 0.084595
0.105225 0.105225 0.105225
0.135986 0.135986 0.135986
0.171021 0.171021 0.171021
0.209229 0.209229 0.209229
0.250000 0.250000 0.250000
0.294922 0.294922 0.294922
0.341309 0.341309 0.341309
0.387695 0.387695 0.387695
0.433350 0.433350 0.433350
0.478027 0.478027 0.478027
0.521973 0.521973 0.521973
0.564941 0.564941 0.564941
0.605957 0.605957 0.605957
0.645996 0.645996 0.645996
0.685059 0.685059 0.685059
0.722168 0.722168 0.722168
0.758789 0.758789 0.758789
0.793945 0.793945 0.793945
0.824707 0.824707 0.824707
0.850586 0.850586 0.850586
0.873047 0.873047 0.873047
0.892578 0.892578 0.892578
0.910156 0.910156 0.910156
0.925781 0.925781 0.925781
0.053223 0.053223 0.053223
0.053650 0.053650 0.053650
0.054382 0.054382 0.054382
0.055634 0.055634 0.055634
0.057770 0.057770 0.057770
0.061371 0.061371 0.061371
0.067200 0.067200 0.067200
0.076111 0.076111 0.076111
0.089050 0.089050 0.089050
0.111206 0.111206 0.111206
0.141113 0.141113 0.140991
0.175049 0.175049 0.175049
0.212524 0.212524 0.212524
0.252441 0.252441 0.252441
0.297119 0.297119 0.297119
0.342773 0.342773 0.342773
0.388672 0.388672 0.388672
0.434082 0.434082 0.434082
0.478760 0.478760 0.478760
0.522461 0.522461 0.522461
0.564941 0.564941 0.564941
0.605957 0.605957 0.605957
0.645996 0.645996 0.645996
0.685059 0.685059 0.685059
0.722656 0.722656 0.722656
0.758789 0.758789 0.758789
0.793945 0.793945 0.793945
0.824707 0.824707 0.824707
0.850586 0.850586 0.850586
0.873047 0.873047 0.873047
0.892578 0.892578 0.892578
0.910156 0.910156 0.910156
0.925781 0.925781 0.925781
0.055756 0.055756 0.055756
0.056549 0.056549 0.056549
0.057709 0.057709 0.057709
0.059509 0.059509 0.059509
0.062317 0.062317 0.062317
0.066528 0.066528 0.066528
0.072876 0.072876 0.072876
0.082153 0.082153 0.082153
0.095825 0.095825 0.095825
0.118958 0.118958 0.118958
0.147705 0.147705 0.147705
0.180420 0.180420 0.180420
0.216797 0.216797 0.216553
0.256104 0.256104 0.256104
0.299805 0.299805 0.299805
0.344727 0.344727 0.344727
0.390137 0.390137 0.390137
0.435059 0.435059 0.435059
0.479492 0.479492 0.479492
0.522949 0.522949 0.522949
0.565430 0.565430 0.565430
0.606445 0.606445 0.606445
0.645996 0.645996 0.645996
0.685059 0.685059 0.685059
0.722656 0.722656 0.722656
0.759277 0.759277 0.759277
0.793945 0.793945 0.793945
0.824707 0.824707 0.824707
0.850586 0.850586 0.850586
0.873047 0.873047 0.873047
0.892578 0.892578 0.892578
0.910156 0.910156 0.910156
0.925781 0.925781 0.925781
0.061462 0.061462 0.061462
0.062561 0.062561 0.062561
0.064148 0.064148 0.064148
0.066406 0.066406 0.066406
0.069702 0.069702 0.069702
0.074463 0.074463 0.074463
0.081177 0.081177 0.081177
0.090637 0.090637 0.090637
0.106812 0.106812 0.106812
0.129395 0.129395 0.129395
0.156494 0.156494 0.156494
0.187622 0.187622 0.187622
0.222534 0.222534 0.222534
0.260498 0.260498 0.260498
0.303223 0.303223 0.303223
0.347168 0.347168 0.347168
0.392090 0.392090 0.392090
0.436523 0.436523 0.436523
0.480469 0.480469 0.480469
0.523438 0.523438 0.523438
0.565918 0.565918 0.565918
0.606934 0.606934 0.606934
0.646484 0.646484 0.646484
0.685059 0.685059 0.685059
0.722656 0.722656 0.722656
0.759277 0.759277 0.759277
0.793945 0.793945 0.793945
0.824707 0.824707 0.824707
0.850586 0.850586 0.850586
0.873047 0.873047 0.873047
0.892578 0.892578 0.892578
0.910156 0.910156 0.910156
0.925781 0.925781 0.925781
0.071777 0.071777 0.071777
0.073059 0.073059 0.073059
0.074829 0.074829 0.074829
0.077393 0.077393 0.077393
0.081055 0.081055 0.081055
0.085999 0.085999 0.085999
0.093018 0.093018 0.093018
0.105042 0.105042 0.104858
0.121643 0.121643 0.121643
0.142700 0.142700 0.142700
0.167969 0.167969 0.167969
0.197144 0.197144 0.197144
0.229980 0.229980 0.229980
0.266846 0.266846 0.266846
0.308350 0.308350 0.308105
0.351074 0.351074 0.351074
0.394531 0.394531 0.394531
0.438477 0.438477 0.438477
0.481934 0.481934 0.481934
0.524414 0.524414 0.524414
0.566406 0.566406 0.566406
0.607422 0.607422 0.607422
0.646484 0.646484 0.646484
0.685547 0.685547 0.685547
0.722656 0.722656 0.722656
0.759277 0.759277 0.759277
0.793945 0.793945 0.793945
0.824707 0.824707 0.824707
0.850586 0.850586 0.850586
0.873047 0.873047 0.873047
0.892578 0.892578 0.892578
0.910156 0.910156 0.910156
0.925781 0.925781 0.925781
0.087585 0.087585 0.087585
0.088989 0.088989 0.088989
0.090881 0.090881 0.090881
0.093811 0.093811 0.093811
0.098145 0.098145 0.098145
0.104614 0.104614 0.104614
0.113525 0.113525 0.113525
0.125488 0.125488 0.125488
0.140625 0.140625 0.140625
0.159668 0.159668 0.159668
0.182251 0.182251 0.182251
0.208984 0.208984 0.208984
0.239868 0.239868 0.239868
0.275146 0.275146 0.275146
0.314453 0.314453 0.314453
0.355957 0.355469 0.355469
0.397949 0.397949 0.397949
0.440918 0.440918 0.440918
0.483643 0.483643 0.483643
0.525879 0.525879 0.525879
0.567383 0.567383 0.567383
0.607910 0.607910 0.607910
0.646973 0.646973 0.646973
0.685547 0.685547 0.685547
0.723145 0.723145 0.723145
0.759277 0.759277 0.759277
0.794434 0.794434 0.794434
0.825195 0.825195 0.825195
0.850586 0.850586 0.850586
0.873047 0.873047 0.873047
0.892578 0.892578 0.892578
0.910156 0.910156 0.910156
0.925781 0.925781 0.925781
0.114502 0.114502 0.114502
0.116394 0.116394 0.116394
0.118835 0.118835 0.118652
0.121948 0.121948 0.121948
0.126465 0.126465 0.126465
0.132324 0.132324 0.132324
0.140137 0.140137 0.140137
0.150513 0.150513 0.150513
0.163696 0.163696 0.163696
0.180054 0.180054 0.180054
0.200195 0.200195 0.200195
0.224365 0.224243 0.224243
0.252441 0.252441 0.252441
0.285889 0.285889 0.285889
0.322754 0.322754 0.322754
0.361816 0.361816 0.361816
0.402588 0.402588 0.402588
0.444092 0.444092 0.444092
0.486084 0.486084 0.486084
0.527344 0.527344 0.527344
0.568848 0.568848 0.568848
0.608887 0.608887 0.608887
0.647949 0.647949 0.647949
0.686035 0.686035 0.686035
0.723145 0.723145 0.723145
0.759766 0.759766 0.759277
0.794434 0.794434 0.794434
0.825195 0.825195 0.825195
0.851074 0.851074 0.850586
0.873047 0.873047 0.873047
0.892578 0.892578 0.892578
0.910156 0.910156 0.910156
0.925781 0.925781 0.925781
0.150146 0.150146 0.150146
0.151611 0.151611 0.151611
0.153564 0.153564 0.153564
0.156250 0.156250 0.156250
0.159912 0.159912 0.159912
0.164795 0.164795 0.164795
0.171143 0.171143 0.171143
0.179688 0.179688 0.179688
0.190674 0.190674 0.190674
0.204590 0.204590 0.204590
0.221924 0.221924 0.221924
0.243042 0.243042 0.243042
0.269043 0.269043 0.268799
0.299561 0.299561 0.299561
0.333740 0.333740 0.333740
0.370117 0.370117 0.370117
0.408936 0.408936 0.408936
0.448730 0.448730 0.448730
0.489258 0.489258 0.489258
0.529785 0.529785 0.529785
0.570312 0.570312 0.570312
0.609863 0.609863 0.609863
0.648438 0.648438 0.648438
0.686523 0.686523 0.686523
0.723633 0.723633 0.723633
0.759766 0.759766 0.759766
0.794434 0.794434 0.794434
0.825195 0.825195 0.825195
0.851074 0.851074 0.851074
0.873047 0.873047 0.873047
0.892578 0.892578 0.892578
0.910156 0.910156 0.910156
0.925781 0.925781 0.925781
0.189209 0.189209 0.189209
0.190186 0.190186 0.190186
0.191895 0.191895 0.191895
0.193970 0.193970 0.193970
0.196777 0.196777 0.196777
0.200806 0.200806 0.200806
0.205811 0.205811 0.205811
0.212646 0.212646 0.212646
0.221436 0.221436 0.221436
0.233154 0.233154 0.233154
0.247559 0.247559 0.247559
0.266357 0.266357 0.266357
0.289795 0.289795 0.289795
0.316650 0.316650 0.316650
0.347168 0.347168 0.347168
0.380859 0.380859 0.380859
0.416992 0.416992 0.416992
0.455078 0.455078 0.455078
0.493896 0.493896 0.493896
0.533203 0.533203 0.533203
0.572754 0.572754 0.572754
0.611328 0.611328 0.611328
0.649414 0.649414 0.649414
0.687012 0.687012 0.687012
0.724121 0.724121 0.724121
0.760254 0.760254 0.760254
0.794922 0.794922 0.794922
0.825684 0.825684 0.825684
0.851074 0.851074 0.851074
0.873535 0.873535 0.873535
0.893066 0.893066 0.893066
0.910156 0.910156 0.910156
0.925781 0.925781 0.925781
0.230591 0.230591 0.230591
0.231567 0.231567 0.231567
0.232788 0.232788 0.232788
0.234497 0.234497 0.234497
0.236694 0.236694 0.236694
0.239624 0.239624 0.239624
0.243530 0.243530 0.243530
0.248901 0.248901 0.248901
0.256104 0.256104 0.256104
0.265625 0.265625 0.265625
0.278564 0.278564 0.278564
0.294678 0.294678 0.294678
0.313965 0.313965 0.313965
0.337158 0.337158 0.337158
0.364014 0.364014 0.364014
0.394287 0.394287 0.394287
0.427490 0.427490 0.427490
0.462646 0.462646 0.462646
0.499756 0.499756 0.499756
0.537598 0.537598 0.537598
0.576172 0.576172 0.576172
0.613770 0.613770 0.613770
0.651367 0.651367 0.651367
0.688477 0.688477 0.688477
0.725098 0.725098 0.725098
0.760742 0.760742 0.760742
0.795410 0.795410 0.795410
0.825684 0.825684 0.825684
0.851074 0.851074 0.851074
0.873535 0.873535 0.873535
0.893066 0.893066 0.893066
0.910156 0.910156 0.910156
0.925781 0.925781 0.925781
0.275146 0.275146 0.275146
0.275879 0.275879 0.275879
0.276611 0.276611 0.276611
0.278076 0.278076 0.278076
0.279785 0.279785 0.279785
0.282471 0.282471 0.282471
0.285400 0.285400 0.285400
0.290039 0.290039 0.290039
0.295654 0.295654 0.295654
0.303223 0.303223 0.303223
0.313721 0.313721 0.313721
0.326172 0.326172 0.326172
0.342041 0.342041 0.342041
0.361572 0.361572 0.361572
0.384521 0.384521 0.384521
0.411133 0.411133 0.411133
0.440674 0.440674 0.440674
0.473145 0.473145 0.473145
0.507812 0.507812 0.507812
0.543457 0.543457 0.542969
0.580078 0.580078 0.580078
0.616699 0.616699 0.616699
0.653320 0.653320 0.653320
0.690430 0.690430 0.690430
0.726074 0.726074 0.726074
0.761230 0.761230 0.761230
0.796387 0.796387 0.796387
0.826172 0.826172 0.826172
0.851562 0.851562 0.851562
0.873535 0.873535 0.873535
0.893066 0.893066 0.893066
0.910645 0.910645 0.910645
0.926270 0.926270 0.925781
0.322266 0.322266 0.322266
0.322998 0.322998 0.322998
0.323486 0.323486 0.323486
0.324707 0.324707 0.324707
0.325684 0.325684 0.325684
0.327637 0.327637 0.327637
0.329834 0.329834 0.329834
0.333496 0.333496 0.333496
0.337891 0.337891 0.337891
0.343506 0.343506 0.343506
0.351074 0.351074 0.351074
0.361328 0.361328 0.360596
0.373779 0.373779 0.373779
0.389404 0.389404 0.389404
0.408691 0.408691 0.408691
0.430908 0.430908 0.430908
0.457031 0.457031 0.457031
0.485840 0.485840 0.485840
0.517090 0.517090 0.517090
0.550781 0.550781 0.550781
0.585449 0.585449 0.585449
0.621094 0.621094 0.621094
0.656250 0.656250 0.656250
0.691895 0.691895 0.691895
0.727539 0.727539 0.727539
0.762695 0.762695 0.762695
0.796875 0.796875 0.796875
0.826660 0.826660 0.826660
0.851562 0.851562 0.851562
0.873535 0.873535 0.873535
0.893066 0.893066 0.893066
0.910645 0.910645 0.910645
0.926270 0.926270 0.926270
0.369629 0.369629 0.369629
0.369629 0.369629 0.369629
0.370605 0.370605 0.370605
0.371094 0.371094 0.371094
0.372070 0.372070 0.372070
0.373535 0.373535 0.373535
0.375000 0.375000 0.375000
0.377686 0.377686 0.377686
0.380371 0.380371 0.380371
0.385010 0.385010 0.385010
0.390869 0.390869 0.390869
0.398193 0.398193 0.398193
0.407715 0.407715 0.407715
0.420166 0.420166 0.420166
0.436035 0.436035 0.436035
0.454590 0.454590 0.454590
0.476807 0.476807 0.476807
0.501465 0.501465 0.501465
0.529785 0.529785 0.529785
0.560547 0.560547 0.560547
0.592773 0.592773 0.592773
0.625977 0.625977 0.625977
0.660645 0.660645 0.660645
0.694824 0.694824 0.694824
0.729492 0.729492 0.729492
0.764160 0.764160 0.764160
0.797852 0.797852 0.797852
0.826660 0.826660 0.826660
0.852051 0.852051 0.852051
0.874023 0.874023 0.874023
0.893066 0.893066 0.893066
0.910645 0.910645 0.910645
0.926270 0.926270 0.926270
0.415771 0.415771 0.415771
0.416260 0.416260 0.416260
0.416504 0.416504 0.416504
0.416992 0.416992 0.416992
0.417725 0.417725 0.417725
0.418701 0.418701 0.418701
0.419922 0.419922 0.419922
0.421631 0.421631 0.421631
0.424316 0.424316 0.423828
0.427246 0.427246 0.427246
0.431396 0.431396 0.431396
0.437256 0.437256 0.437012
0.444580 0.444580 0.444580
0.453857 0.453857 0.453857
0.466064 0.466064 0.466064
0.481201 0.481201 0.481201
0.499512 0.499512 0.499512
0.520508 0.520508 0.520508
0.544922 0.544922 0.544922
0.572266 0.572266 0.572266
0.602051 0.602051 0.602051
0.632812 0.632812 0.632812
0.665527 0.665527 0.665527
0.699219 0.699219 0.699219
0.732422 0.732422 0.732422
0.766113 0.766113 0.766113
0.799316 0.799316 0.799316
0.827637 0.827637 0.827637
0.852539 0.852539 0.852539
0.874512 0.874512 0.874512
0.893555 0.893555 0.893555
0.910645 0.910645 0.910645
0.926270 0.926270 0.926270
0.461670 0.461670 0.461670
0.462158 0.462158 0.462158
0.462158 0.462158 0.462158
0.462402 0.462402 0.462402
0.462646 0.462646 0.462646
0.463867 0.463867 0.463867
0.464600 0.464600 0.464600
0.465576 0.465576 0.465576
0.467285 0.467285 0.467285
0.469971 0.469971 0.469971
0.472656 0.472656 0.472656
0.477051 0.477051 0.477051
0.482666 0.482666 0.482666
0.489502 0.489502 0.489502
0.499023 0.499023 0.498779
0.510742 0.510742 0.510742
0.524902 0.524902 0.524902
0.542480 0.542480 0.542480
0.563965 0.563965 0.563965
0.587402 0.587402 0.587402
0.613281 0.613281 0.613281
0.642090 0.642090 0.642090
0.672363 0.672363 0.672363
0.703613 0.703613 0.703613
0.736328 0.736328 0.736328
0.768555 0.768555 0.768555
0.800781 0.800781 0.800781
0.829102 0.829102 0.829102
0.853027 0.853027 0.853027
0.874512 0.874512 0.874512
0.894043 0.894043 0.894043
0.911133 0.911133 0.911133
0.926270 0.926270 0.926270
0.506348 0.506348 0.506348
0.506348 0.506348 0.506348
0.506348 0.506348 0.506348
0.506836 0.506836 0.506836
0.507324 0.507324 0.506836
0.507812 0.507812 0.507812
0.508301 0.508301 0.508301
0.508789 0.508789 0.508789
0.510254 0.510254 0.510254
0.512207 0.512207 0.512207
0.514160 0.514160 0.514160
0.517090 0.517090 0.517090
0.520996 0.520996 0.520996
0.526367 0.526367 0.526367
0.533691 0.533691 0.533691
0.542480 0.542480 0.542480
0.553711 0.553711 0.553711
0.568359 0.568359 0.568359
0.584961 0.584961 0.584961
0.604980 0.604980 0.604980
0.627930 0.627930 0.627930
0.653320 0.653320 0.653320
0.681152 0.681152 0.681152
0.710449 0.710449 0.710449
0.741211 0.741211 0.741211
0.772461 0.772461 0.771973
0.803223 0.803223 0.803223
0.830078 0.830078 0.830078
0.854492 0.854492 0.854492
0.875488 0.875488 0.875488
0.894043 0.894043 0.894043
0.911133 0.911133 0.911133
0.926758 0.926758 0.926758
0.549316 0.549316 0.549316
0.549805 0.549805 0.549805
0.549805 0.549805 0.549805
0.549805 0.549805 0.549805
0.550293 0.550293 0.550293
0.550293 0.550293 0.550293
0.550781 0.550781 0.550781
0.551270 0.551270 0.551270
0.552246 0.552246 0.552246
0.553223 0.553223 0.553223
0.555176 0.555176 0.555176
0.557129 0.557129 0.557129
0.560059 0.560059 0.560059
0.563965 0.563965 0.563965
0.569336 0.569336 0.569336
0.576172 0.576172 0.576172
0.584961 0.584961 0.584961
0.595703 0.595703 0.595703
0.609375 0.609375 0.609375
0.625977 0.625977 0.625977
0.645508 0.645508 0.645508
0.667480 0.667480 0.667480
0.691895 0.691895 0.691895
0.719238 0.719238 0.719238
0.747070 0.747070 0.747070
0.777344 0.777344 0.777344
0.806641 0.806641 0.806641
0.832520 0.832520 0.832520
0.855469 0.855469 0.855469
0.876465 0.876465 0.876465
0.894531 0.894531 0.894531
0.911621 0.911621 0.911621
0.926758 0.926758 0.926758
0.591309 0.591309 0.591309
0.591309 0.591309 0.591309
0.591309 0.591309 0.591309
0.591797 0.591797 0.591797
0.591797 0.591797 0.591797
0.592285 0.592285 0.592285
0.592285 0.592285 0.592285
0.592773 0.592773 0.592773
0.593750 0.593750 0.593750
0.594238 0.594238 0.594238
0.595215 0.595215 0.595215
0.597168 0.597168 0.597168
0.599121 0.599121 0.599121
0.602051 0.602051 0.602051
0.605469 0.605469 0.605469
0.610352 0.610352 0.610352
0.617188 0.617188 0.617188
0.625488 0.625488 0.625488
0.636230 0.636230 0.636230
0.648926 0.648926 0.648926
0.665527 0.665527 0.665527
0.684082 0.684082 0.684082
0.705566 0.705566 0.705566
0.729492 0.729492 0.729492
0.755859 0.755859 0.755859
0.783203 0.783203 0.783203
0.810547 0.810547 0.810547
0.834961 0.834961 0.834961
0.857422 0.857422 0.857422
0.877441 0.877441 0.877441
0.895508 0.895508 0.895508
0.912109 0.912109 0.912109
0.927246 0.927246 0.927246
0.631836 0.631836 0.631836
0.631836 0.631836 0.631836
0.631836 0.631836 0.631836
0.632324 0.632324 0.632324
0.632324 0.632324 0.632324
0.632324 0.632324 0.632324
0.632812 0.632812 0.632324
0.632812 0.632812 0.632812
0.633301 0.633301 0.633301
0.633301 0.633301 0.633301
0.634766 0.634766 0.634766
0.636230 0.636230 0.636230
0.637207 0.637207 0.637207
0.639160 0.639160 0.639160
0.642090 0.642090 0.642090
0.645508 0.645508 0.645508
0.650391 0.650391 0.650391
0.657227 0.657227 0.657227
0.665039 0.665039 0.665039
0.675293 0.675293 0.675293
0.687988 0.687988 0.687988
0.703125 0.703125 0.703125
0.722168 0.722168 0.722168
0.742676 0.742676 0.742676
0.766113 0.766113 0.766113
0.791504 0.791504 0.791504
0.815918 0.815918 0.815918
0.838379 0.838379 0.838379
0.859375 0.859375 0.859375
0.878906 0.878906 0.878906
0.896484 0.896484 0.896484
0.912598 0.912598 0.912598
0.927734 0.927734 0.927734
0.670898 0.670898 0.670898
0.670898 0.670898 0.670898
0.670898 0.670898 0.670898
0.670898 0.670898 0.670898
0.671875 0.671875 0.671875
0.671875 0.671875 0.671875
0.671875 0.671875 0.671875
0.671875 0.671875 0.671875
0.672363 0.672363 0.672363
0.672852 0.672852 0.672363
0.672852 0.672852 0.672852
0.673828 0.673828 0.673828
0.674805 0.674805 0.674805
0.676270 0.676270 0.676270
0.678223 0.678223 0.678223
0.680664 0.680664 0.680664
0.684082 0.684082 0.684082
0.688965 0.688965 0.688965
0.694824 0.694824 0.694824
0.703125 0.703125 0.703125
0.713379 0.713379 0.713379
0.725586 0.725586 0.725586
0.740234 0.740234 0.740234
0.758789 0.758789 0.758789
0.778809 0.778809 0.778809
0.800781 0.800781 0.800781
0.822266 0.822266 0.822266
0.842773 0.842773 0.842773
0.862793 0.862793 0.862793
0.880859 0.880859 0.880859
0.897949 0.897949 0.897949
0.913574 0.913574 0.913574
0.928223 0.928223 0.928223
0.708984 0.708984 0.708984
0.708984 0.708984 0.708984
0.708984 0.708984 0.708984
0.708984 0.708984 0.708984
0.708984 0.708984 0.708984
0.708984 0.708984 0.708984
0.709961 0.709961 0.709961
0.709961 0.709961 0.709961
0.709961 0.709961 0.709961
0.710449 0.710449 0.710449
0.710449 0.710449 0.710449
0.710938 0.710938 0.710938
0.711914 0.711914 0.711914
0.712891 0.712891 0.712891
0.714355 0.714355 0.714355
0.716309 0.716309 0.716309
0.718262 0.718262 0.718262
0.722168 0.722168 0.722168
0.726562 0.726562 0.726562
0.732422 0.732422 0.732422
0.740234 0.740234 0.740234
0.750000 0.750000 0.750000
0.762207 0.762207 0.762207
0.776367 0.776367 0.776367
0.793945 0.793945 0.793457
0.812012 0.812012 0.812012
0.830078 0.830078 0.830078
0.848633 0.848633 0.848633
0.866211 0.866211 0.866211
0.883301 0.883301 0.883301
0.899902 0.899902 0.899414
0.914551 0.914551 0.914551
0.929199 0.929199 0.929199
0.746094 0.746094 0.746094
0.746094 0.746094 0.746094
0.746094 0.746094 0.746094
0.746094 0.746094 0.746094
0.746094 0.746094 0.746094
0.746094 0.746094 0.746094
0.746094 0.746094 0.746094
0.746582 0.746582 0.746582
0.746582 0.746582 0.746582
0.746582 0.746582 0.746582
0.747070 0.747070 0.747070
0.747070 0.747070 0.747070
0.748047 0.748047 0.748047
0.749023 0.749023 0.749023
0.749512 0.749512 0.749512
0.751465 0.751465 0.751465
0.752930 0.752930 0.752930
0.755371 0.755371 0.755371
0.758789 0.758789 0.758789
0.763184 0.763184 0.763184
0.768555 0.768555 0.768555
0.776367 0.776367 0.776367
0.786133 0.786133 0.786133
0.797363 0.797363 0.797363
0.810059 0.810059 0.810059
0.824219 0.824219 0.824219
0.839844 0.839844 0.839844
0.855469 0.855469 0.855469
0.871582 0.871582 0.871582
0.886719 0.886719 0.886719
0.901855 0.901855 0.901855
0.916504 0.916504 0.916504
0.930176 0.930176 0.930176
0.782227 0.782227 0.782227
0.782227 0.782227 0.782227
0.782227 0.782227 0.782227
0.782227 0.782227 0.782227
0.782227 0.782227 0.782227
0.782227 0.782227 0.782227
0.782227 0.782227 0.782227
0.782227 0.782227 0.782227
0.782715 0.782715 0.782715
0.782715 0.782715 0.782715
0.782715 0.782715 0.782715
0.783203 0.783203 0.783203
0.783203 0.783203 0.783203
0.783691 0.783691 0.783691
0.784668 0.784668 0.784668
0.785645 0.785645 0.785645
0.787109 0.787109 0.787109
0.788574 0.788574 0.788574
0.791016 0.791016 0.791016
0.793945 0.793945 0.793945
0.798340 0.798340 0.798340
0.803223 0.803223 0.803223
0.810059 0.810059 0.810059
0.817871 0.817871 0.817871
0.827148 0.827148 0.827148
0.838379 0.838379 0.838379
0.850586 0.850586 0.850586
0.863770 0.863770 0.863770
0.877441 0.877441 0.877441
0.891113 0.891113 0.891113
0.904785 0.904785 0.904785
0.918457 0.918457 0.918457
0.931641 0.931641 0.931641
0.814941 0.814941 0.814941
0.814941 0.814941 0.814941
0.814941 0.814941 0.814941
0.814941 0.814941 0.814941
0.814941 0.814941 0.814941
0.814941 0.814941 0.814941
0.814941 0.814941 0.814941
0.814941 0.814941 0.814941
0.814941 0.814941 0.814941
0.815430 0.815430 0.815430
0.815430 0.815430 0.815430
0.815430 0.815430 0.815430
0.815918 0.815918 0.815918
0.815918 0.815918 0.815918
0.815918 0.815918 0.815918
0.816406 0.816406 0.816406
0.817383 0.817383 0.817383
0.818848 0.818848 0.818848
0.820312 0.820312 0.820312
0.822266 0.822266 0.822266
0.824707 0.824707 0.824707
0.828125 0.828125 0.828125
0.832520 0.832520 0.832520
0.838379 0.838379 0.838379
0.844727 0.844727 0.844727
0.853027 0.853027 0.853027
0.862305 0.862305 0.862305
0.873047 0.873047 0.872559
0.884277 0.884277 0.884277
0.896484 0.896484 0.896484
0.908691 0.908691 0.908691
0.921387 0.921387 0.921387
0.933594 0.933594 0.933594
0.842285 0.842285 0.842285
0.842285 0.842285 0.842285
0.842285 0.842285 0.842285
0.842285 0.842285 0.842285
0.842285 0.842285 0.842285
0.842285 0.842285 0.842285
0.842285 0.842285 0.842285
0.842285 0.842285 0.842285
0.842285 0.842285 0.842285
0.842285 0.842285 0.842285
0.842285 0.842285 0.842285
0.842773 0.842773 0.842773
0.842773 0.842773 0.842773
0.842773 0.842773 0.842773
0.842773 0.842773 0.842773
0.843262 0.843262 0.843262
0.844238 0.844238 0.843750
0.844727 0.844727 0.844727
0.845703 0.845703 0.845703
0.846680 0.846680 0.846680
0.848145 0.848145 0.848145
0.850586 0.850586 0.850586
0.853516 0.853516 0.853516
0.857422 0.857422 0.857422
0.862305 0.862305 0.862305
0.868164 0.868164 0.868164
0.875000 0.875000 0.875000
0.883301 0.883301 0.883301
0.892578 0.892578 0.892578
0.902832 0.902832 0.902832
0.913574 0.913574 0.913574
0.924805 0.924805 0.924805
0.936035 0.936035 0.936035
0.865723 0.865723 0.865723
0.865723 0.865723 0.865723
0.865723 0.865723 0.865723
0.865723 0.865723 0.865723
0.865723 0.865723 0.865723
0.865723 0.865723 0.865723
0.865723 0.865723 0.865723
0.865723 0.865723 0.865723
0.865723 0.865723 0.865723
0.865723 0.865723 0.865723
0.865723 0.865723 0.865723
0.866211 0.866211 0.865723
0.866211 0.866211 0.866211
0.866211 0.866211 0.866211
0.866211 0.866211 0.866211
0.866211 0.866211 0.866211
0.866699 0.866699 0.866699
0.867188 0.867188 0.867188
