RED_IPP2_Creative/RED_BW_0400.cube
# RED Digital Cinema Output Transform LUT for IPP2
# Creatives by Eric Weidt
# BMD cube from Truelight v4.0
# Settings used in creation of this LUT are:
# Development Color Space = USER SELECTABLE
# Output Gamma Curve = USER SELECTABLE
# Output Tonemap = USER SELECTABLE
# Highlight Rolloff = USER SELECTABLE
LUT_3D_SIZE 5
0.016556 0.016556 0.016556
0.230103 0.230103 0.230103
0.520020 0.520020 0.520020
0.670898 0.670898 0.670898
0.839355 0.839355 0.839355
0.308838 0.308838 0.308838
0.273438 0.273438 0.273438
0.520996 0.520996 0.520996
0.670898 0.670898 0.670898
0.839355 0.839355 0.839355
0.603027 0.603027 0.603027
0.575684 0.575684 0.575684
0.594727 0.594727 0.594727
0.684082 0.684082 0.684082
0.840332 0.840332 0.840332
0.753906 0.753906 0.753906
0.724609 0.724609 0.724609
0.709473 0.709473 0.709473
0.735352 0.735352 0.735352
0.850586 0.850586 0.850586
0.922363 0.922363 0.922363
0.883301 0.883301 0.883301
0.853027 0.853027 0.853027
0.837891 0.837891 0.837891
0.884277 0.884277 0.884277
0.286865 0.286865 0.286865
0.326172 0.326172 0.326172
0.528320 0.528320 0.528320
0.672852 0.672852 0.672852
0.839844 0.839844 0.839355
0.363281 0.363281 0.363281
0.344727 0.344727 0.344727
0.528809 0.528809 0.528809
0.672852 0.672852 0.672852
0.839844 0.839844 0.839355
0.606445 0.606445 0.606445
0.580566 0.580566 0.580566
0.598633 0.598633 0.598633
0.685547 0.685547 0.685547
0.840820 0.840820 0.840820
0.754395 0.754395 0.754395
0.725586 0.725586 0.725586
0.710449 0.710449 0.710449
0.736328 0.736328 0.736328
0.851074 0.851074 0.851074
0.922363 0.922363 0.922363
0.883301 0.883301 0.883301
0.853516 0.853516 0.853516
0.837891 0.837891 0.837891
0.884766 0.884766 0.884766
0.580078 0.580078 0.580078
0.582031 0.582031 0.582031
0.622070 0.622070 0.622070
0.703125 0.703125 0.703125
0.845703 0.845703 0.845703
0.585449 0.585449 0.585449
0.583496 0.583496 0.583496
0.622070 0.622070 0.622070
0.703125 0.703125 0.703125
0.845703 0.845703 0.845703
0.659668 0.659668 0.659668
0.645020 0.645020 0.645020
0.654785 0.654785 0.654785
0.712402 0.712402 0.712402
0.847168 0.847168 0.847168
0.769043 0.769043 0.769043
0.744629 0.744629 0.744629
0.731934 0.731934 0.731934
0.753418 0.753418 0.753418
0.856445 0.856445 0.856445
0.925293 0.925293 0.925293
0.887695 0.887695 0.887695
0.858887 0.858887 0.858887
0.844238 0.844238 0.844238
0.888672 0.888672 0.888672
0.730469 0.730469 0.730469
0.730957 0.730957 0.730957
0.741211 0.741211 0.741211
0.772949 0.772949 0.772949
0.866699 0.866699 0.866699
0.731934 0.731934 0.731934
0.731445 0.731445 0.731445
0.741211 0.741211 0.741211
0.772949 0.772949 0.772949
0.866699 0.866699 0.866699
0.753906 0.753906 0.753906
0.748535 0.748535 0.748535
0.751953 0.751953 0.751953
0.777344 0.777344 0.777344
0.867676 0.867676 0.867676
0.810547 0.810547 0.810547
0.794922 0.794922 0.794922
0.788086 0.788086 0.788086
0.800293 0.800293 0.800293
0.875488 0.875488 0.875488
0.935059 0.935059 0.935059
0.901855 0.901855 0.901855
0.877441 0.877441 0.877441
0.865723 0.865723 0.865723
0.902344 0.902344 0.902344
0.898926 0.898926 0.898926
0.898926 0.898926 0.898926
0.900879 0.900879 0.900879
0.907715 0.907715 0.907715
0.941406 0.941406 0.941406
0.899414 0.899414 0.899414
0.899414 0.899414 0.898926
0.900879 0.900879 0.900879
0.907715 0.907715 0.907715
0.941406 0.941406 0.941406
0.903809 0.903809 0.903809
0.902344 0.902344 0.902344
0.903320 0.903320 0.903320
0.909180 0.909180 0.909180
0.941406 0.941406 0.941406
0.918945 0.918945 0.918945
0.914062 0.914062 0.914062
0.912109 0.912109 0.912109
0.915527 0.915527 0.915527
0.945312 0.945312 0.945312
0.979004 0.979004 0.979004
0.958984 0.958984 0.958984
0.946289 0.946289 0.946289
0.940430 0.940430 0.940430
0.959473 0.959473 0.959473
