RED_IPP2_Creative/RED_GRIME.cube
# RED Digital Cinema Output Transform LUT for IPP2
# Creatives by Eric Weidt
# BMD cube from Truelight v4.0
# Settings used in creation of this LUT are:
# Development Color Space = USER SELECTABLE
# Output Gamma Curve = USER SELECTABLE
# Output Tonemap = USER SELECTABLE
# Highlight Rolloff = USER SELECTABLE
LUT_3D_SIZE 5
0.000000 0.000300 0.000101
0.260742 0.000000 0.000000
0.547852 0.333496 0.296143
0.750977 0.372559 0.332764
0.999512 0.000000 0.000000
0.048584 0.390381 0.203979
0.249634 0.245117 0.053497
0.505371 0.361084 0.286621
0.734375 0.424805 0.370361
0.916016 0.184692 0.000000
0.276123 0.666016 0.375732
0.368652 0.649902 0.403076
0.530273 0.541016 0.406250
0.708984 0.526367 0.373535
0.916016 0.496338 0.000000
0.012100 0.834473 0.036896
0.317383 0.826172 0.038147
0.520996 0.750488 0.066345
0.721191 0.716309 0.081482
0.948730 0.725098 0.000000
0.000000 0.933594 0.000000
0.304932 0.984375 0.164185
0.548340 0.941895 0.151978
0.751953 0.941895 0.000000
0.988770 0.966797 0.102783
0.000000 0.001631 0.376953
0.267334 0.000000 0.256836
0.645996 0.403076 0.415771
0.788574 0.000000 0.285156
0.999512 0.062317 0.257568
0.168091 0.403320 0.428955
0.244019 0.245605 0.250244
0.553711 0.376953 0.357666
0.752930 0.392090 0.369141
0.999512 0.205688 0.224976
0.220703 0.675781 0.399170
0.367676 0.626465 0.425537
0.531250 0.543945 0.415283
0.716309 0.524902 0.393066
0.964355 0.498535 0.272949
0.000000 0.910645 0.292725
0.251709 0.833496 0.266357
0.518066 0.794434 0.304199
0.723145 0.726562 0.343018
0.956055 0.743164 0.338623
0.082520 0.999512 0.215576
0.273682 0.999512 0.272949
0.515137 0.975098 0.300049
0.760254 0.961914 0.379639
0.992676 0.976074 0.388184
0.024719 0.000000 0.598633
0.250732 0.001107 0.547852
0.542969 0.298096 0.571289
0.788574 0.053802 0.545898
0.999512 0.157959 0.538086
0.000000 0.294678 0.610840
0.249146 0.251709 0.614258
0.547363 0.363770 0.571289
0.810059 0.255127 0.553711
0.999512 0.241943 0.522949
0.364258 0.635742 0.640625
0.395020 0.620605 0.638184
0.531250 0.553223 0.565430
0.750488 0.506836 0.527832
0.999512 0.489746 0.514648
0.000000 0.891113 0.592285
0.260254 0.912598 0.598145
0.474854 0.822754 0.514160
0.725098 0.735352 0.549805
0.966797 0.749512 0.561523
0.051117 0.999512 0.570801
0.234741 0.999512 0.532227
0.475342 0.999512 0.511719
0.756348 0.976074 0.573242
0.995117 0.984375 0.610840
0.196899 0.000000 0.767090
0.262939 0.129761 0.771973
0.474365 0.000000 0.764648
0.767578 0.447510 0.790527
0.999512 0.000000 0.768555
0.000000 0.252441 0.778320
0.000000 0.290771 0.783691
0.473877 0.262451 0.771973
0.766602 0.459229 0.789551
0.999512 0.273438 0.769531
0.000000 0.508301 0.790527
0.251465 0.505859 0.793945
0.472168 0.493652 0.797852
0.761719 0.540527 0.784668
0.999512 0.488525 0.772461
0.000000 0.784180 0.778320
0.250000 0.795410 0.791992
0.473633 0.795898 0.800781
0.724121 0.742188 0.760742
0.999512 0.742676 0.762207
0.098877 0.999512 0.767090
0.280273 0.999512 0.773926
0.473145 0.999512 0.787109
0.725098 0.999512 0.761719
0.997070 0.991699 0.807617
0.000000 0.478760 0.978027
0.000000 0.000000 0.974609
0.499512 0.408691 0.985840
0.715332 0.000000 0.995117
0.999512 0.142334 0.998535
0.390869 0.405029 0.968262
0.000000 0.436279 0.981445
0.000000 0.235962 0.980957
0.738281 0.314697 0.998535
0.999512 0.260010 0.998535
0.474121 0.337402 0.955078
0.467529 0.443359 0.971680
0.502930 0.487549 0.987793
0.731934 0.275146 0.989258
0.999512 0.490723 0.998535
0.000000 0.716309 0.962891
0.477783 0.719238 0.970703
0.485596 0.731445 0.977539
0.724609 0.739746 0.992188
0.999512 0.742188 0.998535
0.103943 0.999512 0.998535
0.243652 0.999512 0.998535
0.472900 0.999512 0.998535
0.724609 0.999512 0.998535
0.999023 0.999023 0.998535
