RED_IPP2_Creative/RED_SUPERCOLOR.cube
# RED Digital Cinema Output Transform LUT for IPP2
# Creatives by Eric Weidt
# BMD cube from Truelight v4.0
# Settings used in creation of this LUT are:
# Development Color Space = USER SELECTABLE
# Output Gamma Curve = USER SELECTABLE
# Output Tonemap = USER SELECTABLE
# Highlight Rolloff = USER SELECTABLE 
LUT_3D_SIZE 33
0.007645 0.000000 0.000146
0.051300 0.000000 0.000000
0.083008 0.000000 0.000000
0.107910 0.000000 0.000000
0.129150 0.000000 0.000000
0.149048 0.007664 0.007633
0.166626 0.018555 0.017288
0.183105 0.031097 0.028702
0.198486 0.044769 0.041687
0.213013 0.059998 0.055298
0.228271 0.076233 0.069519
0.246338 0.093018 0.084351
0.266602 0.110596 0.099854
0.288574 0.129150 0.115601
0.310791 0.149170 0.131104
0.333008 0.170532 0.146729
0.356201 0.192993 0.163574
0.379395 0.216431 0.181885
0.403076 0.241089 0.201538
0.427002 0.265625 0.222778
0.450928 0.291748 0.245605
0.475830 0.318359 0.269775
0.500488 0.345215 0.294922
0.525391 0.373291 0.321289
0.551270 0.401611 0.350830
0.577637 0.430420 0.380615
0.604492 0.459473 0.410645
0.630859 0.488770 0.441650
0.658203 0.517578 0.472412
0.686035 0.547852 0.503418
0.713867 0.577637 0.534668
0.741211 0.607910 0.566406
0.769043 0.638184 0.597656
0.000000 0.035950 0.000000
0.031525 0.031235 0.000000
0.071594 0.028336 0.000000
0.104370 0.027679 0.000000
0.129517 0.030502 0.000000
0.151245 0.036072 0.008362
0.170532 0.044250 0.020432
0.188354 0.053986 0.033356
0.204468 0.065491 0.047241
0.219849 0.078674 0.061462
0.236572 0.093018 0.075867
0.255127 0.108032 0.090576
0.274902 0.124390 0.105713
0.295898 0.141724 0.120667
0.317383 0.161011 0.135742
0.339600 0.181152 0.151123
0.361572 0.202515 0.167725
0.384766 0.224976 0.185791
0.407471 0.248413 0.205322
0.431152 0.272461 0.226440
0.454834 0.297852 0.249023
0.479004 0.323242 0.272705
0.503418 0.350098 0.297607
0.528809 0.377197 0.324219
0.553711 0.405273 0.353271
0.579590 0.433350 0.382568
0.605957 0.462402 0.412842
0.632812 0.491455 0.443604
0.659668 0.520020 0.474121
0.687012 0.549316 0.504883
0.714844 0.579102 0.536133
0.741699 0.609375 0.567383
0.770020 0.639648 0.598633
0.000000 0.065613 0.000000
0.027267 0.062561 0.000000
0.062439 0.062408 0.000000
0.096375 0.061737 0.000000
0.124390 0.063110 0.000000
0.150513 0.066040 0.011360
0.172852 0.071411 0.024643
0.192749 0.078552 0.038696
0.210327 0.087891 0.053101
0.227539 0.098816 0.067627
0.245361 0.111145 0.082214
0.264160 0.124756 0.096863
0.283691 0.139648 0.111633
0.303711 0.156128 0.126099
0.324463 0.173828 0.140625
0.345947 0.192993 0.156128
0.367920 0.213135 0.172485
0.389893 0.234253 0.190186
0.412598 0.256348 0.209595
0.435547 0.280029 0.230469
0.458740 0.304443 0.252686
0.482422 0.329346 0.275879
0.506836 0.354980 0.301025
0.531738 0.381592 0.327148
0.556641 0.409180 0.355957
0.582031 0.437256 0.385254
0.608398 0.465332 0.415283
0.634766 0.493896 0.445312
0.661133 0.522461 0.476074
0.688477 0.551758 0.506348
0.716309 0.581055 0.537598
0.743652 0.610840 0.568848
0.770996 0.641113 0.599609
0.004581 0.093140 0.004471
0.034088 0.092163 0.005196
0.063843 0.091919 0.006977
0.093079 0.093140 0.005337
0.122375 0.093994 0.008675
0.148682 0.096191 0.020569
0.172485 0.100098 0.034332
0.195068 0.105164 0.046783
0.215576 0.112061 0.060638
0.234619 0.120911 0.074890
0.253418 0.131226 0.089294
0.272217 0.143311 0.103760
0.291504 0.156860 0.118042
0.311523 0.171875 0.132080
0.331787 0.188354 0.146484
0.352783 0.206177 0.161621
0.374023 0.224976 0.177856
0.395752 0.245239 0.195435
0.417969 0.266357 0.214478
0.440674 0.288574 0.234863
0.463379 0.311768 0.256836
0.486816 0.335938 0.280273
0.510254 0.360840 0.304688
0.534668 0.386719 0.330566
0.559570 0.413818 0.359131
0.584961 0.441162 0.388184
0.610840 0.468994 0.417969
0.636719 0.497070 0.447754
0.663086 0.524902 0.478027
0.689453 0.554199 0.508301
0.717773 0.583008 0.539062
0.744629 0.612793 0.570312
0.771973 0.642578 0.601074
0.026672 0.119873 0.026535
0.049255 0.120056 0.027496
0.074341 0.119690 0.032135
0.098145 0.121643 0.032654
0.123535 0.123535 0.033325
0.149414 0.125610 0.038025
0.174194 0.128418 0.047821
0.196533 0.132568 0.060852
0.218628 0.137939 0.072510
0.239868 0.144897 0.084900
0.259766 0.153442 0.098145
0.279297 0.163940 0.111816
0.299072 0.175781 0.125366
0.319092 0.189331 0.139038
0.339111 0.204102 0.152954
0.359619 0.220459 0.167847
0.380615 0.238159 0.184082
0.401611 0.256592 0.201294
0.423828 0.276855 0.220093
0.446045 0.297852 0.240234
0.468506 0.320312 0.261719
0.491455 0.343262 0.284668
0.514648 0.367432 0.308838
0.539062 0.392334 0.334473
0.562988 0.418945 0.362549
0.587891 0.445557 0.391357
0.613281 0.473145 0.420654
0.639160 0.500488 0.450439
0.665527 0.528320 0.480713
0.691895 0.556641 0.510254
0.719238 0.585938 0.541016
0.745605 0.614258 0.571777
0.773438 0.644531 0.602539
0.053040 0.145874 0.053009
0.070190 0.146729 0.054230
0.089783 0.147461 0.057068
0.110474 0.148438 0.061249
0.130981 0.151123 0.061829
0.153564 0.153687 0.063110
0.177490 0.156616 0.067993
0.200684 0.159912 0.076416
0.222778 0.164673 0.087524
0.243286 0.170532 0.099487
0.265137 0.177490 0.109985
0.285889 0.186035 0.121887
0.305664 0.196289 0.134033
0.325928 0.208252 0.146973
0.346191 0.221558 0.160522
0.366699 0.236206 0.175171
0.387451 0.252197 0.190918
0.408447 0.269775 0.208008
0.429932 0.288330 0.226196
0.451904 0.308105 0.245972
0.473877 0.329590 0.267090
0.496094 0.351562 0.290039
0.519531 0.374512 0.313721
0.542480 0.398926 0.339111
0.566895 0.424805 0.366455
0.591309 0.450684 0.395020
0.616211 0.477783 0.424072
0.641602 0.503906 0.453857
0.667969 0.531738 0.483154
0.694336 0.559570 0.512695
0.720703 0.587891 0.542480
0.747559 0.617188 0.573730
0.774902 0.646484 0.604492
0.079895 0.172241 0.080200
0.092529 0.173828 0.081177
0.106995 0.175293 0.082642
0.123596 0.176392 0.085449
0.142090 0.178345 0.088196
0.162720 0.181030 0.088745
0.184448 0.183960 0.091248
0.206665 0.187134 0.096191
0.228882 0.191162 0.103760
0.249878 0.196045 0.113159
0.270264 0.202148 0.124084
0.291016 0.209717 0.134766
0.312500 0.218384 0.145142
0.332764 0.228638 0.156738
0.353271 0.240479 0.169556
0.373779 0.253174 0.183594
0.394287 0.267822 0.198975
0.415527 0.284180 0.215576
0.436523 0.301270 0.233276
0.458008 0.320068 0.252686
0.479980 0.339600 0.273193
0.501953 0.360596 0.295654
0.523926 0.382812 0.319092
0.547852 0.406494 0.344238
0.570801 0.431152 0.370850
0.595215 0.456543 0.399414
0.619141 0.482666 0.427734
0.645020 0.508789 0.457275
0.670410 0.535645 0.486572
0.696777 0.562988 0.515625
0.722656 0.591309 0.545410
0.749512 0.620117 0.576172
0.776367 0.648926 0.606445
0.101257 0.200439 0.104858
0.111511 0.202148 0.105225
0.124084 0.203491 0.105835
0.140381 0.204468 0.107422
0.158936 0.205322 0.112183
0.176514 0.207886 0.112854
0.195801 0.210938 0.114380
0.216064 0.214233 0.117493
0.237183 0.217651 0.122253
0.257812 0.222046 0.129150
0.278564 0.227295 0.137695
0.299072 0.233887 0.147705
0.319092 0.241577 0.158569
0.339600 0.250244 0.169312
0.360352 0.260498 0.180908
0.381348 0.271973 0.193970
0.401367 0.285156 0.208130
0.422607 0.299561 0.224243
0.443604 0.315674 0.241699
0.464844 0.332520 0.260010
0.486328 0.350830 0.280029
0.508301 0.370850 0.302002
0.530273 0.391846 0.325195
0.553223 0.414307 0.349609
0.575684 0.438477 0.375732
0.599121 0.463623 0.404053
0.623047 0.488525 0.432617
0.648438 0.513672 0.460938
0.673340 0.540039 0.490234
0.699219 0.567383 0.518555
0.725098 0.594727 0.548340
0.751953 0.623047 0.578125
0.778320 0.651367 0.608887
0.123840 0.229126 0.126099
0.135010 0.230225 0.126099
0.147705 0.231079 0.127075
0.162231 0.232056 0.128906
0.178345 0.232788 0.132568
0.194458 0.234741 0.134888
0.211182 0.237549 0.136108
0.229370 0.240723 0.138306
0.248413 0.244141 0.141602
0.268066 0.248169 0.146606
0.288086 0.252441 0.153198
0.308350 0.258057 0.161377
0.328369 0.264648 0.170898
0.347900 0.272461 0.182007
0.367676 0.281738 0.194336
0.388184 0.292236 0.206177
0.409424 0.303711 0.219727
0.429932 0.317139 0.234619
0.451172 0.330811 0.250732
0.472168 0.346436 0.268311
0.492920 0.363770 0.288086
0.514648 0.382568 0.309570
0.536621 0.402344 0.332275
0.558594 0.423584 0.356445
0.581055 0.446289 0.381836
0.604492 0.470459 0.409424
0.627930 0.495117 0.437500
0.652344 0.520020 0.465820
0.676758 0.545898 0.494141
0.702148 0.571777 0.522461
0.728027 0.599121 0.551758
0.753906 0.626465 0.581055
0.780273 0.654785 0.611328
0.153931 0.256592 0.146729
0.163818 0.257324 0.147217
0.175171 0.258057 0.148315
0.187256 0.259033 0.150391
0.201050 0.260010 0.153687
0.215088 0.261475 0.156494
0.229614 0.264160 0.157593
0.245728 0.267090 0.159424
0.262451 0.270508 0.162109
0.280518 0.273926 0.165894
0.299561 0.278320 0.170898
0.318604 0.283203 0.177490
0.338135 0.289062 0.185669
0.357666 0.295898 0.195435
0.377441 0.303711 0.206665
0.397217 0.312988 0.219604
0.416748 0.323730 0.232910
0.437744 0.334961 0.246216
0.458740 0.347900 0.261475
0.479736 0.362061 0.278320
0.500488 0.377686 0.297119
0.521973 0.394775 0.317627
0.543457 0.413574 0.339844
0.564941 0.433594 0.363525
0.586914 0.455811 0.388428
0.608887 0.479004 0.416016
0.632812 0.501953 0.442871
0.656738 0.526367 0.470947
0.681152 0.551270 0.499023
0.706055 0.577148 0.526367
0.730957 0.603027 0.555176
0.756348 0.630859 0.584473
0.783203 0.658691 0.614258
0.185425 0.284180 0.168823
0.193726 0.284912 0.169556
0.203125 0.285889 0.171021
0.213745 0.286621 0.172852
0.225586 0.287354 0.176025
0.237793 0.288818 0.179199
0.250488 0.291504 0.180176
0.264160 0.294189 0.181763
0.279053 0.297119 0.183594
0.295654 0.300781 0.186768
0.312500 0.304443 0.190674
0.330811 0.308838 0.196045
0.349854 0.313965 0.202637
0.368652 0.319824 0.210938
0.387695 0.326904 0.220947
0.407227 0.334961 0.232422
0.426758 0.344238 0.245361
0.446045 0.354492 0.259521
0.466797 0.366211 0.273926
0.487549 0.378662 0.289795
0.508789 0.392822 0.307373
0.529297 0.408691 0.327148
0.550293 0.426270 0.348633
0.571777 0.445312 0.371826
0.593750 0.465820 0.396240
0.614746 0.488037 0.422852
0.638184 0.510254 0.449463
0.661621 0.534180 0.476562
0.685059 0.558105 0.503418
0.709961 0.583008 0.530762
0.734863 0.608398 0.560059
0.759766 0.634766 0.588379
0.785645 0.662109 0.617676
0.216919 0.312500 0.192871
0.224365 0.312988 0.193848
0.231934 0.313965 0.195068
0.240845 0.314697 0.196777
0.251221 0.315674 0.199707
0.261719 0.316406 0.203003
0.272461 0.318848 0.203735
0.284668 0.321289 0.204956
0.297852 0.324219 0.206787
0.312256 0.327637 0.209106
0.327881 0.330811 0.212280
0.344482 0.334717 0.216553
0.362061 0.339844 0.222168
0.380127 0.344727 0.229004
0.399170 0.351074 0.237427
0.417969 0.357666 0.247314
0.437256 0.365967 0.258789
0.456543 0.375000 0.272217
0.475830 0.385498 0.287109
0.495850 0.397217 0.302734
0.516602 0.409668 0.319336
0.537598 0.423828 0.337891
0.558105 0.439697 0.358398
0.579102 0.457520 0.380859
0.600586 0.477295 0.405029
0.621094 0.498291 0.430176
0.643555 0.519531 0.456787
0.666992 0.541992 0.482666
0.689941 0.565430 0.509277
0.714355 0.589844 0.536133
0.738770 0.614258 0.563965
0.763672 0.640137 0.592285
0.789062 0.666992 0.621582
0.248779 0.340576 0.218506
0.254150 0.341309 0.219360
0.260986 0.342041 0.220459
0.268311 0.343018 0.222412
0.276855 0.343506 0.224609
0.286621 0.344482 0.227905
0.296143 0.346924 0.228882
0.306396 0.349121 0.229980
0.318115 0.351562 0.231323
0.331055 0.354492 0.233154
0.345215 0.357910 0.235840
0.359863 0.361328 0.239136
0.376221 0.365234 0.243286
0.393555 0.370605 0.249146
0.410889 0.375488 0.256104
0.429443 0.381592 0.264404
0.448242 0.388672 0.274658
0.467285 0.396484 0.286621
0.486572 0.405762 0.300537
0.505371 0.416016 0.316162
0.524902 0.427979 0.333252
0.545898 0.440430 0.350342
0.566895 0.455322 0.370117
0.586914 0.471436 0.391357
0.607910 0.489990 0.414551
0.628418 0.509766 0.439209
0.650391 0.529785 0.464355
0.672852 0.551270 0.489990
0.694824 0.573730 0.515625
0.718750 0.597168 0.542480
0.743164 0.621094 0.569824
0.767578 0.645996 0.597656
0.791992 0.672363 0.625488
0.280273 0.369385 0.245605
0.284668 0.369873 0.246216
0.290283 0.370605 0.247437
0.296631 0.371582 0.249146
0.303955 0.372314 0.250977
0.312012 0.373291 0.253906
0.320557 0.375000 0.255127
0.329590 0.376953 0.256104
0.339355 0.379395 0.256836
0.350830 0.381836 0.258545
0.363281 0.385010 0.260742
0.376709 0.388184 0.263184
0.391357 0.392090 0.266357
0.407471 0.396240 0.270996
0.423828 0.401123 0.276611
0.441406 0.406250 0.283691
0.459961 0.412354 0.292725
0.478760 0.419189 0.303467
0.497070 0.427246 0.315918
0.516113 0.436523 0.330322
0.534668 0.447021 0.346680
0.554199 0.459229 0.365234
0.574707 0.472412 0.383545
0.595215 0.487305 0.403320
0.615723 0.502930 0.424805
0.636230 0.521973 0.448486
0.657227 0.541504 0.473145
0.679199 0.561523 0.498047
0.701172 0.583008 0.523438
0.724609 0.605469 0.548828
0.748047 0.628906 0.575195
0.771484 0.652832 0.602539
0.795898 0.678223 0.630859
0.311035 0.398682 0.273682
0.315674 0.399414 0.274902
0.319824 0.399658 0.275635
0.325195 0.400391 0.277100
0.331299 0.401123 0.278564
0.337891 0.402344 0.281006
0.345703 0.403564 0.282715
0.353516 0.405273 0.283691
0.362061 0.407471 0.284424
0.372070 0.409912 0.285645
0.383057 0.412598 0.287109
0.395264 0.415771 0.289307
0.408447 0.418945 0.291992
0.422852 0.422607 0.295410
0.438477 0.427002 0.300049
0.455078 0.431885 0.305908
0.472168 0.437012 0.313477
0.490479 0.443115 0.322510
0.507812 0.450439 0.333984
0.526367 0.458496 0.347656
0.545410 0.468018 0.363037
0.564453 0.478760 0.380127
0.583496 0.490967 0.398926
0.603516 0.503906 0.417236
0.623535 0.518555 0.437500
0.644043 0.535645 0.459473
0.664551 0.554199 0.483154
0.685547 0.573242 0.506836
0.707520 0.593262 0.531250
0.729980 0.614746 0.556152
0.752930 0.637207 0.582031
0.776855 0.660645 0.608887
0.799805 0.685059 0.635742
0.341797 0.428223 0.303955
0.345459 0.428467 0.304443
0.349609 0.429199 0.305420
0.354004 0.429688 0.306396
0.358887 0.430664 0.307617
0.364502 0.431152 0.309570
0.371826 0.432129 0.312012
0.378174 0.433838 0.312744
0.385986 0.435791 0.313477
0.394287 0.437988 0.314453
0.403564 0.440186 0.315674
0.414307 0.443359 0.317383
0.426514 0.446289 0.319580
0.439453 0.449463 0.322021
0.453857 0.453613 0.325928
0.469238 0.457764 0.330566
0.485596 0.462891 0.337158
0.502441 0.468262 0.345215
0.520020 0.474121 0.355225
0.538086 0.481445 0.366943
0.556641 0.489990 0.381104
0.574707 0.499756 0.396729
0.593262 0.510254 0.414307
0.612305 0.522461 0.433105
0.632812 0.536133 0.451660
0.652832 0.550781 0.471680
0.671875 0.567871 0.494141
0.693359 0.586426 0.516602
0.714844 0.604980 0.540039
0.736816 0.625488 0.564453
0.759277 0.646484 0.589355
0.781738 0.668945 0.615234
0.805176 0.692383 0.642578
0.373291 0.457275 0.335205
0.375977 0.458252 0.335449
0.379150 0.458496 0.335938
0.382812 0.459229 0.336914
0.387451 0.459961 0.338135
0.392090 0.460449 0.339600
0.397705 0.461426 0.341309
0.403809 0.462402 0.343262
0.410400 0.464355 0.343750
0.417969 0.466309 0.344727
0.425781 0.468506 0.345703
0.435059 0.470947 0.346924
0.446045 0.473877 0.348633
0.457520 0.477051 0.350830
0.470703 0.480469 0.353760
0.484863 0.484375 0.358154
0.500000 0.488770 0.363525
0.515625 0.493652 0.370361
0.532227 0.499268 0.378662
0.550293 0.505371 0.388916
0.568359 0.512695 0.401367
0.585938 0.520996 0.414795
0.604492 0.530762 0.431396
0.623047 0.541992 0.448730
0.641113 0.554199 0.467773
0.661621 0.567383 0.485840
0.680664 0.583496 0.506348
0.701660 0.600098 0.528320
0.722168 0.618164 0.550293
0.743652 0.637207 0.574219
0.765625 0.657227 0.598145
0.787598 0.678223 0.623047
0.810547 0.700684 0.648926
0.405273 0.487061 0.366943
0.407715 0.487549 0.367188
0.410400 0.488037 0.367920
0.413574 0.488525 0.368896
0.416992 0.489258 0.369873
0.421143 0.489990 0.370850
0.425781 0.490723 0.372314
0.431152 0.491699 0.374023
0.436523 0.492920 0.375732
0.442627 0.495117 0.375977
0.450195 0.496826 0.376953
0.458008 0.499023 0.378174
0.467285 0.501465 0.379395
0.477295 0.504395 0.381348
0.489258 0.507324 0.383789
0.501465 0.511230 0.387207
0.515625 0.514648 0.391846
0.530762 0.519531 0.397217
0.546875 0.524414 0.404297
0.563477 0.530273 0.413086
0.579590 0.536621 0.423096
0.597168 0.543945 0.435791
0.615723 0.552734 0.449707
0.633789 0.562500 0.465820
0.652344 0.573730 0.483154
0.670410 0.585938 0.501953
0.689941 0.600098 0.520508
0.710449 0.615234 0.540527
0.729980 0.631836 0.561523
0.750977 0.649414 0.584473
0.772461 0.668457 0.607422
0.793945 0.688965 0.631836
0.816406 0.710938 0.657715
0.437012 0.516602 0.400879
0.438965 0.517090 0.401123
0.441162 0.517578 0.401123
0.444092 0.518066 0.401855
0.447754 0.518555 0.402832
0.450684 0.519043 0.403076
0.454346 0.520020 0.404053
0.459473 0.520508 0.406006
0.464111 0.521484 0.407471
0.469482 0.523438 0.408447
0.475342 0.524902 0.409180
0.482178 0.526855 0.410156
0.490234 0.529297 0.411377
0.499023 0.531738 0.412842
0.509766 0.534668 0.415039
0.520508 0.538086 0.417969
0.533203 0.541504 0.421387
0.547363 0.545898 0.426025
0.562012 0.550293 0.431885
0.577148 0.555664 0.438721
0.593750 0.561035 0.447510
0.610352 0.567871 0.458008
0.627441 0.575684 0.470459
0.645508 0.583984 0.484619
0.663086 0.594238 0.500000
0.681152 0.604980 0.517090
0.699219 0.617676 0.536621
0.719238 0.631836 0.554688
0.738770 0.646973 0.574707
0.759766 0.663086 0.595703
0.780273 0.681152 0.618652
0.801270 0.700684 0.642090
0.822754 0.721191 0.666016
0.468506 0.546387 0.434082
0.470459 0.546875 0.434570
0.472656 0.547363 0.434814
0.474854 0.547852 0.435791
0.477783 0.548340 0.436035
0.480957 0.548828 0.436768
0.484375 0.549316 0.437744
0.488770 0.550293 0.438965
0.492920 0.550781 0.440674
0.498291 0.552246 0.441895
0.502930 0.553711 0.442383
0.508789 0.555176 0.443115
0.515137 0.558105 0.444092
0.522461 0.560059 0.445312
0.531250 0.562500 0.447021
0.541992 0.565430 0.449219
0.552734 0.568848 0.452148
0.564941 0.572266 0.456055
0.578125 0.576660 0.460693
0.592773 0.581055 0.466553
0.607422 0.586426 0.473877
0.624023 0.592285 0.482666
0.640137 0.599121 0.493164
0.657227 0.606934 0.504883
0.674805 0.615723 0.518555
0.692383 0.625977 0.534668
0.710449 0.636719 0.551758
0.728516 0.649902 0.570801
0.747559 0.663574 0.589355
0.768066 0.678711 0.608887
0.788086 0.695312 0.629883
0.808594 0.713379 0.652344
0.830078 0.732910 0.675781
0.500000 0.577148 0.467529
0.501953 0.576660 0.467773
0.502930 0.577148 0.468262
0.505371 0.577637 0.468994
0.507812 0.578125 0.469482
0.510254 0.578613 0.469971
0.513184 0.579102 0.470947
0.517090 0.580078 0.471924
0.520996 0.580566 0.473145
0.525391 0.581055 0.474609
0.530762 0.582520 0.476318
0.535645 0.583984 0.477051
0.541504 0.585938 0.477783
0.548340 0.588379 0.479248
0.555664 0.590332 0.479980
0.563965 0.593262 0.481689
0.573242 0.596191 0.484131
0.583984 0.599609 0.487061
0.596191 0.603027 0.490723
0.608887 0.607422 0.495605
0.623535 0.612305 0.500977
0.638672 0.617676 0.508301
0.653809 0.623535 0.517090
0.670410 0.630371 0.527344
0.687500 0.638184 0.540039
0.704590 0.647461 0.553711
0.721680 0.657227 0.569336
0.739746 0.668457 0.586914
0.757812 0.681641 0.605469
0.776855 0.695801 0.623535
0.796875 0.710449 0.643066
0.817383 0.727051 0.664062
0.837891 0.745605 0.686523
0.531738 0.606934 0.500488
0.533203 0.607422 0.500977
0.534668 0.606934 0.500977
0.536133 0.607422 0.501953
0.538086 0.607910 0.501953
0.540527 0.608887 0.502930
0.542969 0.609375 0.503418
0.546387 0.609863 0.504395
0.550293 0.610352 0.505371
0.554199 0.610840 0.507324
0.558105 0.612793 0.508789
0.563477 0.613281 0.510254
0.568359 0.614746 0.511230
0.574219 0.617188 0.512207
0.581055 0.618652 0.513672
0.588379 0.621582 0.514160
0.596680 0.624023 0.516113
0.605469 0.626953 0.518555
0.616211 0.629883 0.521484
0.627930 0.633789 0.524902
0.640625 0.638184 0.529785
0.654297 0.643066 0.536133
0.668945 0.648438 0.543457
0.684570 0.654785 0.552246
0.700195 0.661621 0.562500
0.716797 0.669922 0.575195
0.733887 0.678223 0.588867
0.750977 0.688965 0.604492
0.768555 0.700684 0.621582
0.787109 0.713379 0.640137
0.806641 0.727051 0.658203
0.826172 0.742676 0.677246
0.846191 0.759277 0.698242
0.563965 0.637207 0.533691
0.564941 0.637207 0.533203
0.565918 0.638184 0.534180
0.567383 0.637695 0.534180
0.569336 0.638184 0.534668
0.571289 0.638672 0.536133
0.573730 0.639648 0.536133
0.576172 0.640137 0.537109
0.579590 0.640625 0.538086
0.582031 0.641113 0.539062
0.586426 0.642090 0.540527
0.590332 0.643066 0.542480
0.595215 0.644043 0.543457
0.601074 0.645996 0.545410
0.606934 0.647461 0.545898
0.613281 0.649414 0.547363
0.620605 0.651855 0.548828
0.628418 0.654297 0.550781
0.638184 0.657715 0.553711
0.647949 0.661133 0.556641
0.659668 0.664551 0.560059
0.671387 0.669434 0.564941
0.685059 0.674316 0.571289
0.699707 0.679688 0.578613
0.715332 0.686035 0.587402
0.730469 0.693359 0.597656
0.747070 0.701172 0.609863
0.763672 0.709961 0.624023
0.780762 0.720215 0.639160
0.798340 0.732422 0.656250
0.816406 0.745117 0.674316
0.835449 0.758789 0.692383
0.855469 0.774414 0.711914
0.595703 0.667480 0.566895
0.596191 0.667969 0.566895
0.597168 0.667969 0.566895
0.599609 0.668457 0.567871
0.601074 0.668457 0.567871
0.602051 0.668945 0.568359
0.604004 0.669434 0.569336
0.605957 0.669922 0.569336
0.608887 0.670410 0.570801
0.611816 0.670898 0.571777
0.614746 0.671875 0.572754
0.619141 0.672363 0.574707
0.623047 0.673340 0.576172
0.627930 0.674805 0.577637
0.632812 0.676270 0.578613
0.638672 0.678223 0.579590
0.645020 0.680664 0.581543
0.652344 0.682617 0.583496
0.660645 0.685547 0.585449
0.669434 0.688477 0.587891
0.679688 0.691895 0.591309
0.690430 0.695801 0.594727
0.702637 0.700195 0.600098
0.716309 0.705078 0.606445
0.730469 0.710938 0.613281
0.744629 0.717285 0.622559
0.760742 0.724609 0.632812
0.776855 0.732422 0.644531
0.793457 0.741699 0.658691
0.810059 0.751953 0.673828
0.827637 0.764160 0.690918
0.845215 0.776855 0.708984
0.864746 0.791016 0.727051
0.627441 0.697754 0.599609
0.628906 0.697754 0.600098
0.628906 0.698242 0.600098
0.630371 0.698730 0.600586
0.631348 0.698730 0.601074
0.633789 0.699219 0.601562
0.634766 0.699219 0.601562
0.636719 0.699707 0.602539
0.638672 0.700195 0.603027
0.641602 0.701172 0.603516
0.644531 0.701172 0.605469
0.647461 0.702148 0.606445
0.651855 0.703125 0.608398
0.655762 0.704102 0.609863
0.660645 0.705078 0.611816
0.665527 0.707031 0.612305
0.670898 0.708984 0.613770
0.676758 0.710938 0.615234
0.684082 0.713379 0.617188
0.692383 0.716309 0.619629
0.700684 0.719238 0.622559
0.710938 0.722656 0.625977
0.721680 0.727051 0.629395
0.733887 0.730957 0.634766
0.747559 0.736328 0.640625
0.760742 0.741699 0.648438
0.775391 0.748535 0.657227
0.791016 0.755859 0.667969
0.806641 0.763672 0.679688
0.823730 0.772949 0.693848
0.839844 0.783691 0.708496
0.857910 0.795898 0.725586
0.875000 0.808594 0.743652
0.660156 0.728027 0.632812
0.660645 0.728027 0.632812
0.661621 0.728516 0.633789
0.662109 0.728516 0.633789
0.663574 0.729004 0.633789
0.664551 0.729492 0.634277
0.666504 0.729492 0.634766
0.667969 0.729492 0.635254
0.669434 0.729980 0.635742
0.671875 0.730957 0.636719
0.673828 0.731445 0.637207
0.677246 0.731934 0.638672
0.680176 0.732910 0.640137
0.683594 0.733887 0.641602
0.688477 0.734375 0.643555
0.692383 0.735840 0.645020
0.697754 0.737305 0.645996
0.702637 0.739746 0.647461
0.708984 0.741699 0.648926
0.715820 0.744141 0.651367
0.723633 0.747070 0.653809
0.732422 0.750000 0.656738
0.742188 0.753418 0.660156
0.752930 0.757812 0.664062
0.765625 0.762207 0.669434
0.777832 0.767090 0.675781
0.791016 0.772949 0.683105
0.805664 0.779785 0.692383
0.820801 0.787109 0.702148
0.836914 0.794922 0.714355
0.853027 0.804688 0.728516
0.870117 0.815430 0.743652
0.886719 0.827148 0.759766
0.692871 0.758301 0.666992
0.693848 0.758301 0.666992
0.693848 0.758789 0.666992
0.694824 0.758789 0.666992
0.695801 0.759277 0.667969
0.696289 0.759277 0.667969
0.697266 0.759766 0.667969
0.699219 0.760254 0.668945
0.700684 0.760742 0.668945
0.703125 0.760742 0.669922
0.704590 0.761230 0.670898
0.707520 0.762207 0.671875
0.710449 0.762695 0.672852
0.713379 0.763184 0.674316
0.716797 0.764160 0.675781
0.720215 0.765137 0.677734
0.725098 0.766602 0.678711
0.729980 0.768555 0.680664
