RED_IPP2_Creative/RED_BLEACH_2.cube
# RED Digital Cinema Output Transform LUT for IPP2
# Creatives by Eric Weidt
# BMD cube from Truelight v4.0
# Settings used in creation of this LUT are:
# Development Color Space = USER SELECTABLE
# Output Gamma Curve = USER SELECTABLE
# Output Tonemap = USER SELECTABLE
# Highlight Rolloff = USER SELECTABLE 
LUT_3D_SIZE 33
0.005047 0.005051 0.005062
0.005047 0.005051 0.005062
0.022812 0.005325 0.004971
0.048218 0.005802 0.005344
0.073120 0.006588 0.006439
0.099976 0.007534 0.007019
0.129272 0.008919 0.009537
0.160645 0.011421 0.013931
0.191284 0.014374 0.018433
0.223999 0.017227 0.022903
0.254639 0.020111 0.026993
0.282227 0.023193 0.029877
0.309814 0.026031 0.032806
0.337158 0.029037 0.035187
0.365723 0.032104 0.037964
0.393311 0.035156 0.040527
0.420898 0.038361 0.043671
0.448730 0.041382 0.046204
0.477295 0.044281 0.048737
0.504883 0.046997 0.050964
0.533203 0.049713 0.053040
0.560547 0.052795 0.055481
0.587402 0.054382 0.057312
0.613770 0.056854 0.059479
0.641113 0.057770 0.059601
0.666504 0.057434 0.059753
0.692383 0.060669 0.061249
0.718262 0.061676 0.063477
0.744629 0.064758 0.063965
0.770508 0.065552 0.068787
0.795898 0.067200 0.069031
0.822754 0.058075 0.058563
0.848633 0.067871 0.066711
0.006523 0.030472 0.006641
0.005913 0.025116 0.006191
0.017548 0.021988 0.005997
0.043945 0.022293 0.006947
0.071350 0.023727 0.007996
0.098328 0.025833 0.009109
0.127563 0.028305 0.010574
0.159058 0.030899 0.014977
0.190674 0.033813 0.019257
0.222412 0.036530 0.023895
0.253418 0.039764 0.028259
0.282715 0.042725 0.031677
0.310791 0.046082 0.034546
0.338623 0.049316 0.037140
0.367432 0.052673 0.040222
0.395996 0.055939 0.043304
0.423828 0.059082 0.045990
0.451904 0.062347 0.048676
0.479248 0.064819 0.051270
0.506836 0.066895 0.052887
0.533203 0.068665 0.054260
0.560547 0.070251 0.055878
0.586914 0.071411 0.057159
0.613281 0.072876 0.059631
0.639160 0.073608 0.059479
0.665039 0.073303 0.057434
0.691406 0.077209 0.061554
0.717773 0.077759 0.064880
0.744141 0.080566 0.063843
0.771484 0.079285 0.065002
0.797363 0.080383 0.056244
0.823730 0.079468 0.062683
0.851562 0.084900 0.063110
0.009750 0.060272 0.010063
0.009277 0.056061 0.009598
0.015884 0.050659 0.008865
0.046692 0.049316 0.010094
0.076477 0.050232 0.010918
0.102661 0.053589 0.012276
0.131592 0.056549 0.015373
0.160889 0.059052 0.018341
0.190308 0.061707 0.021912
0.220459 0.063965 0.024872
0.250244 0.066040 0.028137
0.280762 0.068970 0.031769
0.309570 0.072266 0.035278
0.338867 0.075928 0.038666
0.367188 0.079468 0.041840
0.395752 0.081543 0.044342
0.423340 0.083496 0.046783
0.449951 0.085327 0.048340
0.476562 0.087158 0.050232
0.503418 0.088562 0.051147
0.529785 0.089294 0.052002
0.555664 0.091187 0.054321
0.583984 0.092651 0.055603
0.609863 0.094177 0.057770
0.637695 0.095703 0.058197
0.663574 0.095886 0.057800
0.690918 0.098877 0.061340
0.717773 0.101929 0.064880
0.745117 0.104553 0.065674
0.773438 0.104736 0.067444
0.800293 0.103149 0.061646
0.828613 0.111450 0.069275
0.856445 0.113098 0.075317
0.014038 0.095703 0.013954
0.013542 0.093628 0.013641
0.018692 0.088684 0.013374
0.049744 0.084106 0.013542
0.082214 0.083740 0.014519
0.113403 0.085144 0.015488
0.141357 0.088379 0.018173
0.167969 0.092651 0.026199
0.197266 0.096130 0.029892
0.227539 0.099487 0.033203
0.256836 0.102234 0.036469
0.284668 0.104553 0.039001
0.314209 0.106079 0.041748
0.341309 0.107727 0.043732
0.369141 0.108704 0.045685
0.395996 0.109924 0.047394
0.422852 0.111023 0.048706
0.450684 0.112000 0.050079
0.476562 0.113220 0.051453
0.503418 0.114319 0.052795
0.530273 0.115540 0.053986
0.558105 0.117188 0.055359
0.584473 0.118835 0.057434
0.612305 0.121460 0.060944
0.639648 0.122559 0.061127
0.667480 0.123962 0.060028
0.694824 0.127441 0.063782
0.722656 0.129883 0.066528
0.750977 0.136230 0.078125
0.779785 0.138062 0.072876
0.809082 0.141846 0.074768
0.837891 0.144287 0.072388
0.868652 0.146973 0.073975
0.017548 0.134521 0.017273
0.017395 0.133911 0.017227
0.024323 0.130371 0.017563
0.055328 0.125244 0.017700
0.087952 0.121338 0.017929
0.119995 0.121765 0.018845
0.152832 0.122925 0.019608
0.182007 0.125366 0.022568
0.207642 0.128296 0.032623
0.232788 0.130981 0.039215
0.260010 0.132690 0.041199
0.287354 0.134277 0.042969
0.314453 0.135498 0.045013
0.341553 0.135986 0.046631
0.368896 0.136719 0.047943
0.395264 0.137329 0.049377
0.422363 0.138672 0.050903
0.449951 0.139404 0.052032
0.477051 0.140625 0.053375
0.503906 0.142090 0.055237
0.531250 0.143677 0.056335
0.559570 0.146118 0.059998
0.587402 0.147949 0.060760
0.615723 0.151245 0.064941
0.644531 0.153687 0.066040
0.673340 0.156372 0.067322
0.701172 0.160034 0.071289
0.730957 0.163696 0.072021
0.761719 0.169189 0.078247
0.791992 0.174316 0.085510
0.824219 0.180786 0.086731
0.854980 0.188110 0.094971
0.886719 0.193481 0.094543
0.020432 0.174805 0.020325
0.020325 0.174683 0.020172
0.029739 0.172363 0.020065
0.062317 0.167969 0.020416
0.093262 0.162842 0.020645
0.124878 0.158081 0.020859
0.156372 0.156372 0.020813
0.186646 0.155762 0.021210
0.214478 0.155884 0.022476
0.239990 0.156982 0.030167
0.263428 0.158936 0.039551
0.288574 0.160767 0.044983
0.315430 0.161621 0.046631
0.341309 0.162842 0.048157
0.369141 0.164185 0.049866
0.395264 0.165405 0.051422
0.423584 0.166992 0.053162
0.450928 0.168457 0.054779
0.478516 0.170532 0.057129
0.507324 0.172485 0.059540
0.535156 0.174805 0.062042
0.564941 0.177612 0.064270
0.593750 0.180786 0.067444
0.623047 0.184326 0.069458
0.652344 0.188721 0.074097
0.683105 0.193115 0.076477
0.714844 0.199097 0.082764
0.746582 0.206177 0.089294
0.779297 0.211914 0.091919
0.811523 0.220215 0.094421
0.844727 0.227173 0.109192
0.875000 0.231812 0.112793
0.901367 0.239990 0.113892
0.021530 0.214600 0.021820
0.021362 0.214233 0.021500
0.032318 0.211304 0.021729
0.064453 0.206299 0.021622
0.094910 0.199585 0.021576
0.124023 0.192871 0.021713
0.155029 0.187256 0.021500
0.185547 0.185181 0.021637
0.215820 0.183838 0.021469
0.244385 0.183716 0.021683
0.270020 0.184204 0.027710
0.295166 0.185791 0.036163
0.318359 0.188232 0.045502
0.344482 0.190186 0.050720
0.371094 0.192261 0.052643
0.399414 0.193848 0.054749
0.427734 0.196167 0.057434
0.456055 0.198975 0.060181
0.484131 0.202148 0.062012
0.513184 0.205566 0.064697
0.543457 0.209351 0.068176
0.572754 0.213745 0.072144
0.604004 0.218018 0.075867
0.636719 0.224121 0.079773
0.667969 0.230225 0.082703
0.701172 0.237549 0.092285
0.733398 0.243774 0.097229
0.767090 0.251709 0.110413
0.799316 0.257324 0.114136
0.831055 0.263184 0.121887
0.862793 0.269287 0.127808
0.895020 0.275146 0.136597
0.914062 0.280273 0.139038
0.021255 0.248779 0.021454
0.021561 0.247437 0.021545
0.030258 0.244873 0.021210
0.063171 0.240601 0.021088
0.092834 0.234009 0.021225
0.122498 0.226929 0.021500
0.152466 0.220581 0.021301
0.183716 0.214844 0.021210
0.214111 0.213501 0.020889
0.244873 0.212769 0.020569
0.274170 0.212524 0.020676
0.302246 0.213623 0.025955
0.328613 0.215576 0.034485
0.354980 0.218140 0.044220
0.379150 0.221680 0.054688
0.405762 0.225342 0.059937
0.435059 0.229004 0.063354
0.464355 0.232422 0.066284
0.494873 0.237427 0.070679
0.525391 0.242554 0.074585
0.558105 0.249268 0.079773
0.590332 0.255615 0.084900
0.624023 0.262451 0.091370
0.656250 0.269043 0.099915
0.688477 0.275391 0.107056
0.721191 0.281982 0.116577
0.752441 0.287842 0.120056
0.785156 0.294189 0.130249
0.816406 0.299316 0.134888
0.847656 0.304932 0.139648
0.878906 0.310059 0.143799
0.905762 0.316406 0.162964
0.924805 0.320068 0.155396
0.021011 0.279541 0.020813
0.020584 0.278320 0.020966
0.026367 0.276367 0.020828
0.061157 0.274414 0.020569
0.091614 0.267578 0.020615
0.121521 0.261475 0.020752
0.152588 0.255371 0.021072
0.182739 0.249634 0.020218
0.214478 0.244507 0.020248
0.245728 0.244263 0.020264
0.278076 0.244141 0.019730
0.308350 0.245239 0.019913
0.337891 0.247314 0.027512
0.367188 0.250244 0.036530
0.395264 0.253906 0.046692
0.423096 0.259033 0.058411
0.449707 0.265381 0.069580
0.479980 0.272705 0.078308
0.513184 0.279297 0.083496
0.546875 0.286377 0.092407
0.578613 0.292725 0.100525
0.610840 0.299316 0.108032
0.643555 0.306152 0.115662
0.674316 0.312012 0.124084
0.707031 0.317627 0.130005
0.737793 0.322754 0.133057
0.769531 0.328613 0.140259
0.801270 0.334473 0.144775
0.833008 0.340576 0.156738
0.862793 0.344727 0.159668
0.893555 0.349609 0.165527
0.916504 0.354248 0.173340
0.935547 0.357666 0.167114
0.020065 0.310791 0.020401
0.020111 0.310059 0.020493
0.024353 0.308838 0.020432
0.059296 0.308105 0.019882
0.091797 0.302979 0.020187
0.122253 0.297119 0.019775
0.153442 0.291992 0.020065
0.185791 0.286865 0.019363
0.217529 0.282227 0.019699
0.250244 0.279053 0.019455
0.283691 0.279785 0.019241
0.317139 0.281250 0.018646
0.350342 0.284424 0.024948
0.382568 0.288818 0.034698
0.415039 0.293945 0.045563
0.447998 0.301270 0.058624
0.477295 0.307861 0.073425
0.506348 0.315430 0.090027
0.533691 0.322754 0.105774
0.565430 0.329102 0.114563
0.597168 0.335693 0.121155
0.628906 0.341064 0.128174
0.660156 0.346680 0.132935
0.691406 0.352051 0.140991
0.722656 0.358398 0.146851
0.753906 0.362549 0.152222
0.785156 0.368408 0.157593
0.815918 0.373047 0.168091
0.846680 0.377930 0.169678
0.876953 0.382568 0.170532
0.906250 0.386963 0.180298
0.925781 0.390625 0.185669
0.945312 0.393799 0.182495
0.020325 0.343018 0.019409
0.019196 0.343506 0.019257
0.024490 0.343506 0.019592
0.059753 0.343506 0.019272
0.094360 0.340332 0.019455
0.125732 0.335693 0.019379
0.158447 0.331543 0.018921
0.191406 0.327881 0.018845
0.225708 0.324463 0.018875
0.259277 0.322021 0.018082
0.295410 0.321533 0.018631
0.331055 0.324951 0.018173
0.368652 0.330078 0.030762
0.402832 0.334229 0.043213
0.436768 0.339355 0.057556
0.468994 0.344238 0.070251
0.500000 0.349854 0.084167
0.531250 0.356201 0.098755
0.559082 0.362549 0.112244
0.586426 0.369141 0.126953
0.613281 0.375732 0.139404
0.644531 0.380859 0.145752
0.675781 0.386230 0.151855
0.707031 0.391602 0.158203
0.737793 0.396484 0.164795
0.768555 0.401367 0.167725
0.797852 0.405029 0.170166
0.829102 0.410400 0.177612
0.859375 0.414795 0.183350
0.888184 0.417969 0.182495
0.915039 0.422119 0.192505
0.934570 0.424561 0.184570
0.952637 0.428223 0.206177
0.018127 0.378418 0.018799
0.019058 0.379639 0.018967
0.028427 0.381592 0.018997
0.065552 0.383057 0.018982
0.101318 0.382568 0.018494
0.134888 0.379639 0.018097
0.169189 0.377197 0.017776
0.204712 0.375488 0.017990
0.240601 0.374268 0.017365
0.276367 0.373535 0.023819
0.312988 0.372559 0.030380
0.349121 0.372559 0.036133
0.384766 0.375000 0.043915
0.419678 0.378906 0.055847
0.453857 0.382568 0.066711
0.486816 0.387207 0.078857
0.518066 0.391846 0.090881
0.550781 0.395996 0.103699
0.580078 0.401123 0.116821
0.608887 0.407227 0.129517
0.636230 0.412842 0.142700
0.662109 0.418701 0.155762
0.690918 0.424072 0.165771
0.720215 0.428711 0.171997
0.750000 0.433105 0.174805
0.781250 0.437500 0.182129
0.810059 0.441406 0.187866
0.840332 0.445557 0.188477
0.868652 0.448730 0.186523
0.897461 0.452393 0.198730
0.923340 0.456055 0.203491
0.941406 0.458496 0.199951
0.959961 0.461426 0.211792
0.016647 0.418945 0.018326
0.017334 0.421143 0.017960
0.037567 0.425049 0.018250
0.075012 0.429932 0.018295
0.112854 0.430664 0.017273
0.151001 0.430908 0.019440
0.186768 0.429199 0.026779
0.222900 0.428223 0.033478
0.258545 0.426270 0.037811
0.293457 0.425049 0.043182
0.329102 0.422607 0.048187
0.363281 0.420654 0.053589
0.398438 0.418701 0.058044
0.433350 0.422363 0.065186
0.469238 0.424805 0.075439
0.501465 0.428711 0.085510
0.533691 0.431885 0.096619
0.566406 0.436035 0.108398
0.597168 0.440430 0.119690
0.627441 0.444336 0.130737
0.654785 0.448975 0.142212
0.683105 0.453613 0.155273
0.709961 0.458740 0.168457
0.735352 0.463623 0.181152
0.761719 0.468506 0.188721
0.790527 0.471924 0.192749
0.819824 0.475342 0.192749
0.849121 0.479736 0.202271
0.877930 0.482910 0.210083
0.906738 0.485352 0.202271
0.930176 0.488281 0.211792
0.948242 0.490723 0.220337
0.964844 0.492432 0.218018
0.018051 0.465820 0.015839
0.013329 0.471680 0.018234
0.058746 0.477539 0.021149
0.095337 0.481934 0.027313
0.133667 0.482910 0.032684
0.168335 0.482178 0.040344
0.203735 0.480469 0.044281
0.239624 0.478516 0.050568
0.273438 0.477051 0.056274
0.308105 0.474121 0.060974
0.341797 0.471924 0.064819
0.377686 0.469482 0.068604
0.411621 0.466553 0.071777
0.446777 0.465332 0.076599
0.480469 0.467041 0.082458
0.513672 0.469238 0.092102
0.547363 0.471436 0.101501
0.578613 0.474854 0.110107
0.610840 0.477539 0.122131
0.641113 0.481445 0.132202
0.670898 0.484375 0.142700
0.697754 0.488770 0.152466
0.724609 0.491943 0.163940
0.751953 0.496094 0.174927
0.777344 0.500488 0.185913
0.801758 0.505371 0.199463
0.828613 0.508789 0.206177
0.857422 0.511230 0.208008
0.884766 0.513672 0.204956
0.913086 0.517090 0.211426
0.933594 0.517578 0.209473
0.952637 0.520020 0.215820
0.969238 0.521973 0.225830
0.021591 0.516602 0.030334
0.022507 0.521973 0.035522
0.070496 0.527832 0.041473
0.110840 0.531738 0.044708
0.147827 0.534180 0.049927
0.182739 0.532227 0.054688
0.217896 0.530273 0.059235
0.252197 0.528320 0.065674
0.286621 0.524902 0.069275
0.320801 0.522461 0.073120
0.355469 0.519531 0.074768
0.389404 0.516113 0.077942
0.423340 0.512695 0.082397
0.456787 0.509766 0.084534
0.490479 0.506348 0.087463
0.523438 0.507812 0.092468
0.556641 0.510254 0.104187
0.589844 0.512695 0.110474
0.620605 0.514648 0.120239
0.650879 0.516602 0.128784
0.681152 0.518555 0.139160
0.710938 0.521484 0.151245
0.738770 0.524902 0.160034
0.766602 0.527832 0.169189
0.791504 0.530762 0.183350
0.817383 0.534668 0.191162
0.840820 0.537598 0.202515
0.864746 0.541992 0.204834
0.890625 0.543457 0.210938
0.917969 0.545898 0.218018
0.937500 0.546875 0.211182
0.955566 0.547363 0.210327
0.973145 0.549316 0.214600
0.017410 0.560059 0.052521
0.043488 0.564941 0.051575
0.078552 0.572266 0.057068
0.121704 0.578613 0.063721
0.161255 0.581543 0.065918
0.197998 0.580566 0.070435
0.229858 0.577148 0.075623
0.264893 0.574707 0.074951
0.297363 0.571289 0.078796
0.332764 0.567383 0.081726
0.364990 0.563965 0.086121
0.399414 0.560547 0.090698
0.432129 0.556641 0.091370
0.465332 0.553223 0.094116
0.498047 0.549316 0.095520
0.531738 0.547363 0.097351
0.564453 0.547852 0.102539
0.597168 0.548340 0.112549
0.629395 0.550781 0.119690
0.660156 0.551758 0.126465
0.690918 0.553223 0.137207
0.719238 0.554688 0.144165
0.747070 0.556641 0.152466
0.775879 0.559082 0.162598
0.802734 0.561523 0.170044
0.828125 0.563477 0.177979
0.853516 0.564941 0.190308
0.876465 0.567871 0.200195
0.899902 0.571289 0.210938
0.922363 0.573730 0.219971
0.941406 0.575684 0.226929
0.958984 0.576172 0.216431
0.976074 0.577148 0.219116
0.004810 0.603027 0.063354
0.045349 0.605957 0.069641
0.105896 0.611328 0.069763
0.136841 0.617676 0.069946
0.171021 0.623047 0.078247
0.208862 0.623535 0.077454
0.241211 0.621094 0.082458
0.275635 0.615723 0.083374
0.306885 0.611328 0.090271
0.339844 0.607910 0.095093
0.373047 0.604492 0.097839
0.405762 0.601074 0.095886
0.439209 0.597168 0.098633
0.471680 0.593750 0.100220
0.503906 0.590332 0.099243
0.536621 0.586426 0.100891
0.569824 0.584473 0.103394
0.603027 0.584473 0.111694
0.633789 0.584473 0.115784
0.665527 0.585449 0.124939
0.695312 0.585449 0.129639
0.725098 0.587402 0.138062
0.754395 0.586914 0.145630
0.782227 0.589355 0.156128
0.809082 0.590820 0.164185
0.835449 0.591797 0.168701
0.861816 0.593262 0.175415
0.887207 0.595215 0.183594
0.911133 0.597168 0.197144
0.933594 0.599121 0.189819
0.951660 0.601074 0.210693
0.966797 0.603516 0.221558
0.979980 0.605469 0.231079
0.025269 0.642578 0.077576
0.070984 0.644043 0.081238
0.102417 0.647949 0.086914
0.135498 0.653809 0.084717
0.176147 0.659668 0.091003
0.208984 0.661133 0.090942
0.246094 0.657715 0.092712
0.279053 0.653320 0.093201
0.312744 0.649902 0.095337
0.344482 0.645996 0.101379
0.377930 0.642578 0.103333
0.411621 0.639160 0.099182
0.443359 0.635254 0.099121
0.477051 0.632324 0.107727
0.508301 0.628418 0.106018
0.539551 0.625000 0.106934
0.571777 0.620117 0.104309
0.604980 0.618164 0.106689
0.637695 0.617676 0.107666
0.667969 0.616699 0.113281
0.698730 0.617188 0.127441
0.728027 0.618164 0.129761
0.757324 0.618164 0.141968
0.786621 0.619629 0.141968
0.814941 0.619141 0.150757
0.841309 0.621094 0.162476
0.867188 0.620605 0.165161
0.894043 0.622559 0.177124
0.919434 0.624512 0.189209
0.942871 0.625488 0.195435
0.962402 0.627441 0.200806
0.977051 0.629395 0.216064
0.991699 0.629883 0.207031
0.084473 0.678711 0.084778
0.084717 0.680176 0.091003
0.117126 0.684082 0.084717
0.150757 0.687988 0.086731
0.189331 0.693359 0.098267
0.220825 0.695801 0.103699
0.253174 0.693359 0.104431
0.288330 0.688965 0.093262
0.319092 0.685547 0.097046
0.352295 0.682129 0.101135
0.384277 0.678223 0.103333
0.415039 0.674805 0.109253
0.447266 0.670898 0.110474
0.479980 0.668457 0.102173
0.510254 0.663086 0.109070
0.542969 0.660156 0.107971
0.573730 0.656738 0.107117
0.605469 0.652832 0.106201
0.637207 0.649414 0.105286
0.668945 0.648438 0.118958
0.699707 0.648926 0.118652
0.729492 0.646973 0.121765
0.760254 0.647949 0.133667
0.788574 0.647461 0.130859
0.816895 0.647461 0.142822
0.846191 0.648438 0.153320
0.871582 0.648926 0.157959
0.899902 0.649902 0.164307
0.924805 0.650879 0.168457
0.950195 0.651367 0.182617
0.969727 0.653809 0.185425
0.985840 0.653809 0.190063
1.000000 0.654785 0.168213
0.000000 0.712891 0.099792
0.069336 0.713379 0.097717
0.136108 0.716797 0.096436
0.140137 0.721680 0.096680
0.184814 0.725586 0.095459
0.215332 0.729004 0.106873
0.259766 0.727539 0.105042
0.287354 0.723145 0.101868
0.319580 0.719727 0.097778
0.354248 0.714844 0.107605
0.385010 0.712402 0.111633
0.416260 0.707520 0.103943
0.447266 0.704102 0.106445
0.480713 0.699707 0.104614
0.510742 0.697266 0.109009
0.542480 0.693359 0.109009
0.573730 0.689453 0.110046
0.605469 0.686035 0.105408
0.636230 0.682617 0.107788
0.668945 0.680664 0.107971
0.700195 0.679199 0.109497
0.729980 0.677734 0.112671
0.761719 0.677734 0.121582
0.790527 0.677734 0.126465
0.819336 0.677246 0.145020
0.848145 0.677734 0.147095
0.875977 0.677246 0.143311
0.903320 0.678223 0.149658
0.929688 0.677734 0.156006
0.955566 0.678711 0.168213
0.977539 0.679688 0.182129
0.993164 0.680664 0.191406
1.000000 0.680176 0.189697
0.068359 0.745117 0.111206
0.118469 0.745605 0.108643
0.159790 0.748535 0.096436
0.169189 0.751953 0.087463
0.190674 0.756348 0.105347
0.231323 0.758301 0.104797
0.259033 0.758789 0.102844
0.293701 0.754395 0.100952
0.324951 0.750000 0.099670
0.354980 0.747070 0.115234
0.384033 0.743164 0.112244
0.416016 0.739746 0.120056
0.447754 0.735840 0.104675
0.479980 0.732422 0.101501
0.509766 0.729004 0.108093
0.541992 0.725586 0.103882
0.573242 0.721680 0.103516
0.604004 0.717773 0.101135
0.636230 0.714844 0.104858
0.666504 0.711914 0.095886
0.698730 0.709473 0.102356
0.729980 0.708496 0.110046
0.760254 0.707031 0.124451
0.791504 0.706055 0.127930
0.820312 0.706543 0.131470
0.849609 0.705566 0.129883
0.878418 0.705078 0.130127
0.905762 0.705078 0.143555
0.931641 0.704590 0.136230
0.959473 0.706055 0.150513
0.981934 0.707031 0.175415
0.997559 0.706055 0.170044
1.000000 0.707031 0.191895
0.000000 0.775391 0.101318
0.054199 0.776367 0.101440
0.072205 0.778320 0.099548
0.155518 0.782227 0.115845
0.185791 0.785156 0.102844
0.207886 0.787598 0.098145
0.248779 0.787109 0.099854
0.292480 0.784668 0.099670
0.319580 0.780273 0.117310
0.350586 0.776855 0.105530
0.381348 0.772949 0.095337
0.415771 0.769043 0.093994
0.445557 0.766113 0.105347
0.477783 0.763184 0.103577
0.507812 0.759766 0.118103
0.540039 0.755859 0.104858
0.571289 0.753418 0.098572
0.602539 0.749512 0.092163
0.634277 0.746582 0.091919
0.665527 0.743164 0.111755
0.696777 0.740234 0.098694
0.728516 0.738281 0.095581
0.758789 0.736816 0.112244
0.790527 0.735840 0.114014
0.820312 0.734863 0.119934
0.850098 0.734375 0.112000
0.878418 0.733398 0.118530
0.907227 0.732910 0.140381
0.935059 0.732422 0.133545
0.961914 0.732910 0.151489
0.985840 0.733398 0.139648
1.000000 0.733887 0.168945
1.000000 0.732910 0.151611
0.031036 0.805664 0.103638
0.031036 0.805664 0.103638
0.039642 0.807617 0.123840
0.155762 0.809570 0.123108
0.161621 0.812012 0.126221
0.236694 0.814941 0.117065
0.272461 0.814941 0.098206
0.302490 0.812988 0.100891
0.315918 0.809570 0.133301
0.350586 0.806641 0.130981
0.379150 0.802734 0.103821
0.414551 0.799316 0.102905
0.444580 0.795898 0.096924
0.476807 0.793945 0.113037
0.507324 0.789062 0.091003
0.539062 0.787109 0.085693
0.570312 0.783203 0.106934
0.601562 0.780273 0.095520
0.631348 0.776855 0.108521
0.664062 0.773926 0.091125
0.695801 0.771973 0.100159
0.726074 0.768555 0.080322
0.758301 0.766113 0.096191
0.787598 0.764648 0.092773
0.819336 0.764160 0.105652
0.850098 0.762207 0.110046
0.878906 0.760742 0.124023
0.906738 0.760742 0.135132
0.935059 0.760254 0.139526
0.963379 0.759766 0.142944
0.988281 0.760742 0.177124
1.000000 0.759766 0.120178
1.000000 0.759766 0.161621
0.000000 0.833008 0.120728
0.000000 0.832520 0.113647
0.128540 0.834473 0.111816
0.127197 0.837402 0.095398
0.171143 0.838867 0.108032
0.219482 0.841309 0.089111
0.244141 0.842773 0.105774
0.277588 0.841797 0.088379
0.314941 0.838379 0.070068
0.352783 0.833984 0.088928
0.375000 0.831055 0.117859
0.414795 0.828125 0.125366
0.445312 0.825684 0.094482
0.475342 0.821777 0.077393
0.507324 0.818359 0.092285
0.537598 0.815430 0.076599
0.567383 0.812988 0.100403
0.599121 0.810547 0.114868
0.629883 0.807129 0.108276
0.661621 0.804688 0.095581
0.691406 0.801758 0.117493
0.723145 0.799316 0.113281
0.755859 0.796875 0.122803
0.787109 0.793945 0.102234
0.817383 0.793457 0.106995
0.847168 0.791016 0.079895
0.877441 0.790039 0.105469
0.907227 0.789551 0.120178
0.935059 0.788574 0.118469
0.964355 0.787109 0.161255
0.989746 0.786621 0.147339
1.000000 0.786621 0.156494
1.000000 0.786133 0.165527
0.112061 0.859375 0.095093
0.107239 0.859375 0.054169
0.079956 0.860840 0.136963
0.097778 0.863770 0.119385
0.156982 0.865234 0.114075
0.217896 0.867188 0.099792
0.259521 0.869141 0.086975
0.287109 0.868652 0.077881
0.310791 0.865723 0.111450
0.349365 0.862793 0.095581
0.376465 0.859375 0.059021
0.405273 0.855957 0.081970
0.439453 0.853516 0.093994
0.467773 0.850586 0.129883
0.502441 0.848145 0.109558
0.534180 0.844727 0.090454
0.566406 0.841797 0.082581
0.596191 0.838379 0.074463
0.627930 0.835449 0.092407
0.659180 0.833984 0.092712
0.690430 0.831543 0.114258
0.721191 0.828125 0.104553
0.751953 0.825684 0.089233
0.784180 0.823730 0.083923
0.815430 0.821289 0.044800
0.843750 0.818848 0.000000
0.875488 0.817383 0.108398
0.905273 0.817383 0.135010
0.934082 0.815430 0.084290
0.962402 0.814941 0.143188
0.991699 0.814453 0.096680
1.000000 0.813477 0.106628
1.000000 0.813477 0.106628
0.185791 0.885254 0.112610
0.185791 0.885254 0.112610
0.214478 0.886719 0.041809
0.184204 0.889160 0.076843
0.140259 0.891113 0.102600
0.215210 0.893555 0.102661
0.270996 0.895020 0.048035
0.305908 0.895020 0.070923
0.316650 0.893066 0.114197
0.350830 0.889160 0.003971
0.381836 0.886719 0.081909
0.416992 0.883301 0.105957
0.443848 0.880859 0.114624
0.469727 0.877930 0.150513
0.499756 0.875488 0.149414
0.531250 0.873535 0.102783
0.563477 0.870605 0.049377
0.593262 0.867188 0.053223
0.624512 0.865234 0.103821
0.655273 0.862305 0.073547
0.687012 0.859863 0.093689
0.718262 0.857422 0.070862
0.749512 0.854980 0.074036
0.780273 0.853516 0.090759
0.810547 0.850098 0.108032
0.842285 0.847656 0.083740
0.873047 0.846191 0.060577
0.901855 0.844238 0.097412
0.933105 0.842773 0.065796
0.960449 0.841797 0.138062
0.990234 0.840820 0.000000
1.000000 0.840332 0.064941
1.000000 0.839355 0.110474
0.000000 0.912109 0.115723
0.129028 0.911621 0.000000
0.064331 0.912598 0.084290
0.162109 0.915039 0.109497
0.027618 0.916992 0.145264
0.233276 0.918945 0.153931
0.276367 0.920410 0.082581
0.245850 0.921875 0.106201
0.333496 0.920410 0.031372
0.327393 0.916992 0.143433
0.370850 0.914551 0.152100
0.405029 0.911133 0.065063
0.437744 0.908691 0.029663
0.463135 0.906250 0.000000
0.495850 0.902832 0.078125
0.525879 0.901367 0.129272
0.557129 0.897949 0.134033
0.587891 0.895508 0.132080
