RED_IPP2_Creative/RED_ST4.cube
# RED Digital Cinema Output Transform LUT for IPP2
# Creatives by Eric Weidt
# BMD cube from Truelight v4.0
# Settings used in creation of this LUT are:
# Development Color Space = USER SELECTABLE
# Output Gamma Curve = USER SELECTABLE
# Output Tonemap = USER SELECTABLE
# Highlight Rolloff = USER SELECTABLE 
LUT_3D_SIZE 5
0.010475 0.010475 0.010475
0.226929 0.027420 0.023544
0.406494 0.097107 0.071045
0.619141 0.193970 0.150024
0.883789 0.329346 0.282227
0.109863 0.217651 0.109436
0.247681 0.250488 0.086243
0.417969 0.289307 0.141479
0.617188 0.352051 0.198730
0.866211 0.463867 0.310059
0.201050 0.451904 0.187622
0.327393 0.455811 0.194092
0.480957 0.477295 0.219727
0.659180 0.519531 0.278564
0.864258 0.600098 0.377197
0.300537 0.728027 0.287109
0.439697 0.707031 0.309082
0.576172 0.704102 0.351807
0.736328 0.731934 0.379395
0.940430 0.788574 0.450439
0.423584 1.000000 0.413330
0.567383 0.992188 0.439209
0.712891 0.973633 0.500488
0.848633 0.989258 0.520020
1.000000 1.000000 0.543945
0.027725 0.020966 0.184082
0.218262 0.040039 0.226685
0.413574 0.095703 0.246338
0.632324 0.190186 0.303711
0.896484 0.327393 0.419189
0.108765 0.222534 0.226318
0.249390 0.256348 0.262939
0.457764 0.281250 0.273926
0.657715 0.351562 0.328857
0.906250 0.467773 0.434570
0.185913 0.459473 0.319336
0.317139 0.470459 0.324463
0.483887 0.483643 0.345459
0.666016 0.522949 0.400879
0.899902 0.606445 0.481201
0.296143 0.729492 0.426758
0.426270 0.730957 0.427246
0.575684 0.711426 0.465332
0.740723 0.737305 0.493896
0.944336 0.792480 0.562500
0.422119 1.000000 0.548828
0.548340 1.000000 0.549316
0.697266 0.993164 0.582520
0.850586 0.992676 0.629883
1.000000 1.000000 0.652344
0.069641 0.050385 0.307129
0.210449 0.079468 0.336914
0.426758 0.108582 0.418701
0.648926 0.195068 0.458496
0.899414 0.325195 0.543457
0.118896 0.248291 0.390869
0.262939 0.264893 0.407715
0.458008 0.282715 0.451904
0.663574 0.349854 0.474121
0.914062 0.462891 0.555176
0.164062 0.468506 0.462646
0.295654 0.478516 0.472656
0.488037 0.489014 0.483643
0.702637 0.520508 0.504395
0.931641 0.603027 0.576660
0.288574 0.732422 0.553223
0.418701 0.733887 0.553711
0.562012 0.737305 0.554199
0.744629 0.742676 0.590332
0.950684 0.797363 0.658691
0.420410 1.000000 0.666992
0.546875 1.000000 0.667480
0.678711 1.000000 0.669434
0.851074 0.997559 0.720215
1.000000 1.000000 0.744141
0.141602 0.119019 0.490234
0.265137 0.139404 0.508789
0.429199 0.166626 0.572754
0.667480 0.218140 0.656738
0.922363 0.319824 0.710938
0.188477 0.283936 0.545410
0.309326 0.299805 0.560547
0.452637 0.329102 0.585938
0.680664 0.365479 0.670898
0.927246 0.459473 0.717285
0.231079 0.477539 0.639648
0.364990 0.483887 0.633301
0.505371 0.501465 0.650879
0.709473 0.525879 0.700684
0.939941 0.601562 0.733887
0.272949 0.739746 0.731934
0.402344 0.741211 0.733398
0.543945 0.745117 0.737305
0.750488 0.750977 0.744141
0.983398 0.790039 0.771484
0.415283 1.000000 0.814941
0.541504 1.000000 0.815430
0.673340 1.000000 0.815918
0.826660 1.000000 0.818848
1.000000 1.000000 0.863281
0.241333 0.219360 0.721191
0.354980 0.232422 0.733398
0.481201 0.254883 0.753906
0.672363 0.282227 0.843750
0.939453 0.335693 0.935547
0.271973 0.358887 0.753418
0.384766 0.371094 0.765137
0.509766 0.391357 0.783203
0.682129 0.425049 0.845703
0.943848 0.471924 0.939941
0.318115 0.514160 0.804199
0.429932 0.524902 0.813965
0.551758 0.540527 0.829102
0.705566 0.574219 0.858887
0.956055 0.610352 0.952637
0.360596 0.735840 0.922363
0.489990 0.737305 0.915039
0.621094 0.745117 0.911133
0.768066 0.765137 0.930176
0.989258 0.790039 0.987793
0.406250 1.000000 1.000000
0.532227 1.000000 1.000000
0.663086 1.000000 1.000000
0.813965 1.000000 1.000000
1.000000 1.000000 1.000000
