RED_IPP2_Creative/RED_BW_0300.cube
# RED Digital Cinema Output Transform LUT for IPP2
# Creatives by Eric Weidt
# BMD cube from Truelight v4.0
# Settings used in creation of this LUT are:
# Development Color Space = USER SELECTABLE
# Output Gamma Curve = USER SELECTABLE
# Output Tonemap = USER SELECTABLE
# Highlight Rolloff = USER SELECTABLE
LUT_3D_SIZE 33
0.000082 0.000086 0.000098
0.000082 0.000086 0.000098
0.000000 0.000000 0.000000
0.002821 0.002825 0.002836
0.011024 0.011024 0.011032
0.026047 0.026047 0.026062
0.048035 0.048035 0.048035
0.075684 0.075684 0.075684
0.106812 0.106812 0.106812
0.138062 0.138062 0.138062
0.166870 0.166870 0.166870
0.193237 0.193237 0.193237
0.219849 0.219849 0.219849
0.248047 0.248047 0.248047
0.277832 0.277832 0.277832
0.309814 0.309814 0.309814
0.343506 0.343506 0.343506
0.379395 0.379395 0.379395
0.416504 0.416504 0.416504
0.453857 0.453857 0.453857
0.491943 0.491943 0.491943
0.530762 0.530762 0.530762
0.569336 0.569336 0.569336
0.607910 0.607910 0.607910
0.646484 0.646484 0.646484
0.684570 0.684570 0.684570
0.720703 0.720703 0.720703
0.753418 0.753418 0.753418
0.778809 0.778809 0.778809
0.801270 0.801270 0.801270
0.819824 0.819824 0.819824
0.833008 0.833008 0.833008
0.841309 0.841309 0.841309
0.005486 0.005489 0.005501
0.006359 0.006363 0.006374
0.007225 0.007229 0.007236
0.010605 0.010612 0.010620
0.018967 0.018967 0.018982
0.033630 0.033630 0.033630
0.054596 0.054596 0.054596
0.081055 0.081055 0.081055
0.111023 0.111023 0.111023
0.141113 0.141113 0.141113
0.169312 0.169312 0.169312
0.195068 0.195068 0.195068
0.221191 0.221191 0.221191
0.249146 0.249023 0.249023
0.278564 0.278564 0.278564
0.310303 0.310303 0.310303
0.343994 0.343994 0.343994
0.379639 0.379639 0.379639
0.416748 0.416748 0.416748
0.454102 0.454102 0.454102
0.492188 0.492188 0.492188
0.530762 0.530762 0.530762
0.569336 0.569336 0.569336
0.607910 0.607910 0.607910
0.646484 0.646484 0.646484
0.684570 0.684570 0.684570
0.720703 0.720703 0.720703
0.753418 0.753418 0.753418
0.778809 0.778809 0.778809
0.801270 0.801270 0.801270
0.819824 0.819824 0.819824
0.833008 0.833008 0.833008
0.841309 0.841309 0.841309
0.011124 0.011131 0.011139
0.011742 0.011749 0.011757
0.012253 0.012260 0.012268
0.015175 0.015175 0.015190
0.022888 0.022888 0.022903
0.036774 0.036774 0.036774
0.057007 0.057007 0.057007
0.082886 0.082886 0.082886
0.112366 0.112366 0.112366
0.142212 0.142212 0.142212
0.170166 0.170166 0.170166
0.195801 0.195801 0.195801
0.221924 0.221924 0.221924
0.249634 0.249634 0.249634
0.279053 0.279053 0.279053
0.310791 0.310791 0.310791
0.344238 0.344238 0.344238
0.379883 0.379883 0.379883
0.416992 0.416992 0.416992
0.454346 0.454346 0.454346
0.492188 0.492188 0.492188
0.530762 0.530762 0.530762
0.569336 0.569336 0.569336
0.607910 0.607910 0.607910
0.646484 0.646484 0.646484
0.684570 0.684570 0.684570
0.720703 0.720703 0.720703
0.753418 0.753418 0.753418
0.778809 0.778809 0.778809
0.801270 0.801270 0.801270
0.819824 0.819824 0.819824
0.833008 0.833008 0.833008
0.841309 0.841309 0.841309
0.023987 0.023987 0.024002
0.023712 0.023712 0.023727
0.023438 0.023438 0.023453
0.025421 0.025421 0.025436
0.031677 0.031677 0.031677
0.043915 0.043915 0.043915
0.062439 0.062439 0.062439
0.086731 0.086731 0.086731
0.114990 0.114990 0.114990
0.143921 0.143921 0.143921
0.171387 0.171387 0.171387
0.196655 0.196655 0.196655
0.222534 0.222534 0.222534
0.250000 0.250000 0.250000
0.279297 0.279297 0.279297
0.311035 0.311035 0.311035
0.344482 0.344482 0.344482
0.379883 0.379883 0.379883
0.416992 0.416992 0.416992
0.454346 0.454346 0.454346
0.492188 0.492188 0.492188
0.530762 0.530762 0.530762
0.569336 0.569336 0.569336
0.607910 0.607910 0.607910
0.646484 0.646484 0.646484
0.684570 0.684570 0.684570
0.720703 0.720703 0.720703
0.753418 0.753418 0.753418
0.778809 0.778809 0.778809
0.801270 0.801270 0.801270
0.819824 0.819824 0.819824
0.833008 0.833008 0.833008
0.841309 0.841309 0.841309
0.047546 0.047577 0.047577
0.046295 0.046295 0.046326
0.044952 0.044952 0.044983
0.045502 0.045502 0.045532
0.049805 0.049805 0.049805
0.059052 0.059052 0.059052
0.074219 0.074219 0.074219
0.095459 0.095459 0.095459
0.121094 0.121094 0.121094
0.148315 0.148315 0.148315
0.174316 0.174316 0.174316
0.198730 0.198730 0.198730
0.223999 0.223999 0.223999
0.250977 0.250977 0.250977
0.280029 0.280029 0.280029
0.311523 0.311523 0.311523
0.344727 0.344727 0.344727
0.380127 0.380127 0.380127
0.417236 0.417236 0.417236
0.454346 0.454346 0.454346
0.492188 0.492188 0.492188
0.530762 0.530762 0.530762
0.569336 0.569336 0.569336
0.607910 0.607910 0.607910
0.646484 0.646484 0.646484
0.684570 0.684570 0.684570
0.720703 0.720703 0.720703
0.753418 0.753418 0.753418
0.778809 0.778809 0.778809
0.801270 0.801270 0.801270
0.819824 0.819824 0.819824
0.833008 0.833008 0.833008
0.841309 0.841309 0.841309
0.080505 0.080505 0.080505
0.078308 0.078308 0.078308
0.076111 0.076111 0.076111
0.075562 0.075562 0.075562
0.077454 0.077454 0.077454
0.083679 0.083679 0.083679
0.094666 0.094666 0.094666
0.111328 0.111328 0.111267
0.132812 0.132812 0.132812
0.156738 0.156738 0.156738
0.180542 0.180542 0.180542
0.203369 0.203369 0.203369
0.227417 0.227417 0.227417
0.253418 0.253418 0.253418
0.281738 0.281738 0.281738
0.312500 0.312500 0.312500
0.345459 0.345459 0.345459
0.380615 0.380615 0.380615
0.417480 0.417480 0.417480
0.454590 0.454590 0.454590
0.492432 0.492432 0.492432
0.531250 0.531250 0.531250
0.569824 0.569824 0.569824
0.607910 0.607910 0.607910
0.646484 0.646484 0.646484
0.684570 0.684570 0.684570
0.720703 0.720703 0.720703
0.753418 0.753418 0.753418
0.778809 0.778809 0.778809
0.801270 0.801270 0.801270
0.819824 0.819824 0.819824
0.833008 0.833008 0.833008
0.841309 0.841309 0.841309
0.119324 0.119324 0.119324
0.116577 0.116577 0.116577
0.113953 0.113953 0.113953
0.112183 0.112183 0.112183
0.112488 0.112488 0.112488
0.115601 0.115601 0.115601
0.122925 0.122925 0.122925
0.134644 0.134644 0.134644
0.151123 0.151123 0.151123
0.170654 0.170654 0.170654
0.191162 0.191162 0.191162
0.211426 0.211426 0.211426
0.233398 0.233398 0.233398
0.257812 0.257812 0.257812
0.284912 0.284912 0.284912
0.314697 0.314697 0.314697
0.346924 0.346924 0.346924
0.381592 0.381592 0.381592
0.418213 0.418213 0.418213
0.455078 0.455078 0.455078
0.492676 0.492676 0.492676
0.531250 0.531250 0.531250
0.569824 0.569824 0.569824
0.607910 0.607910 0.607910
0.646484 0.646484 0.646484
0.684570 0.684570 0.684570
0.720703 0.720703 0.720703
0.753418 0.753418 0.753418
0.778809 0.778809 0.778809
0.801270 0.801270 0.801270
0.819824 0.819824 0.819824
0.833008 0.833008 0.833008
0.841309 0.841309 0.841309
0.160522 0.160522 0.160522
0.157593 0.157593 0.157593
0.154663 0.154663 0.154663
0.152466 0.152466 0.152466
0.151489 0.151489 0.151489
0.152466 0.152466 0.152466
0.156494 0.156494 0.156494
0.164185 0.164185 0.164185
0.175781 0.175781 0.175781
0.190552 0.190552 0.190552
0.206787 0.206787 0.206787
0.223877 0.223877 0.223877
0.243042 0.243042 0.243042
0.265137 0.265137 0.264893
0.290039 0.290039 0.290039
0.318604 0.318604 0.318604
0.349609 0.349609 0.349609
0.383301 0.383301 0.383301
0.419189 0.419189 0.419189
0.455811 0.455811 0.455811
0.493164 0.493164 0.493164
0.531738 0.531738 0.531738
0.569824 0.569824 0.569824
0.608398 0.608398 0.608398
0.646484 0.646484 0.646484
0.684570 0.684570 0.684570
0.720703 0.720703 0.720703
0.753418 0.753418 0.753418
0.778809 0.778809 0.778809
0.801270 0.801270 0.801270
0.819824 0.819824 0.819824
0.833008 0.833008 0.833008
0.841309 0.841309 0.841309
0.200439 0.200439 0.200439
0.197510 0.197510 0.197510
0.194946 0.194946 0.194946
0.192383 0.192383 0.192383
0.190674 0.190674 0.190674
0.190552 0.190552 0.190552
0.192505 0.192505 0.192505
0.197021 0.197021 0.197021
0.204956 0.204956 0.204956
0.215210 0.215210 0.215210
0.227417 0.227417 0.227417
0.240845 0.240845 0.240845
0.256592 0.256592 0.256592
0.275635 0.275635 0.275635
0.298096 0.298096 0.298096
0.324219 0.324219 0.324219
0.353760 0.353516 0.353516
0.385986 0.385986 0.385986
0.421143 0.421143 0.421143
0.457031 0.457031 0.457031
0.493896 0.493896 0.493896
0.532227 0.532227 0.532227
0.570312 0.570312 0.570312
0.608398 0.608398 0.608398
0.646973 0.646973 0.646973
0.684570 0.684570 0.684570
0.720703 0.720703 0.720703
0.753418 0.753418 0.753418
0.778809 0.778809 0.778809
0.801270 0.801270 0.801270
0.819824 0.819824 0.819824
0.833008 0.833008 0.833008
0.841309 0.841309 0.841309
0.236084 0.236084 0.236084
0.233887 0.233887 0.233887
0.231201 0.231201 0.231201
0.229126 0.229126 0.229126
0.227295 0.227295 0.227295
0.226685 0.226685 0.226685
0.227173 0.227173 0.227173
0.229980 0.229980 0.229980
0.234985 0.234985 0.234985
0.242432 0.242432 0.242432
0.250977 0.250977 0.250977
0.261230 0.261230 0.261230
0.273926 0.273926 0.273926
0.289795 0.289795 0.289795
0.309082 0.309082 0.308838
0.332520 0.332520 0.332520
0.359619 0.359619 0.359619
0.390137 0.390137 0.390137
0.424072 0.423828 0.423828
0.458740 0.458740 0.458740
0.495117 0.495117 0.495117
0.533203 0.533203 0.533203
0.570801 0.570801 0.570801
0.608887 0.608887 0.608887
0.646973 0.646973 0.646973
0.685059 0.685059 0.685059
0.720703 0.720703 0.720703
0.753418 0.753418 0.753418
0.778809 0.778809 0.778809
0.801270 0.801270 0.801270
0.819824 0.819824 0.819824
0.833008 0.833008 0.833008
0.841309 0.841309 0.841309
0.266846 0.266846 0.266846
0.264648 0.264648 0.264648
0.262451 0.262451 0.262451
0.260254 0.260254 0.260254
0.258789 0.258789 0.258789
0.257812 0.257812 0.257812
0.258057 0.258057 0.258057
0.259521 0.259521 0.259521
0.262939 0.262939 0.262939
0.268311 0.268311 0.268311
0.275146 0.275146 0.275146
0.282959 0.282959 0.282959
0.292725 0.292725 0.292725
0.305664 0.305664 0.305664
0.322021 0.322021 0.322021
0.342773 0.342773 0.342773
0.367188 0.367188 0.367188
0.395752 0.395752 0.395752
0.427734 0.427734 0.427734
0.461426 0.461426 0.461426
0.496826 0.496826 0.496826
0.534180 0.534180 0.534180
0.571289 0.571289 0.571289
0.609375 0.609375 0.609375
0.647461 0.647461 0.647461
0.685059 0.685059 0.685059
0.721191 0.721191 0.721191
0.753906 0.753906 0.753906
0.778809 0.778809 0.778809
0.801270 0.801270 0.801270
0.819824 0.819824 0.819824
0.833008 0.833008 0.833008
0.841309 0.841309 0.841309
0.297119 0.297119 0.297119
0.295166 0.295166 0.295166
0.292480 0.292480 0.292480
0.290527 0.290527 0.290527
0.288818 0.288818 0.288818
0.287109 0.287109 0.287109
0.286621 0.286621 0.286621
0.287354 0.287354 0.287354
0.289551 0.289551 0.289551
0.293213 0.293213 0.293213
0.298096 0.298096 0.298096
0.303955 0.303955 0.303955
0.311523 0.311523 0.311523
0.322021 0.322021 0.322021
0.335938 0.335938 0.335938
0.353760 0.353760 0.353760
0.375732 0.375732 0.375732
0.402100 0.402100 0.402100
0.432373 0.432373 0.432373
0.464600 0.464600 0.464600
0.499023 0.499023 0.499023
0.535645 0.535645 0.535645
0.572266 0.572266 0.572266
0.609863 0.609863 0.609863
0.647949 0.647949 0.647949
0.685547 0.685547 0.685547
0.721191 0.721191 0.721191
0.753906 0.753906 0.753906
0.779297 0.779297 0.779297
0.801270 0.801270 0.801270
0.819824 0.819824 0.819824
0.833008 0.833008 0.833008
0.841309 0.841309 0.841309
0.328613 0.328613 0.328613
0.326416 0.326416 0.326416
0.323730 0.323730 0.323730
0.321777 0.321777 0.321777
0.319580 0.319580 0.319580
0.317871 0.317871 0.317871
0.316650 0.316650 0.316650
0.316650 0.316650 0.316650
0.317383 0.317383 0.317383
0.319580 0.319580 0.319580
0.322510 0.322510 0.322510
0.326416 0.326416 0.326416
0.332520 0.332520 0.332520
0.340576 0.340576 0.340576
0.351562 0.351562 0.351562
0.366699 0.366699 0.366699
0.385986 0.385986 0.385986
0.409668 0.409668 0.409668
0.437744 0.437744 0.437744
0.468506 0.468506 0.468506
0.501465 0.501465 0.501465
0.537598 0.537598 0.537598
0.573730 0.573730 0.573730
0.610840 0.610840 0.610840
0.648438 0.648438 0.648438
0.685547 0.685547 0.685547
0.721680 0.721680 0.721680
0.753906 0.753906 0.753906
0.779297 0.779297 0.779297
0.801758 0.801758 0.801758
0.820312 0.820312 0.820312
0.833496 0.833008 0.833008
0.841309 0.841309 0.841309
0.362061 0.362061 0.362061
0.359863 0.359863 0.359863
0.356934 0.356934 0.356934
0.354492 0.354492 0.354492
0.352051 0.352051 0.352051
0.349854 0.349854 0.349854
0.348145 0.348145 0.348145
0.347412 0.347412 0.347412
0.347412 0.347412 0.347412
0.348145 0.348145 0.348145
0.350098 0.350098 0.350098
0.352295 0.352295 0.352295
0.356201 0.356201 0.356201
0.362061 0.362061 0.362061
0.370605 0.370605 0.370605
0.382568 0.382568 0.382568
0.398682 0.398682 0.398682
0.419678 0.419678 0.419678
0.445068 0.445068 0.445068
0.473633 0.473633 0.473633
0.505371 0.505371 0.505371
0.539551 0.539551 0.539551
0.575195 0.575195 0.575195
0.611816 0.611816 0.611816
0.648926 0.648926 0.648926
0.686523 0.686523 0.686523
0.721680 0.721680 0.721680
0.754395 0.754395 0.754395
0.779297 0.779297 0.779297
0.801758 0.801758 0.801758
0.820312 0.820312 0.820312
0.833496 0.833008 0.833008
0.841309 0.841309 0.841309
0.397705 0.397705 0.397705
0.394775 0.394775 0.394775
0.391846 0.391846 0.391846
0.389160 0.389160 0.389160
0.386719 0.386719 0.386719
0.384033 0.384033 0.384033
0.382324 0.382324 0.382324
0.380615 0.380615 0.380615
0.379883 0.379883 0.379883
0.379639 0.379639 0.379395
0.379883 0.379883 0.379883
0.380859 0.380859 0.380859
0.382812 0.382812 0.382812
0.386963 0.386719 0.386719
0.392822 0.392822 0.392822
0.402100 0.402100 0.402100
0.415039 0.415039 0.415039
0.432617 0.432617 0.432617
0.454834 0.454834 0.454834
0.480957 0.480957 0.480957
0.510254 0.510254 0.510254
0.542969 0.542969 0.542969
0.577637 0.577637 0.577637
0.613281 0.613281 0.613281
0.649902 0.649902 0.649902
0.687012 0.687012 0.687012
0.722168 0.722168 0.722168
0.754395 0.754395 0.754395
0.779297 0.779297 0.779297
0.801758 0.801758 0.801758
0.820312 0.820312 0.820312
0.833496 0.833496 0.833496
0.841797 0.841797 0.841797
0.435059 0.435059 0.435059
0.431885 0.431885 0.431885
0.428955 0.428955 0.428955
0.426025 0.426025 0.426025
0.423340 0.423340 0.423340
0.420654 0.420654 0.420654
0.418213 0.418213 0.418213
0.416016 0.416016 0.416016
0.414551 0.414551 0.414551
0.413574 0.413574 0.413574
0.412842 0.412842 0.412842
0.412842 0.412842 0.412842
0.413330 0.413330 0.413330
0.415283 0.415283 0.415283
0.419189 0.419189 0.419189
0.425781 0.425781 0.425781
0.435303 0.435303 0.435303
0.449219 0.449219 0.449219
0.467773 0.467773 0.467773
0.490479 0.490479 0.490479
0.517090 0.517090 0.517090
0.547852 0.547852 0.547852
0.581055 0.581055 0.581055
0.615723 0.615723 0.615723
0.651367 0.651367 0.651367
0.687988 0.687988 0.687988
0.723145 0.723145 0.723145
0.754883 0.754883 0.754883
0.779785 0.779785 0.779785
0.802246 0.802246 0.802246
0.820312 0.820312 0.820312
0.833496 0.833496 0.833496
0.841797 0.841797 0.841797
0.474609 0.474609 0.474365
0.471680 0.471680 0.471680
0.468262 0.468262 0.468262
0.464844 0.464844 0.464844
0.461914 0.461914 0.461914
0.459229 0.459229 0.459229
0.456787 0.456787 0.456787
0.453857 0.453857 0.453857
0.451660 0.451660 0.451660
0.449951 0.449951 0.449951
0.448486 0.448486 0.448486
0.447510 0.447510 0.447510
0.447021 0.447021 0.447021
0.447510 0.447510 0.447510
0.449219 0.449219 0.449219
0.453125 0.453125 0.453125
0.459961 0.459961 0.459961
0.470215 0.470215 0.470215
0.484863 0.484863 0.484863
0.503906 0.503906 0.503906
0.526855 0.526855 0.526855
0.555176 0.555176 0.555176
0.585938 0.585938 0.585938
0.619141 0.619141 0.619141
0.653809 0.653809 0.653809
0.689453 0.689453 0.689453
0.724121 0.724121 0.724121
0.755859 0.755859 0.755859
0.780273 0.780273 0.780273
0.802734 0.802734 0.802734
0.820801 0.820801 0.820801
0.833984 0.833984 0.833984
0.842285 0.842285 0.842285
0.514160 0.514160 0.514160
0.511230 0.511230 0.511230
0.508789 0.508789 0.508789
0.505371 0.505371 0.505371
0.502441 0.502441 0.502441
0.499512 0.499512 0.499512
0.496338 0.496338 0.496338
0.493164 0.493164 0.493164
0.490967 0.490967 0.490967
0.488281 0.488281 0.488281
0.486816 0.486816 0.486816
0.485107 0.485107 0.485107
0.483398 0.483398 0.483398
0.483398 0.483398 0.483398
0.483398 0.483398 0.483398
0.485352 0.485352 0.485352
0.489258 0.489258 0.489258
0.496094 0.496094 0.496094
0.506836 0.506836 0.506836
0.521484 0.521484 0.521484
0.541016 0.541016 0.541016
0.564941 0.564941 0.564941
0.592773 0.592773 0.592773
0.624023 0.624023 0.624023
0.657227 0.657227 0.657227
0.691406 0.691406 0.691406
0.725586 0.725586 0.725586
0.756836 0.756836 0.756836
0.781250 0.781250 0.781250
0.803223 0.803223 0.803223
0.821289 0.821289 0.821289
0.834473 0.834473 0.834473
0.842285 0.842285 0.842285
0.555664 0.555664 0.555664
0.552734 0.552734 0.552734
0.549805 0.549805 0.549805
0.546387 0.546387 0.546387
0.542969 0.542969 0.542969
0.540527 0.540527 0.540527
0.537109 0.537109 0.537109
0.533691 0.533691 0.533691
0.530762 0.530762 0.530762
0.528320 0.528320 0.528320
0.525879 0.525879 0.525879
0.523926 0.523926 0.523926
0.521484 0.521484 0.521484
0.520996 0.520996 0.520996
0.520020 0.520020 0.520020
0.520508 0.520508 0.520508
0.521973 0.521973 0.521973
0.525879 0.525879 0.525879
0.533691 0.533691 0.533691
0.543945 0.543945 0.543945
0.559082 0.559082 0.559082
0.579102 0.579102 0.579102
0.603027 0.603027 0.603027
0.631348 0.631348 0.631348
0.662109 0.662109 0.662109
0.694824 0.694824 0.694824
0.728027 0.728027 0.727539
0.758301 0.758301 0.758301
0.782227 0.782227 0.782227
0.804199 0.804199 0.804199
0.822266 0.822266 0.822266
0.834961 0.834961 0.834961
0.842773 0.842773 0.842773
0.598145 0.598145 0.598145
0.594727 0.594727 0.594727
0.591309 0.591309 0.591309
0.587891 0.587891 0.587891
0.584473 0.584473 0.584473
0.581543 0.581543 0.581543
0.578125 0.578125 0.578125
0.575195 0.575195 0.575195
0.571777 0.571777 0.571777
0.568848 0.568848 0.568848
0.566895 0.566895 0.566895
0.563965 0.563965 0.563965
0.562500 0.562500 0.562012
0.560059 0.560059 0.560059
0.558105 0.558105 0.558105
0.557617 0.557617 0.557617
0.557617 0.557617 0.557617
0.559570 0.559570 0.559570
0.563965 0.563965 0.563965
0.571289 0.571289 0.571289
0.582031 0.582031 0.582031
0.597656 0.597656 0.597656
0.617188 0.617188 0.617188
0.641602 0.641602 0.641602
0.669434 0.669434 0.669434
0.700195 0.700195 0.700195
0.731445 0.731445 0.731445
0.760742 0.760742 0.760742
0.784180 0.784180 0.784180
0.805664 0.805664 0.805664
0.823242 0.823242 0.823242
0.835938 0.835938 0.835938
0.843750 0.843750 0.843750
0.639648 0.639648 0.639648
0.636719 0.636719 0.636719
0.633301 0.633301 0.633301
0.629883 0.629883 0.629883
0.626465 0.626465 0.626465
0.623047 0.623047 0.623047
0.619629 0.619629 0.619629
0.616699 0.616699 0.616699
0.613770 0.613770 0.613770
0.610352 0.610352 0.610352
0.607422 0.607422 0.607422
0.604980 0.604980 0.604980
0.603027 0.603027 0.603027
0.600586 0.600586 0.600586
0.598145 0.598145 0.598145
0.596191 0.596191 0.596191
0.595215 0.595215 0.595215
0.595215 0.595215 0.595215
0.597656 0.597656 0.597656
0.601562 0.601562 0.601562
0.609375 0.609375 0.609375
0.620605 0.620605 0.620605
0.635742 0.635742 0.635742
0.655762 0.655762 0.655762
0.679688 0.679688 0.679688
0.707520 0.707520 0.707520
0.736328 0.736328 0.736328
0.764648 0.764648 0.764648
0.787109 0.787109 0.787109
0.807617 0.807617 0.807617
0.825195 0.825195 0.825195
0.837402 0.837402 0.837402
0.845215 0.845215 0.845215
0.681641 0.681641 0.681641
0.678223 0.678223 0.678223
0.674805 0.674805 0.674805
0.671875 0.671875 0.671875
0.668457 0.668457 0.668457
0.665039 0.665039 0.665039
0.661621 0.661621 0.661621
0.658203 0.658203 0.658203
0.655273 0.655273 0.655273
0.652832 0.652832 0.652832
0.649414 0.649414 0.649414
0.646973 0.646973 0.646973
0.643555 0.643555 0.643555
0.641113 0.641113 0.641113
0.638672 0.638672 0.638672
0.636719 0.636719 0.636719
0.634766 0.634766 0.634766
0.634277 0.634277 0.634277
0.634766 0.634766 0.634766
0.636719 0.636719 0.636719
0.640625 0.640625 0.640625
0.648438 0.648438 0.648438
0.659180 0.659180 0.659180
0.674316 0.674316 0.674316
0.694336 0.694336 0.694336
0.718262 0.718262 0.718262
0.744141 0.744141 0.744141
0.770020 0.770020 0.770020
0.791504 0.791504 0.791504
0.811035 0.811035 0.811035
0.827637 0.827637 0.827637
0.839844 0.839844 0.839355
0.847168 0.847168 0.847168
0.723145 0.723145 0.723145
0.720215 0.720215 0.720215
0.716797 0.716797 0.716797
0.713379 0.713379 0.713379
0.709961 0.709961 0.709961
0.707031 0.707031 0.707031
0.703613 0.703613 0.703613
0.700195 0.700195 0.700195
0.697754 0.697754 0.697754
0.694336 0.694336 0.694336
0.691406 0.691406 0.691406
0.687988 0.687988 0.687988
0.684570 0.684570 0.684570
0.682617 0.682617 0.682617
0.679688 0.679688 0.679688
0.676758 0.676758 0.676758
0.675293 0.675293 0.675293
0.673828 0.673828 0.673828
0.672363 0.672363 0.672363
0.673340 0.673340 0.673340
0.675293 0.675293 0.674805
0.679199 0.679199 0.679199
0.687012 0.687012 0.687012
0.697754 0.697754 0.697754
0.712891 0.712891 0.712891
0.732910 0.732910 0.732910
0.755371 0.755371 0.755371
0.778320 0.778320 0.778320
0.797852 0.797852 0.797852
0.815918 0.815918 0.815918
0.831543 0.831543 0.831543
0.843262 0.843262 0.843262
0.850098 0.850098 0.850098
0.764160 0.764160 0.764160
0.761230 0.761230 0.761230
0.757812 0.757812 0.757812
0.754395 0.754395 0.754395
0.751465 0.751465 0.751465
0.748047 0.748047 0.748047
0.744629 0.744629 0.744629
0.742188 0.742188 0.742188
0.739258 0.739258 0.739258
0.735840 0.735840 0.735840
0.732422 0.732422 0.732422
0.729980 0.729980 0.729980
0.726562 0.726562 0.726562
0.723633 0.723633 0.723633
0.721191 0.721191 0.721191
0.718262 0.718262 0.718262
0.715820 0.715820 0.715820
0.713867 0.713867 0.713867
0.711914 0.711914 0.711914
0.710938 0.710938 0.710938
0.711426 0.711426 0.711426
0.713379 0.713379 0.713379
0.717773 0.717773 0.717773
0.725586 0.725586 0.725586
0.736328 0.736328 0.736328
0.751465 0.751465 0.751465
0.770020 0.770020 0.770020
0.789551 0.789551 0.789551
0.806641 0.806641 0.806641
0.823242 0.823242 0.823242
0.837891 0.837891 0.837891
0.848145 0.848145 0.848145
0.854980 0.854980 0.854980
0.803711 0.803711 0.803711
0.800781 0.800781 0.800781
0.797852 0.797852 0.797852
0.794434 0.794434 0.794434
0.791504 0.791504 0.791504
0.789062 0.789062 0.789062
0.785645 0.785645 0.785645
0.782715 0.782715 0.782715
0.779785 0.779785 0.779785
0.776367 0.776367 0.776367
0.773438 0.773438 0.773438
0.770020 0.770020 0.770020
0.767090 0.767090 0.767090
0.764648 0.764648 0.764648
0.761719 0.761719 0.761719
0.759277 0.759277 0.759277
0.756836 0.756836 0.756836
0.753906 0.753906 0.753906
0.751953 0.751953 0.751953
0.750000 0.750000 0.750000
0.749023 0.749023 0.749023
0.750000 0.750000 0.750000
0.751953 0.751953 0.751953
0.756348 0.756348 0.756348
0.764160 0.764160 0.764160
0.774902 0.774902 0.774902
0.789062 0.789062 0.789062
0.804688 0.804688 0.804688
0.819336 0.819336 0.819336
0.833496 0.833496 0.833496
0.846191 0.846191 0.846191
0.855469 0.855469 0.855469
0.861328 0.861328 0.861328
0.838379 0.838379 0.838379
0.836426 0.836426 0.836426
0.833984 0.833984 0.833984
0.831055 0.831055 0.831055
0.829102 0.829102 0.829102
0.826172 0.826172 0.826172
0.823730 0.823730 0.823730
0.820801 0.820801 0.820801
0.817871 0.817871 0.817871
0.814941 0.814941 0.814941
0.812012 0.812012 0.812012
0.809082 0.809082 0.809082
0.806152 0.806152 0.806152
0.803711 0.803711 0.803711
0.801270 0.801270 0.801270
0.798828 0.798828 0.798828
0.796387 0.796387 0.796387
0.793457 0.793457 0.793457
0.791016 0.791016 0.791016
0.788574 0.788574 0.788574
0.788086 0.788086 0.788086
0.787109 0.787109 0.787109
0.787598 0.787598 0.787598
0.790039 0.790039 0.790039
0.794434 0.794434 0.794434
0.802246 0.802246 0.802246
0.812012 0.812012 0.812012
0.824219 0.824219 0.824219
0.835449 0.835449 0.835449
0.847168 0.847168 0.847168
0.858398 0.857910 0.857910
0.865723 0.865723 0.865723
0.871094 0.871094 0.871094
0.866211 0.866211 0.866211
0.863770 0.863770 0.863770
0.862305 0.862305 0.862305
0.860352 0.860352 0.860352
0.857910 0.857910 0.857910
0.855957 0.855957 0.855957
0.854004 0.854004 0.854004
0.851562 0.851562 0.851562
0.849609 0.849609 0.849609
0.847168 0.847168 0.847168
0.845215 0.845215 0.845215
0.842773 0.842773 0.842773
0.840332 0.840332 0.840332
0.838379 0.838379 0.838379
0.836426 0.836426 0.836426
0.834473 0.834473 0.834473
0.832031 0.832031 0.832031
0.829590 0.829590 0.829590
