RED_IPP2_Creative/RED_BLEACH_1.cube
# RED Digital Cinema Output Transform LUT for IPP2
# Creatives by Eric Weidt
# BMD cube from Truelight v4.0
# Settings used in creation of this LUT are:
# Development Color Space = USER SELECTABLE
# Output Gamma Curve = USER SELECTABLE
# Output Tonemap = USER SELECTABLE
# Highlight Rolloff = USER SELECTABLE
LUT_3D_SIZE 9
0.033875 0.033875 0.033875
0.112793 0.035583 0.035370
0.214478 0.037964 0.037750
0.320557 0.039886 0.039917
0.430420 0.041809 0.041687
0.552246 0.043091 0.042511
0.688477 0.041748 0.040985
0.832520 0.049652 0.047821
0.981445 0.067444 0.067139
0.047668 0.107300 0.047638
0.113281 0.116028 0.053833
0.209351 0.127075 0.059570
0.318359 0.132080 0.054016
0.428467 0.137329 0.052185
0.553711 0.143799 0.052307
0.698242 0.153809 0.058472
0.859863 0.169067 0.066223
0.963867 0.181274 0.068604
0.060730 0.219482 0.060699
0.149536 0.222778 0.086121
0.240723 0.245728 0.075317
0.341797 0.263916 0.089294
0.451660 0.287354 0.110718
0.588867 0.304443 0.116333
0.742188 0.317871 0.120728
0.900391 0.328369 0.131470
0.943359 0.337402 0.116272
0.087341 0.353760 0.089478
0.203247 0.370361 0.127686
0.304443 0.394287 0.153564
0.402100 0.419189 0.153442
0.510254 0.437256 0.167236
0.630371 0.453857 0.183472
0.759277 0.467773 0.194336
0.910156 0.473633 0.182251
0.921387 0.476074 0.189941
0.137695 0.514160 0.148682
0.255371 0.525391 0.178589
0.362305 0.531250 0.223267
0.446777 0.553223 0.217773
0.545898 0.570312 0.206299
0.660156 0.579102 0.210327
0.777832 0.586426 0.218140
0.898438 0.592773 0.219238
0.909668 0.590820 0.216919
0.175537 0.656738 0.188477
0.284668 0.660156 0.211792
0.387451 0.659180 0.239746
0.478027 0.660156 0.268066
0.560059 0.677246 0.239258
0.665527 0.686035 0.217285
0.781250 0.691406 0.216553
0.898926 0.694824 0.224487
0.920410 0.691895 0.227905
0.179810 0.774414 0.205078
0.290283 0.771973 0.213501
0.392090 0.766113 0.243042
0.490234 0.759766 0.274658
0.572266 0.770508 0.265625
0.666504 0.784180 0.234497
0.776855 0.790527 0.219971
0.893555 0.793457 0.209229
0.932129 0.789551 0.220215
0.117432 0.879395 0.211914
0.284912 0.875977 0.218018
0.395020 0.868652 0.232666
0.492432 0.860352 0.260254
0.585938 0.855469 0.299072
0.666992 0.872559 0.255615
0.769531 0.883301 0.233276
0.882812 0.888184 0.194946
0.942871 0.886230 0.201294
0.215820 0.899414 0.168823
0.286133 0.898438 0.208496
0.386475 0.895996 0.213013
0.481445 0.893555 0.247925
0.579102 0.889160 0.291748
0.657715 0.911133 0.253174
0.755371 0.929199 0.199951
0.863770 0.942383 0.182861
0.948730 0.949707 0.180908
0.034149 0.034424 0.132690
0.111267 0.036438 0.123840
0.214478 0.038757 0.120605
0.321045 0.040527 0.121826
0.432861 0.042114 0.125854
0.554688 0.043274 0.131836
0.689941 0.043060 0.135742
0.835938 0.040985 0.143188
0.984375 0.037750 0.156616
0.040833 0.115051 0.123596
0.116211 0.119629 0.128174
0.226929 0.124695 0.133545
0.335938 0.128418 0.137939
0.448975 0.133301 0.143677
0.575195 0.140747 0.152100
0.722656 0.151978 0.164795
0.885254 0.168091 0.183960
0.980469 0.188110 0.200439
0.058197 0.225830 0.143555
0.144531 0.235596 0.156860
0.246216 0.251221 0.174194
0.348633 0.271484 0.193726
0.474854 0.289062 0.203125
0.616211 0.302979 0.214478
0.768555 0.315186 0.225464
0.924805 0.326660 0.241089
0.963867 0.335449 0.248047
0.094604 0.362305 0.193726
0.200806 0.386230 0.217773
0.313232 0.400879 0.254883
0.408203 0.425537 0.260254
0.515625 0.442627 0.273682
0.636719 0.457275 0.286377
0.784180 0.464844 0.279297
0.932129 0.469238 0.277344
0.941895 0.470459 0.275391
0.144653 0.520508 0.254639
0.250244 0.537598 0.270752
0.355957 0.545898 0.295654
0.455078 0.554199 0.327881
0.548828 0.572754 0.310303
0.661133 0.581543 0.313477
0.780273 0.587891 0.319336
0.904785 0.590820 0.312012
0.920898 0.589355 0.311523
0.181396 0.660156 0.290527
0.277100 0.669922 0.301025
0.377197 0.669434 0.315186
0.476807 0.666016 0.347168
0.563477 0.676758 0.343750
0.666504 0.687500 0.321777
0.780762 0.690918 0.321045
0.898926 0.695801 0.324219
0.922363 0.692871 0.326416
0.204712 0.776367 0.303711
0.293213 0.779785 0.307129
0.382080 0.776855 0.320312
0.481689 0.770996 0.343506
0.580566 0.766602 0.381836
0.667969 0.783691 0.345703
0.777344 0.791016 0.320557
0.892578 0.793457 0.324219
0.934082 0.790039 0.316895
0.141113 0.880371 0.303711
0.285400 0.882812 0.308350
0.377930 0.878418 0.322998
0.476318 0.871582 0.335449
0.581543 0.862305 0.372559
0.672363 0.870605 0.369141
0.770020 0.882812 0.337891
0.882324 0.887695 0.317871
0.944336 0.885254 0.316162
0.215576 0.899902 0.290039
0.261963 0.907715 0.293945
0.376709 0.907227 0.294678
0.466553 0.906250 0.319092
0.567383 0.902832 0.350586
0.666016 0.908203 0.376221
0.755859 0.929688 0.335693
0.862793 0.943359 0.324219
0.951660 0.952148 0.288574
0.035004 0.035156 0.248169
0.109985 0.037323 0.241821
0.214844 0.039673 0.240234
0.323242 0.041138 0.243408
0.434814 0.042572 0.247925
0.556641 0.043335 0.253174
0.692383 0.040894 0.256836
0.838379 0.053345 0.261719
0.984375 0.065002 0.273926
0.041351 0.116699 0.244385
0.117615 0.121643 0.250244
0.228149 0.126099 0.254883
0.338135 0.129761 0.258789
0.451660 0.135742 0.265625
0.579590 0.143799 0.274170
0.729004 0.156616 0.288818
0.892090 0.171509 0.307129
0.979492 0.188843 0.320801
0.042358 0.240723 0.261963
0.133789 0.247681 0.269043
0.250732 0.257812 0.280029
0.369629 0.273682 0.296143
0.496338 0.288818 0.312988
0.636230 0.301758 0.326660
0.787109 0.313232 0.339111
0.942383 0.323486 0.348633
0.976074 0.329102 0.355713
0.076294 0.386230 0.301270
0.196045 0.399170 0.319580
0.311523 0.413574 0.340820
0.413818 0.430420 0.362061
0.520020 0.447510 0.374756
0.658203 0.455078 0.371338
0.803711 0.459961 0.373291
0.949707 0.462891 0.374756
0.960449 0.464111 0.374512
0.139648 0.533203 0.353516
0.254395 0.541992 0.371094
0.351562 0.555176 0.384521
0.454834 0.562012 0.406494
0.551758 0.575195 0.409424
0.663086 0.583008 0.411377
0.784180 0.587402 0.411865
0.924805 0.585938 0.395264
0.939941 0.582520 0.391846
0.190796 0.663086 0.390625
0.279541 0.671875 0.398682
0.370605 0.676270 0.403564
0.467529 0.676270 0.416748
0.569336 0.674316 0.447754
0.667480 0.687500 0.419434
0.781250 0.691895 0.420166
0.899414 0.695801 0.423584
0.923828 0.692383 0.420654
0.197144 0.776855 0.400391
0.291504 0.780273 0.403809
0.377441 0.782227 0.406982
0.470947 0.780273 0.417725
0.574219 0.773438 0.447510
0.669922 0.781738 0.443359
0.776855 0.790527 0.418945
0.892578 0.792969 0.418213
0.934570 0.790039 0.415771
0.178223 0.880371 0.402344
0.306641 0.882812 0.402588
0.389404 0.882812 0.405518
0.469238 0.880371 0.414551
0.570312 0.872070 0.436523
0.678711 0.865723 0.475098
0.770508 0.881836 0.436279
0.880859 0.887207 0.411133
0.945312 0.885254 0.406250
0.173218 0.902344 0.390137
0.290283 0.909668 0.392578
0.373047 0.914551 0.391846
0.464111 0.915039 0.400635
0.557129 0.914062 0.421631
0.666016 0.910156 0.460938
0.758789 0.929199 0.440430
0.863770 0.945312 0.409912
0.953613 0.953613 0.387207
0.035431 0.035767 0.364990
0.109192 0.038177 0.359863
0.215576 0.040344 0.360596
0.324219 0.041962 0.363770
0.437012 0.042908 0.369141
0.558594 0.043457 0.374268
0.694336 0.041779 0.377930
0.840820 0.054474 0.385254
0.984375 0.076111 0.395020
0.041809 0.118286 0.365967
0.118958 0.123047 0.371338
0.229248 0.126953 0.375732
0.339111 0.131592 0.380371
0.454102 0.138062 0.388428
0.583984 0.147705 0.398926
0.736328 0.161499 0.415039
0.898438 0.176270 0.431885
0.979492 0.189575 0.446777
0.041687 0.242798 0.382568
0.136597 0.250244 0.391357
0.254395 0.262207 0.403809
0.375000 0.279053 0.421875
0.500488 0.293457 0.437256
0.640625 0.305664 0.451660
0.791504 0.316895 0.463135
0.945801 0.325684 0.472168
0.976562 0.333008 0.480225
0.069336 0.399658 0.428711
0.182495 0.414307 0.444580
0.298828 0.427002 0.456787
0.415039 0.437988 0.467529
0.537598 0.445557 0.475342
0.674805 0.452148 0.482422
0.819336 0.456543 0.486816
0.964355 0.458496 0.488281
0.974121 0.458252 0.487793
0.111694 0.554688 0.466797
0.227661 0.562500 0.476562
0.339844 0.566406 0.484863
0.451172 0.569336 0.495605
0.555176 0.576660 0.509766
0.665039 0.583496 0.507812
0.803223 0.582031 0.496338
0.941406 0.578125 0.490723
0.958496 0.575195 0.487061
0.152710 0.684082 0.488770
0.268066 0.680176 0.496094
0.370605 0.677246 0.501465
0.462158 0.681152 0.505371
0.564941 0.680664 0.519531
0.667480 0.687988 0.517578
0.781738 0.692383 0.517578
0.903809 0.693848 0.512695
0.936523 0.690430 0.503906
0.195923 0.783203 0.496338
0.280273 0.780273 0.502441
0.376221 0.783203 0.505371
0.464844 0.784668 0.506348
0.564941 0.782715 0.517090
0.674805 0.778320 0.545898
0.776855 0.790527 0.516602
0.892090 0.792969 0.516113
0.936523 0.790039 0.513184
0.234863 0.880859 0.499268
0.281494 0.882324 0.501953
0.381836 0.883789 0.502441
0.460693 0.884277 0.504395
0.558594 0.879883 0.510742
0.673340 0.871582 0.541992
0.770996 0.879395 0.534668
0.880371 0.886230 0.508301
0.946289 0.884277 0.504883
0.000000 0.904297 0.487549
0.227905 0.910645 0.488525
0.366455 0.916992 0.489746
0.453613 0.922363 0.489258
0.547363 0.924316 0.497803
0.658691 0.921875 0.522461
0.763184 0.927734 0.545410
0.862793 0.946289 0.509766
0.954590 0.956055 0.489746
0.037933 0.037781 0.483643
0.108887 0.038666 0.480713
0.216309 0.041290 0.483154
0.325439 0.043427 0.487549
0.437988 0.042450 0.492188
0.559082 0.042877 0.497559
0.695801 0.045715 0.501953
0.844727 0.043274 0.509277
0.984375 0.043304 0.520508
0.041687 0.119934 0.489258
0.120117 0.124329 0.494629
0.230225 0.128662 0.498047
0.340820 0.133179 0.505371
0.456055 0.140991 0.513184
0.588867 0.152222 0.526367
0.743164 0.168091 0.543945
0.904785 0.179321 0.560547
0.979004 0.188843 0.574219
0.041199 0.244629 0.506836
0.139526 0.253418 0.516602
0.258545 0.266602 0.531738
0.379883 0.283691 0.549805
0.504883 0.297852 0.564941
0.645996 0.309814 0.578613
0.795410 0.319580 0.588867
0.949219 0.328613 0.598145
0.976562 0.334717 0.604492
0.073914 0.404785 0.556152
0.185913 0.418701 0.571289
0.301514 0.430420 0.583008
0.416992 0.440430 0.592773
0.538574 0.447998 0.601074
0.676270 0.453857 0.606445
0.820312 0.457275 0.610840
0.964355 0.458496 0.611816
0.973633 0.457275 0.610840
0.107361 0.565918 0.597168
0.213867 0.572754 0.604492
0.322998 0.577637 0.608398
0.433105 0.581543 0.612305
0.550781 0.581055 0.612305
0.679688 0.579102 0.609863
0.814941 0.575684 0.606445
0.954590 0.572754 0.603027
0.971680 0.567871 0.598633
0.128418 0.700684 0.608398
0.234253 0.698730 0.606934
0.339355 0.695312 0.606445
0.446533 0.690918 0.605957
0.559570 0.685547 0.609375
0.667969 0.687500 0.617188
0.783691 0.691406 0.612305
0.922363 0.687500 0.599121
0.955566 0.681641 0.592773
0.122986 0.806641 0.602051
0.257812 0.799805 0.601074
0.358398 0.791016 0.602539
0.463379 0.785645 0.606445
0.559082 0.786621 0.607910
0.670410 0.784180 0.621582
0.775879 0.790039 0.615723
0.891113 0.792480 0.614746
0.937988 0.789551 0.611816
0.155640 0.899902 0.595703
0.261963 0.888672 0.598633
0.373535 0.883789 0.602539
0.466553 0.883301 0.602539
0.554199 0.884277 0.603027
0.661621 0.879883 0.611328
0.774414 0.876465 0.637207
0.880371 0.886230 0.606445
0.948730 0.883789 0.603027
0.218506 0.920898 0.582031
0.269287 0.912598 0.587402
0.367676 0.918945 0.586914
0.454346 0.923828 0.587891
0.541016 0.930176 0.587891
0.645508 0.932129 0.595703
0.763672 0.928711 0.631348
0.862305 0.947266 0.608887
0.957031 0.957520 0.586914
0.036591 0.032654 0.605469
0.110901 0.040588 0.604004
0.217529 0.041534 0.606934
0.327148 0.040894 0.612793
0.439209 0.045227 0.618164
0.560547 0.044708 0.622070
0.698730 0.043427 0.627930
0.849121 0.034271 0.636230
0.983398 0.042419 0.648438
0.045502 0.122437 0.614746
0.121826 0.124634 0.619629
0.231079 0.130615 0.623535
0.343018 0.134888 0.630859
0.459473 0.143677 0.640625
0.595215 0.159302 0.654785
0.750000 0.169556 0.672852
0.910156 0.183838 0.687500
0.978027 0.189819 0.700195
0.033630 0.247437 0.633301
0.143433 0.257324 0.645020
0.264160 0.272461 0.660645
0.383789 0.289307 0.677734
0.509277 0.302490 0.692871
0.649902 0.313721 0.704590
0.799316 0.322754 0.714844
0.951660 0.331299 0.721680
0.975586 0.338135 0.728027
0.076843 0.409424 0.683594
0.189453 0.422852 0.696777
0.305176 0.434082 0.708008
0.419189 0.443115 0.717285
0.541016 0.449951 0.723145
0.677734 0.455566 0.729492
0.820801 0.458008 0.731445
0.964844 0.458252 0.731445
0.973633 0.456543 0.729980
0.106567 0.568359 0.719727
0.215454 0.574707 0.725586
0.324463 0.579590 0.730957
0.433350 0.581543 0.731934
0.548828 0.580078 0.730469
0.677734 0.578125 0.728027
0.813965 0.574707 0.725098
0.952637 0.570312 0.720703
0.970703 0.566406 0.717285
0.111145 0.708008 0.731934
0.218750 0.706055 0.730469
0.320557 0.703613 0.728516
0.427246 0.700684 0.725098
0.538086 0.695312 0.720703
0.664551 0.690918 0.716309
0.797363 0.686035 0.711426
0.933105 0.679688 0.706055
0.969727 0.675293 0.700684
0.093933 0.818359 0.718262
0.221924 0.813477 0.714844
0.326172 0.808105 0.710938
0.429688 0.803223 0.707520
0.541992 0.794922 0.705078
0.664062 0.788086 0.707031
0.776367 0.790039 0.712402
0.894043 0.790527 0.706055
0.952637 0.785645 0.696289
0.006962 0.917480 0.703613
0.222534 0.910156 0.699707
0.340820 0.901855 0.697266
0.444580 0.891602 0.697754
0.553223 0.883789 0.700195
0.655762 0.884277 0.701172
0.772461 0.879395 0.715820
0.878906 0.885254 0.704102
0.950195 0.882812 0.701172
0.000000 0.942383 0.687012
0.257324 0.938477 0.683105
0.351318 0.932617 0.682129
0.450195 0.925781 0.685059
0.537598 0.931152 0.685059
0.637695 0.938477 0.686035
0.752441 0.939941 0.696289
0.863281 0.946777 0.709473
0.958984 0.959473 0.686035
0.043671 0.035706 0.725586
0.110840 0.046082 0.726562
0.221680 0.045135 0.729980
0.328369 0.040955 0.735352
0.440674 0.043030 0.740234
0.562988 0.036133 0.744629
0.701660 0.039886 0.750977
0.853516 0.027100 0.760254
0.983398 0.016083 0.773438
0.068970 0.123657 0.736328
0.122742 0.122131 0.741211
0.235840 0.128174 0.747070
0.344971 0.141357 0.753906
0.464111 0.152954 0.764648
0.602051 0.164185 0.779785
0.756836 0.176880 0.796875
0.915527 0.191895 0.809570
0.979492 0.203247 0.821777
0.022614 0.249634 0.757324
0.148315 0.261963 0.769043
0.268799 0.278564 0.787109
0.390381 0.293701 0.802246
0.513184 0.306152 0.814453
0.654297 0.316895 0.825684
0.803223 0.326416 0.834961
0.954590 0.333496 0.840820
0.975586 0.336670 0.846680
0.097900 0.414551 0.806641
0.197021 0.427246 0.819336
0.310303 0.437744 0.829590
0.420654 0.445801 0.837402
0.543457 0.452393 0.843262
0.678711 0.456543 0.846680
0.821289 0.458984 0.848633
0.963379 0.457031 0.847656
0.972656 0.455322 0.846191
0.117737 0.570801 0.839844
0.212769 0.576660 0.844727
0.326172 0.580566 0.848145
0.432861 0.582031 0.849609
0.548340 0.579102 0.847168
0.677246 0.577148 0.844727
0.812988 0.573730 0.841309
0.951172 0.569824 0.837402
0.970703 0.564941 0.833496
0.110474 0.707520 0.848633
0.222412 0.705078 0.845703
0.321289 0.702637 0.843750
0.424561 0.698242 0.839844
0.537109 0.694336 0.835938
0.662109 0.688965 0.831055
0.794434 0.683594 0.826660
0.931152 0.678223 0.821289
0.968750 0.672363 0.814941
0.037109 0.824707 0.838867
0.210815 0.820312 0.834473
0.308105 0.815918 0.830566
0.408447 0.809570 0.825684
0.520020 0.803711 0.819824
0.642090 0.797852 0.814453
0.773438 0.791504 0.808105
0.907715 0.785156 0.801758
0.966797 0.776855 0.794922
0.000000 0.927734 0.817383
0.240967 0.921875 0.812500
0.309326 0.914551 0.807129
0.412354 0.907715 0.801758
0.518066 0.900391 0.797363
0.641113 0.889648 0.793457
0.764160 0.883789 0.795410
0.877930 0.884277 0.798340
0.951660 0.881348 0.794434
0.088318 0.955566 0.797852
0.247681 0.954102 0.791992
0.295654 0.951660 0.786621
0.393066 0.949707 0.781738
0.514648 0.945312 0.778809
0.637695 0.939941 0.780762
0.745605 0.946777 0.781250
0.866211 0.947754 0.801758
0.960938 0.961426 0.780762
0.017609 0.056183 0.843262
0.083313 0.047638 0.843750
0.225220 0.000000 0.849121
0.328369 0.078125 0.854492
0.441162 0.043488 0.858887
0.564941 0.039520 0.863281
0.705078 0.000000 0.870117
0.858398 0.014595 0.879883
0.982422 0.045441 0.896484
0.000000 0.126343 0.855469
0.128784 0.118469 0.859863
0.226074 0.129883 0.864746
0.351562 0.136597 0.873535
0.468262 0.158447 0.885254
0.608398 0.161865 0.902832
0.762695 0.182251 0.916992
0.920898 0.215332 0.929688
0.978516 0.216919 0.940430
0.064209 0.256104 0.876953
0.152222 0.266846 0.891113
0.274414 0.283447 0.907715
0.393799 0.301025 0.922363
0.518066 0.307617 0.934082
0.657715 0.318604 0.944824
0.806152 0.326660 0.952148
0.957031 0.327393 0.958496
0.974609 0.342529 0.962891
0.036896 0.419434 0.926758
0.194214 0.431152 0.938477
0.308350 0.441895 0.947266
0.424561 0.446777 0.954590
0.545410 0.455322 0.959961
0.680664 0.457520 0.963379
0.821777 0.456787 0.964844
0.962402 0.456299 0.962891
0.972656 0.454102 0.960449
0.115967 0.572754 0.956543
0.179688 0.578125 0.961426
0.333984 0.581055 0.964844
0.433838 0.581543 0.964355
0.547363 0.578613 0.961914
0.675293 0.576172 0.958496
0.812012 0.572754 0.956055
0.949219 0.568359 0.951172
0.971680 0.563965 0.948730
0.157471 0.706543 0.962891
0.197876 0.704590 0.960938
0.321045 0.701172 0.957520
0.425781 0.697266 0.954102
0.536133 0.692383 0.949219
0.660156 0.687012 0.944336
0.792969 0.682129 0.939453
0.929199 0.676270 0.934570
0.968750 0.670410 0.929688
0.156738 0.823242 0.951660
0.213257 0.818848 0.947754
0.299561 0.814453 0.943359
0.408203 0.808105 0.938477
0.518066 0.802246 0.932617
0.640137 0.796387 0.927734
0.769043 0.788086 0.920410
0.904297 0.781250 0.913086
0.966797 0.774902 0.906738
0.190308 0.934570 0.936523
0.109131 0.928711 0.931152
0.285889 0.921875 0.924805
0.386230 0.915039 0.918457
0.497314 0.908203 0.912598
0.614258 0.900391 0.905762
0.742676 0.892578 0.898438
0.876465 0.884277 0.891113
0.965332 0.875488 0.882812
0.190796 0.965332 0.915527
0.281250 0.964355 0.908203
0.267578 0.962891 0.899902
0.364258 0.962402 0.892578
0.482422 0.960449 0.885742
0.600098 0.958496 0.877441
0.730957 0.955078 0.872070
0.855469 0.955566 0.873047
0.961914 0.963379 0.872559
0.000000 0.030731 0.958008
0.058533 0.110107 0.961426
0.242798 0.096619 0.966797
0.341064 0.052704 0.971680
0.443115 0.103699 0.975586
0.567871 0.096802 0.980469
0.708496 0.000000 0.984375
0.864746 0.000000 0.982910
0.981445 0.132690 0.982422
0.150391 0.123474 0.972656
0.156616 0.169678 0.976562
0.260498 0.173218 0.983398
0.340820 0.187622 0.984375
0.471680 0.101746 0.982910
0.615723 0.172363 0.981445
0.768555 0.190552 0.979492
0.925781 0.197388 0.979492
0.978516 0.230835 0.978516
0.000000 0.269531 0.983398
0.090149 0.258789 0.980957
0.269775 0.286133 0.979980
0.394775 0.294678 0.980469
0.522949 0.318848 0.978516
0.661621 0.316406 0.977051
0.809570 0.330811 0.976562
0.959473 0.336426 0.975586
0.975586 0.342773 0.975586
0.130737 0.425781 0.979492
0.197754 0.435547 0.978516
0.319580 0.443115 0.977539
0.421875 0.450684 0.975586
0.547363 0.454834 0.975586
0.681641 0.458252 0.973633
0.822266 0.457764 0.973633
0.961914 0.454102 0.972168
0.972656 0.453369 0.972656
0.000000 0.575195 0.975586
0.259033 0.580078 0.974609
0.330811 0.581543 0.973633
0.435303 0.580078 0.973633
0.546875 0.578613 0.972656
0.674805 0.576172 0.972656
0.809570 0.570312 0.971680
0.948242 0.565918 0.970703
0.971191 0.561035 0.971191
0.130005 0.706055 0.972656
0.206421 0.703613 0.971680
0.297852 0.700195 0.971191
0.422852 0.695801 0.971680
0.533203 0.690918 0.970215
0.658203 0.685547 0.970703
0.791016 0.680176 0.969727
0.927246 0.674805 0.968750
0.968750 0.667969 0.968750
0.133667 0.822266 0.970703
0.187622 0.816895 0.970215
0.309326 0.812012 0.969727
0.404785 0.806152 0.968750
0.516113 0.801270 0.969727
0.638184 0.794434 0.968750
0.767578 0.786133 0.967773
0.901855 0.779785 0.966797
0.966797 0.771484 0.966797
0.105042 0.933105 0.968750
0.155518 0.926758 0.968750
0.288330 0.919922 0.967773
0.386963 0.913086 0.967773
0.492432 0.905762 0.966309
0.611816 0.897949 0.966797
0.739746 0.890137 0.965820
0.872070 0.880371 0.965820
0.965820 0.872070 0.965820
0.000000 0.968750 0.968750
0.000000 0.966797 0.965820
0.266846 0.967773 0.967773
0.363770 0.966797 0.966797
0.463623 0.965820 0.964844
0.583008 0.965820 0.965820
0.706543 0.965820 0.965820
0.836914 0.965332 0.964355
0.965332 0.965332 0.965332
