RED_IPP2_Creative/RED_BLEACH_2.cube
# RED Digital Cinema Output Transform LUT for IPP2
# Creatives by Eric Weidt
# BMD cube from Truelight v4.0
# Settings used in creation of this LUT are:
# Development Color Space = USER SELECTABLE
# Output Gamma Curve = USER SELECTABLE
# Output Tonemap = USER SELECTABLE
# Highlight Rolloff = USER SELECTABLE 
LUT_3D_SIZE 9
0.005047 0.005051 0.005062
0.073120 0.006588 0.006439
0.191284 0.014374 0.018433
0.309814 0.026031 0.032806
0.420898 0.038361 0.043671
0.533203 0.049713 0.053040
0.641113 0.057770 0.059601
0.744629 0.064758 0.063965
0.848633 0.067871 0.066711
0.017548 0.134521 0.017273
0.087952 0.121338 0.017929
0.207642 0.128296 0.032623
0.314453 0.135498 0.045013
0.422363 0.138672 0.050903
0.531250 0.143677 0.056335
0.644531 0.153687 0.066040
0.761719 0.169189 0.078247
0.886719 0.193481 0.094543
0.021011 0.279541 0.020813
0.091614 0.267578 0.020615
0.214478 0.244507 0.020248
0.337891 0.247314 0.027512
0.449707 0.265381 0.069580
0.578613 0.292725 0.100525
0.707031 0.317627 0.130005
0.833008 0.340576 0.156738
0.935547 0.357666 0.167114
0.016647 0.418945 0.018326
0.112854 0.430664 0.017273
0.258545 0.426270 0.037811
0.398438 0.418701 0.058044
0.533691 0.431885 0.096619
0.654785 0.448975 0.142212
0.761719 0.468506 0.188721
0.877930 0.482910 0.210083
0.964844 0.492432 0.218018
0.004810 0.603027 0.063354
0.171021 0.623047 0.078247
0.306885 0.611328 0.090271
0.439209 0.597168 0.098633
0.569824 0.584473 0.103394
0.695312 0.585449 0.129639
0.809082 0.590820 0.164185
0.911133 0.597168 0.197144
0.979980 0.605469 0.231079
0.068359 0.745117 0.111206
0.190674 0.756348 0.105347
0.324951 0.750000 0.099670
0.447754 0.735840 0.104675
0.573242 0.721680 0.103516
0.698730 0.709473 0.102356
0.820312 0.706543 0.131470
0.931641 0.704590 0.136230
1.000000 0.707031 0.191895
0.112061 0.859375 0.095093
0.156982 0.865234 0.114075
0.310791 0.865723 0.111450
0.439453 0.853516 0.093994
0.566406 0.841797 0.082581
0.690430 0.831543 0.114258
0.815430 0.821289 0.044800
0.934082 0.815430 0.084290
1.000000 0.813477 0.106628
0.198975 0.962891 0.000000
0.000000 0.967285 0.049713
0.238403 0.968262 0.163940
0.428467 0.961914 0.083435
0.551758 0.952637 0.042023
0.674805 0.943359 0.158936
0.799805 0.934570 0.108887
0.923828 0.926270 0.075256
1.000000 0.918945 0.000000
0.187866 1.000000 0.000000
0.138550 1.000000 0.121826
0.278320 1.000000 0.000000
0.427246 1.000000 0.000000
0.530273 1.000000 0.080017
0.656738 1.000000 0.146973
0.780762 1.000000 0.083130
0.903320 1.000000 0.057343
0.999512 1.000000 0.214844
0.005981 0.006275 0.171509
0.083435 0.008629 0.140137
0.211792 0.013077 0.139526
0.332031 0.032043 0.155396
0.436035 0.043060 0.161377
0.543457 0.053284 0.169312
0.645508 0.059387 0.172119
0.748535 0.067444 0.176147
0.852051 0.064697 0.174194
0.019882 0.152466 0.182617
0.089294 0.123596 0.147217
0.207886 0.131592 0.149048
0.328369 0.136963 0.161255
0.434570 0.141357 0.165161
0.541504 0.148193 0.170532
0.652344 0.159180 0.179932
0.770020 0.178101 0.197876
0.894043 0.203857 0.224609
0.020370 0.281250 0.160400
0.085083 0.263428 0.141724
0.215088 0.245239 0.140381
0.332275 0.252930 0.170410
0.455811 0.274414 0.193481
0.587402 0.300537 0.221436
0.715820 0.323975 0.246582
0.838379 0.345459 0.266846
0.939453 0.362793 0.283447
0.018158 0.422119 0.163574
0.111633 0.426025 0.167480
0.263916 0.432129 0.185303
0.404053 0.424561 0.201050
0.533691 0.437256 0.237549
0.646484 0.457520 0.280762
0.765625 0.472656 0.296631
0.882324 0.486084 0.312012
0.967773 0.495117 0.316895
0.048340 0.612793 0.219360
0.169922 0.611328 0.216064
0.312500 0.620117 0.223755
0.442383 0.603516 0.231323
0.570801 0.585938 0.236206
0.694336 0.587402 0.262939
0.802246 0.593750 0.296143
0.898926 0.602539 0.326660
0.980957 0.606934 0.332520
0.083557 0.760742 0.244019
0.204834 0.749023 0.238647
0.321289 0.756348 0.236938
0.449219 0.740723 0.240601
0.573242 0.723633 0.235840
0.697754 0.708496 0.231567
0.817871 0.705078 0.252930
0.926270 0.705566 0.279785
1.000000 0.709961 0.310059
0.123230 0.868652 0.242676
0.151978 0.857422 0.231689
0.308594 0.862793 0.232788
0.442383 0.856445 0.224121
0.563965 0.842773 0.223267
0.688477 0.830566 0.224365
0.813477 0.819336 0.206787
0.932617 0.814941 0.235962
1.000000 0.812012 0.252686
0.000000 0.968262 0.233032
0.213867 0.958496 0.225464
0.312500 0.963379 0.255127
0.430908 0.962402 0.195557
0.551758 0.951660 0.194702
0.674805 0.942383 0.253418
0.797852 0.932617 0.191284
0.921875 0.924316 0.197632
1.000000 0.917480 0.207886
0.203857 1.000000 0.200562
0.270752 1.000000 0.197754
0.317383 1.000000 0.138428
0.428711 1.000000 0.197754
0.530762 1.000000 0.219971
0.656250 1.000000 0.195801
0.777832 1.000000 0.197388
0.900391 0.999512 0.177002
0.999023 0.999512 0.237793
0.008362 0.008629 0.311768
0.083191 0.010811 0.279541
0.224609 0.015411 0.271729
0.373047 0.019989 0.280273
0.470215 0.040588 0.278076
0.555664 0.056244 0.276367
0.654785 0.061218 0.276855
0.753418 0.062347 0.276855
0.855957 0.074158 0.280762
0.021271 0.148438 0.320557
0.091248 0.126831 0.295166
0.219849 0.123962 0.273926
0.356201 0.131104 0.275146
0.455078 0.145264 0.277100
0.555176 0.152710 0.279053
0.663574 0.164551 0.288574
0.782227 0.186523 0.307617
0.899902 0.214600 0.331299
0.020233 0.285889 0.313721
0.083679 0.279053 0.308838
0.215820 0.246460 0.270996
0.338623 0.258545 0.277832
0.477295 0.284180 0.307617
0.603027 0.308838 0.330322
0.725586 0.331543 0.351318
0.846191 0.352051 0.370117
0.944336 0.368652 0.385498
0.019897 0.425781 0.309570
0.115967 0.433838 0.315674
0.264160 0.432861 0.314941
0.408691 0.429199 0.327148
0.530762 0.444580 0.364502
0.651367 0.462158 0.380859
0.770508 0.476318 0.395752
0.885254 0.488525 0.406982
0.969727 0.497314 0.416016
0.053375 0.618164 0.357910
0.165039 0.616211 0.354736
0.301270 0.610840 0.348877
0.444580 0.605957 0.353760
0.571777 0.586914 0.357178
0.691895 0.588379 0.383789
0.790527 0.597168 0.416016
0.901367 0.604492 0.423096
0.981934 0.607910 0.427734
0.000000 0.776855 0.381592
0.185425 0.763672 0.371826
0.314941 0.748535 0.359131
0.451904 0.749512 0.355225
0.573242 0.727539 0.354004
0.697266 0.707520 0.352051
0.815430 0.705078 0.375732
0.920410 0.708496 0.407715
0.990723 0.713379 0.433350
0.203979 0.880859 0.369873
0.120117 0.866699 0.363037
0.307861 0.854492 0.352051
0.438477 0.858398 0.346436
0.564941 0.846191 0.344971
0.687988 0.831055 0.341797
0.811523 0.817871 0.334961
0.929688 0.813477 0.358887
1.000000 0.812012 0.379639
0.053864 0.971680 0.350098
0.238159 0.964844 0.355957
0.334473 0.953613 0.338623
0.421631 0.958984 0.342529
0.550781 0.953125 0.335449
0.672363 0.942383 0.342285
0.796387 0.931152 0.323486
0.918945 0.922363 0.325439
1.000000 0.914551 0.334473
0.182251 1.000000 0.338379
0.290771 1.000000 0.329590
0.330322 1.000000 0.317383
0.414795 1.000000 0.313477
0.525879 1.000000 0.320801
0.653320 1.000000 0.322998
0.776367 1.000000 0.320557
0.897461 0.999512 0.291016
0.999512 0.999512 0.292480
0.010811 0.010796 0.430420
0.082886 0.014000 0.410889
0.211914 0.017059 0.390381
0.364746 0.021240 0.397705
0.493896 0.022263 0.395264
0.594727 0.038574 0.386719
0.672852 0.055847 0.377686
0.761719 0.068787 0.375488
0.862305 0.078369 0.379883
0.020309 0.134521 0.434570
0.092041 0.125488 0.430664
0.218872 0.122681 0.403076
0.361084 0.119385 0.395020
0.488770 0.127808 0.390869
0.583984 0.150513 0.385986
0.677734 0.170776 0.392090
0.796387 0.196289 0.410645
0.905762 0.219116 0.431396
0.020737 0.274170 0.432617
0.084290 0.266846 0.428955
0.216187 0.248047 0.408691
0.358154 0.256348 0.398926
0.516113 0.288086 0.421631
0.622559 0.317383 0.436279
0.739258 0.338867 0.452637
0.855469 0.358643 0.469482
0.947754 0.374756 0.482910
0.013069 0.423828 0.438477
0.122925 0.438477 0.454834
0.268555 0.449463 0.467041
0.412842 0.434326 0.449463
0.541016 0.450195 0.463379
0.663086 0.466797 0.480469
0.777344 0.480225 0.491943
0.888184 0.491455 0.501953
0.971680 0.499268 0.508301
0.000000 0.611328 0.479492
0.169800 0.613770 0.483643
0.302979 0.611816 0.481201
0.440186 0.602051 0.472168
0.572754 0.587402 0.473389
0.682129 0.591309 0.501953
0.792969 0.598633 0.509766
0.901855 0.605469 0.516113
0.982910 0.609375 0.520508
0.070129 0.775391 0.501465
0.176025 0.770508 0.499023
0.312500 0.755859 0.485840
0.440918 0.742676 0.472168
0.573730 0.731934 0.469238
0.696777 0.707520 0.468018
0.812012 0.705566 0.491455
0.908203 0.711426 0.522461
0.991699 0.714844 0.525879
0.055267 0.892578 0.497314
0.233276 0.880371 0.485840
0.304932 0.865723 0.476074
0.430908 0.850586 0.464111
0.563477 0.850586 0.459473
0.687500 0.832520 0.457520
0.810547 0.816406 0.452637
0.926270 0.812988 0.474365
1.000000 0.812988 0.498779
0.000000 0.970215 0.477051
0.000000 0.968262 0.468506
0.297607 0.960449 0.460938
0.430420 0.948242 0.453369
0.551270 0.952637 0.444580
0.671875 0.942383 0.443115
0.795410 0.930664 0.437500
0.917480 0.920410 0.434082
0.999512 0.912598 0.449951
0.184326 1.000000 0.462402
0.152832 1.000000 0.452637
0.253662 1.000000 0.441895
0.388184 1.000000 0.440674
0.528809 1.000000 0.432617
0.652832 1.000000 0.427979
0.773438 1.000000 0.420654
0.895020 0.999512 0.408203
0.999512 0.999512 0.413086
0.010742 0.010941 0.530273
0.081604 0.015465 0.520508
0.213745 0.018860 0.513672
0.348389 0.021317 0.505859
0.496582 0.022629 0.515137
0.611328 0.020401 0.502441
0.709473 0.035400 0.489746
0.796875 0.060394 0.480469
0.868652 0.085876 0.476562
0.023300 0.128540 0.536133
0.091919 0.123962 0.537109
0.217651 0.121765 0.523926
0.343506 0.118408 0.505371
0.487549 0.116943 0.507812
0.609375 0.131226 0.500488
0.716797 0.160767 0.501953
0.814453 0.202271 0.512695
0.910645 0.227417 0.529785
0.017288 0.258545 0.533691
0.083801 0.254150 0.535156
0.218872 0.249146 0.538086
0.362793 0.262207 0.529297
0.525391 0.280273 0.540527
0.658203 0.308594 0.547363
0.755371 0.344727 0.552246
0.865234 0.363770 0.566406
0.952148 0.378906 0.578125
0.019409 0.417725 0.555664
0.128784 0.432129 0.571289
0.273926 0.440430 0.584473
0.416748 0.437256 0.582520
0.561523 0.446045 0.574707
0.685059 0.471191 0.581543
0.789062 0.484619 0.588867
0.894531 0.494873 0.595215
0.973145 0.500488 0.600586
0.039978 0.600098 0.591797
0.164185 0.604492 0.598145
0.305176 0.606445 0.604004
0.440674 0.607422 0.607422
0.572754 0.588379 0.588867
0.690430 0.593750 0.595703
0.797363 0.599609 0.601074
0.903320 0.606445 0.606934
0.985352 0.610840 0.611328
0.090454 0.752441 0.605957
0.193604 0.756348 0.608887
0.316650 0.750488 0.604980
0.438965 0.741211 0.598145
0.568848 0.726074 0.583008
0.695312 0.705566 0.580078
0.801758 0.707031 0.606934
0.910156 0.713379 0.614258
0.992676 0.715332 0.617676
0.138550 0.873047 0.600586
0.158936 0.876953 0.601562
0.287354 0.878906 0.601074
0.429932 0.863281 0.587891
0.556152 0.846191 0.574219
0.688477 0.836914 0.569336
0.809082 0.815430 0.565918
0.922852 0.812988 0.589355
1.000000 0.815918 0.615234
0.000000 0.969238 0.587891
0.190186 0.967285 0.588379
0.316650 0.964355 0.578613
0.415527 0.956543 0.567871
0.541504 0.943359 0.560059
0.670410 0.943359 0.554199
0.792969 0.929688 0.549805
0.915527 0.918457 0.545898
0.999512 0.912109 0.562012
0.130493 1.000000 0.577148
0.230957 1.000000 0.571289
0.280762 1.000000 0.559570
0.388184 1.000000 0.550781
0.523438 1.000000 0.544434
0.648926 1.000000 0.537109
0.771484 0.999512 0.532227
0.893066 0.999512 0.524414
0.998535 0.999023 0.516602
0.006718 0.016907 0.629395
0.082153 0.013260 0.626465
0.214600 0.017593 0.625488
0.349365 0.021027 0.625000
0.484619 0.020599 0.623535
0.618652 0.022888 0.623047
0.728516 0.024002 0.607910
0.828613 0.026810 0.593750
0.919434 0.057617 0.586914
0.023483 0.127563 0.639160
0.090332 0.123840 0.637695
0.217041 0.120544 0.631836
0.343018 0.117188 0.623047
0.474121 0.119141 0.616211
0.619141 0.121826 0.624023
0.745117 0.148560 0.623047
0.860352 0.184937 0.628418
0.946777 0.213989 0.635742
0.008766 0.250000 0.634277
0.089233 0.249268 0.636719
0.222534 0.251465 0.643066
0.369629 0.268799 0.649902
0.517090 0.285889 0.654785
0.672363 0.300781 0.669922
0.794922 0.326660 0.668457
0.895020 0.355957 0.669434
0.956543 0.380371 0.671387
0.017471 0.410156 0.662598
0.131958 0.424316 0.676758
0.278564 0.434326 0.688477
0.420166 0.439941 0.697754
0.559082 0.448975 0.694824
0.703125 0.454834 0.695801
0.814453 0.475586 0.690430
0.902344 0.498291 0.689941
0.975098 0.503418 0.694336
0.024567 0.585938 0.700195
0.172119 0.591797 0.707520
0.308105 0.595215 0.713867
0.442383 0.596680 0.717773
0.572266 0.587402 0.715820
0.707520 0.585938 0.700684
0.809570 0.603516 0.697266
0.908691 0.607910 0.698730
0.985840 0.611816 0.701660
0.038452 0.733887 0.711426
0.174194 0.735352 0.713379
0.308838 0.735352 0.714355
0.438477 0.729980 0.711914
0.566895 0.724609 0.710449
0.695312 0.706543 0.694336
0.806152 0.708496 0.700684
0.910645 0.712891 0.704102
0.993652 0.716309 0.707520
0.000000 0.855469 0.704102
0.195190 0.854980 0.704102
0.308594 0.856934 0.704590
0.428711 0.858887 0.703613
0.555176 0.851074 0.697266
0.681152 0.834473 0.680664
0.807617 0.814453 0.677734
0.912598 0.814453 0.703613
0.998535 0.816406 0.708984
0.000000 0.965820 0.692871
0.259521 0.965332 0.690918
0.304443 0.963867 0.689941
0.410889 0.959961 0.688477
0.543457 0.952148 0.677246
0.665527 0.937988 0.666992
0.791992 0.930664 0.662109
0.913086 0.916016 0.656250
0.999512 0.910156 0.674316
0.000000 1.000000 0.680664
0.182007 1.000000 0.678223
0.266846 1.000000 0.675781
0.393555 1.000000 0.667969
0.518066 1.000000 0.657227
0.645020 1.000000 0.648926
0.768555 0.999512 0.642090
0.889160 0.999512 0.635254
0.998535 0.999512 0.628418
0.028183 0.012085 0.729980
0.092957 0.000000 0.729980
0.215454 0.017365 0.733887
0.351074 0.016235 0.737793
0.479736 0.007866 0.735352
0.608887 0.000000 0.732422
0.740234 0.031311 0.730469
0.850098 0.024261 0.714844
0.953125 0.020935 0.707031
0.024704 0.119751 0.740234
0.098816 0.123535 0.738770
0.216309 0.118652 0.735352
0.342285 0.110535 0.732422
0.474121 0.109619 0.730957
0.614746 0.123352 0.736816
0.765137 0.145874 0.752930
0.890137 0.177612 0.752930
0.988281 0.206787 0.757324
0.041351 0.244629 0.735352
0.079590 0.245850 0.738281
0.229248 0.256348 0.748047
0.375732 0.274170 0.763184
0.522949 0.291016 0.775879
0.668457 0.305176 0.786621
0.813477 0.318359 0.798828
0.928711 0.339111 0.792969
1.000000 0.356934 0.791504
0.006943 0.407715 0.769043
0.134888 0.421387 0.784668
0.282715 0.433838 0.797363
0.423096 0.443115 0.808105
0.561523 0.450928 0.813477
0.697754 0.456787 0.816406
0.833984 0.461426 0.818848
0.938477 0.476074 0.806641
1.000000 0.489990 0.800781
0.014397 0.573730 0.810059
0.167969 0.581543 0.817383
0.307861 0.586914 0.823242
0.441406 0.587402 0.825195
0.572266 0.586426 0.827637
0.700684 0.585938 0.821289
0.831055 0.584473 0.816406
0.930176 0.599121 0.803711
0.987305 0.613281 0.798340
0.055328 0.718750 0.822266
0.178589 0.717773 0.824219
0.309082 0.717285 0.826172
0.438477 0.714355 0.825195
0.566406 0.711914 0.824707
0.692871 0.704102 0.820801
0.821289 0.700684 0.806641
0.916992 0.715332 0.801758
0.994629 0.716797 0.802246
0.000000 0.839844 0.814941
0.135864 0.839355 0.813965
0.302490 0.838379 0.814453
0.426758 0.837402 0.814453
0.554688 0.835449 0.812988
0.681152 0.828613 0.809570
0.806152 0.812988 0.794922
0.913086 0.814941 0.800293
0.998047 0.816895 0.801270
0.234985 0.954102 0.804199
0.231934 0.950684 0.800293
0.259277 0.949707 0.798828
0.403564 0.948730 0.797363
0.536133 0.947266 0.795410
0.662598 0.946777 0.791992
0.788086 0.930176 0.776855
0.911133 0.913574 0.770508
0.999023 0.911621 0.791016
0.053589 1.000000 0.791992
0.178101 1.000000 0.788086
0.291504 1.000000 0.783203
0.390137 1.000000 0.778809
0.519531 1.000000 0.776367
0.642090 1.000000 0.764648
0.765137 0.999512 0.754883
0.888184 0.999512 0.748047
0.998047 0.999512 0.737793
0.024048 0.037689 0.840332
0.085388 0.025650 0.843262
0.214966 0.009827 0.851562
0.351074 0.042297 0.856934
0.478516 0.049225 0.855957
0.604980 0.028854 0.852539
0.736328 0.053436 0.852539
0.865723 0.000000 0.852051
0.979980 0.000000 0.843262
0.063110 0.126099 0.851074
0.069763 0.119812 0.848633
0.213623 0.121094 0.848145
0.341797 0.121033 0.849121
0.475830 0.111084 0.853516
0.616211 0.120728 0.865234
0.769043 0.163574 0.886719
0.914062 0.154175 0.903320
1.000000 0.189087 0.905762
0.007626 0.244385 0.844727
0.066772 0.244019 0.851562
0.237061 0.255615 0.866211
0.381104 0.278076 0.887695
0.527832 0.297363 0.906250
0.672363 0.311768 0.922852
0.814941 0.311035 0.936035
0.952148 0.325928 0.944824
1.000000 0.344971 0.939941
0.000000 0.407471 0.890625
0.159668 0.421143 0.906250
0.284668 0.434570 0.920410
0.427246 0.447021 0.931152
0.564453 0.453125 0.943359
0.698242 0.457520 0.951172
0.831055 0.458984 0.956055
0.961426 0.461670 0.956543
1.000000 0.468018 0.944336
0.000000 0.568359 0.932617
0.223145 0.576660 0.941895
0.302246 0.582031 0.946289
0.446045 0.585938 0.950195
0.572754 0.585938 0.950195
0.699707 0.584961 0.952148
0.828125 0.583008 0.952637
0.956543 0.580566 0.950195
1.000000 0.588867 0.936035
0.070312 0.707031 0.947266
0.163818 0.706543 0.949219
0.310059 0.706543 0.948242
0.439209 0.706543 0.947754
0.565918 0.704102 0.945312
0.691406 0.701660 0.943359
0.818359 0.699219 0.942871
0.944824 0.695312 0.937500
1.000000 0.704102 0.924316
0.000000 0.828613 0.940430
0.168335 0.826660 0.938965
0.302246 0.824707 0.938477
0.429199 0.822266 0.937988
0.553711 0.818359 0.935059
0.679199 0.815918 0.932617
0.804688 0.811035 0.928711
0.927734 0.806641 0.919434
1.000000 0.817871 0.908691
0.000000 0.947754 0.937500
0.000000 0.944336 0.933105
0.226318 0.939453 0.927734
0.421143 0.935059 0.922363
0.539062 0.931152 0.917480
0.660156 0.928223 0.914551
0.785156 0.924805 0.913086
0.910156 0.913086 0.901855
0.999023 0.912109 0.901855
0.000000 1.000000 0.923340
0.178711 1.000000 0.917969
0.283691 1.000000 0.910645
0.384521 1.000000 0.905273
0.515137 1.000000 0.898438
0.638184 0.999512 0.892090
0.763184 0.999512 0.885742
0.883789 0.999023 0.874023
0.998535 0.998535 0.862305
0.037964 0.113098 0.978027
0.131958 0.095886 0.979492
0.250244 0.046600 0.985352
0.351074 0.100220 0.989746
0.477295 0.000000 0.989258
0.603027 0.000000 0.988770
0.732910 0.078735 0.989746
0.867188 0.037018 0.994141
1.000000 0.145020 1.000000
0.000000 0.119568 0.982422
0.097351 0.141968 0.981934
0.172852 0.132812 0.979004
0.336670 0.086182 0.981445
0.476318 0.131958 0.990234
0.623047 0.107300 1.000000
0.772949 0.063904 1.000000
0.918945 0.189941 1.000000
1.000000 0.157104 1.000000
0.000000 0.249634 0.976074
0.169556 0.240967 0.987305
0.250000 0.261230 1.000000
0.387451 0.271729 1.000000
0.530762 0.300293 1.000000
0.675293 0.309814 1.000000
0.815918 0.318604 1.000000
0.954590 0.337402 1.000000
1.000000 0.330078 1.000000
0.000000 0.409424 1.000000
0.136841 0.424316 1.000000
0.270752 0.437500 1.000000
0.426025 0.447021 1.000000
0.566406 0.455322 1.000000
0.700684 0.458984 1.000000
0.832520 0.458496 1.000000
0.962402 0.460693 1.000000
1.000000 0.459717 1.000000
0.000000 0.568359 1.000000
0.166870 0.575684 1.000000
0.330078 0.582520 1.000000
0.442871 0.583984 1.000000
0.571777 0.584961 1.000000
0.699707 0.584473 1.000000
0.826172 0.581055 1.000000
0.954590 0.579590 1.000000
1.000000 0.577148 1.000000
0.000000 0.702637 1.000000
0.146851 0.703125 1.000000
0.281006 0.703613 1.000000
0.431885 0.703125 1.000000
0.564453 0.703125 1.000000
0.689941 0.700195 1.000000
0.815430 0.697754 1.000000
0.943359 0.694824 1.000000
1.000000 0.689941 1.000000
0.000000 0.826172 1.000000
0.000000 0.821777 1.000000
0.298340 0.818848 1.000000
0.423096 0.816406 1.000000
0.552734 0.814453 1.000000
0.677734 0.812012 1.000000
0.801758 0.809082 1.000000
0.926270 0.805176 1.000000
1.000000 0.799316 1.000000
0.147583 0.945801 1.000000
0.138916 0.941406 1.000000
0.300781 0.937500 1.000000
0.416504 0.931152 1.000000
0.534668 0.925781 1.000000
0.660156 0.918457 1.000000
0.783691 0.914062 0.999512
0.906738 0.909180 0.999512
0.999512 0.903809 0.999512
0.061188 1.000000 1.000000
0.166626 1.000000 1.000000
0.308105 1.000000 1.000000
0.408447 1.000000 1.000000
0.520020 1.000000 0.999512
0.637695 0.999512 0.999512
0.758789 0.999512 0.999023
0.880859 0.999023 0.998535
0.999512 0.999512 0.999512
