RED_IPP2_Creative/RED_BLEACH_1.cube
# RED Digital Cinema Output Transform LUT for IPP2
# Creatives by Eric Weidt
# BMD cube from Truelight v4.0
# Settings used in creation of this LUT are:
# Development Color Space = USER SELECTABLE
# Output Gamma Curve = USER SELECTABLE
# Output Tonemap = USER SELECTABLE
# Highlight Rolloff = USER SELECTABLE
LUT_3D_SIZE 33
0.033875 0.033875 0.033875
0.050385 0.034210 0.033875
0.069824 0.034607 0.034332
0.090820 0.035065 0.035004
0.112793 0.035583 0.035370
0.136963 0.036224 0.035889
0.163330 0.036804 0.036499
0.189087 0.037445 0.037262
0.214478 0.037964 0.037750
0.240967 0.038513 0.038361
0.267334 0.039001 0.038849
0.293945 0.039520 0.039307
0.320557 0.039886 0.039917
0.347412 0.040344 0.040344
0.375488 0.040802 0.040497
0.402588 0.041229 0.040833
0.430420 0.041809 0.041687
0.460205 0.042175 0.041870
0.489990 0.042267 0.042358
0.520020 0.042908 0.042816
0.552246 0.043091 0.042511
0.584961 0.043213 0.042236
0.619141 0.043335 0.042908
0.652832 0.044159 0.045166
0.688477 0.041748 0.040985
0.724609 0.042267 0.040405
0.759766 0.045288 0.045135
0.795898 0.039001 0.039917
0.832520 0.049652 0.047821
0.870605 0.029953 0.030853
0.907715 0.031021 0.033936
0.945801 0.053802 0.024536
0.981445 0.067444 0.067139
0.036224 0.046875 0.036224
0.045380 0.045837 0.036743
0.062378 0.045471 0.036774
0.083435 0.044525 0.036621
0.106445 0.043854 0.036652
0.131470 0.043335 0.037170
0.158203 0.043182 0.037506
0.185547 0.043152 0.038177
0.212158 0.043365 0.038574
0.238892 0.043823 0.039093
0.266602 0.044159 0.039642
0.293457 0.044830 0.039978
0.321289 0.045532 0.040466
0.347900 0.046570 0.040985
0.376221 0.047333 0.041656
0.404053 0.048553 0.042053
0.432129 0.049805 0.042603
0.462402 0.050903 0.042938
0.491943 0.051788 0.043274
0.522949 0.052704 0.043182
0.554199 0.053925 0.043854
0.586914 0.054504 0.043152
0.620605 0.055847 0.043854
0.655762 0.056610 0.043854
0.689941 0.057983 0.047394
0.725098 0.056213 0.045105
0.761719 0.059509 0.047211
0.797363 0.066833 0.047791
0.835449 0.066895 0.043091
0.873047 0.066223 0.035248
0.911133 0.063721 0.028091
0.949707 0.064758 0.023056
0.979492 0.055145 0.065125
0.039581 0.062500 0.039459
0.045654 0.061401 0.040771
0.061859 0.062927 0.041718
0.080261 0.064148 0.043030
0.102722 0.065002 0.042572
0.128418 0.065491 0.042053
0.155029 0.066223 0.042053
0.183105 0.066895 0.042480
0.210815 0.067505 0.042633
0.238647 0.068359 0.043182
0.265137 0.069519 0.043457
0.293213 0.070557 0.043854
0.320801 0.071716 0.044128
0.348877 0.072876 0.044342
0.375977 0.074463 0.045044
0.404297 0.075256 0.045166
0.432861 0.076355 0.045258
0.461426 0.077637 0.045624
0.490967 0.078552 0.045990
0.521973 0.079285 0.045441
0.553711 0.080261 0.045746
0.585449 0.081238 0.045288
0.620117 0.082520 0.045135
0.654297 0.083557 0.045654
0.690430 0.085022 0.047302
0.726074 0.086060 0.042572
0.762695 0.087402 0.040253
0.800293 0.092651 0.053650
0.838867 0.088623 0.037750
0.878418 0.092285 0.048920
0.916992 0.097900 0.064575
0.957520 0.095215 0.031982
0.973633 0.076843 0.000000
0.043427 0.082947 0.043427
0.048157 0.082520 0.044312
0.067017 0.083130 0.050568
0.085083 0.086792 0.047577
0.105957 0.089294 0.049011
0.128540 0.091614 0.050903
0.154419 0.093628 0.050629
0.182739 0.094910 0.049408
0.210327 0.096313 0.048889
0.238403 0.097595 0.048798
0.265625 0.098877 0.048645
0.292725 0.100220 0.048553
0.320068 0.101501 0.048492
0.347900 0.102295 0.048492
0.375244 0.103516 0.048279
0.402832 0.104614 0.048431
0.431152 0.105652 0.048401
0.460449 0.106567 0.047760
0.489502 0.107971 0.048157
0.520020 0.109375 0.048126
0.552734 0.110718 0.048248
0.585938 0.111694 0.046875
0.619141 0.113831 0.048279
0.655762 0.115906 0.048737
0.691895 0.118835 0.051208
0.729980 0.120483 0.054016
0.767578 0.120667 0.052551
0.807129 0.123718 0.049194
0.846680 0.130249 0.060120
0.886230 0.129761 0.063354
0.927734 0.134644 0.078186
0.968750 0.124756 0.000000
0.968750 0.127808 0.060211
0.047668 0.107300 0.047638
0.052368 0.107605 0.048645
0.072998 0.108337 0.054504
0.092041 0.112122 0.056091
0.113281 0.116028 0.053833
0.136108 0.118958 0.055023
0.160522 0.121704 0.056793
0.185425 0.124695 0.058502
0.209351 0.127075 0.059570
0.236572 0.128784 0.057343
0.263916 0.130005 0.055969
0.291260 0.131104 0.054840
0.318359 0.132080 0.054016
0.345215 0.133179 0.053528
0.372559 0.134399 0.052643
0.400391 0.135498 0.052277
0.428467 0.137329 0.052185
0.458008 0.138672 0.051941
0.488525 0.140259 0.051392
0.519531 0.142212 0.051117
0.553711 0.143799 0.052307
0.587891 0.146362 0.054382
0.624023 0.148193 0.054810
0.660156 0.151245 0.057648
0.698242 0.153809 0.058472
0.737793 0.156372 0.063293
0.777344 0.160278 0.066833
0.817383 0.165161 0.073181
0.859863 0.169067 0.066223
0.900391 0.165039 0.052246
0.941406 0.178833 0.075195
0.963867 0.181274 0.068604
0.963867 0.181274 0.068604
0.051697 0.134399 0.051758
0.058167 0.135376 0.053131
0.079651 0.136353 0.058472
0.101990 0.138062 0.066040
0.121155 0.143799 0.061737
0.144165 0.147461 0.059448
0.168213 0.150391 0.060272
0.192017 0.152954 0.061646
0.216309 0.155273 0.062866
0.238647 0.157959 0.063965
0.262939 0.160278 0.065247
0.288086 0.162231 0.064392
0.315918 0.163574 0.062225
0.342529 0.165649 0.060760
0.371094 0.167236 0.059448
0.399902 0.168823 0.058533
0.429199 0.171143 0.057983
0.458740 0.173218 0.058716
0.490967 0.175415 0.059021
0.523926 0.177979 0.061096
0.557617 0.180664 0.062622
0.594238 0.183716 0.064087
0.631348 0.186646 0.065247
0.669922 0.189941 0.069702
0.708984 0.194092 0.072205
0.750000 0.198608 0.077576
0.791504 0.203735 0.084717
0.832031 0.206787 0.087158
0.872559 0.209473 0.083923
0.914062 0.214355 0.088745
0.952637 0.222290 0.111328
0.958496 0.222656 0.097229
0.958984 0.226196 0.125854
0.055573 0.162964 0.055359
0.064087 0.164062 0.057159
0.086243 0.164917 0.062225
0.109802 0.165283 0.070496
0.129517 0.170166 0.069519
0.151001 0.174805 0.065857
0.174683 0.178467 0.063599
0.198608 0.181152 0.064331
0.222168 0.183716 0.065308
0.246704 0.186646 0.066772
0.270020 0.189453 0.067688
0.294189 0.192871 0.068970
0.318359 0.195679 0.069946
0.343018 0.199219 0.071960
0.370361 0.202271 0.072205
0.401123 0.204468 0.070984
0.431641 0.207153 0.071411
0.463379 0.209961 0.072083
0.495361 0.213501 0.073059
0.530762 0.216797 0.075073
0.567383 0.220459 0.077454
0.604492 0.224854 0.079834
0.643555 0.228638 0.082031
0.683105 0.233154 0.085632
0.723633 0.237061 0.089050
0.763184 0.240723 0.095764
0.803223 0.243408 0.092041
0.843750 0.246216 0.089050
0.884277 0.250977 0.109131
0.923340 0.254883 0.106812
0.953613 0.259277 0.113159
0.954102 0.261475 0.117920
0.954102 0.261475 0.117920
0.058289 0.191528 0.058289
0.069580 0.192383 0.060394
0.092041 0.193115 0.065247
0.116211 0.193237 0.072510
0.138550 0.195557 0.077942
0.158813 0.201904 0.072693
0.182251 0.206909 0.069458
0.206421 0.210693 0.067322
0.230835 0.213989 0.067993
0.254639 0.217285 0.069275
0.279053 0.220947 0.071411
0.303467 0.224731 0.074585
0.328613 0.228271 0.077515
0.354248 0.232788 0.081299
0.380615 0.236938 0.085205
0.406982 0.242188 0.089539
0.437012 0.246338 0.090820
0.471191 0.250488 0.091309
0.505859 0.254639 0.092407
0.542480 0.259033 0.094543
0.579590 0.263428 0.097290
0.617676 0.267578 0.099182
0.655762 0.270752 0.100708
0.694336 0.274658 0.105286
0.733398 0.277832 0.107117
0.774414 0.280762 0.104980
0.813477 0.283936 0.108337
0.853027 0.288574 0.114197
0.893066 0.290771 0.115723
0.932617 0.292236 0.124878
0.948730 0.295410 0.126099
0.948730 0.300049 0.131226
0.949219 0.301270 0.135132
0.060730 0.219482 0.060699
0.074951 0.220581 0.062927
0.098145 0.221558 0.068115
0.123230 0.222412 0.075073
0.149536 0.222778 0.086121
0.168823 0.230103 0.080261
0.192017 0.236084 0.076599
0.215820 0.241211 0.074951
0.240723 0.245728 0.075317
0.264893 0.250244 0.077881
0.289795 0.254395 0.080994
0.315674 0.259033 0.084961
0.341797 0.263916 0.089294
0.368408 0.269531 0.094421
0.395752 0.275391 0.099609
0.423340 0.281006 0.105164
0.451660 0.287354 0.110718
0.481201 0.292725 0.116394
0.516113 0.297363 0.117065
0.552734 0.301270 0.116638
0.588867 0.304443 0.116333
0.627441 0.308105 0.117859
0.666504 0.311279 0.119812
0.703613 0.314697 0.121704
0.742188 0.317871 0.120728
0.782715 0.321045 0.127808
0.821777 0.323975 0.132690
0.861816 0.326660 0.130615
0.900391 0.328369 0.131470
0.938965 0.330566 0.123413
0.943359 0.333008 0.132935
0.944824 0.335938 0.119873
0.943359 0.337402 0.116272
0.062683 0.248779 0.062744
0.081665 0.250488 0.066101
0.105896 0.251709 0.071411
0.132080 0.253174 0.079285
0.159058 0.254639 0.090088
0.182251 0.260010 0.093628
0.204224 0.267822 0.090210
0.228394 0.274658 0.089478
0.253174 0.280762 0.089600
0.278809 0.286377 0.090759
0.305176 0.292236 0.094666
0.331299 0.297852 0.099487
0.358398 0.303711 0.105103
0.385254 0.309570 0.110718
0.412598 0.314941 0.115845
0.440430 0.321045 0.121277
0.469238 0.326172 0.126709
0.498291 0.331543 0.131470
0.528320 0.336426 0.136353
0.560547 0.341309 0.139771
0.597656 0.344971 0.139404
0.634766 0.348145 0.139160
0.672852 0.351318 0.139771
0.711914 0.353760 0.137817
0.749512 0.357178 0.138672
0.789062 0.359863 0.140869
0.829102 0.362305 0.144043
0.867188 0.364014 0.140381
0.904785 0.365723 0.127930
0.938477 0.368896 0.148804
0.938965 0.369873 0.118835
0.938477 0.371826 0.153809
0.938477 0.374756 0.150635
0.066223 0.280518 0.066772
0.090149 0.282471 0.072144
0.115723 0.284668 0.079224
0.142944 0.287598 0.087769
0.170898 0.289062 0.098877
0.199463 0.292480 0.113220
0.221069 0.302490 0.109436
0.244385 0.310791 0.108337
0.270020 0.319336 0.109924
0.295410 0.325928 0.110779
0.321533 0.332031 0.112549
0.347656 0.337891 0.116211
0.374756 0.343750 0.122009
0.401123 0.349121 0.126953
0.428223 0.354004 0.131592
0.455322 0.359131 0.136230
0.483643 0.364014 0.140747
0.514160 0.369385 0.146729
0.543457 0.374023 0.150879
0.574707 0.378662 0.155518
0.605957 0.383301 0.160278
0.641602 0.386719 0.159912
0.678711 0.389648 0.158325
0.717773 0.392822 0.157471
0.755859 0.394531 0.156250
0.794434 0.397217 0.156982
0.832520 0.398682 0.154785
0.871582 0.401611 0.151611
0.910645 0.403320 0.160156
0.934082 0.405273 0.161499
0.934082 0.406738 0.156616
0.933105 0.408447 0.168579
0.934082 0.409424 0.163086
0.075562 0.314941 0.075989
0.100830 0.318604 0.082520
0.127319 0.321533 0.090271
0.156128 0.324951 0.099854
0.186401 0.329346 0.111938
0.216919 0.333008 0.127197
0.242432 0.340576 0.134644
0.264404 0.350098 0.132324
0.287354 0.357422 0.131348
0.311768 0.364502 0.131104
0.337402 0.371338 0.132690
0.362793 0.376709 0.133423
0.388916 0.382324 0.136353
0.415039 0.386963 0.140869
0.441650 0.391357 0.145142
0.469482 0.396484 0.150024
0.497803 0.401123 0.154663
0.527344 0.405518 0.159058
0.556641 0.410156 0.163696
0.587891 0.414795 0.168579
0.619141 0.419189 0.172607
0.651367 0.422852 0.175781
0.684082 0.427002 0.180542
0.720703 0.429199 0.178223
0.758789 0.432373 0.174805
0.796875 0.433594 0.173096
0.834961 0.435303 0.169312
0.873535 0.437744 0.170776
0.910156 0.438721 0.166382
0.928223 0.440918 0.175293
0.928223 0.441895 0.177734
0.928223 0.443115 0.166626
0.928223 0.443604 0.168335
0.087341 0.353760 0.089478
0.114136 0.358154 0.096863
0.142944 0.362793 0.105713
0.173096 0.367188 0.116394
0.203247 0.370361 0.127686
0.233276 0.374268 0.141235
0.261719 0.377197 0.156982
0.282959 0.386230 0.156006
0.304443 0.394287 0.153564
0.327393 0.401611 0.152588
0.351562 0.407715 0.151978
0.376221 0.413818 0.152710
0.402100 0.419189 0.153442
0.428467 0.424561 0.154785
0.454834 0.428223 0.158936
0.481689 0.432617 0.163086
0.510254 0.437256 0.167236
0.539551 0.441406 0.171143
0.569336 0.445557 0.175293
0.600098 0.449707 0.179688
0.630371 0.453857 0.183472
0.662598 0.457520 0.187134
0.693848 0.461670 0.191650
0.725098 0.464600 0.193848
0.759277 0.467773 0.194336
0.797363 0.469238 0.189575
0.835449 0.471191 0.187134
0.872070 0.471924 0.182861
0.910156 0.473633 0.182251
0.922363 0.474121 0.184937
0.922363 0.474609 0.187134
0.922363 0.476074 0.191895
0.921387 0.476074 0.189941
0.103394 0.395996 0.105835
0.130127 0.400391 0.113647
0.158325 0.403809 0.121948
0.188599 0.407471 0.131592
0.218018 0.410645 0.141968
0.247559 0.414307 0.154541
0.275635 0.416748 0.168335
0.301270 0.420654 0.180176
0.321289 0.429443 0.176025
0.343262 0.437256 0.173462
0.365723 0.444092 0.171875
0.389648 0.450195 0.171387
0.414062 0.455322 0.170288
0.440186 0.460205 0.170532
0.466309 0.465332 0.171265
0.493408 0.468506 0.174927
0.521973 0.472412 0.178345
0.549805 0.476074 0.182251
0.579590 0.479980 0.186035
0.610352 0.483398 0.189697
0.641113 0.486816 0.192505
0.671387 0.490234 0.196167
0.702637 0.493164 0.198364
0.734375 0.496338 0.201904
0.766602 0.499756 0.204590
0.797363 0.502441 0.207520
0.833984 0.503906 0.201294
0.871582 0.504883 0.202515
0.906738 0.505859 0.198853
0.917480 0.505859 0.193848
0.917480 0.505859 0.193848
0.916504 0.506348 0.193604
0.917480 0.505859 0.193848
0.115356 0.436523 0.121033
0.142578 0.440430 0.127930
0.172363 0.443604 0.136353
0.202637 0.447266 0.145386
0.232178 0.450195 0.156006
0.259766 0.452637 0.166748
0.288086 0.455078 0.179321
0.315430 0.457275 0.193970
0.337646 0.462891 0.197754
0.357422 0.470947 0.193726
0.378906 0.477783 0.190430
0.402100 0.483643 0.188477
0.425781 0.489258 0.186890
0.450195 0.494141 0.185547
0.475830 0.498535 0.185059
0.502930 0.503418 0.184692
0.530273 0.506348 0.187378
0.560059 0.510254 0.191406
0.589355 0.513672 0.194214
0.618652 0.516602 0.197021
0.648926 0.519531 0.200806
0.680176 0.522461 0.203125
0.709473 0.525391 0.205811
0.741211 0.527832 0.208984
0.772461 0.530273 0.212158
0.804199 0.533691 0.214844
0.834473 0.535645 0.213013
0.866211 0.537598 0.214355
0.901855 0.538086 0.213257
0.909668 0.538086 0.211426
0.910645 0.537598 0.212036
0.910645 0.536621 0.211670
0.909668 0.536133 0.206177
0.126953 0.476318 0.136230
0.154907 0.480225 0.142700
0.185303 0.482666 0.150391
0.215332 0.486084 0.158691
0.244507 0.488281 0.168335
0.272217 0.490234 0.178223
0.300049 0.492188 0.189575
0.326660 0.494629 0.202393
0.352539 0.496338 0.217407
0.372314 0.503906 0.214600
0.391846 0.510742 0.209473
0.413574 0.516602 0.205688
0.436768 0.522461 0.203491
0.460205 0.526367 0.199707
0.484863 0.531250 0.198730
0.511719 0.535645 0.197144
0.539062 0.539062 0.195679
0.567871 0.541992 0.198730
0.597168 0.544922 0.202515
0.625488 0.547852 0.204102
0.655273 0.549805 0.206299
0.686035 0.552734 0.208374
0.715820 0.554688 0.210938
0.747070 0.557617 0.215576
0.775879 0.559570 0.215942
0.807129 0.561523 0.217773
0.837402 0.562500 0.218018
0.866699 0.564453 0.214233
0.896973 0.565918 0.219360
0.906250 0.565918 0.219971
0.906250 0.565918 0.219971
0.906250 0.565918 0.219971
0.906250 0.564941 0.218140
0.137695 0.514160 0.148682
0.167969 0.517578 0.154175
0.197021 0.520508 0.162476
0.225708 0.522949 0.170654
0.255371 0.525391 0.178589
0.282471 0.527344 0.188232
0.309814 0.529297 0.198730
0.336182 0.530273 0.210327
0.362305 0.531250 0.223267
0.386230 0.534180 0.233154
0.404785 0.541504 0.226807
0.425049 0.547852 0.222046
0.446777 0.553223 0.217773
0.469971 0.558594 0.214233
0.493652 0.562500 0.211304
0.519043 0.566406 0.209595
0.545898 0.570312 0.206299
0.574219 0.573730 0.205200
0.602051 0.575684 0.206909
0.630859 0.577148 0.208618
0.660156 0.579102 0.210327
0.689453 0.582031 0.212646
0.719238 0.583008 0.213013
0.749023 0.584473 0.214844
0.777832 0.586426 0.218140
0.809082 0.588379 0.219727
0.838867 0.589355 0.217529
0.869629 0.591309 0.217285
0.898438 0.592773 0.219238
0.909668 0.592285 0.228760
0.909180 0.591309 0.216431
0.909180 0.591309 0.216431
0.909668 0.590820 0.216919
0.155762 0.552246 0.160034
0.178467 0.555176 0.165771
0.207153 0.557129 0.173340
0.235596 0.559082 0.181885
0.264404 0.561035 0.189087
0.291748 0.562012 0.198242
0.318115 0.563965 0.207397
0.344971 0.564941 0.217285
0.370605 0.565430 0.228882
0.396729 0.566406 0.243896
0.416748 0.570312 0.243896
0.436279 0.578125 0.237793
0.456055 0.583008 0.232178
0.477539 0.588379 0.227539
0.500977 0.593262 0.223511
0.525391 0.596191 0.220093
0.550781 0.599609 0.216675
0.578613 0.602051 0.212402
0.605469 0.604492 0.209839
0.634277 0.606445 0.210449
0.663086 0.607422 0.213379
0.690918 0.608887 0.213501
0.720703 0.610352 0.216553
0.750488 0.612305 0.219604
0.780273 0.613281 0.217285
0.810547 0.615234 0.219238
0.839355 0.615723 0.221924
0.870117 0.617676 0.218750
0.900391 0.618652 0.221191
0.912598 0.618652 0.222046
0.912109 0.618164 0.217651
0.912109 0.616699 0.219604
0.912109 0.615723 0.218262
0.162354 0.588379 0.171387
0.188599 0.590820 0.176392
0.218506 0.592285 0.181885
0.247070 0.593750 0.190063
0.272217 0.594727 0.196289
0.299561 0.596680 0.204712
0.325439 0.597656 0.213379
0.352295 0.598633 0.223877
0.377197 0.598633 0.234741
0.402832 0.597656 0.246216
0.427979 0.598145 0.260742
0.445312 0.604980 0.252197
0.464600 0.610840 0.245972
0.484863 0.616211 0.239380
0.505859 0.619629 0.233521
0.529297 0.623535 0.229492
0.554199 0.625977 0.223633
0.580566 0.628418 0.219604
0.608398 0.631348 0.217163
0.636230 0.633301 0.213379
0.664551 0.635254 0.214111
0.692871 0.635254 0.215454
0.722168 0.637695 0.217896
0.750977 0.637695 0.217651
0.780762 0.639648 0.217407
0.811035 0.641602 0.218750
0.839355 0.641602 0.222290
0.870605 0.643066 0.226074
0.899902 0.644531 0.220703
0.915039 0.644043 0.221924
0.915039 0.643555 0.219482
0.914551 0.642578 0.220215
0.914551 0.641602 0.214966
0.172363 0.623535 0.179810
0.197144 0.625488 0.185669
0.225220 0.626953 0.191284
0.252930 0.627441 0.197632
0.278809 0.628906 0.205078
0.305664 0.628906 0.210327
0.331787 0.629395 0.219116
0.357666 0.630371 0.229004
0.382812 0.629883 0.237915
0.407715 0.629395 0.248413
0.433350 0.629395 0.261963
0.454102 0.630371 0.265625
0.471191 0.636230 0.256592
0.490234 0.641113 0.249634
0.510742 0.645020 0.243286
0.533691 0.648438 0.236328
0.558105 0.652344 0.230469
0.582520 0.654297 0.226318
0.608887 0.656738 0.221191
0.637695 0.659668 0.218994
0.664551 0.660156 0.213501
0.693359 0.661621 0.216797
0.722656 0.663574 0.218262
0.750488 0.663574 0.218262
0.781250 0.666504 0.217896
0.810547 0.666504 0.221191
0.840332 0.667480 0.218994
0.869629 0.668945 0.222290
0.898926 0.669434 0.220459
0.918457 0.669922 0.223877
0.917969 0.668945 0.224609
0.917969 0.667969 0.216309
0.917969 0.666992 0.215942
0.175537 0.656738 0.188477
0.202393 0.659180 0.192627
0.230469 0.660156 0.197876
0.258301 0.660156 0.204834
0.284668 0.660156 0.211792
0.311035 0.660645 0.216309
0.335449 0.660645 0.224121
0.362061 0.659668 0.230835
0.387451 0.659180 0.239746
0.411133 0.658203 0.248779
0.435059 0.656738 0.260742
0.460693 0.655762 0.273682
0.478027 0.660156 0.268066
0.495850 0.665527 0.260010
0.515137 0.669922 0.251709
0.537109 0.673828 0.245850
0.560059 0.677246 0.239258
0.584473 0.680176 0.232056
0.611328 0.683105 0.228027
0.637695 0.684570 0.222900
0.665527 0.686035 0.217285
0.693848 0.687988 0.216187
0.721680 0.688477 0.217407
0.751953 0.689453 0.218384
0.781250 0.691406 0.216553
0.810059 0.691895 0.222778
0.839355 0.692871 0.221313
0.870117 0.693848 0.216797
0.898926 0.694824 0.224487
0.920898 0.695312 0.227783
0.921387 0.694336 0.224854
0.921387 0.692871 0.212280
0.920410 0.691895 0.227905
0.182739 0.688477 0.193604
0.211670 0.689941 0.198608
0.234253 0.690430 0.204224
0.263428 0.689941 0.208618
0.286133 0.689941 0.213867
0.314453 0.689941 0.220337
0.341553 0.688477 0.224976
0.365234 0.687500 0.233032
0.388916 0.687012 0.240479
0.413330 0.685059 0.250732
0.438721 0.684570 0.259277
0.462402 0.682617 0.272705
0.484619 0.683594 0.279053
0.500977 0.688477 0.268311
0.519531 0.693359 0.259033
0.541016 0.698242 0.252686
0.562500 0.701172 0.245728
0.586914 0.704590 0.242676
0.612793 0.707520 0.233765
0.637695 0.708984 0.228882
0.666016 0.711914 0.224976
0.694336 0.713867 0.220337
0.722656 0.714844 0.217163
0.751465 0.716309 0.217773
0.780273 0.716309 0.220215
0.809570 0.717773 0.222900
0.838867 0.717773 0.216675
0.868652 0.718750 0.226074
0.897461 0.719238 0.219238
0.923828 0.719727 0.221191
0.923828 0.719238 0.219238
0.923828 0.718262 0.219727
0.923340 0.717285 0.214478
0.193359 0.718750 0.200806
0.208130 0.720215 0.205811
0.239258 0.718750 0.206787
0.266846 0.718262 0.210571
0.290039 0.717773 0.217285
0.315186 0.717285 0.224243
0.342773 0.715820 0.223877
0.367432 0.714844 0.233643
0.390137 0.713867 0.238037
0.415771 0.712402 0.249023
0.439941 0.711426 0.256592
0.463867 0.709961 0.270752
0.488770 0.707520 0.281250
0.506348 0.711426 0.278564
0.525391 0.716797 0.268066
0.544922 0.722656 0.262695
0.565430 0.724609 0.249512
0.588867 0.728027 0.247192
0.613281 0.731445 0.238037
0.638672 0.733398 0.233032
0.666504 0.736816 0.228271
0.693359 0.737793 0.226074
0.722168 0.739258 0.217529
0.750488 0.741211 0.216187
0.778809 0.741211 0.217285
0.809082 0.742188 0.222778
0.837891 0.742676 0.218140
0.867676 0.744629 0.222290
0.895996 0.744141 0.224731
0.925293 0.745605 0.219849
0.926270 0.744629 0.223267
0.926758 0.742676 0.211914
0.925293 0.740723 0.211548
0.197876 0.747070 0.204224
0.208374 0.747070 0.204834
0.247314 0.746582 0.205933
0.266846 0.746094 0.211426
0.296143 0.745605 0.218384
0.320068 0.743652 0.223022
0.343018 0.743164 0.225952
0.367432 0.743164 0.235596
0.391602 0.740234 0.240601
0.416260 0.738770 0.246948
0.440674 0.737305 0.254883
0.465332 0.736328 0.267090
0.489014 0.733887 0.279297
0.512695 0.732910 0.288086
0.529297 0.738770 0.277100
0.548828 0.744141 0.267578
0.568359 0.748047 0.259033
0.591797 0.752441 0.249146
0.614746 0.755371 0.246216
0.640137 0.757812 0.236694
0.665527 0.760254 0.233154
0.693359 0.762695 0.229004
0.720703 0.764648 0.227783
0.749023 0.765137 0.220703
0.778320 0.766602 0.213135
0.806641 0.766602 0.214966
0.837402 0.768066 0.216431
0.866211 0.769043 0.219971
0.894531 0.768555 0.224121
0.923828 0.769531 0.214722
0.929199 0.768066 0.206177
0.929199 0.767578 0.225220
0.928711 0.766113 0.224731
0.179810 0.774414 0.205078
0.203491 0.774414 0.206421
0.238892 0.774414 0.213989
0.266846 0.773438 0.206787
0.290283 0.771973 0.213501
0.316162 0.770508 0.220947
0.344727 0.770508 0.230469
0.366943 0.768555 0.232666
0.392090 0.766113 0.243042
0.417725 0.765625 0.246216
0.442383 0.763184 0.252686
0.466064 0.761719 0.266113
0.490234 0.759766 0.274658
0.514160 0.757812 0.287842
0.533691 0.761230 0.287109
0.552734 0.766602 0.275635
0.572266 0.770508 0.265625
0.593750 0.774902 0.262207
0.616699 0.778809 0.252441
0.640625 0.781250 0.245117
0.666504 0.784180 0.234497
0.693359 0.785645 0.226929
0.719238 0.787109 0.227539
0.747559 0.789062 0.223022
0.776855 0.790527 0.219971
0.804688 0.791504 0.213745
0.833984 0.791992 0.214600
0.863281 0.792480 0.213501
0.893555 0.793457 0.209229
0.920898 0.793945 0.216309
0.931641 0.792969 0.211670
0.932129 0.791504 0.207764
0.932129 0.789551 0.220215
0.182861 0.801758 0.200684
0.213745 0.801270 0.204834
0.260254 0.800781 0.205566
0.271240 0.799805 0.211548
0.294434 0.797852 0.213257
0.322998 0.796875 0.226562
0.350342 0.796387 0.224854
0.370605 0.794434 0.229248
0.392578 0.792969 0.240967
0.418701 0.791016 0.248901
0.441406 0.789062 0.254395
0.467285 0.787598 0.261475
0.491211 0.785645 0.271973
0.515137 0.783203 0.285889
0.539062 0.782227 0.296387
0.557617 0.788574 0.284180
0.575684 0.792969 0.275146
0.596680 0.797852 0.265869
0.618164 0.801270 0.255615
0.641113 0.803711 0.251465
0.665527 0.806641 0.245239
0.692383 0.809570 0.235718
0.718750 0.811035 0.233887
0.746582 0.813477 0.227295
0.774902 0.814453 0.219116
0.804688 0.816406 0.223022
0.832520 0.816895 0.216064
0.861816 0.816895 0.215088
0.891602 0.817871 0.214355
0.918457 0.817383 0.213745
0.934570 0.817383 0.218628
0.934570 0.815918 0.211914
0.934082 0.813965 0.218140
0.209106 0.828125 0.212036
0.227051 0.828125 0.213135
0.250488 0.827148 0.207520
0.278564 0.825684 0.209229
0.300293 0.824219 0.210938
0.327148 0.822754 0.224121
0.348633 0.821777 0.230835
0.368896 0.820312 0.226685
0.390869 0.817871 0.243042
0.415527 0.816406 0.250732
0.445068 0.814941 0.250488
0.466797 0.812988 0.260498
0.490967 0.811035 0.274902
0.514648 0.808594 0.279297
0.540039 0.806641 0.294678
0.561523 0.809082 0.293701
0.577637 0.813965 0.286133
0.597656 0.819336 0.268799
