RED_IPP2_Creative/RED_SUPERCOLOR.cube
# RED Digital Cinema Output Transform LUT for IPP2
# Creatives by Eric Weidt
# BMD cube from Truelight v4.0
# Settings used in creation of this LUT are:
# Development Color Space = USER SELECTABLE
# Output Gamma Curve = USER SELECTABLE
# Output Tonemap = USER SELECTABLE
# Highlight Rolloff = USER SELECTABLE 
LUT_3D_SIZE 5
0.007645 0.000000 0.000146
0.198486 0.044769 0.041687
0.356201 0.192993 0.163574
0.551270 0.401611 0.350830
0.769043 0.638184 0.597656
0.123840 0.229126 0.126099
0.248413 0.244141 0.141602
0.409424 0.303711 0.219727
0.581055 0.446289 0.381836
0.780273 0.654785 0.611328
0.373291 0.457275 0.335205
0.410400 0.464355 0.343750
0.500000 0.488770 0.363525
0.641113 0.554199 0.467773
0.810547 0.700684 0.648926
0.627441 0.697754 0.599609
0.638672 0.700195 0.603027
0.670898 0.708984 0.613770
0.747559 0.736328 0.640625
0.875000 0.808594 0.743652
0.889648 0.941406 0.868652
0.892090 0.942383 0.869629
0.902344 0.945312 0.874023
0.928223 0.955078 0.885742
0.994141 0.985352 0.916992
0.029755 0.000000 0.195190
0.177124 0.067505 0.169189
0.366455 0.197144 0.248291
0.563477 0.401611 0.395996
0.773438 0.637695 0.611328
0.075989 0.242554 0.241089
0.252930 0.248535 0.249756
0.446045 0.293945 0.285156
0.594238 0.446289 0.421631
0.785156 0.653809 0.623535
0.345703 0.468018 0.374512
0.338867 0.483643 0.331055
0.497314 0.494629 0.345703
0.651855 0.554199 0.484131
0.814941 0.700195 0.658203
0.618652 0.701660 0.607910
0.630859 0.704102 0.609863
0.665527 0.711426 0.621094
0.746094 0.737793 0.644531
0.877930 0.808105 0.746094
0.887207 0.942871 0.870605
0.890625 0.943359 0.871582
0.899414 0.946777 0.875488
0.927734 0.956055 0.887207
0.993652 0.985840 0.917480
0.141602 0.062408 0.256104
0.212402 0.115845 0.290771
0.359131 0.233032 0.350098
0.566406 0.413574 0.470215
0.781250 0.639648 0.643555
0.185669 0.241089 0.408447
0.272949 0.250488 0.433594
0.435059 0.308594 0.431152
0.601074 0.453613 0.497314
0.792969 0.654785 0.653809
0.308838 0.481934 0.479736
0.324707 0.492676 0.491699
0.499756 0.499756 0.499756
0.744629 0.501953 0.501465
0.893555 0.618652 0.609863
0.599609 0.709961 0.635742
0.611328 0.712891 0.636719
0.510254 0.747070 0.507324
0.746582 0.746094 0.536133
0.922852 0.785645 0.668457
0.882324 0.945801 0.876953
0.885254 0.946777 0.877441
0.745117 0.968750 0.729492
0.870117 0.967285 0.756836
0.995605 0.989258 0.776855
0.287598 0.205811 0.411865
0.325439 0.233765 0.434814
0.412354 0.310059 0.474121
0.568359 0.456299 0.559082
0.784668 0.654297 0.705078
0.343018 0.303955 0.495605
0.375977 0.322021 0.507812
0.458252 0.371094 0.538086
0.596191 0.491211 0.588379
0.796875 0.668457 0.715820
0.416260 0.490723 0.633301
0.447021 0.495850 0.639160
0.495117 0.493408 0.814941
0.744629 0.503418 0.744141
0.897949 0.625000 0.746094
0.574219 0.724121 0.722168
0.583984 0.727539 0.725098
0.503906 0.748535 0.749023
0.749512 0.749512 0.749512
0.999512 0.749512 0.749512
0.870605 0.952637 0.897949
0.873535 0.954102 0.898926
0.730957 0.973633 0.840332
0.773926 0.997559 0.751465
1.000000 0.995605 0.777344
0.493408 0.415039 0.603027
0.506836 0.427490 0.611328
0.546387 0.461670 0.637207
0.635742 0.547363 0.685059
0.795898 0.701660 0.787598
0.520508 0.458740 0.636719
0.533203 0.468506 0.644043
0.569336 0.497070 0.665527
0.653809 0.570801 0.708008
0.805664 0.713867 0.797852
0.583496 0.560059 0.717285
0.594238 0.565430 0.722168
0.573730 0.542480 0.900879
0.738281 0.562988 0.909180
0.898926 0.649414 0.894531
0.677246 0.742188 0.856445
0.685059 0.744141 0.859863
0.603027 0.756836 0.958496
0.755371 0.735352 1.000000
0.999512 0.749512 0.999512
0.852539 0.968262 0.965820
0.854492 0.969238 0.967285
0.717285 0.982910 0.981934
0.749023 0.999512 1.000000
0.999512 0.999512 0.999512
