RED_IPP2_Creative/RED_Achromic.cube
#RED_IPP2_CREATIVE_LUT
# RED_Achromic - A stylized black and white look
# created by Phil Holland - phfx.com
# Settings used in creation of this LUT are:
# Development Color Space = USER SELECTABLE
# Output Gamma Curve = USER SELECTABLE
# Output Tonemap = USER SELECTABLE
# Highlight Rolloff = USER SELECTABLE
#LUT size
LUT_3D_SIZE 33
0.000000 0.000000 0.000000
0.011719 0.011719 0.011719
0.026276 0.026276 0.026276
0.039459 0.039459 0.039459
0.052490 0.052490 0.052490
0.070129 0.070129 0.070129
0.101196 0.101196 0.101196
0.131226 0.131226 0.131226
0.159943 0.159943 0.159943
0.187042 0.187042 0.187042
0.212158 0.212158 0.212158
0.235138 0.235138 0.235138
0.256195 0.256195 0.256195
0.275543 0.275543 0.275543
0.293457 0.293457 0.293457
0.310150 0.310150 0.310150
0.325958 0.325958 0.325958
0.341095 0.341095 0.341095
0.355988 0.355988 0.355988
0.370911 0.370911 0.370911
0.386261 0.386261 0.386261
0.402283 0.402283 0.402283
0.419342 0.419342 0.419342
0.437775 0.437775 0.437775
0.457642 0.457642 0.457642
0.478912 0.478912 0.478912
0.501526 0.501526 0.501526
0.525360 0.525360 0.525360
0.537079 0.537079 0.537079
0.537079 0.537079 0.537079
0.537079 0.537079 0.537079
0.537079 0.537079 0.537079
0.537079 0.537079 0.537079
0.016846 0.016846 0.016846
0.019928 0.019928 0.019928
0.029846 0.029846 0.029846
0.041718 0.041718 0.041718
0.054108 0.054108 0.054108
0.073151 0.073151 0.073151
0.103546 0.103546 0.103546
0.133118 0.133118 0.133118
0.161499 0.161499 0.161499
0.188263 0.188263 0.188263
0.213135 0.213135 0.213135
0.235931 0.235931 0.235931
0.256866 0.256866 0.256866
0.276093 0.276093 0.276093
0.293945 0.293945 0.293945
0.310577 0.310577 0.310577
0.326294 0.326294 0.326294
0.341431 0.341431 0.341431
0.356293 0.356293 0.356293
0.371216 0.371216 0.371216
0.386536 0.386536 0.386536
0.402557 0.402557 0.402557
0.419647 0.419647 0.419647
0.438049 0.438049 0.438049
0.457947 0.457947 0.457947
0.479248 0.479248 0.479248
0.501801 0.501801 0.501801
0.525665 0.525665 0.525665
0.537445 0.537445 0.537445
0.537445 0.537445 0.537445
0.537445 0.537445 0.537445
0.537445 0.537445 0.537445
0.537445 0.537445 0.537445
0.034119 0.034119 0.034119
0.034119 0.034119 0.034119
0.039764 0.039764 0.039764
0.048889 0.048889 0.048889
0.059540 0.059540 0.059540
0.083496 0.083496 0.083496
0.111786 0.111786 0.111786
0.139771 0.139771 0.139771
0.166901 0.166901 0.166901
0.192688 0.192688 0.192688
0.216766 0.216766 0.216766
0.238892 0.238892 0.238892
0.259308 0.259308 0.259308
0.278168 0.278168 0.278168
0.295685 0.295685 0.295685
0.312103 0.312103 0.312103
0.327637 0.327637 0.327637
0.342651 0.342651 0.342651
0.357391 0.357391 0.357391
0.372284 0.372284 0.372284
0.387573 0.387573 0.387573
0.403595 0.403595 0.403595
0.420685 0.420685 0.420685
0.439148 0.439148 0.439148
0.459045 0.459045 0.459045
0.480377 0.480377 0.480377
0.502930 0.502930 0.502930
0.526825 0.526825 0.526825
0.538818 0.538818 0.538818
0.538818 0.538818 0.538818
0.538818 0.538818 0.538818
0.538818 0.538818 0.538818
0.538818 0.538818 0.538818
0.051025 0.051025 0.051025
0.051025 0.051025 0.051025
0.052612 0.052612 0.052612
0.059479 0.059479 0.059479
0.076691 0.076691 0.076691
0.100525 0.100525 0.100525
0.125702 0.125702 0.125702
0.151215 0.151215 0.151215
0.176331 0.176331 0.176331
0.200439 0.200439 0.200439
0.223053 0.223053 0.223053
0.244141 0.244141 0.244141
0.263672 0.263672 0.263672
0.281891 0.281891 0.281891
0.298859 0.298859 0.298859
0.314819 0.314819 0.314819
0.330078 0.330078 0.330078
0.344818 0.344818 0.344818
0.359467 0.359467 0.359467
0.374268 0.374268 0.374268
0.389496 0.389496 0.389496
0.405487 0.405487 0.405487
0.422638 0.422638 0.422638
0.441132 0.441132 0.441132
0.461090 0.461090 0.461090
0.482391 0.482391 0.482391
0.505035 0.505035 0.505035
0.528900 0.528900 0.528900
0.541321 0.541321 0.541321
0.541321 0.541321 0.541321
0.541321 0.541321 0.541321
0.541321 0.541321 0.541321
0.541321 0.541321 0.541321
0.075867 0.075867 0.075867
0.075867 0.075867 0.075867
0.075867 0.075867 0.075867
0.085754 0.085754 0.085754
0.102661 0.102661 0.102661
0.122559 0.122559 0.122559
0.144196 0.144196 0.144196
0.166718 0.166718 0.166718
0.189209 0.189209 0.189209
0.211121 0.211121 0.211121
0.231964 0.231964 0.231964
0.251495 0.251495 0.251495
0.269897 0.269897 0.269897
0.287140 0.287140 0.287140
0.303375 0.303375 0.303375
0.318787 0.318787 0.318787
0.333618 0.333618 0.333618
0.348083 0.348083 0.348083
0.362488 0.362488 0.362488
0.377136 0.377136 0.377136
0.392365 0.392365 0.392365
0.408386 0.408386 0.408386
0.425568 0.425568 0.425568
0.444122 0.444122 0.444122
0.464142 0.464142 0.464142
0.485474 0.485474 0.485474
0.508179 0.508179 0.508179
0.532013 0.532013 0.532013
0.545013 0.545013 0.545013
0.545013 0.545013 0.545013
0.545013 0.545013 0.545013
0.545013 0.545013 0.545013
0.545013 0.545013 0.545013
0.115692 0.115692 0.115692
0.115692 0.115692 0.115692
0.115692 0.115692 0.115692
0.117706 0.117706 0.117706
0.131195 0.131195 0.131195
0.147522 0.147522 0.147522
0.165802 0.165802 0.165802
0.185120 0.185120 0.185120
0.204803 0.204803 0.204803
0.224152 0.224152 0.224152
0.242889 0.242889 0.242889
0.260712 0.260712 0.260712
0.277740 0.277740 0.277740
0.293884 0.293884 0.293884
0.309235 0.309235 0.309235
0.323944 0.323944 0.323944
0.338257 0.338257 0.338257
0.352386 0.352386 0.352386
0.366577 0.366577 0.366577
0.381073 0.381073 0.381073
0.396210 0.396210 0.396210
0.412262 0.412262 0.412262
0.429474 0.429474 0.429474
0.448181 0.448181 0.448181
0.468292 0.468292 0.468292
0.489716 0.489716 0.489716
0.512360 0.512360 0.512360
0.536255 0.536255 0.536255
0.550110 0.550110 0.550110
0.550110 0.550110 0.550110
0.550110 0.550110 0.550110
0.550110 0.550110 0.550110
0.550110 0.550110 0.550110
0.153625 0.153625 0.153625
0.153625 0.153625 0.153625
0.153625 0.153625 0.153625
0.153625 0.153625 0.153625
0.160492 0.160492 0.160492
0.173798 0.173798 0.173798
0.188934 0.188934 0.188934
0.205200 0.205200 0.205200
0.221985 0.221985 0.221985
0.238831 0.238831 0.238831
0.255371 0.255371 0.255371
0.271454 0.271454 0.271454
0.286987 0.286987 0.286987
0.301910 0.301910 0.301910
0.316254 0.316254 0.316254
0.330261 0.330261 0.330261
0.343994 0.343994 0.343994
0.357727 0.357727 0.357727
0.371613 0.371613 0.371613
0.385986 0.385986 0.385986
0.401093 0.401093 0.401093
0.417206 0.417206 0.417206
0.434570 0.434570 0.434570
0.453400 0.453400 0.453400
0.473541 0.473541 0.473541
0.495026 0.495026 0.495026
0.517761 0.517761 0.517761
0.541656 0.541656 0.541656
0.556549 0.556549 0.556549
0.556549 0.556549 0.556549
0.556549 0.556549 0.556549
0.556549 0.556549 0.556549
0.556549 0.556549 0.556549
0.188843 0.188843 0.188843
0.188843 0.188843 0.188843
0.188843 0.188843 0.188843
0.188843 0.188843 0.188843
0.189270 0.189270 0.189270
0.199982 0.199982 0.199982
0.212341 0.212341 0.212341
0.225861 0.225861 0.225861
0.239990 0.239990 0.239990
0.254486 0.254486 0.254486
0.268982 0.268982 0.268982
0.283264 0.283264 0.283264
0.297302 0.297302 0.297302
0.310974 0.310974 0.310974
0.324402 0.324402 0.324402
0.337585 0.337585 0.337585
0.350769 0.350769 0.350769
0.364105 0.364105 0.364105
0.377747 0.377747 0.377747
0.391998 0.391998 0.391998
0.407104 0.407104 0.407104
0.423279 0.423279 0.423279
0.440796 0.440796 0.440796
0.459747 0.459747 0.459747
0.480011 0.480011 0.480011
0.501526 0.501526 0.501526
0.524323 0.524323 0.524323
0.548218 0.548218 0.548218
0.564362 0.564362 0.564362
0.564362 0.564362 0.564362
0.564362 0.564362 0.564362
0.564362 0.564362 0.564362
0.564362 0.564362 0.564362
0.220825 0.220825 0.220825
0.220825 0.220825 0.220825
0.220825 0.220825 0.220825
0.220825 0.220825 0.220825
0.220825 0.220825 0.220825
0.225128 0.225128 0.225128
0.235107 0.235107 0.235107
0.246246 0.246246 0.246246
0.258148 0.258148 0.258148
0.270538 0.270538 0.270538
0.283142 0.283142 0.283142
0.295837 0.295837 0.295837
0.308441 0.308441 0.308441
0.320923 0.320923 0.320923
0.333405 0.333405 0.333405
0.345886 0.345886 0.345886
0.358551 0.358551 0.358551
0.371460 0.371460 0.371460
0.384918 0.384918 0.384918
0.399139 0.399139 0.399139
0.414246 0.414246 0.414246
0.430603 0.430603 0.430603
0.448303 0.448303 0.448303
0.467346 0.467346 0.467346
0.487701 0.487701 0.487701
0.509308 0.509308 0.509308
0.532135 0.532135 0.532135
0.556030 0.556030 0.556030
0.573700 0.573700 0.573700
0.573700 0.573700 0.573700
0.573700 0.573700 0.573700
0.573700 0.573700 0.573700
0.573669 0.573669 0.573669
0.249268 0.249268 0.249268
0.249268 0.249268 0.249268
0.249268 0.249268 0.249268
0.249268 0.249268 0.249268
0.249268 0.249268 0.249268
0.249268 0.249268 0.249268
0.256775 0.256775 0.256775
0.266052 0.266052 0.266052
0.276031 0.276031 0.276031
0.286652 0.286652 0.286652
0.297607 0.297607 0.297607
0.308807 0.308807 0.308807
0.320160 0.320160 0.320160
0.331635 0.331635 0.331635
0.343231 0.343231 0.343231
0.355072 0.355072 0.355072
0.367279 0.367279 0.367279
0.379944 0.379944 0.379944
0.393250 0.393250 0.393250
0.407410 0.407410 0.407410
0.422638 0.422638 0.422638
0.439209 0.439209 0.439209
0.457062 0.457062 0.457062
0.476227 0.476227 0.476227
0.496674 0.496674 0.496674
0.518341 0.518341 0.518341
0.541199 0.541199 0.541199
0.565125 0.565125 0.565125
0.584473 0.584473 0.584473
0.584473 0.584473 0.584473
0.584473 0.584473 0.584473
0.584473 0.584473 0.584473
0.584473 0.584473 0.584473
0.274750 0.274750 0.274750
0.274750 0.274750 0.274750
0.274750 0.274750 0.274750
0.274750 0.274750 0.274750
0.274750 0.274750 0.274750
0.274750 0.274750 0.274750
0.277252 0.277252 0.277252
0.284943 0.284943 0.284943
0.293427 0.293427 0.293427
0.302551 0.302551 0.302551
0.312103 0.312103 0.312103
0.322083 0.322083 0.322083
0.332336 0.332336 0.332336
0.342926 0.342926 0.342926
0.353851 0.353851 0.353851
0.365143 0.365143 0.365143
0.376984 0.376984 0.376984
0.389465 0.389465 0.389465
0.402710 0.402710 0.402710
0.416901 0.416901 0.416901
0.432343 0.432343 0.432343
0.449097 0.449097 0.449097
0.467163 0.467163 0.467163
0.486420 0.486420 0.486420
0.506989 0.506989 0.506989
0.528687 0.528687 0.528687
0.551544 0.551544 0.551544
0.575500 0.575500 0.575500
0.596802 0.596802 0.596802
0.596802 0.596802 0.596802
0.596802 0.596802 0.596802
0.596802 0.596802 0.596802
0.596802 0.596802 0.596802
0.297821 0.297821 0.297821
0.297821 0.297821 0.297821
0.297821 0.297821 0.297821
0.297821 0.297821 0.297821
0.297821 0.297821 0.297821
0.297821 0.297821 0.297821
0.297821 0.297821 0.297821
0.302979 0.302979 0.302979
0.310242 0.310242 0.310242
0.318146 0.318146 0.318146
0.326630 0.326630 0.326630
0.335602 0.335602 0.335602
0.345001 0.345001 0.345001
0.354889 0.354889 0.354889
0.365265 0.365265 0.365265
0.376190 0.376190 0.376190
0.387726 0.387726 0.387726
0.400085 0.400085 0.400085
0.413361 0.413361 0.413361
0.427765 0.427765 0.427765
0.443451 0.443451 0.443451
0.460388 0.460388 0.460388
0.478607 0.478607 0.478607
0.498016 0.498016 0.498016
0.518616 0.518616 0.518616
0.540436 0.540436 0.540436
0.563293 0.563293 0.563293
0.587158 0.587158 0.587158
0.610657 0.610657 0.610657
0.610657 0.610657 0.610657
0.610657 0.610657 0.610657
0.610657 0.610657 0.610657
0.610626 0.610626 0.610626
0.318878 0.318878 0.318878
0.318878 0.318878 0.318878
0.318878 0.318878 0.318878
0.318878 0.318878 0.318878
0.318878 0.318878 0.318878
0.318878 0.318878 0.318878
0.318878 0.318878 0.318878
0.320190 0.320190 0.320190
0.326569 0.326569 0.326569
0.333557 0.333557 0.333557
0.341187 0.341187 0.341187
0.349365 0.349365 0.349365
0.358154 0.358154 0.358154
0.367493 0.367493 0.367493
0.377472 0.377472 0.377472
0.388184 0.388184 0.388184
0.399567 0.399567 0.399567
0.412018 0.412018 0.412018
0.425415 0.425415 0.425415
0.440033 0.440033 0.440033
0.455994 0.455994 0.455994
0.473145 0.473145 0.473145
0.491455 0.491455 0.491455
0.511017 0.511017 0.511017
0.531647 0.531647 0.531647
0.553436 0.553436 0.553436
0.576263 0.576263 0.576263
0.600128 0.600128 0.600128
0.625000 0.625000 0.625000
0.626099 0.626099 0.626099
0.626099 0.626099 0.626099
0.626099 0.626099 0.626099
0.626099 0.626099 0.626099
0.338776 0.338776 0.338776
0.338776 0.338776 0.338776
0.338776 0.338776 0.338776
0.338776 0.338776 0.338776
0.338776 0.338776 0.338776
0.338776 0.338776 0.338776
0.338776 0.338776 0.338776
0.338776 0.338776 0.338776
0.342560 0.342560 0.342560
0.348938 0.348938 0.348938
0.355957 0.355957 0.355957
0.363617 0.363617 0.363617
0.371918 0.371918 0.371918
0.380920 0.380920 0.380920
0.390717 0.390717 0.390717
0.401306 0.401306 0.401306
0.412781 0.412781 0.412781
0.425293 0.425293 0.425293
0.438995 0.438995 0.438995
0.453888 0.453888 0.453888
0.470032 0.470032 0.470032
0.487305 0.487305 0.487305
0.505798 0.505798 0.505798
0.525360 0.525360 0.525360
0.546082 0.546082 0.546082
0.567841 0.567841 0.567841
0.590668 0.590668 0.590668
0.614471 0.614471 0.614471
0.639191 0.639191 0.639191
0.642975 0.642975 0.642975
0.642975 0.642975 0.642975
0.642975 0.642975 0.642975
0.642975 0.642975 0.642975
0.358063 0.358063 0.358063
0.358063 0.358063 0.358063
0.358063 0.358063 0.358063
0.358063 0.358063 0.358063
0.358063 0.358063 0.358063
0.358063 0.358063 0.358063
0.358063 0.358063 0.358063
0.358063 0.358063 0.358063
0.358582 0.358582 0.358582
0.364502 0.364502 0.364502
0.371124 0.371124 0.371124
0.378448 0.378448 0.378448
0.386536 0.386536 0.386536
0.395355 0.395355 0.395355
0.405121 0.405121 0.405121
0.415771 0.415771 0.415771
0.427429 0.427429 0.427429
0.440186 0.440186 0.440186
0.454132 0.454132 0.454132
0.469269 0.469269 0.469269
0.485565 0.485565 0.485565
0.502960 0.502960 0.502960
0.521515 0.521515 0.521515
0.541168 0.541168 0.541168
0.561890 0.561890 0.561890
0.583679 0.583679 0.583679
0.606384 0.606384 0.606384
0.630066 0.630066 0.630066
0.654724 0.654724 0.654724
0.661469 0.661469 0.661469
0.661469 0.661469 0.661469
0.661469 0.661469 0.661469
0.661469 0.661469 0.661469
0.377563 0.377563 0.377563
0.377563 0.377563 0.377563
0.377563 0.377563 0.377563
0.377563 0.377563 0.377563
0.377563 0.377563 0.377563
0.377563 0.377563 0.377563
0.377563 0.377563 0.377563
0.377563 0.377563 0.377563
0.377563 0.377563 0.377563
0.380615 0.380615 0.380615
0.387024 0.387024 0.387024
0.394226 0.394226 0.394226
0.402222 0.402222 0.402222
0.411102 0.411102 0.411102
0.420929 0.420929 0.420929
0.431732 0.431732 0.431732
0.443695 0.443695 0.443695
0.456726 0.456726 0.456726
0.470886 0.470886 0.470886
0.486176 0.486176 0.486176
0.502625 0.502625 0.502625
0.520111 0.520111 0.520111
0.538696 0.538696 0.538696
0.558380 0.558380 0.558380
0.579102 0.579102 0.579102
0.600830 0.600830 0.600830
0.623474 0.623474 0.623474
0.647034 0.647034 0.647034
0.671539 0.671539 0.671539
0.681488 0.681488 0.681488
0.681488 0.681488 0.681488
0.681488 0.681488 0.681488
0.681488 0.681488 0.681488
0.397888 0.397888 0.397888
0.397888 0.397888 0.397888
0.397888 0.397888 0.397888
0.397888 0.397888 0.397888
0.397888 0.397888 0.397888
0.397888 0.397888 0.397888
0.397888 0.397888 0.397888
0.397888 0.397888 0.397888
0.397888 0.397888 0.397888
0.397888 0.397888 0.397888
0.404053 0.404053 0.404053
0.411224 0.411224 0.411224
0.419342 0.419342 0.419342
0.428345 0.428345 0.428345
0.438416 0.438416 0.438416
0.449524 0.449524 0.449524
0.461670 0.461670 0.461670
0.474915 0.474915 0.474915
0.489258 0.489258 0.489258
0.504669 0.504669 0.504669
0.521179 0.521179 0.521179
0.538757 0.538757 0.538757
0.557343 0.557343 0.557343
0.577057 0.577057 0.577057
0.597717 0.597717 0.597717
0.619293 0.619293 0.619293
0.641907 0.641907 0.641907
0.665344 0.665344 0.665344
0.689667 0.689667 0.689667
0.702972 0.702972 0.702972
0.702972 0.702972 0.702972
0.702972 0.702972 0.702972
0.702972 0.702972 0.702972
0.419861 0.419861 0.419861
0.419861 0.419861 0.419861
0.419861 0.419861 0.419861
0.419861 0.419861 0.419861
0.419861 0.419861 0.419861
0.419861 0.419861 0.419861
0.419861 0.419861 0.419861
0.419861 0.419861 0.419861
0.419861 0.419861 0.419861
0.419861 0.419861 0.419861
0.422485 0.422485 0.422485
0.429840 0.429840 0.429840
0.438171 0.438171 0.438171
0.447449 0.447449 0.447449
0.457672 0.457672 0.457672
0.469025 0.469025 0.469025
0.481354 0.481354 0.481354
0.494781 0.494781 0.494781
0.509216 0.509216 0.509216
0.524719 0.524719 0.524719
0.541260 0.541260 0.541260
0.558868 0.558868 0.558868
0.577484 0.577484 0.577484
0.597107 0.597107 0.597107
0.617645 0.617645 0.617645
0.639160 0.639160 0.639160
0.661621 0.661621 0.661621
0.684906 0.684906 0.684906
0.708984 0.708984 0.708984
0.725891 0.725891 0.725891
0.725891 0.725891 0.725891
0.725891 0.725891 0.725891
0.725891 0.725891 0.725891
0.444031 0.444031 0.444031
0.444031 0.444031 0.444031
0.444031 0.444031 0.444031
0.444031 0.444031 0.444031
0.444031 0.444031 0.444031
0.444031 0.444031 0.444031
0.444031 0.444031 0.444031
0.444031 0.444031 0.444031
0.444031 0.444031 0.444031
0.444031 0.444031 0.444031
0.444031 0.444031 0.444031
0.450378 0.450378 0.450378
0.458893 0.458893 0.458893
0.468353 0.468353 0.468353
0.478790 0.478790 0.478790
0.490265 0.490265 0.490265
0.502686 0.502686 0.502686
0.516235 0.516235 0.516235
0.530731 0.530731 0.530731
0.546265 0.546265 0.546265
0.562836 0.562836 0.562836
0.580414 0.580414 0.580414
0.598999 0.598999 0.598999
0.618500 0.618500 0.618500
0.638977 0.638977 0.638977
0.660339 0.660339 0.660339
0.682648 0.682648 0.682648
0.705719 0.705719 0.705719
0.729614 0.729614 0.729614
0.750214 0.750214 0.750214
0.750214 0.750214 0.750214
0.750214 0.750214 0.750214
0.750214 0.750214 0.750214
0.470673 0.470673 0.470673
0.470673 0.470673 0.470673
0.470673 0.470673 0.470673
0.470673 0.470673 0.470673
0.470673 0.470673 0.470673
0.470673 0.470673 0.470673
0.470673 0.470673 0.470673
0.470673 0.470673 0.470673
0.470673 0.470673 0.470673
0.470673 0.470673 0.470673
0.470642 0.470642 0.470642
0.472809 0.472809 0.472809
0.481476 0.481476 0.481476
0.491028 0.491028 0.491028
0.501587 0.501587 0.501587
0.513153 0.513153 0.513153
0.525696 0.525696 0.525696
0.539276 0.539276 0.539276
0.553802 0.553802 0.553802
0.569366 0.569366 0.569366
0.585876 0.585876 0.585876
0.603424 0.603424 0.603424
0.621887 0.621887 0.621887
0.641296 0.641296 0.641296
0.661621 0.661621 0.661621
0.682861 0.682861 0.682861
0.704895 0.704895 0.704895
0.727753 0.727753 0.727753
0.751404 0.751404 0.751404
0.775787 0.775787 0.775787
0.775940 0.775940 0.775940
0.775940 0.775940 0.775940
0.775940 0.775940 0.775940
0.499573 0.499573 0.499573
0.499573 0.499573 0.499573
0.499573 0.499573 0.499573
0.499573 0.499573 0.499573
0.499573 0.499573 0.499573
0.499573 0.499573 0.499573
0.499573 0.499573 0.499573
0.499573 0.499573 0.499573
0.499573 0.499573 0.499573
0.499573 0.499573 0.499573
0.499573 0.499573 0.499573
0.499573 0.499573 0.499573
0.505798 0.505798 0.505798
0.515442 0.515442 0.515442
0.526062 0.526062 0.526062
0.537689 0.537689 0.537689
0.550262 0.550262 0.550262
0.563812 0.563812 0.563812
0.578369 0.578369 0.578369
0.593842 0.593842 0.593842
0.610352 0.610352 0.610352
0.627808 0.627808 0.627808
0.646149 0.646149 0.646149
0.665375 0.665375 0.665375
0.685547 0.685547 0.685547
0.706512 0.706512 0.706512
0.728394 0.728394 0.728394
0.750977 0.750977 0.750977
0.774353 0.774353 0.774353
0.798431 0.798431 0.798431
0.802826 0.802826 0.802826
0.802826 0.802826 0.802826
0.802826 0.802826 0.802826
0.530518 0.530518 0.530518
0.530518 0.530518 0.530518
0.530518 0.530518 0.530518
0.530518 0.530518 0.530518
0.530518 0.530518 0.530518
0.530518 0.530518 0.530518
0.530518 0.530518 0.530518
0.530518 0.530518 0.530518
0.530518 0.530518 0.530518
0.530518 0.530518 0.530518
0.530518 0.530518 0.530518
0.530518 0.530518 0.530518
0.531769 0.531769 0.531769
0.541504 0.541504 0.541504
0.552155 0.552155 0.552155
0.563751 0.563751 0.563751
0.576355 0.576355 0.576355
0.589874 0.589874 0.589874
0.604340 0.604340 0.604340
0.619781 0.619781 0.619781
0.636169 0.636169 0.636169
0.653473 0.653473 0.653473
0.671661 0.671661 0.671661
0.690735 0.690735 0.690735
0.710663 0.710663 0.710663
0.731476 0.731476 0.731476
0.753021 0.753021 0.753021
0.775360 0.775360 0.775360
0.798401 0.798401 0.798401
0.822144 0.822144 0.822144
0.831024 0.831024 0.831024
0.831024 0.831024 0.831024
0.831024 0.831024 0.831024
0.563477 0.563477 0.563477
0.563477 0.563477 0.563477
0.563477 0.563477 0.563477
0.563477 0.563477 0.563477
0.563477 0.563477 0.563477
0.563477 0.563477 0.563477
0.563477 0.563477 0.563477
0.563477 0.563477 0.563477
0.563477 0.563477 0.563477
0.563477 0.563477 0.563477
0.563477 0.563477 0.563477
0.563477 0.563477 0.563477
0.563477 0.563477 0.563477
0.569092 0.569092 0.569092
0.579712 0.579712 0.579712
0.591309 0.591309 0.591309
0.603882 0.603882 0.603882
0.617340 0.617340 0.617340
0.631744 0.631744 0.631744
0.647003 0.647003 0.647003
0.663269 0.663269 0.663269
0.680389 0.680389 0.680389
0.698425 0.698425 0.698425
0.717285 0.717285 0.717285
0.737000 0.737000 0.737000
0.757477 0.757477 0.757477
0.778809 0.778809 0.778809
0.800781 0.800781 0.800781
0.823547 0.823547 0.823547
0.846924 0.846924 0.846924
0.860321 0.860321 0.860321
0.860321 0.860321 0.860321
0.860321 0.860321 0.860321
0.598175 0.598175 0.598175
0.598175 0.598175 0.598175
0.598175 0.598175 0.598175
0.598175 0.598175 0.598175
0.598175 0.598175 0.598175
0.598175 0.598175 0.598175
0.598175 0.598175 0.598175
0.598175 0.598175 0.598175
0.598175 0.598175 0.598175
0.598175 0.598175 0.598175
0.598175 0.598175 0.598175
0.598175 0.598175 0.598175
0.598175 0.598175 0.598175
0.598236 0.598236 0.598236
0.608795 0.608795 0.608795
0.620331 0.620331 0.620331
0.632751 0.632751 0.632751
0.646149 0.646149 0.646149
0.660339 0.660339 0.660339
0.675537 0.675537 0.675537
0.691620 0.691620 0.691620
0.708557 0.708557 0.708557
0.726318 0.726318 0.726318
0.744965 0.744965 0.744965
0.764404 0.764404 0.764404
0.784637 0.784637 0.784637
0.805603 0.805603 0.805603
0.827240 0.827240 0.827240
0.849609 0.849609 0.849609
0.868408 0.868408 0.868408
0.875793 0.875793 0.875793
0.875793 0.875793 0.875793
0.875793 0.875793 0.875793
0.634460 0.634460 0.634460
0.634460 0.634460 0.634460
0.634460 0.634460 0.634460
0.634460 0.634460 0.634460
0.634460 0.634460 0.634460
0.634460 0.634460 0.634460
0.634460 0.634460 0.634460
0.634460 0.634460 0.634460
0.634460 0.634460 0.634460
0.634460 0.634460 0.634460
0.634460 0.634460 0.634460
0.634460 0.634460 0.634460
0.634460 0.634460 0.634460
0.634460 0.634460 0.634460
0.639191 0.639191 0.639191
0.650604 0.650604 0.650604
0.662933 0.662933 0.662933
0.676147 0.676147 0.676147
0.690247 0.690247 0.690247
0.705261 0.705261 0.705261
0.721100 0.721100 0.721100
0.737854 0.737854 0.737854
0.755371 0.755371 0.755371
0.773712 0.773712 0.773712
0.792847 0.792847 0.792847
0.812775 0.812775 0.812775
0.833405 0.833405 0.833405
0.854706 0.854706 0.854706
0.870056 0.870056 0.870056
0.879272 0.879272 0.879272
0.888489 0.888489 0.888489
0.888489 0.888489 0.888489
0.888489 0.888489 0.888489
0.672241 0.672241 0.672241
0.672241 0.672241 0.672241
0.672241 0.672241 0.672241
0.672241 0.672241 0.672241
0.672241 0.672241 0.672241
0.672241 0.672241 0.672241
0.672241 0.672241 0.672241
0.672241 0.672241 0.672241
0.672241 0.672241 0.672241
0.672241 0.672241 0.672241
0.672241 0.672241 0.672241
0.672241 0.672241 0.672241
0.672241 0.672241 0.672241
0.672241 0.672241 0.672241
0.672241 0.672241 0.672241
0.682129 0.682129 0.682129
0.694305 0.694305 0.694305
0.707367 0.707367 0.707367
0.721283 0.721283 0.721283
0.736115 0.736115 0.736115
0.751678 0.751678 0.751678
0.768188 0.768188 0.768188
0.785400 0.785400 0.785400
0.803467 0.803467 0.803467
0.822296 0.822296 0.822296
0.841827 0.841827 0.841827
0.862091 0.862091 0.862091
0.872620 0.872620 0.872620
0.881409 0.881409 0.881409
0.890442 0.890442 0.890442
0.899658 0.899658 0.899658
0.901550 0.901550 0.901550
0.901550 0.901550 0.901550
0.711243 0.711243 0.711243
0.711243 0.711243 0.711243
0.711243 0.711243 0.711243
0.711243 0.711243 0.711243
0.711243 0.711243 0.711243
0.711243 0.711243 0.711243
0.711243 0.711243 0.711243
0.711243 0.711243 0.711243
0.711243 0.711243 0.711243
0.711243 0.711243 0.711243
0.711243 0.711243 0.711243
0.711243 0.711243 0.711243
0.711243 0.711243 0.711243
0.711243 0.711243 0.711243
0.711243 0.711243 0.711243
0.714783 0.714783 0.714783
0.726807 0.726807 0.726807
0.739655 0.739655 0.739655
