RED_IPP2_Creative/RED_BW_0400.cube
# RED Digital Cinema Output Transform LUT for IPP2
# Creatives by Eric Weidt
# BMD cube from Truelight v4.0
# Settings used in creation of this LUT are:
# Development Color Space = USER SELECTABLE
# Output Gamma Curve = USER SELECTABLE
# Output Tonemap = USER SELECTABLE
# Highlight Rolloff = USER SELECTABLE
LUT_3D_SIZE 9
0.016556 0.016556 0.016556
0.025787 0.025787 0.025787
0.230103 0.230103 0.230103
0.424561 0.424561 0.424561
0.520020 0.520020 0.520020
0.595215 0.595215 0.595215
0.670898 0.670898 0.670898
0.749512 0.749512 0.749512
0.839355 0.839355 0.839355
0.054047 0.054047 0.054077
0.048615 0.048615 0.048615
0.233032 0.233032 0.233032
0.425049 0.425049 0.425049
0.520508 0.520508 0.520508
0.595215 0.595215 0.595215
0.670898 0.670898 0.670898
0.749512 0.749512 0.749512
0.839355 0.839355 0.839355
0.308838 0.308838 0.308838
0.251465 0.251465 0.251465
0.273438 0.273438 0.273438
0.428467 0.428467 0.428467
0.520996 0.520996 0.520996
0.595703 0.595703 0.595703
0.670898 0.670898 0.670898
0.749512 0.749512 0.749512
0.839355 0.839355 0.839355
0.506836 0.506836 0.506836
0.478760 0.478760 0.478760
0.454834 0.454834 0.454834
0.483398 0.483398 0.483398
0.537598 0.537598 0.537598
0.600586 0.600586 0.600586
0.672363 0.672363 0.672363
0.750000 0.750000 0.749512
0.839355 0.839355 0.839355
0.603027 0.603027 0.603027
0.588379 0.588379 0.588379
0.575684 0.575684 0.575684
0.577637 0.577637 0.577637
0.594727 0.594727 0.594727
0.628906 0.628906 0.628906
0.684082 0.684082 0.684082
0.753906 0.753906 0.753906
0.840332 0.840332 0.840332
0.678223 0.678223 0.678223
0.663086 0.663086 0.663086
0.649414 0.649414 0.649414
0.644531 0.644531 0.644531
0.648926 0.648926 0.648926
0.667480 0.667480 0.667480
0.706055 0.706055 0.706055
0.764648 0.764648 0.764648
0.844727 0.844727 0.844727
0.753906 0.753906 0.753906
0.738770 0.738770 0.738770
0.724609 0.724609 0.724609
0.713867 0.713867 0.713867
0.709473 0.709473 0.709473
0.713867 0.713867 0.713867
0.735352 0.735352 0.735352
0.779297 0.779297 0.779297
0.850586 0.850586 0.850586
0.832520 0.832520 0.832520
0.816895 0.816895 0.816895
0.801270 0.801270 0.801270
0.788574 0.788574 0.788574
0.777832 0.777832 0.777832
0.772949 0.772949 0.772949
0.779297 0.779297 0.779297
0.805664 0.805664 0.805664
0.862305 0.862305 0.862305
0.922363 0.922363 0.922363
0.901367 0.901367 0.901367
0.883301 0.883301 0.883301
0.867188 0.867188 0.867188
0.853027 0.853027 0.853027
0.841797 0.841797 0.841797
0.837891 0.837891 0.837891
0.847168 0.847168 0.847168
0.884277 0.884277 0.884277
0.047241 0.047241 0.047241
0.054016 0.054016 0.054016
0.234131 0.234131 0.234131
0.425293 0.425293 0.425293
0.520508 0.520508 0.520508
0.595215 0.595215 0.595215
0.670898 0.670898 0.670898
0.749512 0.749512 0.749512
0.839355 0.839355 0.839355
0.075928 0.075928 0.075928
0.071594 0.071594 0.071594
0.236816 0.236816 0.236816
0.425781 0.425781 0.425781
0.520508 0.520508 0.520508
0.595703 0.595703 0.595703
0.670898 0.670898 0.670898
0.749512 0.749512 0.749512
0.839355 0.839355 0.839355
0.310547 0.310547 0.310547
0.254639 0.254639 0.254639
0.275879 0.275879 0.275879
0.428955 0.428711 0.428711
0.521484 0.521484 0.521484
0.595703 0.595703 0.595703
0.670898 0.670898 0.670898
0.749512 0.749512 0.749512
0.839355 0.839355 0.839355
0.507324 0.507324 0.507324
0.479004 0.479004 0.479004
0.455078 0.455078 0.455078
0.483643 0.483643 0.483643
0.538086 0.538086 0.538086
0.600586 0.600586 0.600586
0.672363 0.672363 0.672363
0.750000 0.750000 0.750000
0.839355 0.839355 0.839355
0.603027 0.603027 0.603027
0.588379 0.588379 0.588379
0.576172 0.576172 0.576172
0.577637 0.577637 0.577637
0.595215 0.594727 0.594727
0.628906 0.628906 0.628906
0.684082 0.684082 0.684082
0.753906 0.753906 0.753906
0.840332 0.840332 0.840332
0.678223 0.678223 0.678223
0.663086 0.663086 0.663086
0.649414 0.649414 0.649414
0.644531 0.644531 0.644531
0.649414 0.649414 0.649414
0.667480 0.667480 0.667480
0.706055 0.706055 0.706055
0.764648 0.764648 0.764648
0.844727 0.844727 0.844727
0.753906 0.753906 0.753906
0.738770 0.738770 0.738770
0.724609 0.724609 0.724609
0.713867 0.713867 0.713867
0.709473 0.709473 0.709473
0.713867 0.713867 0.713867
0.735352 0.735352 0.735352
0.779297 0.779297 0.779297
0.850586 0.850586 0.850586
0.832520 0.832520 0.832520
0.816895 0.816895 0.816895
0.801270 0.801270 0.801270
0.788574 0.788574 0.788574
0.777832 0.777832 0.777832
0.772949 0.772949 0.772949
0.778809 0.778809 0.778809
0.805664 0.805664 0.805664
0.862305 0.862305 0.862305
0.922363 0.922363 0.922363
0.901367 0.901367 0.901367
0.883301 0.883301 0.883301
0.867188 0.867188 0.867188
0.853027 0.853027 0.853027
0.841797 0.841797 0.841797
0.837891 0.837891 0.837891
0.847168 0.847168 0.847168
0.884277 0.884277 0.884277
0.286865 0.286865 0.286865
0.287598 0.287598 0.287598
0.326172 0.326172 0.326172
0.444824 0.444824 0.444580
0.528320 0.528320 0.528320
0.599121 0.599121 0.599121
0.672852 0.672852 0.672852
0.750488 0.750488 0.750488
0.839844 0.839844 0.839355
0.289795 0.289795 0.289795
0.289307 0.289307 0.289307
0.327148 0.327148 0.327148
0.445068 0.445068 0.445068
0.528320 0.528320 0.528320
0.599121 0.599121 0.599121
0.672852 0.672852 0.672852
0.750488 0.750488 0.750488
0.839844 0.839844 0.839355
0.363281 0.363281 0.363281
0.334717 0.334717 0.334717
0.344727 0.344727 0.344727
0.447754 0.447754 0.447754
0.528809 0.528809 0.528809
0.599121 0.599121 0.599121
0.672852 0.672852 0.672852
0.750488 0.750488 0.750488
0.839844 0.839844 0.839355
0.516113 0.516113 0.516113
0.490723 0.490723 0.490723
0.469727 0.469727 0.469727
0.494873 0.494873 0.494873
0.544434 0.544434 0.544434
0.604004 0.604004 0.604004
0.673828 0.673828 0.673828
0.750488 0.750488 0.750488
0.839844 0.839844 0.839844
0.606445 0.606445 0.606445
0.592285 0.592285 0.592285
0.580566 0.580566 0.580566
0.582031 0.582031 0.582031
0.598633 0.598633 0.598633
0.631836 0.631836 0.631836
0.685547 0.685547 0.685547
0.754395 0.754395 0.754395
0.840820 0.840820 0.840820
0.679688 0.679688 0.679688
0.665039 0.665039 0.665039
0.651855 0.651855 0.651855
0.646484 0.646484 0.646484
0.651367 0.651367 0.651367
0.669434 0.669434 0.669434
0.707031 0.707031 0.707031
0.765137 0.765137 0.765137
0.844727 0.844727 0.844727
0.754395 0.754395 0.754395
0.739746 0.739746 0.739746
0.725586 0.725586 0.725586
0.715332 0.715332 0.715332
0.710449 0.710449 0.710449
0.714844 0.714844 0.714844
0.736328 0.736328 0.736328
0.779785 0.779785 0.779785
0.851074 0.851074 0.851074
0.833008 0.833008 0.833008
0.817383 0.817383 0.817383
0.801758 0.801758 0.801758
0.789062 0.789062 0.789062
0.778320 0.778320 0.778320
0.773438 0.773438 0.773438
0.779785 0.779785 0.779785
0.806152 0.806152 0.806152
0.862793 0.862793 0.862793
0.922363 0.922363 0.922363
0.901367 0.901367 0.901367
0.883301 0.883301 0.883301
0.867676 0.867676 0.867676
0.853516 0.853516 0.853516
0.842285 0.842285 0.842285
0.837891 0.837891 0.837891
0.847168 0.847168 0.847168
0.884766 0.884766 0.884766
0.484131 0.484131 0.484131
0.484131 0.484131 0.484131
0.490234 0.490234 0.490234
0.525879 0.525879 0.525879
0.570801 0.570801 0.570801
0.622070 0.622070 0.622070
0.684082 0.684082 0.684082
0.755371 0.755371 0.755371
0.841797 0.841797 0.841797
0.484619 0.484619 0.484619
0.484375 0.484375 0.484375
0.490479 0.490479 0.490479
0.525879 0.525879 0.525879
0.571289 0.571289 0.571289
0.622070 0.622070 0.622070
0.684082 0.684082 0.684082
0.755859 0.755859 0.755859
0.841797 0.841797 0.841797
0.498291 0.498291 0.498291
0.491943 0.491943 0.491943
0.493896 0.493896 0.493896
0.526855 0.526855 0.526855
0.571289 0.571289 0.571289
0.622070 0.622070 0.622070
0.684082 0.684082 0.684082
0.755859 0.755859 0.755859
0.841797 0.841797 0.841797
0.563477 0.563477 0.563477
0.548340 0.548340 0.548340
0.537598 0.537598 0.537598
0.550781 0.550781 0.550781
0.582031 0.582031 0.582031
0.625977 0.625977 0.625977
0.685059 0.685059 0.685059
0.755859 0.755859 0.755859
0.841797 0.841797 0.841797
0.627930 0.627930 0.627930
0.616699 0.616699 0.616699
0.607910 0.607910 0.607422
0.608887 0.608887 0.608887
0.621582 0.621582 0.621582
0.648926 0.648926 0.648926
0.695312 0.695312 0.695312
0.759766 0.759766 0.759766
0.842773 0.842773 0.842773
0.690430 0.690430 0.690430
0.677246 0.677246 0.677246
0.666016 0.666016 0.666016
0.661621 0.661621 0.661621
0.665527 0.665527 0.665527
0.681152 0.681152 0.681152
0.715332 0.715332 0.715332
0.769531 0.769531 0.769531
0.847168 0.847168 0.847168
0.759766 0.759766 0.759766
0.745605 0.745605 0.745605
0.732422 0.732422 0.732422
0.722656 0.722656 0.722656
0.718262 0.718262 0.718262
0.722656 0.722656 0.722656
0.742188 0.742188 0.742188
0.784180 0.784180 0.784180
0.853027 0.853027 0.853027
0.834961 0.834961 0.834961
0.819824 0.819824 0.819824
0.805176 0.805176 0.805176
0.792480 0.792480 0.792480
0.782227 0.782227 0.782227
0.777832 0.777832 0.777832
0.783691 0.783691 0.783691
0.809082 0.809082 0.809082
0.864258 0.864258 0.864258
0.923340 0.923340 0.923340
0.902344 0.902344 0.902344
0.884766 0.884766 0.884766
0.869141 0.869141 0.869141
0.855469 0.855469 0.855469
0.844238 0.844238 0.844238
0.840332 0.840332 0.840332
0.849609 0.849609 0.849609
0.885742 0.885742 0.885742
0.580078 0.580078 0.580078
0.580078 0.580078 0.580078
0.582031 0.582031 0.582031
0.597656 0.597656 0.597656
0.622070 0.622070 0.622070
0.655273 0.655273 0.655273
0.703125 0.703125 0.703125
0.765137 0.765137 0.765137
0.845703 0.845703 0.845703
0.580078 0.580078 0.580078
0.580078 0.580078 0.580078
0.582520 0.582520 0.582520
0.597656 0.597656 0.597656
0.622070 0.622070 0.622070
0.655273 0.655273 0.655273
0.703125 0.703125 0.703125
0.765137 0.765137 0.765137
0.845703 0.845703 0.845703
0.585449 0.585449 0.585449
0.583008 0.583008 0.583008
0.583496 0.583496 0.583496
0.598145 0.598145 0.598145
0.622070 0.622070 0.622070
0.655273 0.655273 0.655273
0.703125 0.703125 0.703125
0.765137 0.765137 0.765137
0.845703 0.845703 0.845703
0.617676 0.617676 0.617676
0.608887 0.608887 0.608887
0.603516 0.603516 0.603516
0.610352 0.610352 0.610352
0.628418 0.628418 0.628418
0.658203 0.658203 0.658203
0.704102 0.704102 0.704102
0.765625 0.765625 0.765625
0.846191 0.846191 0.846191
0.659668 0.659668 0.659668
0.651855 0.651855 0.651367
0.645020 0.645020 0.645020
0.645996 0.645996 0.645996
0.654785 0.654785 0.654785
0.674805 0.674805 0.674805
0.712402 0.712402 0.712402
0.769043 0.769043 0.769043
0.847168 0.847168 0.847168
0.708496 0.708496 0.708496
0.697754 0.697754 0.697754
0.688477 0.688477 0.688477
0.684570 0.684570 0.684570
0.687988 0.687988 0.687988
0.700684 0.700684 0.700684
0.729492 0.729492 0.729492
0.777832 0.777832 0.777832
0.850586 0.850586 0.850586
0.769043 0.769043 0.769043
0.755859 0.755859 0.755859
0.744629 0.744629 0.744629
0.735840 0.735840 0.735840
0.731934 0.731934 0.731934
0.735840 0.735840 0.735840
0.753418 0.753418 0.753418
0.791016 0.791016 0.791016
0.856445 0.856445 0.856445
0.839355 0.839355 0.839355
0.825195 0.825195 0.825195
0.811035 0.811035 0.811035
0.799316 0.799316 0.799316
0.789551 0.789551 0.789551
0.785645 0.785645 0.785645
0.791016 0.791016 0.791016
0.814941 0.814941 0.814941
0.867676 0.867676 0.867676
0.925293 0.925293 0.925293
0.904785 0.904785 0.904785
0.887695 0.887695 0.887695
0.872070 0.872070 0.872070
0.858887 0.858887 0.858887
0.848145 0.848145 0.848145
0.844238 0.844238 0.844238
0.853027 0.853027 0.853027
0.888672 0.888672 0.888672
0.654785 0.654785 0.654785
0.654785 0.654785 0.654785
0.656250 0.656250 0.656250
0.663574 0.663574 0.663574
0.676758 0.676758 0.676758
0.696777 0.696777 0.696777
0.730469 0.730469 0.730469
0.780762 0.780762 0.780762
0.853027 0.853027 0.853027
0.654785 0.654785 0.654785
0.654785 0.654785 0.654785
0.656250 0.656250 0.656250
0.663574 0.663574 0.663574
0.676758 0.676758 0.676758
0.697266 0.697266 0.697266
0.730469 0.730469 0.730469
0.780762 0.780762 0.780762
0.853027 0.853027 0.853027
0.657715 0.657715 0.657715
0.656250 0.656250 0.656250
0.656738 0.656738 0.656738
0.664062 0.664062 0.664062
0.676758 0.676758 0.676758
0.697266 0.697266 0.697266
0.730957 0.730957 0.730957
0.780762 0.780762 0.780762
0.853027 0.853027 0.853027
0.674316 0.674316 0.674316
0.669434 0.669434 0.669434
0.666504 0.666504 0.666504
0.670410 0.670410 0.670410
0.680664 0.680664 0.680664
0.698730 0.698730 0.698730
0.731445 0.731445 0.731445
0.780762 0.780762 0.780762
0.853027 0.853027 0.853027
0.699707 0.699707 0.699707
0.694824 0.694824 0.694824
0.690918 0.690918 0.690918
0.691406 0.691406 0.691406
0.696777 0.696777 0.696777
0.710449 0.710449 0.710449
0.737793 0.737793 0.737793
0.784180 0.784180 0.784180
0.854004 0.854004 0.854004
0.734863 0.734863 0.734863
0.726562 0.726562 0.726562
0.719727 0.719727 0.719727
0.717285 0.717285 0.717285
0.719727 0.719727 0.719727
0.729004 0.729004 0.729004
0.751465 0.751465 0.751465
0.791992 0.791992 0.791992
0.857422 0.857422 0.857422
0.783691 0.783691 0.783691
0.772949 0.772949 0.772949
0.763184 0.763184 0.763184
0.756348 0.756348 0.756348
0.753418 0.753418 0.753418
0.756348 0.756348 0.756348
0.770508 0.770508 0.770508
0.803223 0.803223 0.803223
0.862793 0.862793 0.862793
0.847168 0.847168 0.847168
0.833496 0.833496 0.833496
0.820801 0.820801 0.820801
0.810547 0.810547 0.810547
0.801758 0.801758 0.801758
0.798340 0.798340 0.798340
0.803223 0.803223 0.803223
0.824707 0.824707 0.824707
0.873047 0.873047 0.873047
0.928223 0.928223 0.928223
0.908691 0.908691 0.908691
0.892090 0.892090 0.892090
0.877441 0.877441 0.877441
0.865234 0.865234 0.865234
0.854980 0.854980 0.854980
0.851562 0.851562 0.851562
0.859863 0.859863 0.859863
0.893066 0.893066 0.893066
0.730469 0.730469 0.730469
0.730469 0.730469 0.730469
0.730957 0.730957 0.730957
0.734863 0.734863 0.734863
0.741211 0.741211 0.741211
0.752441 0.752441 0.751953
0.772949 0.772949 0.772949
0.808105 0.808105 0.808105
0.866699 0.866699 0.866699
0.730469 0.730469 0.730469
0.730469 0.730469 0.730469
0.730957 0.730957 0.730957
0.734863 0.734863 0.734863
0.741211 0.741211 0.741211
0.752441 0.752441 0.752441
0.772949 0.772949 0.772949
0.808105 0.808105 0.808105
0.866699 0.866699 0.866699
0.731934 0.731934 0.731934
0.731445 0.731445 0.731445
0.731445 0.731445 0.731445
0.734863 0.734863 0.734863
0.741211 0.741211 0.741211
0.752441 0.752441 0.752441
0.772949 0.772949 0.772949
0.808105 0.808105 0.808105
0.866699 0.866699 0.866699
0.739746 0.739746 0.739746
0.737793 0.737793 0.737793
0.736328 0.736328 0.736328
0.737793 0.737793 0.737793
0.743164 0.743164 0.743164
0.753418 0.753418 0.753418
0.772949 0.772949 0.772949
0.808105 0.808105 0.808105
0.867188 0.867188 0.867188
0.753906 0.753906 0.753906
0.750977 0.750977 0.750977
0.748535 0.748535 0.748535
0.749023 0.749023 0.749023
0.751953 0.751953 0.751953
0.759766 0.759766 0.759766
0.777344 0.777344 0.777344
0.810547 0.810547 0.810547
0.867676 0.867676 0.867676
0.775391 0.775391 0.775391
0.770020 0.770020 0.770020
0.765625 0.765625 0.765625
0.764160 0.764160 0.764160
0.765625 0.765625 0.765625
0.771484 0.771484 0.771484
0.786621 0.786621 0.786621
0.816406 0.816406 0.816406
0.871094 0.871094 0.871094
0.810547 0.810547 0.810547
0.802246 0.802246 0.802246
0.794922 0.794922 0.794922
0.790039 0.790039 0.790039
0.788086 0.788086 0.788086
0.790039 0.790039 0.790039
0.800293 0.800293 0.800293
0.825684 0.825684 0.825684
0.875488 0.875488 0.875488
0.861816 0.861816 0.861816
0.850586 0.850586 0.850586
0.839844 0.839844 0.839844
0.831055 0.831055 0.831055
0.824219 0.824219 0.824219
0.821289 0.821289 0.821289
0.825195 0.825195 0.825195
0.842773 0.842773 0.842773
0.884766 0.884766 0.884766
0.935059 0.935059 0.935059
0.916992 0.916992 0.916992
0.901855 0.901855 0.901855
0.888672 0.888672 0.888672
0.877441 0.877441 0.877441
0.869141 0.869141 0.869141
0.865723 0.865723 0.865723
0.873047 0.873047 0.873047
0.902344 0.902344 0.902344
0.809082 0.809082 0.809082
0.809082 0.809082 0.809082
0.809570 0.809570 0.809570
0.811035 0.811035 0.811035
0.813965 0.813965 0.813965
0.819336 0.819336 0.819336
0.830078 0.830078 0.830078
0.851562 0.851562 0.851562
0.893066 0.893066 0.893066
0.809082 0.809082 0.809082
0.809082 0.809082 0.809082
0.809570 0.809570 0.809570
0.811035 0.811035 0.811035
0.813965 0.813965 0.813965
0.819336 0.819336 0.819336
0.830078 0.830078 0.830078
0.851562 0.851562 0.851562
0.893066 0.893066 0.893066
0.809570 0.809570 0.809570
0.809570 0.809570 0.809570
0.809570 0.809570 0.809570
0.811035 0.811035 0.811035
0.813965 0.813965 0.813965
0.819336 0.819336 0.819336
0.830078 0.830078 0.830078
0.851562 0.851562 0.851562
0.893066 0.893066 0.893066
0.813477 0.813477 0.813477
0.812500 0.812500 0.812500
0.811523 0.811523 0.811523
0.812500 0.812500 0.812500
0.814941 0.814941 0.814941
0.819824 0.819824 0.819824
0.830566 0.830566 0.830566
0.851562 0.851562 0.851562
0.893066 0.893066 0.893066
0.820312 0.820312 0.820312
0.818848 0.818848 0.818848
0.817871 0.817871 0.817871
0.817871 0.817871 0.817871
0.819336 0.819336 0.819336
0.823242 0.823242 0.823242
0.833008 0.833008 0.833008
0.853027 0.853027 0.853027
0.893555 0.893555 0.893555
0.831543 0.831543 0.831543
0.828613 0.828613 0.828613
0.826660 0.826660 0.826660
0.825684 0.825684 0.825684
0.826172 0.826172 0.826172
0.829590 0.829590 0.829590
0.838379 0.838379 0.838379
0.856934 0.856934 0.856934
0.895996 0.895996 0.895996
0.853027 0.853027 0.853027
0.847656 0.847656 0.847656
0.843262 0.843262 0.843262
0.840332 0.840332 0.840332
0.838867 0.838867 0.838867
0.840332 0.840332 0.840332
0.846680 0.846680 0.846680
0.862793 0.862793 0.862793
0.899414 0.899414 0.899414
0.889160 0.889160 0.889160
0.880371 0.880371 0.880371
0.873047 0.873047 0.873047
0.866699 0.866699 0.866699
0.862305 0.862305 0.862305
0.860352 0.860352 0.860352
0.862793 0.862793 0.862793
0.875000 0.875000 0.875000
0.906738 0.906738 0.906738
0.948730 0.948730 0.948730
0.933105 0.933105 0.933105
0.920410 0.920410 0.920410
0.909668 0.909668 0.909668
0.901367 0.901367 0.901367
0.894531 0.894531 0.894531
0.892090 0.892090 0.892090
0.897461 0.897461 0.897461
0.921387 0.921387 0.921387
0.898926 0.898926 0.898926
0.898926 0.898926 0.898926
0.898926 0.898926 0.898926
0.899902 0.899902 0.899902
0.900879 0.900879 0.900879
0.903320 0.903320 0.903320
0.907715 0.907715 0.907715
0.917969 0.917969 0.917969
0.941406 0.941406 0.941406
0.898926 0.898926 0.898926
0.898926 0.898926 0.898926
0.898926 0.898926 0.898926
0.899902 0.899902 0.899902
0.900879 0.900879 0.900879
0.903320 0.903320 0.903320
0.907715 0.907715 0.907715
0.917969 0.917969 0.917969
0.941406 0.941406 0.941406
0.899414 0.899414 0.899414
0.899414 0.899414 0.898926
0.899414 0.899414 0.898926
0.899902 0.899902 0.899902
0.900879 0.900879 0.900879
0.903320 0.903320 0.903320
0.907715 0.907715 0.907715
0.917969 0.917969 0.917969
0.941406 0.941406 0.941406
0.900879 0.900879 0.900879
0.900391 0.900391 0.900391
0.899902 0.899902 0.899902
0.900391 0.900391 0.900391
0.901367 0.901367 0.901367
0.903320 0.903320 0.903320
0.908203 0.908203 0.908203
0.917969 0.917969 0.917969
0.941406 0.941406 0.941406
0.903809 0.903809 0.903809
0.902832 0.902832 0.902832
0.902344 0.902344 0.902344
0.902344 0.902344 0.902344
0.903320 0.903320 0.903320
0.904785 0.904785 0.904785
0.909180 0.909180 0.909180
0.918945 0.918945 0.918945
0.941406 0.941406 0.941406
0.908691 0.908691 0.908691
0.907227 0.907227 0.907227
0.906250 0.906250 0.906250
0.905762 0.905762 0.905762
0.906250 0.906250 0.906250
0.907715 0.907715 0.907715
0.911621 0.911621 0.911621
0.920898 0.920898 0.920898
0.942871 0.942871 0.942871
0.918945 0.918945 0.918945
0.916016 0.916016 0.916016
0.914062 0.914062 0.914062
0.912598 0.912598 0.912598
0.912109 0.912109 0.912109
0.912598 0.912598 0.912598
0.915527 0.915527 0.915527
0.924316 0.924316 0.924316
0.945312 0.945312 0.945312
0.938965 0.938965 0.938965
0.934082 0.934082 0.934082
0.929688 0.929688 0.929688
0.926270 0.926270 0.926270
0.923340 0.923340 0.923340
0.922363 0.922363 0.922363
0.923828 0.923828 0.923828
0.930664 0.930664 0.930664
0.949707 0.949707 0.949707
0.979004 0.979004 0.979004
0.967773 0.967773 0.967773
0.958984 0.958984 0.958984
0.951660 0.951660 0.951660
0.946289 0.946289 0.946289
0.941895 0.941895 0.941895
0.940430 0.940430 0.940430
0.943848 0.943848 0.943848
0.959473 0.959473 0.959473
