RED_IPP2_Creative/RED_BW_0100.cube
# RED Digital Cinema Output Transform LUT for IPP2
# Creatives by Eric Weidt
# BMD cube from Truelight v4.0
# Settings used in creation of this LUT are:
# Development Color Space = USER SELECTABLE
# Output Gamma Curve = USER SELECTABLE
# Output Tonemap = USER SELECTABLE
# Highlight Rolloff = USER SELECTABLE
LUT_3D_SIZE 5
0.050781 0.050781 0.050781
0.081360 0.081360 0.081360
0.386719 0.386719 0.386719
0.722168 0.722168 0.722168
0.925781 0.925781 0.925781
0.150146 0.150146 0.150146
0.190674 0.190674 0.190674
0.408936 0.408936 0.408936
0.723633 0.723633 0.723633
0.925781 0.925781 0.925781
0.506348 0.506348 0.506348
0.510254 0.510254 0.510254
0.553711 0.553711 0.553711
0.741211 0.741211 0.741211
0.926758 0.926758 0.926758
0.814941 0.814941 0.814941
0.814941 0.814941 0.814941
0.817383 0.817383 0.817383
0.844727 0.844727 0.844727
0.933594 0.933594 0.933594
0.961914 0.961914 0.961914
0.961914 0.961914 0.961914
0.961914 0.961914 0.961914
0.963379 0.963379 0.963379
0.976074 0.976074 0.976074
0.125610 0.125488 0.125488
0.171875 0.171875 0.171875
0.404541 0.404541 0.404541
0.723145 0.723145 0.723145
0.925781 0.925781 0.925781
0.218262 0.218262 0.218262
0.245483 0.245483 0.245483
0.424316 0.424316 0.423828
0.725098 0.725098 0.725098
0.925781 0.925781 0.925781
0.513672 0.513672 0.513672
0.517578 0.517578 0.517578
0.559082 0.558594 0.558594
0.742188 0.742188 0.742188
0.926758 0.926758 0.926758
0.815430 0.815430 0.815430
0.815430 0.815430 0.815430
0.817871 0.817871 0.817871
0.844727 0.844727 0.844727
0.933594 0.933594 0.933594
0.961914 0.961914 0.961914
0.961914 0.961914 0.961914
0.961914 0.961914 0.961914
0.963379 0.963379 0.963379
0.976074 0.976074 0.976074
0.473389 0.473389 0.473389
0.478760 0.478760 0.478760
0.532227 0.532227 0.532227
0.737793 0.737793 0.737793
0.926270 0.926270 0.926270
0.485352 0.485352 0.485352
0.490234 0.490234 0.490234
0.540039 0.540039 0.540039
0.738770 0.738770 0.738770
0.926270 0.926270 0.926270
0.583008 0.583008 0.583008
0.585449 0.585449 0.585449
0.610352 0.610352 0.610352
0.753418 0.753418 0.753418
0.927246 0.927246 0.927246
0.819824 0.819824 0.819824
0.820312 0.820312 0.820312
0.822266 0.822266 0.822266
0.848145 0.848145 0.848145
0.934082 0.934082 0.934082
0.962402 0.962402 0.962402
0.962402 0.962402 0.962402
0.962402 0.962402 0.962402
0.963379 0.963379 0.963379
0.976074 0.976074 0.976074
0.791016 0.791016 0.791016
0.791504 0.791504 0.791504
0.794922 0.794922 0.794922
0.832031 0.832031 0.832031
0.932129 0.932129 0.932129
0.791992 0.791992 0.791992
0.791992 0.791992 0.791992
0.796387 0.796387 0.796387
0.832520 0.832520 0.832520
0.932129 0.932129 0.932129
0.800781 0.800781 0.800781
0.800781 0.800781 0.800781
0.804199 0.804199 0.804199
0.836914 0.836914 0.836914
0.932617 0.932617 0.932617
0.861328 0.861328 0.861328
0.861328 0.861328 0.861328
0.862793 0.862793 0.862793
0.875488 0.875488 0.875488
0.938477 0.938477 0.938477
0.964355 0.964355 0.964355
0.964355 0.964355 0.964355
0.964355 0.964355 0.964355
0.965332 0.965332 0.965332
0.978027 0.978027 0.978027
0.952148 0.952148 0.952148
0.952148 0.952148 0.952148
0.952637 0.952637 0.952637
0.954102 0.954102 0.954102
0.969727 0.969727 0.969727
0.952148 0.952148 0.952148
0.952148 0.952148 0.952148
0.952637 0.952637 0.952637
0.954102 0.954102 0.954102
0.969727 0.969727 0.969727
0.952637 0.952637 0.952637
0.952637 0.952637 0.952637
0.952637 0.952637 0.952637
0.954590 0.954590 0.954590
0.969727 0.969727 0.969727
0.956055 0.956055 0.956055
0.956055 0.956055 0.956055
0.956055 0.956055 0.956055
0.957520 0.957520 0.957520
0.972168 0.972168 0.972168
0.986328 0.986328 0.986328
0.986328 0.986328 0.986328
0.986328 0.986328 0.986328
0.986816 0.986816 0.986816
0.999023 0.999023 0.999023
