RED_IPP2_Creative/RED_BASE.cube
# RED Digital Cinema Output Transform LUT for IPP2
# Creatives by Eric Weidt
# BMD cube from Truelight v4.0
# Settings used in creation of this LUT are:
# Development Color Space = USER SELECTABLE
# Output Gamma Curve = USER SELECTABLE
# Output Tonemap = USER SELECTABLE
# Highlight Rolloff = USER SELECTABLE
LUT_3D_SIZE 9
0.025925 0.005180 0.000000
0.126221 0.000000 0.000000
0.241821 0.000000 0.000000
0.371094 0.021133 0.025223
0.502930 0.023880 0.075500
0.627930 0.067627 0.158203
0.752930 0.151978 0.265625
0.877930 0.262939 0.385986
1.000000 0.379639 0.509766
0.000000 0.127075 0.000000
0.114929 0.125366 0.000000
0.239746 0.122253 0.000000
0.371826 0.130615 0.028900
0.502930 0.133423 0.077637
0.627930 0.150146 0.159180
0.752930 0.196045 0.267090
0.877930 0.278320 0.386475
1.000000 0.384277 0.509766
0.000000 0.246704 0.017120
0.114807 0.247070 0.018372
0.239258 0.247925 0.020493
0.374023 0.250977 0.039581
0.503418 0.253418 0.085938
0.627930 0.258789 0.162842
0.752930 0.275879 0.268555
0.877930 0.319336 0.386719
1.000000 0.402588 0.510254
0.057678 0.376221 0.067627
0.147217 0.376221 0.067627
0.259033 0.376221 0.070312
0.379883 0.376221 0.078735
0.503906 0.376953 0.112549
0.627930 0.378418 0.174805
0.752930 0.384033 0.274902
0.877930 0.400879 0.388672
1.000000 0.445557 0.510254
0.145996 0.501465 0.152344
0.191528 0.500977 0.153076
0.275879 0.500977 0.154053
0.385742 0.500977 0.158569
0.505371 0.500977 0.172363
0.628418 0.501465 0.211670
0.752930 0.502930 0.287354
0.877930 0.508301 0.392334
1.000000 0.525391 0.511719
0.257568 0.625488 0.259521
0.274170 0.625488 0.260498
0.319092 0.625488 0.260010
0.401367 0.625488 0.261719
0.509766 0.625488 0.267334
0.630859 0.625488 0.284912
0.753418 0.625977 0.328369
0.877930 0.627441 0.409424
1.000000 0.633301 0.515625
0.380371 0.750488 0.382324
0.386719 0.750488 0.381836
0.402588 0.750488 0.381104
0.446777 0.750488 0.381104
0.527344 0.750977 0.383301
0.635742 0.750488 0.387695
0.754883 0.750488 0.405273
0.878418 0.750977 0.449463
1.000000 0.752441 0.532227
0.499756 0.875488 0.504395
0.502930 0.875488 0.502930
0.507324 0.875488 0.503906
0.525391 0.875488 0.505371
0.569336 0.875488 0.505371
0.650879 0.875488 0.506348
0.760254 0.875488 0.512695
0.880859 0.875488 0.530273
1.000000 0.875977 0.573730
0.624512 0.999512 0.627441
0.626953 0.999512 0.628418
0.626953 0.999512 0.628418
0.632812 0.999512 0.628418
0.649414 0.999512 0.627930
0.695801 0.999512 0.628418
0.776367 0.999512 0.629883
0.884766 0.999512 0.635742
1.000000 1.000000 0.654297
0.028046 0.000000 0.132324
0.126831 0.000000 0.130371
0.242310 0.000000 0.123413
0.371094 0.023666 0.130493
0.502930 0.021225 0.148071
0.627930 0.069092 0.196655
0.752930 0.151733 0.279541
0.877930 0.265381 0.391357
1.000000 0.378906 0.510254
0.000000 0.125122 0.127441
0.116028 0.123352 0.125122
0.240356 0.122009 0.121948
0.371582 0.131104 0.131348
0.502930 0.132690 0.149414
0.627930 0.150513 0.197266
0.752930 0.195190 0.281006
0.877930 0.278076 0.389648
1.000000 0.383545 0.510254
0.000020 0.247314 0.129272
0.116699 0.247559 0.129517
0.239624 0.248047 0.130127
0.373535 0.250732 0.135254
0.502930 0.253174 0.153320
0.627930 0.258789 0.199341
0.752930 0.275635 0.281250
0.877930 0.319824 0.391602
1.000000 0.404297 0.512207
0.053833 0.376221 0.144531
0.145752 0.376221 0.145020
0.258789 0.376221 0.145996
0.379639 0.376221 0.150146
0.503418 0.377197 0.168579
0.628418 0.378418 0.208740
0.752930 0.384033 0.285889
0.877930 0.400635 0.392578
1.000000 0.444092 0.510742
0.144531 0.501465 0.192749
0.190430 0.500977 0.192017
0.276123 0.500977 0.193481
0.385742 0.500977 0.196777
0.505371 0.500977 0.205688
0.628418 0.501465 0.235474
0.752930 0.502930 0.299072
0.877930 0.507812 0.396729
1.000000 0.525391 0.511719
0.262695 0.625488 0.274658
0.278320 0.625488 0.274902
0.320312 0.625488 0.275635
0.401855 0.625488 0.276367
0.511230 0.625488 0.281738
0.629883 0.625488 0.296875
0.753906 0.625977 0.336182
0.877930 0.627441 0.412598
1.000000 0.633301 0.517090
0.380859 0.750488 0.384766
0.385742 0.750488 0.385010
0.402100 0.750488 0.386230
0.444580 0.750977 0.387939
0.527344 0.750488 0.387207
0.635254 0.750488 0.391846
0.754883 0.750488 0.408936
0.878418 0.750977 0.452637
1.000000 0.752441 0.532227
0.501465 0.875488 0.505371
0.503418 0.875488 0.505859
0.507324 0.875488 0.503906
0.525391 0.875488 0.505371
0.569824 0.875488 0.506836
0.651855 0.875488 0.506348
0.759277 0.875488 0.513672
0.880859 0.876465 0.532227
1.000000 0.875977 0.573730
0.624512 0.999512 0.627441
0.624512 0.999512 0.627441
0.626953 0.999512 0.628418
0.632812 0.999512 0.628418
0.649414 0.999512 0.627930
0.694824 0.999512 0.628906
0.776367 0.999512 0.631348
0.884766 0.999512 0.635742
1.000000 1.000000 0.654297
0.042206 0.024673 0.248657
0.132690 0.026321 0.248779
0.245483 0.032837 0.249268
0.370605 0.033020 0.249146
0.502930 0.011612 0.251465
0.627441 0.059692 0.270264
0.752930 0.147827 0.319092
0.877930 0.264404 0.405762
1.000000 0.375000 0.514160
0.041046 0.130615 0.248901
0.131958 0.131226 0.249023
0.244995 0.133423 0.249878
0.371338 0.133789 0.249268
0.502930 0.129883 0.251709
0.627441 0.146973 0.270996
0.752930 0.194214 0.319824
0.877930 0.279297 0.405518
1.000000 0.382080 0.515137
0.028763 0.249390 0.250977
0.126221 0.249268 0.250732
0.241943 0.249634 0.251221
0.372803 0.251221 0.250000
0.502930 0.252197 0.253174
0.627930 0.257812 0.272461
0.752930 0.274658 0.319092
0.877930 0.320068 0.405518
1.000000 0.401367 0.515137
0.044556 0.375732 0.250732
0.140747 0.375977 0.250977
0.256592 0.375977 0.251221
0.378906 0.375977 0.252686
0.503418 0.376465 0.258545
0.627930 0.378174 0.276855
0.752930 0.383545 0.322510
0.877930 0.400146 0.405762
1.000000 0.444580 0.516113
0.143921 0.500488 0.269043
0.188843 0.500488 0.269287
0.274658 0.500488 0.269287
0.385742 0.500977 0.271240
0.505371 0.500977 0.275635
0.628418 0.501465 0.291016
0.752930 0.502930 0.332764
0.877930 0.508789 0.411133
1.000000 0.524902 0.517578
0.260010 0.625488 0.315430
0.274658 0.625488 0.315674
0.321045 0.625488 0.315918
0.401855 0.625488 0.316895
0.510742 0.625488 0.319824
0.629883 0.625488 0.329590
0.753418 0.625977 0.359863
0.877930 0.627441 0.425293
1.000000 0.632812 0.520996
0.379639 0.750488 0.399170
0.384521 0.750488 0.399170
0.401123 0.750488 0.400391
0.445312 0.750488 0.400635
0.527832 0.750488 0.401367
0.635254 0.750488 0.407959
0.754883 0.750488 0.420898
0.878418 0.750977 0.461182
1.000000 0.752930 0.537598
0.500488 0.875488 0.510254
0.502441 0.875488 0.509277
0.508301 0.875488 0.509766
0.524414 0.875488 0.509277
0.568848 0.875488 0.510742
0.652344 0.875488 0.512207
0.759766 0.875488 0.517090
0.879883 0.875488 0.534180
1.000000 0.875977 0.576660
0.625000 0.999512 0.629395
0.625000 0.999512 0.629395
0.626953 0.999512 0.630371
0.631348 0.999512 0.629395
0.647949 0.999512 0.629395
0.693848 0.999512 0.629883
0.776367 0.999512 0.631348
0.885742 0.999512 0.637695
1.000000 1.000000 0.655762
0.000000 0.000000 0.367188
0.095032 0.000000 0.367188
0.245728 0.000000 0.367188
0.376465 0.000000 0.367676
0.502441 0.000000 0.369629
0.627441 0.036682 0.375488
0.752930 0.138672 0.395020
0.877930 0.260742 0.444092
1.000000 0.378662 0.529785
0.000000 0.109985 0.367188
0.097046 0.110657 0.367188
0.246094 0.111084 0.367676
0.376465 0.112610 0.367920
0.502441 0.118774 0.369629
0.627441 0.137939 0.375732
0.752930 0.187500 0.395020
0.877930 0.276611 0.444336
1.000000 0.384033 0.528809
0.000000 0.247437 0.367676
0.104248 0.247437 0.367676
0.247681 0.247559 0.367920
0.376709 0.248291 0.368408
0.502441 0.249512 0.370117
0.627441 0.255127 0.376221
0.752441 0.272217 0.395508
0.877930 0.319580 0.444092
1.000000 0.399658 0.529297
0.002771 0.375244 0.370361
0.129028 0.375000 0.370361
0.252441 0.375000 0.370605
0.376465 0.375244 0.371338
0.502930 0.375732 0.371582
0.627930 0.377441 0.377686
0.752930 0.382812 0.396484
0.877930 0.400391 0.445312
1.000000 0.444580 0.530273
0.124878 0.500488 0.375000
0.179932 0.500488 0.375000
0.269287 0.500488 0.375244
0.384033 0.500488 0.375732
0.504395 0.500488 0.377197
0.627930 0.500977 0.382812
0.752930 0.502441 0.401367
0.877930 0.507812 0.447021
1.000000 0.525391 0.530762
0.252441 0.625488 0.393799
0.269775 0.625488 0.394043
0.317139 0.625488 0.393555
0.400635 0.625488 0.394531
0.509277 0.625488 0.395020
0.629883 0.625488 0.400391
0.753418 0.625977 0.415527
0.877930 0.627441 0.457031
1.000000 0.632812 0.533691
0.375732 0.750488 0.440186
0.382568 0.750488 0.440186
0.398682 0.750488 0.440430
0.446289 0.750488 0.439941
0.527344 0.750488 0.441650
0.635254 0.750488 0.444092
0.755371 0.750488 0.454590
0.878418 0.750977 0.483643
1.000000 0.752441 0.547852
0.499512 0.875488 0.525879
0.499512 0.875488 0.525879
0.506836 0.875488 0.525391
0.524902 0.875488 0.525391
0.569336 0.875488 0.525391
0.650879 0.875488 0.525879
0.759766 0.875488 0.531250
0.879883 0.875488 0.545898
1.000000 0.875977 0.584961
0.625488 0.999512 0.633789
0.627930 0.999512 0.634766
0.627930 0.999512 0.634766
0.631836 0.999512 0.634766
0.646973 0.999512 0.635254
0.693359 0.999512 0.635742
0.775879 0.999512 0.637207
0.885742 0.999512 0.641602
1.000000 1.000000 0.659180
0.000000 0.000000 0.491943
0.000000 0.000000 0.491943
0.222168 0.000000 0.491943
0.370605 0.000000 0.491943
0.500977 0.000000 0.492676
0.626953 0.000000 0.494385
0.752441 0.093628 0.500000
0.877930 0.248047 0.519043
1.000000 0.373535 0.567871
0.000000 0.049835 0.491943
0.000000 0.047180 0.491943
0.223022 0.049561 0.491943
0.370850 0.050659 0.491943
0.500977 0.061615 0.492432
0.626953 0.097839 0.494385
0.752441 0.162598 0.500000
0.877930 0.262207 0.519531
1.000000 0.382080 0.568359
0.000000 0.235352 0.491943
0.000000 0.235840 0.492188
0.224243 0.235718 0.492188
0.371338 0.236328 0.492188
0.500977 0.237793 0.492676
0.627441 0.244141 0.494385
0.752441 0.263428 0.500000
0.877930 0.312256 0.520020
1.000000 0.397949 0.568359
0.000000 0.372070 0.492432
0.000000 0.372070 0.492432
0.231079 0.372070 0.492432
0.372803 0.372314 0.492676
0.501465 0.372803 0.493164
0.627441 0.374268 0.494873
0.752441 0.379883 0.500488
0.877930 0.397949 0.520020
1.000000 0.442139 0.568359
0.001798 0.499756 0.494141
0.120422 0.499756 0.494141
0.253174 0.499756 0.494141
0.378662 0.499756 0.494385
0.502930 0.499756 0.494873
0.628418 0.500488 0.496582
0.752930 0.501953 0.501953
0.877930 0.506836 0.520508
1.000000 0.524414 0.569336
0.233154 0.625000 0.499512
0.254639 0.625000 0.499512
0.306641 0.625000 0.499512
0.397217 0.625000 0.499756
0.508301 0.625488 0.500000
0.629395 0.625488 0.501465
0.753418 0.625977 0.507324
0.877930 0.627441 0.525879
1.000000 0.632324 0.571777
0.372803 0.750488 0.517578
0.376709 0.750488 0.518066
0.395508 0.750488 0.517578
0.440674 0.750488 0.518555
0.524902 0.750488 0.518555
0.634766 0.750488 0.520020
0.754883 0.750488 0.524902
0.878418 0.750977 0.540039
1.000000 0.752441 0.580566
0.500488 0.875488 0.564941
0.500488 0.875488 0.564941
0.506348 0.875488 0.564941
0.523438 0.875488 0.564941
0.569336 0.875488 0.565918
0.650879 0.875488 0.565918
0.759766 0.875488 0.568359
0.879883 0.875488 0.580566
1.000000 0.875977 0.608887
0.624023 0.999512 0.649902
0.624023 0.999512 0.649902
0.625977 0.999512 0.649414
0.632324 0.999512 0.649414
0.647461 0.999512 0.649414
0.694824 0.999512 0.650879
0.776855 0.999512 0.651367
0.884766 1.000000 0.656738
1.000000 1.000000 0.671875
0.000000 0.000000 0.615723
0.000000 0.000000 0.615723
0.000000 0.000000 0.615723
0.348389 0.000000 0.616211
0.495850 0.000000 0.616211
0.625488 0.000000 0.616699
0.751953 0.000000 0.618164
0.877441 0.189087 0.624512
1.000000 0.364746 0.644531
0.000000 0.000000 0.615723
0.000000 0.000000 0.616211
0.000000 0.000000 0.615723
0.347412 0.000000 0.616211
0.495850 0.000000 0.616211
0.625488 0.000000 0.616699
0.751953 0.000000 0.618164
0.877441 0.223999 0.624512
1.000000 0.368164 0.644043
0.000000 0.173950 0.616211
0.000000 0.174683 0.616211
0.000000 0.174072 0.616211
0.347656 0.174438 0.616211
0.496094 0.178101 0.616211
0.625488 0.190552 0.616699
0.751953 0.220581 0.618652
0.877441 0.289307 0.624512
1.000000 0.388428 0.644531
0.000000 0.360107 0.616211
0.000000 0.360107 0.616211
0.016739 0.360107 0.616211
0.350342 0.360596 0.616211
0.496338 0.360840 0.616211
0.625977 0.362793 0.616699
0.752441 0.369141 0.618652
0.877441 0.388672 0.624512
1.000000 0.437012 0.644531
0.000000 0.497070 0.616699
0.000000 0.497314 0.616699
0.127075 0.497314 0.616699
0.356934 0.497314 0.616699
0.498047 0.497314 0.616699
0.625977 0.497803 0.617188
0.752441 0.499268 0.619141
0.877441 0.504395 0.625000
1.000000 0.521973 0.645020
0.000000 0.624512 0.618164
0.121704 0.624512 0.618164
0.253662 0.624512 0.618164
0.378174 0.624512 0.618164
0.503418 0.624512 0.618164
0.627930 0.624512 0.619141
0.752930 0.625000 0.620605
0.877930 0.626465 0.626465
1.000000 0.632324 0.646973
0.348145 0.750488 0.624023
0.354980 0.750488 0.624023
0.376953 0.750000 0.624023
0.433105 0.750000 0.624023
0.520996 0.750000 0.624023
0.633301 0.750488 0.624512
0.754883 0.750488 0.626465
0.877930 0.750977 0.631836
1.000000 0.752441 0.650391
0.493896 0.875488 0.642578
0.493896 0.875488 0.642578
0.501953 0.875488 0.643066
0.520508 0.875488 0.642090
0.565918 0.875488 0.643066
0.649902 0.875488 0.643555
0.759766 0.875488 0.645020
0.879883 0.875488 0.650391
1.000000 0.875977 0.665527
0.620117 0.999512 0.689941
0.620117 0.999512 0.689941
0.620117 0.999512 0.689941
0.625000 0.999512 0.689941
0.647949 0.999512 0.689941
0.693848 0.999512 0.689941
0.776855 0.999512 0.691406
0.885742 0.999512 0.694824
1.000000 1.000000 0.705078
0.000000 0.000000 0.740723
0.000000 0.000000 0.741211
0.000000 0.000000 0.740723
0.000000 0.000000 0.740723
0.472168 0.000000 0.741211
0.620117 0.000000 0.741211
0.750488 0.000000 0.741699
0.877441 0.000000 0.743652
1.000000 0.316162 0.749512
0.000000 0.000000 0.740723
0.000000 0.000000 0.740723
0.000000 0.000000 0.740723
0.000000 0.000000 0.741211
0.472900 0.000000 0.741211
0.620117 0.000000 0.741211
0.750488 0.000000 0.741699
0.876953 0.000000 0.743652
1.000000 0.324951 0.750000
0.000000 0.000000 0.740723
0.000000 0.000000 0.740723
0.000000 0.000000 0.741211
0.000000 0.000000 0.740723
0.471924 0.000000 0.741211
0.620117 0.000000 0.741211
0.750488 0.000000 0.741699
0.876953 0.000000 0.743652
1.000000 0.355957 0.749512
0.000000 0.297363 0.741211
0.000000 0.298828 0.741211
0.000000 0.300049 0.741211
0.061096 0.300293 0.741211
0.473633 0.299805 0.741211
0.620117 0.302734 0.741211
0.750977 0.316162 0.741699
0.876953 0.346680 0.743652
1.000000 0.417480 0.749512
0.000000 0.486084 0.741211
0.000000 0.485596 0.741211
0.000000 0.485840 0.741211
0.121948 0.485596 0.741211
0.475098 0.485596 0.741211
0.620605 0.486328 0.741211
0.750977 0.487793 0.741699
0.877441 0.494141 0.743652
1.000000 0.514160 0.749512
0.000000 0.621582 0.741699
0.000000 0.621094 0.741699
0.000000 0.621094 0.741699
0.251709 0.621582 0.741699
0.481934 0.621582 0.741699
0.622070 0.621582 0.741699
0.751465 0.622070 0.742188
0.877441 0.623535 0.744141
1.000000 0.629395 0.750000
0.000000 0.749512 0.743164
0.058044 0.749512 0.743164
0.236816 0.749512 0.743164
0.373779 0.749512 0.743164
0.502441 0.749512 0.743164
0.627930 0.749512 0.743652
0.752930 0.749512 0.744141
0.877930 0.750000 0.745605
1.000000 0.751465 0.751465
0.471436 0.875488 0.749023
0.474121 0.875488 0.749023
0.479004 0.875488 0.749023
0.499268 0.875000 0.749023
0.555176 0.875000 0.749023
0.645996 0.875488 0.749023
0.757812 0.875488 0.749512
0.879395 0.875488 0.751465
1.000000 0.875977 0.757324
0.615723 0.999512 0.768555
0.615723 0.999512 0.768555
0.619629 0.999512 0.767578
0.622559 0.999512 0.768066
0.641113 0.999512 0.768066
0.689453 0.999512 0.768066
0.775391 0.999512 0.768555
0.885254 0.999512 0.770508
1.000000 0.999512 0.774902
0.000000 0.000000 0.865723
0.000000 0.000000 0.865723
0.000000 0.000000 0.866211
0.000000 0.000000 0.865723
0.161865 0.000000 0.865723
0.597168 0.000000 0.866211
0.745117 0.000000 0.866211
0.875488 0.000000 0.866699
1.000000 0.000000 0.868164
0.000000 0.000000 0.866211
0.000000 0.000000 0.865723
0.000000 0.000000 0.865723
0.000000 0.000000 0.865723
0.156616 0.000000 0.865723
0.596680 0.000000 0.866211
0.745117 0.000000 0.866211
0.875488 0.000000 0.866699
1.000000 0.000000 0.868164
0.000000 0.000000 0.865723
0.000000 0.000000 0.865723
0.000000 0.000000 0.865723
0.000000 0.000000 0.866211
0.189697 0.000000 0.866211
0.596680 0.000000 0.865723
0.745117 0.000000 0.866211
0.875488 0.000000 0.866699
1.000000 0.000000 0.868652
0.000000 0.000000 0.866211
0.000000 0.000000 0.866211
0.000000 0.000000 0.866211
0.000000 0.000000 0.866211
0.031250 0.000000 0.866211
0.597168 0.000000 0.865723
0.745117 0.000000 0.866211
0.875488 0.000000 0.866699
1.000000 0.102295 0.868164
0.000000 0.422852 0.866211
0.000000 0.422363 0.866211
0.000000 0.424072 0.866211
0.000000 0.423828 0.866211
0.166504 0.423584 0.866211
0.597656 0.424805 0.865723
0.745117 0.427490 0.866211
0.875977 0.441406 0.867188
1.000000 0.471436 0.868652
0.000000 0.609375 0.866211
0.000000 0.609863 0.866211
0.000000 0.609375 0.866211
0.000000 0.609863 0.866211
0.252686 0.609375 0.866211
0.600098 0.609863 0.866211
0.745605 0.610840 0.866211
0.875977 0.612793 0.866699
1.000000 0.618652 0.868652
0.000000 0.746582 0.866699
0.000000 0.746582 0.866699
0.000000 0.746094 0.866699
0.000000 0.746582 0.866699
0.379639 0.746094 0.866699
0.605957 0.746582 0.866699
0.747070 0.746582 0.866699
0.876465 0.747070 0.867188
1.000000 0.748535 0.869141
0.000000 0.874512 0.868164
0.000000 0.874512 0.868164
0.000000 0.874512 0.868164
0.369873 0.874512 0.868164
0.500488 0.874512 0.868164
0.626953 0.874512 0.868164
0.752441 0.874512 0.868652
0.877441 0.874512 0.869141
1.000000 0.875000 0.870605
0.591309 0.999512 0.874023
0.591309 0.999512 0.874023
0.594727 0.999512 0.874023
0.600098 0.999512 0.874023
0.624512 0.999512 0.874023
0.679688 0.999512 0.874023
0.770508 0.999512 0.874023
0.883789 0.999512 0.874512
1.000000 0.999512 0.876465
0.000000 0.000000 0.991211
0.000000 0.000000 0.991211
0.000000 0.000000 0.991211
0.000000 0.000000 0.991211
0.000000 0.000000 0.991211
0.036041 0.000000 0.990723
0.723145 0.000000 0.991211
0.870117 0.000000 0.991211
0.999512 0.000000 0.991699
0.000000 0.000000 0.991699
0.000000 0.000000 0.991699
0.000000 0.000000 0.991211
0.000000 0.000000 0.991211
0.000000 0.000000 0.991211
0.215942 0.000000 0.990723
0.723145 0.000000 0.991211
0.870117 0.000000 0.991211
0.999512 0.000000 0.991699
0.000000 0.000000 0.991211
0.000000 0.000000 0.991211
0.000000 0.000000 0.991211
0.000000 0.000000 0.990723
0.000000 0.000000 0.991211
0.163818 0.000000 0.991699
0.722168 0.000000 0.991211
0.870117 0.000000 0.991211
0.999512 0.000000 0.991699
0.000000 0.000000 0.991211
0.000000 0.000000 0.991211
0.000000 0.000000 0.991211
0.000000 0.000000 0.991211
0.000000 0.000000 0.990723
0.252441 0.000000 0.991211
0.723145 0.000000 0.991211
0.870117 0.000000 0.991211
0.999512 0.000000 0.991699
0.000000 0.000000 0.991211
0.000000 0.000000 0.991211
0.000000 0.000000 0.991211
0.000000 0.000000 0.991211
0.000000 0.000000 0.990723
0.266846 0.000000 0.991211
0.722656 0.000000 0.991211
0.870117 0.000000 0.991211
0.999512 0.000000 0.991699
0.000000 0.549805 0.991211
0.000000 0.549805 0.991211
0.000000 0.549316 0.991699
0.000000 0.548340 0.991211
0.000000 0.550293 0.991699
0.305176 0.550293 0.991211
0.722168 0.549316 0.991211
0.870117 0.554199 0.991211
0.999512 0.565918 0.992188
0.000000 0.734863 0.991211
0.000000 0.734863 0.991211
0.000000 0.734863 0.991211
0.000000 0.734863 0.991211
0.000000 0.735840 0.991699
0.385254 0.734375 0.991211
0.726074 0.736328 0.991211
0.870605 0.734863 0.991211
1.000000 0.737793 0.991699
0.000000 0.871582 0.991699
0.000000 0.871582 0.991699
0.000000 0.871094 0.991699
0.000000 0.871094 0.991699
0.000000 0.871094 0.991699
0.506348 0.871582 0.991699
0.731445 0.871582 0.991699
0.872070 0.871582 0.991699
1.000000 0.872070 0.992188
0.000000 0.999023 0.993164
0.000000 0.999023 0.993164
0.000000 0.999023 0.993164
0.333008 0.999023 0.993164
0.501953 0.999023 0.993164
0.628906 0.999023 0.993164
0.752930 0.999023 0.993164
0.878418 0.999023 0.993164
1.000000 0.999023 0.993652
