RED_IPP2_Creative/RED_MAUVE.cube
# RED Digital Cinema Output Transform LUT for IPP2
# Creatives by Eric Weidt
# BMD cube from Truelight v4.0
# Settings used in creation of this LUT are:
# Development Color Space = USER SELECTABLE
# Output Gamma Curve = USER SELECTABLE
# Output Tonemap = USER SELECTABLE
# Highlight Rolloff = USER SELECTABLE
LUT_3D_SIZE 33
0.029587 0.024429 0.024719
0.048737 0.024628 0.024597
0.060272 0.024887 0.024841
0.069946 0.025360 0.025269
0.078979 0.025757 0.025635
0.085205 0.026093 0.025925
0.097656 0.026779 0.026672
0.110168 0.029541 0.029190
0.124756 0.042999 0.042969
0.143799 0.059540 0.060028
0.169678 0.081787 0.082031
0.203491 0.110840 0.108459
0.242920 0.142090 0.135742
0.279297 0.170654 0.160767
0.310059 0.195801 0.183105
0.336914 0.217407 0.201050
0.359863 0.236694 0.217285
0.380615 0.254395 0.232300
0.400635 0.272461 0.248169
0.420654 0.291748 0.264648
0.443604 0.313965 0.285156
0.469238 0.337891 0.307129
0.496338 0.362061 0.329102
0.525391 0.385498 0.349609
0.554199 0.407715 0.369385
0.583496 0.430420 0.388916
0.610840 0.454102 0.409424
0.639160 0.477295 0.430664
0.666992 0.501953 0.453125
0.693359 0.526367 0.476318
0.721680 0.553223 0.501953
0.750488 0.583008 0.530762
0.780762 0.613770 0.562500
0.026535 0.031769 0.024857
0.028946 0.025757 0.024734
0.045563 0.024567 0.024567
0.057739 0.024750 0.024673
0.074890 0.025574 0.025421
0.091614 0.029922 0.026367
0.107849 0.037781 0.027771
0.124146 0.048462 0.040466
0.142944 0.061981 0.056244
0.166626 0.080872 0.076355
0.194336 0.106506 0.100281
0.229004 0.135498 0.126221
0.262207 0.163208 0.151001
0.292725 0.187866 0.172974
0.320068 0.209351 0.191406
0.343994 0.228149 0.207886
0.365234 0.245483 0.222656
0.385254 0.261475 0.236206
0.403809 0.278809 0.250977
0.424072 0.297607 0.268799
0.447754 0.320557 0.289551
0.472168 0.343750 0.311035
0.499268 0.367188 0.332764
0.527344 0.389404 0.352783
0.555664 0.411621 0.372314
0.584473 0.434082 0.391846
0.611816 0.457031 0.411865
0.640137 0.479736 0.432617
0.666504 0.503906 0.454346
0.693359 0.528320 0.477295
0.722168 0.555176 0.503418
0.750977 0.583984 0.531738
0.781738 0.615723 0.563965
0.025726 0.040741 0.024963
0.025467 0.042755 0.024979
0.041504 0.041168 0.024521
0.062164 0.043640 0.024811
0.082275 0.047638 0.026382
0.101746 0.053406 0.028351
0.121948 0.061462 0.040253
0.144409 0.072205 0.055573
0.167847 0.088318 0.074524
0.193970 0.110291 0.096741
0.223999 0.135376 0.120300
0.252686 0.160156 0.143311
0.280518 0.183716 0.164917
0.305420 0.204712 0.183838
0.329102 0.223022 0.200317
0.350586 0.239502 0.214722
0.370850 0.254639 0.227783
0.389648 0.270020 0.241089
0.408691 0.286377 0.256104
0.429443 0.305664 0.273926
0.452148 0.327637 0.294434
0.475830 0.350098 0.315918
0.501465 0.372314 0.336670
0.528809 0.394043 0.356201
0.557129 0.415771 0.375488
0.585449 0.437988 0.394531
0.613281 0.460205 0.414307
0.640137 0.482666 0.434326
0.666504 0.505859 0.456055
0.694824 0.530273 0.479248
0.723145 0.557129 0.505371
0.752441 0.585938 0.533691
0.782227 0.617188 0.564941
0.026947 0.071106 0.027390
0.036957 0.072632 0.027557
0.053894 0.072510 0.027771
0.071777 0.071777 0.030960
0.093750 0.076843 0.037262
0.116760 0.083984 0.046295
0.143921 0.093140 0.059662
0.170654 0.106323 0.077332
0.198486 0.124023 0.097534
0.224976 0.144165 0.117798
0.250244 0.165039 0.138428
0.274414 0.185181 0.158569
0.295654 0.204590 0.177612
0.317871 0.221680 0.194214
0.338135 0.236938 0.208740
0.357910 0.250977 0.221558
0.376221 0.264648 0.233398
0.395020 0.279541 0.246460
0.414062 0.295166 0.261230
0.434326 0.313965 0.279053
0.457031 0.334961 0.299561
0.479736 0.356689 0.320312
0.503906 0.378174 0.340332
0.530762 0.399658 0.360352
0.557617 0.420166 0.378906
0.585938 0.441406 0.397705
0.613770 0.463623 0.417236
0.641113 0.485596 0.437012
0.667480 0.508301 0.458740
0.695312 0.532715 0.481201
0.723145 0.558594 0.506348
0.753418 0.588379 0.535645
0.782715 0.618652 0.566406
0.046844 0.102966 0.047729
0.059998 0.105713 0.050537
0.075500 0.109436 0.054565
0.093384 0.113464 0.059998
0.114319 0.117615 0.066467
0.141113 0.126099 0.075989
0.170776 0.137207 0.089600
0.199707 0.150024 0.103577
0.226074 0.163696 0.120605
0.250000 0.178345 0.136841
0.271240 0.193726 0.155273
0.291504 0.208984 0.172607
0.310303 0.224487 0.188965
0.327881 0.238281 0.203857
0.346680 0.250977 0.216553
0.364502 0.263672 0.228027
0.382568 0.276123 0.239990
0.401367 0.289551 0.252930
0.419922 0.304932 0.267578
0.440918 0.322754 0.285645
0.461914 0.343262 0.305176
0.483643 0.363770 0.325195
0.507812 0.385010 0.345703
0.532715 0.405029 0.364258
0.559570 0.425537 0.383057
0.586914 0.446045 0.401123
0.614258 0.467285 0.420166
0.641602 0.489014 0.439941
0.668457 0.511719 0.461182
0.696289 0.535645 0.484131
0.724609 0.562500 0.509277
0.754395 0.590820 0.537598
0.784180 0.621094 0.568359
0.082275 0.146606 0.086792
0.094421 0.152100 0.090149
0.109619 0.158936 0.094727
0.128296 0.166016 0.100220
0.148560 0.170410 0.105591
0.171265 0.174316 0.112122
0.197876 0.182251 0.120605
0.223389 0.191162 0.130371
0.246948 0.200439 0.142822
0.268555 0.210571 0.155762
0.288330 0.220581 0.170532
0.306152 0.232422 0.185669
0.322021 0.243042 0.199097
0.338135 0.254639 0.213379
0.354736 0.265625 0.224609
0.372559 0.276611 0.235962
0.388916 0.288086 0.246948
0.406982 0.301025 0.259277
0.426758 0.315918 0.274414
0.447021 0.333496 0.291992
0.467529 0.351807 0.311279
0.489014 0.371826 0.331299
0.511230 0.391602 0.350342
0.535156 0.411377 0.368896
0.561035 0.430908 0.387207
0.588379 0.450928 0.405029
0.615723 0.471680 0.423584
0.642090 0.492920 0.443359
0.669434 0.515137 0.463867
0.697266 0.539551 0.486572
0.725586 0.564941 0.511230
0.756348 0.593262 0.539551
0.784668 0.623535 0.569824
0.126343 0.199219 0.129883
0.137085 0.203613 0.131836
0.150391 0.208862 0.135132
0.165771 0.213745 0.137939
0.182617 0.216675 0.141235
0.201660 0.218384 0.145508
0.221313 0.219849 0.150391
0.242920 0.225952 0.156738
0.263428 0.231934 0.164185
0.282959 0.238525 0.174316
0.300293 0.245483 0.185547
0.317139 0.253662 0.197998
0.331543 0.262695 0.210571
0.347412 0.270996 0.221558
0.362793 0.281006 0.233398
0.378906 0.290527 0.243896
0.395752 0.301270 0.254639
0.414795 0.313721 0.267334
0.433838 0.328369 0.282227
0.454590 0.345215 0.299805
0.473877 0.362061 0.318115
0.493896 0.380371 0.336670
0.515137 0.398926 0.355469
0.538574 0.418457 0.374512
0.563477 0.437256 0.391846
0.589355 0.456543 0.409424
0.616699 0.476318 0.427734
0.642578 0.496826 0.446289
0.669922 0.518555 0.467041
0.697754 0.542480 0.489014
0.726562 0.568359 0.514160
0.756836 0.596191 0.542480
0.785645 0.625977 0.572266
0.166016 0.242432 0.167725
0.175293 0.245605 0.168823
0.186157 0.248779 0.170288
0.198730 0.250732 0.171387
0.212524 0.252197 0.172974
0.227051 0.253174 0.175171
0.242554 0.253174 0.177856
0.259277 0.255127 0.181763
0.276855 0.259277 0.186768
0.293701 0.263916 0.192749
0.310059 0.269043 0.201050
0.325684 0.274170 0.210571
0.340576 0.280762 0.221313
0.355469 0.288330 0.231812
0.370850 0.296631 0.242798
0.387207 0.305664 0.252441
0.404297 0.315918 0.263428
0.422363 0.327881 0.276611
0.441650 0.341553 0.291260
0.460449 0.356201 0.307373
0.479736 0.372314 0.324707
0.499268 0.388916 0.342773
0.520020 0.407471 0.362061
0.541992 0.425537 0.379883
0.565918 0.444092 0.397217
0.591309 0.462891 0.414795
0.617676 0.481689 0.432129
0.644531 0.501953 0.451172
0.671875 0.523438 0.471191
0.699707 0.546875 0.492920
0.728027 0.572266 0.517578
0.758301 0.600586 0.545410
0.788086 0.628906 0.574707
0.198853 0.277100 0.195923
0.207153 0.278809 0.196899
0.216431 0.280273 0.197876
0.227173 0.281250 0.198853
0.238403 0.281982 0.200073
0.249634 0.282227 0.201172
0.261719 0.281738 0.202393
0.274170 0.281250 0.204468
0.289551 0.282959 0.208130
0.304199 0.286621 0.212402
0.319092 0.290039 0.218018
0.334229 0.294678 0.224976
0.348877 0.300049 0.233154
0.364014 0.306396 0.243164
0.378906 0.313477 0.252441
0.395020 0.322021 0.262939
0.412598 0.332031 0.273926
0.431396 0.343506 0.286621
0.448730 0.354980 0.300293
0.467773 0.369141 0.315918
0.486572 0.383789 0.332275
0.504883 0.399902 0.350342
0.524902 0.416504 0.368408
0.545898 0.433594 0.386230
0.569336 0.451660 0.403320
0.593750 0.469482 0.420166
0.619141 0.487549 0.437256
0.645996 0.507324 0.455566
0.672852 0.528809 0.475342
0.701172 0.551758 0.497314
0.729492 0.576172 0.520996
0.759766 0.604004 0.548340
0.789551 0.632812 0.578125
0.226685 0.304932 0.218262
0.234375 0.306152 0.219482
0.242310 0.306396 0.219971
0.250732 0.307617 0.220825
0.259521 0.307373 0.221558
0.268555 0.307129 0.222290
0.278564 0.306641 0.223389
0.289551 0.305908 0.224976
0.301270 0.305908 0.227417
0.314941 0.307373 0.230835
0.329102 0.310547 0.235352
0.343506 0.314697 0.241333
0.358154 0.319824 0.248413
0.372314 0.325195 0.255859
0.388428 0.332275 0.264404
0.404785 0.339844 0.275146
0.421875 0.349121 0.286377
0.439453 0.358643 0.297119
0.457275 0.369873 0.309814
0.475098 0.382568 0.324707
0.492920 0.395996 0.340820
0.510742 0.410645 0.357666
0.529297 0.425781 0.375000
0.550293 0.442871 0.392578
0.571777 0.459717 0.409668
0.595703 0.476318 0.426270
0.620605 0.494385 0.442871
0.647461 0.513184 0.461182
0.674805 0.534668 0.480225
0.702637 0.557129 0.501953
0.731934 0.581543 0.525879
0.762207 0.608398 0.552734
0.791504 0.637207 0.581543
0.251221 0.330078 0.237427
0.257080 0.330078 0.238037
0.264404 0.330078 0.239014
0.271729 0.330322 0.239746
0.279297 0.330322 0.240845
0.287109 0.330078 0.242554
0.296143 0.329834 0.243652
0.305664 0.329590 0.245117
0.315674 0.329346 0.247192
0.326660 0.329102 0.249512
0.339600 0.332031 0.252930
0.354248 0.335693 0.257812
0.368164 0.340088 0.263916
0.383545 0.345459 0.271484
0.398438 0.351562 0.279785
0.415039 0.358398 0.288086
0.431152 0.366699 0.297852
0.448242 0.375732 0.308594
0.465576 0.385742 0.321045
0.482666 0.396729 0.334717
0.499756 0.409180 0.349365
0.517578 0.422363 0.365967
0.535156 0.436768 0.382568
0.554688 0.452393 0.400146
0.575684 0.468262 0.416748
0.598633 0.484619 0.433105
0.624023 0.502441 0.450439
0.649414 0.520996 0.467285
0.676758 0.541016 0.486084
0.705078 0.563477 0.506836
0.734863 0.587402 0.530762
0.764648 0.613770 0.557129
0.793457 0.641113 0.584961
0.273926 0.353027 0.255615
0.279785 0.354004 0.256836
0.285645 0.354248 0.257080
0.292236 0.354248 0.258057
0.298828 0.354004 0.259521
0.305908 0.353516 0.260498
0.313965 0.353760 0.262207
0.322510 0.353271 0.264160
0.332520 0.353027 0.266602
0.342529 0.353516 0.269287
0.353760 0.354248 0.272949
0.366699 0.357666 0.276855
0.380127 0.362061 0.281494
0.394531 0.366455 0.287842
0.409912 0.371826 0.294922
0.424561 0.378174 0.302490
0.440674 0.385254 0.311768
0.456787 0.392822 0.321777
0.473633 0.401367 0.332275
0.490479 0.411865 0.345459
0.506836 0.423096 0.359619
0.523438 0.434814 0.374268
0.541016 0.447998 0.390869
0.560059 0.462646 0.407959
0.580078 0.477783 0.424316
0.602539 0.493896 0.441162
0.626465 0.510742 0.457520
0.652344 0.528809 0.474365
0.680176 0.548828 0.492920
0.707520 0.569824 0.513184
0.737305 0.593750 0.536621
0.767090 0.620117 0.562500
0.796387 0.646973 0.589355
0.298340 0.378662 0.276123
0.302979 0.378662 0.276611
0.308838 0.379639 0.277832
0.314453 0.379639 0.278809
0.320068 0.379639 0.279785
0.326660 0.379639 0.281494
0.333740 0.378906 0.283203
0.341553 0.378906 0.284912
0.350098 0.379150 0.287354
0.359863 0.379150 0.289795
0.369873 0.379639 0.292725
0.381104 0.380127 0.296143
0.393311 0.384033 0.300049
0.406982 0.387939 0.305420
0.420898 0.392578 0.310791
0.435303 0.397705 0.317871
0.450684 0.403564 0.325928
0.466309 0.410889 0.335449
0.481201 0.418457 0.345215
0.497803 0.427002 0.356201
0.514160 0.437256 0.369629
0.530762 0.448486 0.384766
0.547852 0.460449 0.399902
0.565430 0.474365 0.416504
0.585449 0.488525 0.432861
0.606934 0.503418 0.449219
0.629883 0.519531 0.465332
0.655273 0.537598 0.482178
0.682617 0.557129 0.500488
0.711426 0.578613 0.520996
0.740234 0.602051 0.543457
0.770508 0.626953 0.568359
0.798828 0.652832 0.594238
0.324219 0.404297 0.299561
0.327881 0.404297 0.299316
0.332275 0.404785 0.300293
0.336914 0.405029 0.301025
0.342285 0.405029 0.302002
0.347900 0.405518 0.303467
0.354004 0.405029 0.304199
0.361328 0.404785 0.305908
0.369141 0.404297 0.307373
0.377197 0.404297 0.309814
0.386475 0.404297 0.312744
0.396729 0.404541 0.315918
0.407227 0.406006 0.319824
0.419922 0.409424 0.324219
0.432617 0.413574 0.329346
0.446533 0.417969 0.334717
0.460693 0.422852 0.341309
0.475586 0.428955 0.348877
0.490479 0.435791 0.358887
0.506348 0.443604 0.369873
0.521484 0.452393 0.381836
0.538086 0.462646 0.395264
0.554688 0.473633 0.409668
0.572266 0.486084 0.426025
0.590820 0.499756 0.442383
0.611816 0.514648 0.458496
0.635254 0.530762 0.475098
0.660156 0.547852 0.491455
0.686523 0.566895 0.509277
0.715820 0.588379 0.529297
0.745117 0.611328 0.551270
0.773926 0.634277 0.574707
0.803223 0.659668 0.600098
0.350098 0.429199 0.323486
0.353760 0.429688 0.323730
0.357666 0.429932 0.324219
0.361084 0.430176 0.324707
0.365234 0.430176 0.325439
0.370605 0.430420 0.326660
0.375244 0.429688 0.327148
0.380859 0.429443 0.328125
0.387207 0.429688 0.329590
0.395020 0.429688 0.331543
0.403076 0.429443 0.333008
0.412354 0.429443 0.336182
0.422119 0.429932 0.339111
0.432861 0.430664 0.342285
0.444824 0.434570 0.347412
0.458008 0.437988 0.352539
0.471191 0.443115 0.359131
0.485596 0.447998 0.366211
0.500000 0.454346 0.374268
0.514648 0.461182 0.383545
0.529785 0.468262 0.393555
0.545898 0.477295 0.407471
0.562500 0.488037 0.421387
0.580078 0.499756 0.436768
0.597656 0.512695 0.452637
0.617676 0.526855 0.468994
0.640137 0.541992 0.484619
0.664551 0.559082 0.501465
0.691406 0.578613 0.519043
0.720215 0.599121 0.539062
0.749023 0.620605 0.559570
0.777832 0.643555 0.582520
0.806641 0.666992 0.606445
0.375488 0.454102 0.347900
0.378418 0.454834 0.348633
0.381348 0.454590 0.348633
0.385010 0.455078 0.349121
0.388672 0.455078 0.349609
0.392578 0.454834 0.350342
0.396484 0.454346 0.350586
0.401855 0.454346 0.351807
0.407715 0.454102 0.352539
0.414062 0.454346 0.354004
0.421143 0.454102 0.355713
0.429199 0.453857 0.357666
0.437500 0.454346 0.360352
0.447510 0.454590 0.363525
0.457520 0.456055 0.366699
0.469971 0.459473 0.371338
0.482178 0.462891 0.376221
0.495850 0.467773 0.383057
0.509766 0.472900 0.390381
0.523926 0.478760 0.399170
0.539062 0.485596 0.409180
0.554688 0.493408 0.420410
0.571289 0.503906 0.434082
0.587891 0.514160 0.448486
0.605469 0.526855 0.464600
0.625488 0.541016 0.480713
0.646973 0.556152 0.496826
0.671387 0.572266 0.513184
0.697266 0.590820 0.530273
0.725098 0.610352 0.549316
0.752930 0.630859 0.569336
0.782227 0.652832 0.590820
0.809082 0.674805 0.612793
0.400146 0.478271 0.372070
0.402832 0.478271 0.372314
0.405518 0.478271 0.372803
0.408203 0.479248 0.373291
0.411133 0.478760 0.373779
0.414795 0.478271 0.374023
0.418701 0.478760 0.374756
0.423340 0.478760 0.375732
0.427979 0.478271 0.376709
0.433350 0.477783 0.377441
0.439941 0.478271 0.379150
0.446777 0.477783 0.380615
0.454590 0.477783 0.382568
0.463135 0.477783 0.384766
0.472412 0.478271 0.387695
0.482666 0.480225 0.391602
0.494385 0.483643 0.395996
0.506836 0.488037 0.401611
0.520020 0.492432 0.407715
0.534668 0.498291 0.416016
0.549316 0.504395 0.425049
0.563965 0.511719 0.435547
0.580078 0.520508 0.448486
0.596191 0.530762 0.461426
0.614746 0.542480 0.476807
0.633789 0.556152 0.493896
0.654297 0.570801 0.509277
0.678711 0.586914 0.526367
0.704102 0.604492 0.543457
0.730957 0.623047 0.561035
0.759277 0.642578 0.580078
0.787109 0.663574 0.600098
0.814453 0.684570 0.621582
0.424072 0.501953 0.396240
0.426270 0.502441 0.396729
0.428955 0.502441 0.396973
0.431152 0.502930 0.397217
0.434326 0.502930 0.397949
0.437256 0.502930 0.398438
0.440430 0.502441 0.398926
0.444580 0.502441 0.399658
0.448730 0.501953 0.400146
0.453857 0.502441 0.401367
0.458984 0.501953 0.402100
0.465332 0.501465 0.403564
0.472168 0.501953 0.405273
0.479248 0.501953 0.407471
0.488037 0.502441 0.410156
0.497803 0.502930 0.413574
0.508301 0.504883 0.417480
0.520508 0.509277 0.422119
0.532715 0.513672 0.428223
0.546387 0.518555 0.434814
0.560059 0.524414 0.442627
0.575195 0.531250 0.453125
0.591309 0.539551 0.464600
0.607422 0.549316 0.477783
0.625000 0.560547 0.492432
0.644043 0.573242 0.507812
0.664551 0.587402 0.524902
0.687500 0.603027 0.541016
0.711914 0.619141 0.556641
0.738281 0.637207 0.573730
0.765137 0.655273 0.591797
0.792480 0.674316 0.609863
0.819336 0.694336 0.630371
0.449707 0.526855 0.421143
0.450684 0.526855 0.421143
0.453369 0.527344 0.422363
0.455322 0.526855 0.422363
0.457520 0.526855 0.422607
0.460693 0.526855 0.423096
0.463135 0.526367 0.423584
0.466797 0.526855 0.424561
0.470215 0.526855 0.425049
0.474854 0.526855 0.426025
0.479248 0.526855 0.427246
0.484619 0.526855 0.428467
0.491211 0.527344 0.429932
0.498779 0.528320 0.432373
0.504883 0.527832 0.433594
0.514160 0.528320 0.436768
0.523438 0.528320 0.439697
0.534668 0.531738 0.444824
0.546387 0.535645 0.449951
0.560059 0.541016 0.457031
0.573242 0.545898 0.463379
0.587891 0.552246 0.472656
0.602539 0.559570 0.482666
0.619629 0.568848 0.495850
0.636719 0.580078 0.509766
0.655273 0.591797 0.524902
0.675293 0.605469 0.540527
0.697266 0.620117 0.557129
0.720703 0.635742 0.571777
0.746094 0.651367 0.586914
0.771973 0.668945 0.603516
0.798340 0.686523 0.621094
0.825195 0.705566 0.639648
0.474365 0.552246 0.445312
0.475830 0.552734 0.446045
0.477783 0.553223 0.446533
0.479248 0.552734 0.447021
0.481689 0.552734 0.447510
0.484863 0.552734 0.448486
0.486572 0.552734 0.448975
0.490479 0.552734 0.449951
0.493408 0.552246 0.450684
0.497803 0.552246 0.451904
0.501953 0.552734 0.453369
0.506836 0.553223 0.454590
0.512207 0.553711 0.456299
0.518555 0.554199 0.458252
0.524902 0.553711 0.459717
0.532715 0.554688 0.462402
0.541992 0.556152 0.465576
0.551758 0.556641 0.468994
0.562988 0.560059 0.474365
0.575195 0.563965 0.479248
0.588379 0.569824 0.487061
0.602539 0.576172 0.495361
0.617676 0.583008 0.504883
0.633789 0.592285 0.516602
0.650879 0.601562 0.529297
0.667969 0.612305 0.542969
0.687012 0.624512 0.558105
0.707520 0.638672 0.573242
0.730469 0.652832 0.587891
0.754883 0.667969 0.602539
0.779785 0.684082 0.617676
0.804688 0.700195 0.633301
0.831055 0.717773 0.650879
0.499756 0.580566 0.470459
0.500977 0.580566 0.470947
0.501953 0.579590 0.470947
0.504883 0.580566 0.471924
0.506348 0.580078 0.472168
0.509277 0.580078 0.473389
0.511719 0.580078 0.473877
0.513672 0.580078 0.474854
0.518066 0.579590 0.476318
0.520996 0.579590 0.477295
0.525879 0.579590 0.479248
0.529785 0.579590 0.480225
0.534668 0.579590 0.482178
0.541016 0.580566 0.484131
0.547363 0.581543 0.487061
0.554688 0.582031 0.489502
0.562500 0.583496 0.492920
0.571289 0.585449 0.496338
0.581543 0.586426 0.500488
0.593750 0.590332 0.505859
0.606445 0.595215 0.512207
0.619629 0.602051 0.520508
0.633301 0.607422 0.528809
0.648926 0.615234 0.539062
0.665039 0.624512 0.550781
0.682617 0.634766 0.563477
0.700684 0.645508 0.576660
0.720215 0.658203 0.591309
0.741699 0.670898 0.604492
0.764160 0.684570 0.618164
0.787598 0.699219 0.631836
0.812500 0.715332 0.646973
0.838379 0.731934 0.663086
0.526367 0.609375 0.496826
0.527832 0.609863 0.497314
0.529785 0.609863 0.497314
0.531250 0.610352 0.498291
0.534668 0.609863 0.499756
0.536621 0.610352 0.500000
0.538086 0.608887 0.500488
0.541504 0.609863 0.501953
0.543945 0.609375 0.502930
0.547363 0.608887 0.504395
0.550781 0.609863 0.505859
0.555664 0.608887 0.507812
0.560547 0.609863 0.510254
0.565918 0.610352 0.512695
0.572266 0.611816 0.515625
0.579102 0.612305 0.518555
0.586426 0.613281 0.521973
0.594727 0.615234 0.525879
0.604004 0.616699 0.529785
0.613770 0.618652 0.534668
0.625977 0.623047 0.540039
0.638672 0.628418 0.547363
0.651367 0.633789 0.554688
0.666504 0.640625 0.563477
0.681152 0.648926 0.573730
0.697754 0.657715 0.584961
0.714844 0.666992 0.597168
0.733398 0.678223 0.609375
0.753906 0.689941 0.622070
0.774414 0.703125 0.634766
0.796875 0.715820 0.647461
0.820801 0.730469 0.661133
0.844727 0.745117 0.674805
0.556152 0.641113 0.525391
0.557617 0.641113 0.525391
0.559082 0.641602 0.526367
0.561035 0.642090 0.526855
0.562988 0.642090 0.527832
0.564941 0.641602 0.528320
0.566895 0.641113 0.529297
0.569336 0.641602 0.530273
0.572754 0.641602 0.532227
0.575684 0.642090 0.533691
0.578613 0.641602 0.534668
0.583008 0.642090 0.537109
0.587891 0.641602 0.539062
0.592773 0.642578 0.541504
0.598145 0.642578 0.543945
0.604980 0.644043 0.547852
0.611816 0.644043 0.550781
0.619141 0.645508 0.554688
0.627930 0.647461 0.559570
0.636719 0.648438 0.563477
0.646973 0.651855 0.568359
0.658691 0.655273 0.573730
0.670410 0.660156 0.580566
0.684570 0.666992 0.589355
0.698242 0.673340 0.597168
0.713867 0.681641 0.607422
0.729980 0.689941 0.618164
0.747559 0.700684 0.629883
0.766602 0.711426 0.640625
0.786133 0.722168 0.652344
0.807129 0.733887 0.663086
0.829590 0.746582 0.675293
0.852539 0.760742 0.688965
0.586914 0.674805 0.555176
0.588867 0.674316 0.555664
0.590332 0.674805 0.556641
0.591309 0.674805 0.556641
0.593262 0.674805 0.557617
0.594727 0.675293 0.558105
0.596191 0.674316 0.558594
0.599609 0.674805 0.560547
0.601562 0.674805 0.561523
0.604980 0.674316 0.562500
0.607910 0.674805 0.564453
0.611816 0.675293 0.566406
0.615234 0.674805 0.568359
0.620605 0.675293 0.570312
0.625488 0.674805 0.572754
0.630859 0.675781 0.575684
0.637207 0.675781 0.579102
0.644531 0.676758 0.583008
0.651855 0.677734 0.587402
0.661133 0.681152 0.592773
0.669922 0.681641 0.596680
0.680176 0.684082 0.601562
0.690430 0.687500 0.606934
0.702637 0.692871 0.613770
0.716797 0.699219 0.622070
0.730957 0.706055 0.630859
0.746094 0.714355 0.639648
0.762207 0.722656 0.649414
0.779785 0.732422 0.660156
0.798340 0.742188 0.669922
0.818359 0.752441 0.679688
0.838867 0.763672 0.690918
0.859863 0.776367 0.702637
0.618652 0.708496 0.585449
0.619629 0.708496 0.585938
0.620605 0.708496 0.586426
0.622070 0.708984 0.586914
0.624023 0.708984 0.587402
0.624512 0.708496 0.587891
0.626953 0.708496 0.588867
0.628906 0.708008 0.589844
0.631836 0.708496 0.591309
0.634766 0.708984 0.592285
0.637207 0.708984 0.593750
0.640137 0.708008 0.595215
0.644043 0.708008 0.597168
0.647461 0.708008 0.598145
0.652832 0.708496 0.601562
0.657715 0.708984 0.604004
0.663574 0.708496 0.606934
0.669434 0.709473 0.610352
0.676758 0.710449 0.614258
0.685059 0.711426 0.618652
0.693359 0.713379 0.624023
0.702637 0.713867 0.628418
0.712402 0.716309 0.633789
0.723145 0.720215 0.639648
0.735352 0.726074 0.645996
0.748535 0.731445 0.653320
0.763184 0.738281 0.662109
0.777832 0.745605 0.669922
0.793457 0.753418 0.678223
0.811035 0.762207 0.687988
0.829590 0.772461 0.697754
0.849609 0.782227 0.707520
0.870117 0.794434 0.718750
0.649414 0.741211 0.615234
0.649902 0.741699 0.615723
0.651855 0.741699 0.616211
0.652832 0.741699 0.616699
0.653809 0.741699 0.617676
0.655762 0.742188 0.618164
0.656738 0.741699 0.618164
0.658691 0.741211 0.619141
0.661133 0.741699 0.620117
0.663574 0.741211 0.621094
0.665527 0.741211 0.622559
0.668945 0.741211 0.624023
0.671875 0.741211 0.625488
0.675781 0.741211 0.627441
0.680176 0.741211 0.629395
0.684570 0.740723 0.631348
0.689941 0.741211 0.634277
0.695312 0.741699 0.637207
0.702148 0.742188 0.640625
0.709473 0.743164 0.644531
0.716797 0.744629 0.648926
0.725098 0.745117 0.653320
0.734863 0.746582 0.658691
0.744141 0.749023 0.664062
0.754883 0.751465 0.669434
0.766602 0.756348 0.675293
0.779785 0.762207 0.682617
0.793945 0.768555 0.690430
0.808594 0.775879 0.698242
0.825195 0.783691 0.706543
0.841797 0.791992 0.715332
0.859863 0.801270 0.724121
0.880859 0.812500 0.734375
0.680176 0.774414 0.645996
0.681152 0.773926 0.645996
0.682129 0.773926 0.645996
0.683105 0.773926 0.646484
0.684082 0.773926 0.646973
0.685547 0.773926 0.647461
0.687012 0.773926 0.647949
0.687988 0.773438 0.648438
0.689453 0.773438 0.648926
0.691895 0.773438 0.650391
0.694336 0.773438 0.650879
0.696777 0.773438 0.651855
0.699707 0.772949 0.653320
0.703613 0.774414 0.655273
0.707031 0.773926 0.657227
0.711914 0.774414 0.659180
0.715820 0.773438 0.661133
0.721191 0.773926 0.663574
