RED_IPP2_Creative/RED_BW_0300.cube
# RED Digital Cinema Output Transform LUT for IPP2
# Creatives by Eric Weidt
# BMD cube from Truelight v4.0
# Settings used in creation of this LUT are:
# Development Color Space = USER SELECTABLE
# Output Gamma Curve = USER SELECTABLE
# Output Tonemap = USER SELECTABLE
# Highlight Rolloff = USER SELECTABLE
LUT_3D_SIZE 5
0.000082 0.000086 0.000098
0.106812 0.106812 0.106812
0.343506 0.343506 0.343506
0.646484 0.646484 0.646484
0.841309 0.841309 0.841309
0.200439 0.200439 0.200439
0.204956 0.204956 0.204956
0.353760 0.353516 0.353516
0.646973 0.646973 0.646973
0.841309 0.841309 0.841309
0.474609 0.474609 0.474365
0.451660 0.451660 0.451660
0.459961 0.459961 0.459961
0.653809 0.653809 0.653809
0.842285 0.842285 0.842285
0.803711 0.803711 0.803711
0.779785 0.779785 0.779785
0.756836 0.756836 0.756836
0.764160 0.764160 0.764160
0.861328 0.861328 0.861328
0.922363 0.922363 0.922363
0.924316 0.924316 0.924316
0.926270 0.926270 0.926270
0.931641 0.931641 0.931641
0.958984 0.958984 0.958984
0.184692 0.184692 0.184692
0.221680 0.221680 0.221680
0.380371 0.380371 0.380371
0.676758 0.676758 0.676758
0.844238 0.844238 0.844238
0.255859 0.255859 0.255859
0.275391 0.275391 0.275391
0.390137 0.390137 0.390137
0.676758 0.676758 0.676758
0.844238 0.844238 0.844238
0.481934 0.481934 0.481689
0.484863 0.484863 0.484863
0.490967 0.490967 0.490967
0.683594 0.683594 0.683594
0.845215 0.845215 0.845215
0.807129 0.807129 0.807129
0.808105 0.808105 0.808105
0.785645 0.785645 0.785645
0.793945 0.793945 0.793945
0.870117 0.870117 0.870117
0.922363 0.922363 0.922363
0.922363 0.922363 0.922363
0.924805 0.924805 0.924805
0.933105 0.933105 0.933105
0.961914 0.961914 0.961914
0.460693 0.460693 0.460693
0.463379 0.463379 0.463379
0.502441 0.502441 0.502441
0.710938 0.710938 0.710938
0.844238 0.844238 0.844238
0.466797 0.466797 0.466797
0.469238 0.469238 0.469238
0.506348 0.506348 0.506348
0.710938 0.710938 0.710938
0.844238 0.844238 0.844238
0.540039 0.540039 0.540039
0.541016 0.541016 0.541016
0.560547 0.560547 0.560547
0.717285 0.717285 0.717285
0.845703 0.845703 0.845703
0.814453 0.814453 0.814453
0.813965 0.813965 0.813965
0.815918 0.815918 0.815918
0.824219 0.824219 0.824219
0.878418 0.878418 0.878418
0.922852 0.922852 0.922852
0.922852 0.922852 0.922852
0.923340 0.923340 0.923340
0.933594 0.933594 0.933594
0.960938 0.960938 0.960938
0.793457 0.793457 0.793457
0.793457 0.793457 0.793457
0.795410 0.795410 0.795410
0.835449 0.835449 0.835449
0.877441 0.877441 0.877441
0.793945 0.793945 0.793945
0.793945 0.793945 0.793945
0.795410 0.795410 0.795410
0.835938 0.835938 0.835938
0.877441 0.877441 0.877441
0.797363 0.797363 0.797363
0.797363 0.797363 0.797363
0.798828 0.798828 0.798828
0.838379 0.838379 0.838379
0.878418 0.878418 0.878418
0.873535 0.873535 0.873535
0.873535 0.873535 0.873535
0.874023 0.874023 0.874023
0.894043 0.894043 0.894043
0.910156 0.910156 0.910156
0.943848 0.943848 0.943848
0.943848 0.943848 0.943848
0.944824 0.944824 0.944824
0.955078 0.955078 0.955078
0.970215 0.970215 0.970215
0.898926 0.898926 0.898926
0.898926 0.898926 0.898926
0.899414 0.899414 0.899414
0.915527 0.915527 0.915527
0.941406 0.941406 0.941406
0.898926 0.898926 0.898926
0.899414 0.899414 0.898926
0.899902 0.899902 0.899902
0.915527 0.915527 0.915527
0.941406 0.941406 0.941406
0.900391 0.900391 0.900391
0.900391 0.900391 0.900391
0.900879 0.900879 0.900879
0.916504 0.916504 0.916504
0.941895 0.941895 0.941895
0.934082 0.934082 0.934082
0.934082 0.934082 0.934082
0.934082 0.934082 0.934082
0.945801 0.945801 0.945801
0.965332 0.965332 0.965332
0.979004 0.979004 0.979004
0.979004 0.979004 0.979004
0.979004 0.979004 0.979004
0.986328 0.986328 0.986328
0.999512 0.999512 0.999512
