RED_IPP2_Creative/RED_SUPERCOLOR.cube
# RED Digital Cinema Output Transform LUT for IPP2
# Creatives by Eric Weidt
# BMD cube from Truelight v4.0
# Settings used in creation of this LUT are:
# Development Color Space = USER SELECTABLE
# Output Gamma Curve = USER SELECTABLE
# Output Tonemap = USER SELECTABLE
# Highlight Rolloff = USER SELECTABLE 
LUT_3D_SIZE 9
0.007645 0.000000 0.000146
0.129150 0.000000 0.000000
0.198486 0.044769 0.041687
0.266602 0.110596 0.099854
0.356201 0.192993 0.163574
0.450928 0.291748 0.245605
0.551270 0.401611 0.350830
0.658203 0.517578 0.472412
0.769043 0.638184 0.597656
0.026672 0.119873 0.026535
0.123535 0.123535 0.033325
0.218628 0.137939 0.072510
0.299072 0.175781 0.125366
0.380615 0.238159 0.184082
0.468506 0.320312 0.261719
0.562988 0.418945 0.362549
0.665527 0.528320 0.480713
0.773438 0.644531 0.602539
0.123840 0.229126 0.126099
0.178345 0.232788 0.132568
0.248413 0.244141 0.141602
0.328369 0.264648 0.170898
0.409424 0.303711 0.219727
0.492920 0.363770 0.288086
0.581055 0.446289 0.381836
0.676758 0.545898 0.494141
0.780273 0.654785 0.611328
0.248779 0.340576 0.218506
0.276855 0.343506 0.224609
0.318115 0.351562 0.231323
0.376221 0.365234 0.243286
0.448242 0.388672 0.274658
0.524902 0.427979 0.333252
0.607910 0.489990 0.414551
0.694824 0.573730 0.515625
0.791992 0.672363 0.625488
0.373291 0.457275 0.335205
0.387451 0.459961 0.338135
0.410400 0.464355 0.343750
0.446045 0.473877 0.348633
0.500000 0.488770 0.363525
0.568359 0.512695 0.401367
0.641113 0.554199 0.467773
0.722168 0.618164 0.550293
0.810547 0.700684 0.648926
0.500000 0.577148 0.467529
0.507812 0.578125 0.469482
0.520996 0.580566 0.473145
0.541504 0.585938 0.477783
0.573242 0.596191 0.484131
0.623535 0.612305 0.500977
0.687500 0.638184 0.540039
0.757812 0.681641 0.605469
0.837891 0.745605 0.686523
0.627441 0.697754 0.599609
0.631348 0.698730 0.601074
0.638672 0.700195 0.603027
0.651855 0.703125 0.608398
0.670898 0.708984 0.613770
0.700684 0.719238 0.622559
0.747559 0.736328 0.640625
0.806641 0.763672 0.679688
0.875000 0.808594 0.743652
0.758789 0.819336 0.734375
0.760742 0.819824 0.735352
0.764648 0.820801 0.736328
0.771484 0.822266 0.739258
0.782227 0.825684 0.744141
0.799316 0.831543 0.750000
0.828125 0.842773 0.759766
0.870117 0.860352 0.779785
0.926758 0.889160 0.818359
0.889648 0.941406 0.868652
0.890625 0.941895 0.869141
0.892090 0.942383 0.869629
0.895508 0.943359 0.871094
0.902344 0.945312 0.874023
0.912109 0.948730 0.878906
0.928223 0.955078 0.885742
0.954590 0.966797 0.896484
0.994141 0.985352 0.916992
0.000000 0.000000 0.149536
0.110962 0.009216 0.110901
0.192017 0.051239 0.112061
0.272217 0.111938 0.142700
0.365479 0.192261 0.194702
0.459473 0.291016 0.271240
0.557129 0.401367 0.370361
0.661621 0.517090 0.483154
0.770996 0.637695 0.603516
0.000000 0.125732 0.125854
0.121887 0.125610 0.124878
0.240112 0.131592 0.130005
0.315430 0.171509 0.161255
0.392090 0.235474 0.212280
0.477051 0.319092 0.285889
0.568848 0.418457 0.381348
0.668945 0.527344 0.490479
0.775391 0.643555 0.607422
0.105774 0.235474 0.160522
0.159058 0.242432 0.155273
0.249512 0.247559 0.163452
0.340088 0.263916 0.192505
0.421875 0.301270 0.239990
0.501465 0.363037 0.307617
0.586426 0.446533 0.398926
0.680664 0.544922 0.502441
0.782227 0.654785 0.616211
0.230591 0.347900 0.240356
0.260498 0.351318 0.241089
0.309570 0.355469 0.250000
0.374756 0.368164 0.258789
0.453125 0.389160 0.290527
0.531738 0.427246 0.346191
0.612305 0.490723 0.426514
0.698730 0.573242 0.522949
0.793945 0.671875 0.629883
0.361328 0.462646 0.348389
0.377197 0.464600 0.349854
0.403076 0.467773 0.354004
0.441650 0.476318 0.360840
0.499023 0.490479 0.372559
0.570801 0.512695 0.408447
0.645996 0.553711 0.472412
0.725098 0.617676 0.555664
0.812500 0.700684 0.652832
0.493652 0.579590 0.473633
0.501465 0.580566 0.474854
0.515137 0.583496 0.477783
0.537598 0.587402 0.484863
0.571289 0.597656 0.489502
0.622559 0.613281 0.504395
0.688965 0.638672 0.542480
0.759766 0.681152 0.607422
0.839355 0.745117 0.688477
0.624512 0.699219 0.603027
0.628906 0.700195 0.603516
0.635742 0.701660 0.605469
0.648438 0.704102 0.609863
0.668945 0.709473 0.617188
0.699707 0.720215 0.624512
0.746582 0.736816 0.642578
0.807617 0.764160 0.681152
0.875977 0.808594 0.744141
0.757324 0.819824 0.735840
0.759277 0.820801 0.736816
0.762695 0.821777 0.737305
0.769531 0.823242 0.740234
0.780762 0.826660 0.744629
0.798828 0.832031 0.751465
0.827637 0.843262 0.760742
0.870117 0.860840 0.780273
0.927246 0.889648 0.818848
0.888672 0.941895 0.869141
0.889648 0.942383 0.869629
0.892090 0.942871 0.870605
0.895020 0.943848 0.871582
0.900879 0.945801 0.874023
0.912109 0.949219 0.879395
0.927734 0.955566 0.886230
0.953613 0.966797 0.896973
0.993652 0.985352 0.916992
0.029755 0.000000 0.195190
0.113892 0.017059 0.180176
0.177124 0.067505 0.169189
0.267334 0.122375 0.202637
0.366455 0.197144 0.248291
0.465332 0.292725 0.311523
0.563477 0.401611 0.395996
0.666016 0.517090 0.498047
0.773438 0.637695 0.611328
0.030533 0.122070 0.242798
0.128540 0.120056 0.244629
0.225464 0.140015 0.223755
0.314697 0.175903 0.236206
0.398193 0.237427 0.268555
0.485352 0.319824 0.325439
0.575195 0.418701 0.405518
0.673340 0.527344 0.504395
0.777832 0.643555 0.615723
0.075989 0.242554 0.241089
0.128662 0.249146 0.248779
0.252930 0.248535 0.249756
0.366211 0.255859 0.254395
0.446045 0.293945 0.285156
0.514648 0.360107 0.342285
0.594238 0.446289 0.421631
0.685059 0.544434 0.515625
0.785156 0.653809 0.623535
0.206665 0.354980 0.287598
0.234741 0.359863 0.286377
0.275879 0.369141 0.269043
0.374756 0.372559 0.277100
0.469482 0.386719 0.306152
0.545410 0.425049 0.367188
0.620117 0.489746 0.445557
0.703613 0.572754 0.534180
0.796875 0.671387 0.636719
0.345703 0.468018 0.374512
0.361328 0.471191 0.374268
0.338867 0.483643 0.331055
0.414307 0.484375 0.341797
0.497314 0.494629 0.345703
0.577637 0.511719 0.412598
0.651855 0.554199 0.484131
0.729980 0.616699 0.563965
0.814941 0.700195 0.658203
0.483398 0.583984 0.484619
0.491455 0.585449 0.485352
0.487549 0.589355 0.468750
0.518066 0.593750 0.474121
0.562012 0.600586 0.483398
0.622070 0.614746 0.496826
0.691406 0.638672 0.547852
0.764160 0.680664 0.611816
0.842285 0.744141 0.692383
0.618652 0.701660 0.607910
0.623047 0.702637 0.608887
0.630859 0.704102 0.609863
0.643555 0.707031 0.613281
0.665527 0.711426 0.621094
0.697266 0.721680 0.628906
0.746094 0.737793 0.644531
0.808594 0.764160 0.683105
0.877930 0.808105 0.746094
0.753906 0.821289 0.738281
0.756348 0.821777 0.738770
0.759766 0.822754 0.739746
0.766113 0.824707 0.741699
0.778809 0.827637 0.746094
0.796875 0.833008 0.753418
0.826172 0.844238 0.763184
0.870117 0.861328 0.781738
0.928223 0.889648 0.820312
0.887207 0.942871 0.870605
0.888672 0.942871 0.871094
0.890625 0.943359 0.871582
0.894043 0.944824 0.873047
0.899414 0.946777 0.875488
0.910156 0.949707 0.879883
0.927734 0.956055 0.887207
0.953613 0.966797 0.897949
0.993652 0.985840 0.917480
0.092529 0.015732 0.220703
0.138306 0.040009 0.218628
0.184692 0.086182 0.225098
0.262451 0.141235 0.254395
0.361572 0.210327 0.301025
0.464844 0.300049 0.357422
0.566895 0.405273 0.429932
0.671387 0.518066 0.519043
0.777832 0.637695 0.624512
0.104065 0.118042 0.283447
0.154541 0.128174 0.291504
0.228882 0.147461 0.299072
0.301758 0.191895 0.296631
0.392578 0.247681 0.327393
0.485840 0.325439 0.373291
0.580078 0.420898 0.439209
0.678223 0.528320 0.525391
0.781738 0.643555 0.628418
0.097778 0.245972 0.352539
0.152344 0.247559 0.370361
0.249878 0.244263 0.378174
0.355225 0.261475 0.354248
0.445068 0.298096 0.362549
0.519043 0.362793 0.394287
0.600586 0.447266 0.454102
0.690430 0.544434 0.535645
0.788574 0.653809 0.635742
0.181885 0.361816 0.359863
0.207397 0.366699 0.365723
0.258057 0.373291 0.373291
0.375977 0.373779 0.374512
0.492188 0.381836 0.380127
0.592285 0.406250 0.397705
0.672363 0.448242 0.437744
0.736816 0.537598 0.521484
0.800781 0.670898 0.647461
0.326904 0.474854 0.414795
0.341309 0.478027 0.415283
0.337402 0.488281 0.403320
0.388672 0.497803 0.381836
0.499023 0.497803 0.390869
0.604980 0.504883 0.408203
0.693359 0.530762 0.456055
0.757812 0.595703 0.544434
0.819336 0.699219 0.666992
0.470703 0.588867 0.504883
0.478516 0.590820 0.505859
0.476562 0.595703 0.496582
0.412842 0.616699 0.410156
0.521484 0.612793 0.430664
0.622070 0.620117 0.437012
0.711914 0.633789 0.499512
0.782715 0.671387 0.584961
0.846191 0.743652 0.698730
0.611328 0.705566 0.617676
0.615234 0.706543 0.618164
0.622559 0.708008 0.618652
0.530762 0.726074 0.521973
0.599609 0.725586 0.532715
0.669922 0.729980 0.547363
0.746094 0.741211 0.558105
0.819336 0.762207 0.644531
0.881348 0.808105 0.749512
0.749512 0.823730 0.742676
0.752441 0.824219 0.743164
0.755859 0.824707 0.744141
0.701660 0.834473 0.686035
0.732422 0.835938 0.691895
0.770508 0.838379 0.704102
0.812988 0.848145 0.711426
0.870117 0.863281 0.727539
0.929199 0.890137 0.821777
0.885742 0.943848 0.872559
0.887207 0.943848 0.873535
0.888184 0.944824 0.874023
0.892090 0.945312 0.875000
0.897949 0.947754 0.876953
0.908203 0.950684 0.881836
0.925781 0.956543 0.889160
0.952637 0.967773 0.899414
0.993652 0.986328 0.918945
0.141602 0.062408 0.256104
0.166260 0.084351 0.270752
0.212402 0.115845 0.290771
0.276611 0.165405 0.312256
0.359131 0.233032 0.350098
0.460938 0.314697 0.405029
0.566406 0.413574 0.470215
0.673340 0.522949 0.549316
0.781250 0.639648 0.643555
0.162842 0.138184 0.327881
0.195557 0.150635 0.337891
0.247192 0.170532 0.353516
0.310303 0.209106 0.358154
0.386230 0.266846 0.379150
0.480957 0.338379 0.423096
0.579590 0.428711 0.480713
0.681152 0.532227 0.555176
0.785645 0.645020 0.647461
0.185669 0.241089 0.408447
0.221802 0.245850 0.413086
0.272949 0.250488 0.433594
0.357178 0.265869 0.441162
0.435059 0.308594 0.431152
0.514160 0.372559 0.450928
0.601074 0.453613 0.497314
0.694336 0.548340 0.565918
0.792969 0.654785 0.653809
0.205811 0.366699 0.459717
0.231934 0.369629 0.472168
0.272461 0.371582 0.498291
0.372559 0.367432 0.512207
0.487549 0.381836 0.486572
0.592773 0.409180 0.493652
0.674805 0.456543 0.513184
0.742676 0.539551 0.566895
0.805664 0.671387 0.665039
0.308838 0.481934 0.479736
0.320557 0.485107 0.483398
0.324707 0.492676 0.491699
0.386475 0.498047 0.497803
0.499756 0.499756 0.499756
0.619629 0.505859 0.504395
0.744629 0.501953 0.501465
0.827637 0.540039 0.536621
0.893555 0.618652 0.609863
0.454102 0.595215 0.541016
0.461670 0.597168 0.541504
0.461426 0.602051 0.539551
0.407959 0.619141 0.510254
0.500977 0.624023 0.500000
0.623535 0.623047 0.514648
0.734863 0.628418 0.522461
0.832520 0.644531 0.556152
0.906250 0.697266 0.630859
0.599609 0.709961 0.635742
0.604004 0.710938 0.635742
0.611328 0.712891 0.636719
0.524902 0.729004 0.581543
0.510254 0.747070 0.507324
0.638184 0.740723 0.531250
0.746582 0.746094 0.536133
0.844238 0.756348 0.593750
0.922852 0.785645 0.668457
0.743652 0.826660 0.751465
0.746094 0.827637 0.751465
0.749512 0.828613 0.751953
0.695312 0.837402 0.711914
0.604004 0.858398 0.594727
0.691406 0.856445 0.607422
0.785156 0.858398 0.624512
0.872070 0.866699 0.632324
0.954590 0.882324 0.714844
0.882324 0.945801 0.876953
0.882812 0.945801 0.877441
0.885254 0.946777 0.877441
0.888672 0.947266 0.878906
0.745117 0.968750 0.729492
0.810059 0.966797 0.739258
0.870117 0.967285 0.756836
0.928711 0.976074 0.763184
0.995605 0.989258 0.776855
0.201416 0.125977 0.326416
0.223511 0.140625 0.340088
0.259766 0.164429 0.361084
0.309082 0.204834 0.378906
0.375977 0.263428 0.406494
0.461426 0.340088 0.451904
0.564453 0.429932 0.513672
0.673828 0.532227 0.585938
0.783203 0.644531 0.670410
0.231567 0.181274 0.380859
0.252441 0.192261 0.389893
0.286621 0.210449 0.404541
0.336914 0.241211 0.420898
0.398682 0.292725 0.435059
0.478516 0.361572 0.470215
0.577148 0.443848 0.524902
0.681152 0.541504 0.592773
0.788574 0.649902 0.674316
0.264648 0.259766 0.448730
0.285645 0.266846 0.453857
0.317383 0.276855 0.467529
0.369873 0.295898 0.480957
0.434570 0.333496 0.483887
0.508789 0.390381 0.502930
0.596680 0.467285 0.543457
0.694336 0.556641 0.603516
0.795898 0.659180 0.681152
0.293945 0.365234 0.521973
0.314941 0.367920 0.525391
0.344727 0.372070 0.536133
0.386719 0.377197 0.623047
0.501465 0.375488 0.625488
0.593750 0.403320 0.592285
0.673828 0.459473 0.590820
0.743164 0.546387 0.620605
0.809570 0.675293 0.691895
0.333740 0.487549 0.568848
0.346436 0.489990 0.575684
0.363037 0.493652 0.590820
0.375244 0.499268 0.644531
0.496338 0.492676 0.653809
0.621582 0.501465 0.621094
0.745117 0.502441 0.623047
0.828613 0.541992 0.631348
0.897461 0.620605 0.674805
0.442139 0.602051 0.600098
0.448730 0.604004 0.602051
0.448975 0.608398 0.606934
0.424072 0.620605 0.619629
0.511230 0.623047 0.623047
0.624512 0.624512 0.624512
0.746094 0.628418 0.627441
0.874512 0.624512 0.624512
0.972168 0.645996 0.645508
0.583984 0.716797 0.666992
0.587891 0.717773 0.667480
0.594727 0.719727 0.668457
0.513184 0.733398 0.651367
0.507324 0.748047 0.626953
0.624512 0.749512 0.624512
0.748047 0.748047 0.639160
0.862793 0.751953 0.643555
0.969727 0.762695 0.661621
0.735352 0.831055 0.767090
0.736816 0.831543 0.767090
0.740723 0.833008 0.767578
0.686523 0.840820 0.745117
0.598145 0.860840 0.677734
0.636230 0.873535 0.625000
0.763184 0.866211 0.648926
0.873047 0.871582 0.654297
0.975586 0.879395 0.691895
0.877441 0.948730 0.884766
0.878418 0.949219 0.884766
0.880371 0.949707 0.885254
0.884277 0.951172 0.885742
0.738770 0.971191 0.783203
0.717285 0.988281 0.678223
0.811035 0.983398 0.694336
0.899414 0.985840 0.709473
0.995117 0.993652 0.718262
0.287598 0.205811 0.411865
0.301514 0.216431 0.420654
0.325439 0.233765 0.434814
0.361816 0.263184 0.453857
0.412354 0.310059 0.474121
0.481201 0.374756 0.507324
0.568359 0.456299 0.559082
0.673828 0.549316 0.627441
0.784668 0.654297 0.705078
0.311279 0.245239 0.446533
0.324463 0.254150 0.453369
0.346680 0.269043 0.464600
0.381836 0.293213 0.482178
0.430664 0.333984 0.498535
0.495605 0.393311 0.524414
0.578613 0.469482 0.569824
0.681152 0.557617 0.634277
0.789551 0.659668 0.708496
0.343018 0.303955 0.495605
0.355469 0.310791 0.500000
0.375977 0.322021 0.507812
0.409180 0.340576 0.521484
0.458252 0.371094 0.538086
0.518066 0.422607 0.552246
0.596191 0.491211 0.588379
0.692871 0.572266 0.645508
0.796875 0.668457 0.715820
0.380371 0.385742 0.559082
0.392334 0.389648 0.562500
0.412354 0.396729 0.567383
0.423828 0.399414 0.664062
0.502930 0.406494 0.677734
0.587891 0.428467 0.668945
0.673828 0.465820 0.669922
0.741211 0.557129 0.678711
0.810547 0.683594 0.727051
0.416260 0.490723 0.633301
0.427979 0.492676 0.635254
0.447021 0.495850 0.639160
0.423584 0.504883 0.726562
0.495117 0.493408 0.814941
0.643555 0.482910 0.803223
0.744629 0.503418 0.744141
0.827148 0.547363 0.728516
0.897949 0.625000 0.746094
0.467773 0.609375 0.681641
0.474365 0.610840 0.685059
0.486084 0.613281 0.691895
0.451660 0.622559 0.731934
0.472656 0.632812 0.795898
0.621094 0.621094 0.787109
0.749512 0.624512 0.749512
0.874512 0.624512 0.749512
0.973145 0.648438 0.753906
0.574219 0.724121 0.722168
0.577637 0.725586 0.723145
0.583984 0.727539 0.725098
0.503906 0.738281 0.737793
0.503906 0.748535 0.749023
0.631836 0.748535 0.748535
0.749512 0.749512 0.749512
0.874512 0.750000 0.750000
0.999512 0.749512 0.749512
0.721191 0.837891 0.794434
0.723633 0.838379 0.794922
0.726074 0.839844 0.795410
0.674316 0.846680 0.788574
0.590820 0.863770 0.767090
0.625000 0.874512 0.749512
0.750000 0.874023 0.749512
0.873047 0.873047 0.764160
0.988281 0.875977 0.768066
0.870605 0.952637 0.897949
0.871582 0.953125 0.898438
0.873535 0.954102 0.898926
0.876953 0.955078 0.899414
0.730957 0.973633 0.840332
0.705078 0.991211 0.778320
0.773926 0.997559 0.751465
0.886719 0.991699 0.773926
1.000000 0.995605 0.777344
0.385742 0.303467 0.503906
0.394287 0.310547 0.509277
0.408691 0.322998 0.518066
0.433105 0.342773 0.533203
0.469971 0.375977 0.551270
0.521484 0.426025 0.576660
0.591797 0.494141 0.614746
0.680664 0.577637 0.671875
0.787109 0.672852 0.744141
0.402100 0.329834 0.524902
0.410645 0.336182 0.529297
0.424316 0.346924 0.537598
0.447266 0.364990 0.550293
0.483643 0.394043 0.570312
0.533203 0.440918 0.590820
0.600098 0.504395 0.624512
0.687012 0.584961 0.678711
0.791016 0.677734 0.748535
0.427002 0.371094 0.557617
0.434814 0.376953 0.562012
0.447510 0.385498 0.568359
0.468994 0.400391 0.579102
0.502930 0.424805 0.597168
0.551270 0.464844 0.615723
0.615234 0.522949 0.642090
0.697754 0.598145 0.689453
0.798340 0.685547 0.755371
0.461914 0.431396 0.605957
0.468506 0.435547 0.608398
0.480469 0.442383 0.613770
0.485840 0.444824 0.677246
0.531738 0.457520 0.690918
0.594727 0.478271 0.710449
0.662109 0.520508 0.711426
0.741699 0.579102 0.735840
0.810059 0.700195 0.767090
0.503418 0.512695 0.669922
0.509277 0.515137 0.671387
0.520508 0.519531 0.675293
0.506836 0.524414 0.736816
0.523926 0.504395 0.878906
0.631836 0.505371 0.875488
0.736328 0.523926 0.843262
0.825684 0.555664 0.823730
0.896973 0.634766 0.820312
0.544922 0.615723 0.745117
0.550781 0.617676 0.746582
0.561035 0.619141 0.749023
0.534668 0.627930 0.792969
0.520020 0.629395 0.888672
0.622559 0.614746 0.949219
0.771484 0.604980 0.936523
0.874512 0.624023 0.874512
0.972656 0.650879 0.862793
0.601562 0.732910 0.797363
0.604492 0.733398 0.799316
0.610840 0.734863 0.803711
0.578125 0.741211 0.824219
0.532227 0.753906 0.875488
0.592773 0.758789 0.924805
0.746094 0.746094 0.912109
0.874512 0.749512 0.874512
0.999512 0.750000 0.874512
0.709473 0.846191 0.844238
0.711426 0.847168 0.844727
0.714355 0.848145 0.846191
0.664062 0.854004 0.853027
0.583008 0.866699 0.866699
0.624512 0.875000 0.875000
0.749512 0.874512 0.874512
0.874512 0.874512 0.874512
0.999512 0.874512 0.874512
0.860840 0.959473 0.922363
0.861816 0.959961 0.922363
0.863281 0.960449 0.922852
0.866699 0.961914 0.923340
0.724609 0.977539 0.904297
0.672363 0.993164 0.884277
0.750000 0.999512 0.874512
0.874512 0.999512 0.874512
0.998047 0.998047 0.889160
0.493408 0.415039 0.603027
0.498291 0.419434 0.605957
0.506836 0.427490 0.611328
0.520996 0.440674 0.621094
0.546387 0.461670 0.637207
0.583008 0.496094 0.657227
0.635742 0.547363 0.685059
0.706543 0.616699 0.728516
0.795898 0.701660 0.787598
0.503418 0.432129 0.615723
0.508301 0.435791 0.619141
0.516602 0.443115 0.623535
0.531250 0.455322 0.633301
0.554688 0.475098 0.646973
0.591797 0.506348 0.668457
0.642578 0.556152 0.692871
0.711914 0.623047 0.733887
0.799316 0.706055 0.791016
0.520508 0.458740 0.636719
0.524902 0.462402 0.639160
0.533203 0.468506 0.644043
0.546875 0.479492 0.651367
0.569336 0.497070 0.665527
0.605469 0.524414 0.687012
0.653809 0.570801 0.708008
0.721191 0.634277 0.743164
0.805664 0.713867 0.797852
0.546875 0.500000 0.669434
0.550781 0.502930 0.672363
0.558105 0.507812 0.675781
0.570801 0.516602 0.683105
0.591797 0.531738 0.693848
0.625000 0.555664 0.710938
0.672852 0.594727 0.731445
0.735352 0.651855 0.760254
0.815918 0.726562 0.808594
0.583496 0.560059 0.717285
0.587402 0.562012 0.718750
0.594238 0.565430 0.722168
0.604980 0.572754 0.726562
0.573730 0.542480 0.900879
0.650391 0.550293 0.903809
0.738281 0.562988 0.909180
0.813965 0.602051 0.885742
0.898926 0.649414 0.894531
0.629395 0.641113 0.780273
0.632324 0.642578 0.782227
0.638184 0.645020 0.783691
0.648926 0.648926 0.787109
0.586914 0.644043 0.925293
0.647949 0.611816 1.000000
0.764160 0.619141 1.000000
0.877441 0.627441 1.000000
0.972168 0.654785 0.971191
0.677246 0.742188 0.856445
0.679199 0.743164 0.857422
0.685059 0.744141 0.859863
0.694824 0.746094 0.861328
0.603027 0.756836 0.958496
0.624023 0.753418 1.000000
0.755371 0.735352 1.000000
0.896484 0.729980 1.000000
0.999512 0.749512 0.999512
0.736328 0.856445 0.916016
0.737793 0.857422 0.916504
0.741211 0.858398 0.918945
0.746582 0.859863 0.922363
0.644043 0.871582 0.965332
0.629883 0.881836 1.000000
0.717773 0.883789 1.000000
0.871582 0.870605 1.000000
0.999512 0.874512 0.999512
0.852539 0.968262 0.965820
0.853027 0.968750 0.966797
0.854492 0.969238 0.967285
0.856934 0.970703 0.968262
0.717285 0.982910 0.981934
0.672363 0.994629 0.994629
0.749023 0.999512 1.000000
0.874512 0.999512 0.999512
0.999512 0.999512 0.999512
