RED_IPP2_Creative/RED_BW_0700.cube
# RED Digital Cinema Output Transform LUT for IPP2
# Creatives by Eric Weidt
# BMD cube from Truelight v4.0
# Settings used in creation of this LUT are:
# Development Color Space = USER SELECTABLE
# Output Gamma Curve = USER SELECTABLE
# Output Tonemap = USER SELECTABLE
# Highlight Rolloff = USER SELECTABLE
LUT_3D_SIZE 33
0.036407 0.036407 0.036407
0.042786 0.042786 0.042786
0.048157 0.048157 0.048157
0.052490 0.052490 0.052490
0.056885 0.056885 0.056885
0.062927 0.062927 0.062927
0.072937 0.072937 0.072937
0.088440 0.088440 0.088440
0.111145 0.111145 0.111145
0.141846 0.141846 0.141846
0.178589 0.178589 0.178589
0.215942 0.215942 0.215576
0.251709 0.251709 0.251709
0.285156 0.285156 0.285156
0.315674 0.315674 0.315674
0.342285 0.342285 0.342285
0.365234 0.365234 0.365234
0.384033 0.384033 0.384033
0.400879 0.400879 0.400879
0.419434 0.419434 0.419434
0.439697 0.439697 0.439697
0.461182 0.461182 0.461182
0.484619 0.484619 0.484619
0.508789 0.508789 0.508789
0.535156 0.535156 0.535156
0.562988 0.562988 0.562988
0.591797 0.591797 0.591797
0.622559 0.622559 0.622559
0.654297 0.654297 0.654297
0.688477 0.688477 0.688477
0.722656 0.722656 0.722656
0.758789 0.758789 0.758789
0.796387 0.796387 0.796387
0.048065 0.048065 0.048065
0.050598 0.050598 0.050598
0.053345 0.053345 0.053345
0.056580 0.056580 0.056580
0.060852 0.060852 0.060852
0.067444 0.067444 0.067444
0.078003 0.078003 0.078003
0.093933 0.093933 0.093933
0.116699 0.116699 0.116699
0.147339 0.147339 0.147339
0.182739 0.182739 0.182739
0.218628 0.218628 0.218628
0.253662 0.253662 0.253662
0.286133 0.286133 0.286133
0.316406 0.316406 0.316406
0.342773 0.342773 0.342773
0.365479 0.365479 0.365479
0.384033 0.384033 0.384033
0.401123 0.401123 0.401123
0.419678 0.419678 0.419678
0.439941 0.439941 0.439941
0.461426 0.461426 0.461426
0.484619 0.484619 0.484619
0.509277 0.509277 0.509277
0.535156 0.535156 0.535156
0.562988 0.562988 0.562988
0.591797 0.591797 0.591797
0.622559 0.622559 0.622559
0.654297 0.654297 0.654297
0.688477 0.688477 0.688477
0.722656 0.722656 0.722656
0.758789 0.758789 0.758789
0.796387 0.796387 0.796387
0.054749 0.054749 0.054749
0.056519 0.056519 0.056519
0.058624 0.058624 0.058624
0.061829 0.061829 0.061829
0.066711 0.066711 0.066711
0.074158 0.074158 0.074158
0.085388 0.085388 0.085388
0.101746 0.101746 0.101746
0.124207 0.124207 0.124207
0.154541 0.154541 0.154541
0.188110 0.188110 0.188110
0.222534 0.222534 0.222534
0.256348 0.256348 0.256348
0.288330 0.288330 0.288330
0.317627 0.317627 0.317627
0.343750 0.343750 0.343750
0.365967 0.365967 0.365967
0.384277 0.384277 0.384277
0.401367 0.401367 0.401367
0.419922 0.419922 0.419922
0.439941 0.439941 0.439941
0.461426 0.461426 0.461426
0.484619 0.484619 0.484619
0.509277 0.509277 0.509277
0.535156 0.535156 0.535156
0.562988 0.562988 0.562988
0.591797 0.591797 0.591797
0.622559 0.622559 0.622559
0.654297 0.654297 0.654297
0.688477 0.688477 0.688477
0.722656 0.722656 0.722656
0.758789 0.758789 0.758789
0.796387 0.796387 0.796387
0.062103 0.062103 0.062103
0.064026 0.064026 0.064026
0.066650 0.066650 0.066650
0.070435 0.070435 0.070435
0.075989 0.075989 0.075989
0.084045 0.084045 0.084045
0.095825 0.095825 0.095825
0.112427 0.112427 0.112427
0.135010 0.135010 0.135010
0.163574 0.163574 0.163574
0.195435 0.195435 0.195435
0.227661 0.227661 0.227661
0.260010 0.260010 0.259766
0.290771 0.290771 0.290771
0.319336 0.319336 0.319336
0.344727 0.344727 0.344727
0.366699 0.366699 0.366699
0.384766 0.384766 0.384766
0.401611 0.401611 0.401611
0.420166 0.420166 0.420166
0.440186 0.440186 0.440186
0.461670 0.461670 0.461670
0.484619 0.484619 0.484619
0.509277 0.509277 0.509277
0.535156 0.535156 0.535156
0.563477 0.563477 0.563477
0.591797 0.591797 0.591797
0.622559 0.622559 0.622559
0.654297 0.654297 0.654297
0.688477 0.688477 0.688477
0.722656 0.722656 0.722656
0.758789 0.758789 0.758789
0.796387 0.796387 0.796387
0.074280 0.074280 0.074280
0.076599 0.076599 0.076599
0.079468 0.079468 0.079468
0.083984 0.083984 0.083984
0.090149 0.090149 0.090149
0.098816 0.098816 0.098816
0.110779 0.110779 0.110779
0.127197 0.127197 0.127197
0.149170 0.149170 0.149170
0.175415 0.175415 0.175415
0.204102 0.204102 0.204102
0.234375 0.234375 0.234375
0.264648 0.264648 0.264648
0.293701 0.293701 0.293701
0.321289 0.321289 0.321289
0.345947 0.345947 0.345947
0.367676 0.367676 0.367676
0.385254 0.385254 0.385254
0.402100 0.402100 0.402100
0.420410 0.420410 0.420410
0.440430 0.440430 0.440430
0.461914 0.461914 0.461914
0.485107 0.485107 0.485107
0.509277 0.509277 0.509277
0.535156 0.535156 0.535156
0.563477 0.563477 0.563477
0.591797 0.591797 0.591797
0.622559 0.622559 0.622559
0.654297 0.654297 0.654297
0.688477 0.688477 0.688477
0.722656 0.722656 0.722656
0.758789 0.758789 0.758789
0.796387 0.796387 0.796387
0.093872 0.093872 0.093872
0.096130 0.096130 0.096130
0.099487 0.099487 0.099487
0.104004 0.104004 0.104004
0.110229 0.110229 0.110229
0.119324 0.119324 0.119324
0.130981 0.130981 0.130981
0.146851 0.146851 0.146606
0.166870 0.166870 0.166870
0.189941 0.189941 0.189941
0.215576 0.215576 0.215576
0.242920 0.242920 0.242920
0.270752 0.270752 0.270752
0.298340 0.298340 0.298340
0.324219 0.324219 0.323975
0.347900 0.347900 0.347900
0.368652 0.368652 0.368652
0.385986 0.385986 0.385986
0.402588 0.402588 0.402588
0.420654 0.420654 0.420654
0.440674 0.440674 0.440674
0.462158 0.462158 0.462158
0.485107 0.485107 0.485107
0.509277 0.509277 0.509277
0.535156 0.535156 0.535156
0.563477 0.563477 0.563477
0.591797 0.591797 0.591797
0.622559 0.622559 0.622559
0.654297 0.654297 0.654297
0.688477 0.688477 0.688477
0.722656 0.722656 0.722656
0.758789 0.758789 0.758789
0.796387 0.796387 0.796387
0.121704 0.121704 0.121704
0.124207 0.124207 0.124207
0.127563 0.127563 0.127563
0.132080 0.132080 0.132080
0.138306 0.138306 0.138306
0.146484 0.146484 0.146484
0.157349 0.157349 0.157349
0.171021 0.171021 0.171021
0.187866 0.187866 0.187866
0.207397 0.207397 0.207397
0.229492 0.229492 0.229492
0.253418 0.253418 0.253418
0.278564 0.278564 0.278564
0.303711 0.303711 0.303711
0.327881 0.327881 0.327881
0.350342 0.350342 0.350342
0.370117 0.370117 0.370117
0.386963 0.386963 0.386963
0.403320 0.403320 0.403320
0.421387 0.421387 0.421387
0.441162 0.441162 0.441162
0.462402 0.462402 0.462402
0.485352 0.485352 0.485352
0.509277 0.509277 0.509277
0.535645 0.535645 0.535645
0.563477 0.563477 0.563477
0.592285 0.592285 0.592285
0.623047 0.623047 0.623047
0.654297 0.654297 0.654297
0.688477 0.688477 0.688477
0.722656 0.722656 0.722656
0.758789 0.758789 0.758789
0.796387 0.796387 0.796387
0.158569 0.158569 0.158569
0.160767 0.160767 0.160767
0.163574 0.163574 0.163208
0.167114 0.167114 0.167114
0.172241 0.172241 0.172241
0.178833 0.178833 0.178833
0.187134 0.187134 0.187134
0.197998 0.197998 0.197998
0.211426 0.211426 0.211426
0.227173 0.227173 0.227173
0.245728 0.245728 0.245728
0.266357 0.266113 0.266113
0.288330 0.288330 0.288330
0.310547 0.310547 0.310547
0.332764 0.332764 0.332764
0.353271 0.353271 0.353271
0.372070 0.372070 0.372070
0.387939 0.387939 0.387939
0.404297 0.404297 0.404297
0.422119 0.422119 0.422119
0.441895 0.441895 0.441895
0.463135 0.463135 0.463135
0.485840 0.485840 0.485840
0.509766 0.509766 0.509766
0.535645 0.535645 0.535645
0.563965 0.563965 0.563477
0.592285 0.592285 0.592285
0.623047 0.623047 0.623047
0.654785 0.654785 0.654297
0.688477 0.688477 0.688477
0.722656 0.722656 0.722656
0.758789 0.758789 0.758789
0.796387 0.796387 0.796387
0.197754 0.197754 0.197754
0.199341 0.199341 0.199341
0.201172 0.201172 0.201172
0.203979 0.203979 0.203979
0.207764 0.207764 0.207764
0.212524 0.212524 0.212524
0.218750 0.218750 0.218750
0.226807 0.226807 0.226807
0.237061 0.237061 0.237061
0.249634 0.249634 0.249634
0.264160 0.264160 0.264160
0.281006 0.281006 0.281006
0.299805 0.299805 0.299316
0.319092 0.319092 0.319092
0.338623 0.338623 0.338623
0.357422 0.357422 0.357422
0.374756 0.374756 0.374756
0.389893 0.389893 0.389893
0.405518 0.405518 0.405518
0.423340 0.423340 0.423340
0.442627 0.442627 0.442627
0.463623 0.463623 0.463623
0.486084 0.486084 0.486084
0.510254 0.510254 0.510254
0.536133 0.536133 0.536133
0.563965 0.563965 0.563965
0.592285 0.592285 0.592285
0.623047 0.623047 0.623047
0.654785 0.654785 0.654785
0.688477 0.688477 0.688477
0.722656 0.722656 0.722656
0.758789 0.758789 0.758789
0.796387 0.796387 0.796387
0.235962 0.235962 0.235962
0.236694 0.236694 0.236694
0.238281 0.238281 0.238281
0.240112 0.240112 0.240112
0.242676 0.242676 0.242676
0.246094 0.246094 0.246094
0.250732 0.250732 0.250732
0.256592 0.256592 0.256592
0.263916 0.263916 0.263916
0.273438 0.273438 0.273438
0.284424 0.284424 0.284424
0.297852 0.297852 0.297852
0.313232 0.313232 0.313232
0.329346 0.329346 0.329346
0.345947 0.345947 0.345947
0.362549 0.362549 0.362549
0.377930 0.377930 0.377930
0.392090 0.392090 0.392090
0.407471 0.407471 0.407471
0.424805 0.424805 0.424805
0.443848 0.443848 0.443848
0.464355 0.464355 0.464355
0.486816 0.486816 0.486816
0.510742 0.510742 0.510742
0.536621 0.536621 0.536621
0.564453 0.564453 0.564453
0.592773 0.592773 0.592773
0.623535 0.623535 0.623535
0.654785 0.654785 0.654785
0.688477 0.688477 0.688477
0.723633 0.723633 0.723633
0.758789 0.758789 0.758789
0.796387 0.796387 0.796387
0.271484 0.271484 0.271484
0.272217 0.272217 0.272217
0.273193 0.273193 0.273193
0.274414 0.274414 0.274414
0.276123 0.276123 0.276123
0.278320 0.278320 0.278320
0.281494 0.281494 0.281494
0.285645 0.285645 0.285645
0.290771 0.290771 0.290771
0.297363 0.297363 0.297363
0.306152 0.306152 0.306152
0.316162 0.316162 0.316162
0.327881 0.327881 0.327881
0.340576 0.340576 0.340576
0.354492 0.354492 0.354492
0.368408 0.368408 0.368408
0.382080 0.382080 0.382080
0.395020 0.395020 0.395020
0.410156 0.410156 0.410156
0.427002 0.427002 0.427002
0.445557 0.445557 0.445557
0.466064 0.466064 0.466064
0.488037 0.488037 0.488037
0.511230 0.511230 0.511230
0.537109 0.537109 0.537109
0.564453 0.564453 0.564453
0.593262 0.593262 0.593262
0.623535 0.623535 0.623535
0.654785 0.654785 0.654785
0.688477 0.688477 0.688477
0.723633 0.723633 0.723633
0.758789 0.758789 0.758789
0.796387 0.796387 0.796387
0.303711 0.303711 0.303711
0.304199 0.304199 0.304199
0.304688 0.304688 0.304688
0.305908 0.305908 0.305908
0.306641 0.306641 0.306641
0.308594 0.308594 0.308594
0.310303 0.310303 0.310303
0.313232 0.313232 0.313232
0.316895 0.316895 0.316895
0.321289 0.321289 0.321289
0.327393 0.327393 0.327393
0.334473 0.334473 0.334473
0.343262 0.343262 0.343262
0.353271 0.353271 0.353271
0.364258 0.364258 0.364258
0.375732 0.375732 0.375732
0.386719 0.386719 0.386719
0.398926 0.398926 0.398926
0.413330 0.413330 0.413330
0.429443 0.429443 0.429199
0.447510 0.447510 0.447510
0.467529 0.467529 0.467529
0.489258 0.489258 0.489258
0.512695 0.512695 0.512695
0.538086 0.538086 0.538086
0.564941 0.564941 0.564941
0.593750 0.593750 0.593750
0.624023 0.624023 0.624023
0.655273 0.655273 0.655273
0.688477 0.688477 0.688477
0.723633 0.723633 0.723633
0.759766 0.759766 0.759766
0.797363 0.797363 0.796387
0.332520 0.332520 0.332520
0.333008 0.333008 0.333008
0.333252 0.333252 0.333252
0.333984 0.333984 0.333984
0.334473 0.334473 0.334473
0.335449 0.335449 0.335449
0.336670 0.336670 0.336670
0.338379 0.338379 0.338379
0.341064 0.341064 0.341064
0.343994 0.343994 0.343994
0.347900 0.347900 0.347900
0.353027 0.353027 0.353027
0.359375 0.359375 0.359375
0.366455 0.366455 0.366455
0.374512 0.374512 0.374512
0.383301 0.383301 0.383301
0.392822 0.392822 0.392822
0.404053 0.404053 0.404053
0.417725 0.417725 0.417725
0.433105 0.433105 0.433105
0.450439 0.450439 0.450439
0.469727 0.469727 0.469727
0.490967 0.490967 0.490967
0.513672 0.513672 0.513672
0.539062 0.539062 0.539062
0.565918 0.565918 0.565918
0.594238 0.594238 0.594238
0.624512 0.624512 0.624512
0.655762 0.655762 0.655762
0.689453 0.689453 0.689453
0.723633 0.723633 0.723633
0.759766 0.759766 0.759766
0.797363 0.797363 0.797363
0.357178 0.357178 0.357178
0.357178 0.357178 0.357178
0.357666 0.357666 0.357666
0.357910 0.357910 0.357910
0.358398 0.358398 0.358398
0.359131 0.359131 0.359131
0.359863 0.359863 0.359863
0.361084 0.361084 0.361084
0.362305 0.362305 0.362305
0.364502 0.364502 0.364502
0.367188 0.367188 0.367188
0.370361 0.370361 0.370361
0.374268 0.374268 0.374268
0.379395 0.379395 0.379395
0.385010 0.385010 0.385010
0.392090 0.392090 0.392090
0.400391 0.400391 0.400391
0.410889 0.410889 0.410889
0.423340 0.423340 0.423340
0.437744 0.437744 0.437744
0.454346 0.454346 0.454346
0.472900 0.472900 0.472900
0.493652 0.493652 0.493652
0.515625 0.515625 0.515625
0.540527 0.540527 0.540527
0.567383 0.567383 0.567383
0.595215 0.595215 0.595215
0.625000 0.625000 0.625000
0.656250 0.656250 0.656250
0.689941 0.689941 0.689941
0.724121 0.724121 0.724121
0.759766 0.759766 0.759766
0.797363 0.797363 0.797363
0.377441 0.377441 0.377441
0.377686 0.377686 0.377686
0.377686 0.377686 0.377686
0.377930 0.377930 0.377930
0.378174 0.378174 0.378174
0.378662 0.378662 0.378662
0.379150 0.379150 0.379150
0.379639 0.379639 0.379639
0.380615 0.380615 0.380615
0.381836 0.381836 0.381836
0.383545 0.383545 0.383545
0.385498 0.385498 0.385498
0.388184 0.388184 0.388184
0.391602 0.391602 0.391602
0.396240 0.396240 0.396240
0.402344 0.402344 0.402344
0.409912 0.409912 0.409912
0.418945 0.418945 0.418945
0.430420 0.430420 0.430420
0.443848 0.443848 0.443848
0.459473 0.459473 0.459473
0.476807 0.476807 0.476807
0.496826 0.496826 0.496826
0.519043 0.519043 0.519043
0.542969 0.542969 0.542969
0.568848 0.568848 0.568848
0.596191 0.596191 0.596191
0.625977 0.625977 0.625977
0.657227 0.657227 0.657227
0.690430 0.690430 0.690430
0.725098 0.725098 0.725098
0.760254 0.760254 0.760254
0.797363 0.797363 0.797363
0.394531 0.394531 0.394531
0.394775 0.394775 0.394775
0.394775 0.394775 0.394775
0.395020 0.395020 0.395020
0.395020 0.395020 0.395020
0.395508 0.395508 0.395508
0.395752 0.395752 0.395752
0.396240 0.396240 0.396240
0.396973 0.396973 0.396973
0.397949 0.397949 0.397949
0.398926 0.398926 0.398926
0.400635 0.400635 0.400635
0.402832 0.402832 0.402832
0.405762 0.405762 0.405762
0.409668 0.409668 0.409668
0.414795 0.414795 0.414795
0.421143 0.421143 0.421143
0.429199 0.429199 0.429199
0.439453 0.439453 0.439453
0.451416 0.451416 0.451416
0.465576 0.465576 0.465576
0.482422 0.482422 0.482422
0.500977 0.500977 0.500977
0.522461 0.522461 0.522461
0.545898 0.545898 0.545898
0.570801 0.570801 0.570801
0.598145 0.598145 0.598145
0.627441 0.627441 0.627441
0.658203 0.658203 0.658203
0.690918 0.690918 0.690918
0.725586 0.725586 0.725586
0.760742 0.760742 0.760742
0.798340 0.798340 0.798340
0.412842 0.412842 0.412842
0.412842 0.412842 0.412842
0.412842 0.412842 0.412842
0.413086 0.413086 0.413086
0.413330 0.413330 0.413086
0.413330 0.413330 0.413330
0.413574 0.413574 0.413574
0.414062 0.414062 0.414062
0.414551 0.414551 0.414551
0.415283 0.415283 0.415283
0.416260 0.416260 0.416260
0.417725 0.417725 0.417725
0.419434 0.419434 0.419434
0.421631 0.421631 0.421631
0.425049 0.425049 0.425049
0.429199 0.429199 0.429199
0.434570 0.434570 0.434570
0.441650 0.441650 0.441650
0.450195 0.450195 0.450195
0.460938 0.460938 0.460938
0.474121 0.474121 0.474121
0.489258 0.489258 0.489258
0.506836 0.506836 0.506836
0.526855 0.526855 0.526855
0.549316 0.549316 0.549316
0.573730 0.573730 0.573242
0.600586 0.600586 0.600586
0.629395 0.629395 0.629395
0.659668 0.659668 0.659668
0.691895 0.691895 0.691895
0.726074 0.726074 0.726074
0.761719 0.761719 0.761719
0.798828 0.798828 0.798828
0.432617 0.432617 0.432617
0.432617 0.432617 0.432617
0.432617 0.432617 0.432617
0.432617 0.432617 0.432617
0.432617 0.432617 0.432617
0.432861 0.432861 0.432861
0.433105 0.433105 0.433105
0.433350 0.433350 0.433350
0.433838 0.433838 0.433838
0.434326 0.434326 0.434326
0.435059 0.435059 0.435059
0.436035 0.436035 0.436035
0.437500 0.437500 0.437500
0.439453 0.439453 0.439453
0.442139 0.442139 0.442139
0.445557 0.445557 0.445557
0.450195 0.450195 0.450195
0.455811 0.455811 0.455811
0.463379 0.463379 0.463379
0.472900 0.472900 0.472900
0.484375 0.484375 0.484375
0.497803 0.497803 0.497803
0.513672 0.513672 0.513672
0.532715 0.532715 0.532715
0.553711 0.553711 0.553711
0.577637 0.577637 0.577637
0.604004 0.604004 0.604004
0.631348 0.631348 0.631348
0.661621 0.661621 0.661621
0.693359 0.693359 0.693359
0.727051 0.727051 0.727051
0.762207 0.762207 0.762207
0.799316 0.799316 0.799316
0.453613 0.453613 0.453369
0.453613 0.453613 0.453613
0.453613 0.453613 0.453613
0.453857 0.453857 0.453857
0.453857 0.453857 0.453857
0.454102 0.454102 0.454102
0.454102 0.454102 0.454102
0.454346 0.454346 0.454346
0.454590 0.454590 0.454590
0.455078 0.455078 0.455078
0.455566 0.455566 0.455566
0.456543 0.456543 0.456543
0.457520 0.457520 0.457520
0.459229 0.459229 0.459229
0.461182 0.461182 0.461182
0.464111 0.464111 0.464111
0.467529 0.467529 0.467529
0.472412 0.472412 0.472412
0.478760 0.478760 0.478760
0.486572 0.486572 0.486572
0.496826 0.496826 0.496826
0.508789 0.508789 0.508789
0.523438 0.523438 0.523438
0.540527 0.540527 0.540527
0.560547 0.560547 0.560547
0.583008 0.583008 0.583008
0.607422 0.607422 0.607422
0.634277 0.634277 0.634277
0.664062 0.664062 0.664062
0.694824 0.694824 0.694824
0.728516 0.728516 0.728516
0.763672 0.763672 0.763672
0.799805 0.799805 0.799805
0.476318 0.476318 0.476318
0.476318 0.476318 0.476318
0.476318 0.476318 0.476318
0.476562 0.476562 0.476562
0.476562 0.476562 0.476562
0.476562 0.476562 0.476562
0.476807 0.476807 0.476562
0.476807 0.476807 0.476807
0.477295 0.477295 0.477295
0.477295 0.477295 0.477295
0.478027 0.478027 0.478027
0.478760 0.478760 0.478760
0.479492 0.479492 0.479492
0.480713 0.480713 0.480713
0.482422 0.482422 0.482422
0.484375 0.484375 0.484375
0.487305 0.487305 0.487305
0.491455 0.491455 0.491455
0.496338 0.496338 0.496338
0.502930 0.502930 0.502930
0.511230 0.511230 0.511230
0.521973 0.521973 0.521973
0.535156 0.535156 0.535156
0.550293 0.550293 0.550293
0.568848 0.568848 0.568848
0.589355 0.589355 0.589355
0.612793 0.612793 0.612793
0.638672 0.638672 0.638672
0.666992 0.666992 0.666992
0.697266 0.697266 0.697266
0.729980 0.729980 0.729980
0.765137 0.765137 0.765137
0.801270 0.801270 0.801270
0.500000 0.500000 0.500000
0.500000 0.500000 0.500000
0.500000 0.500000 0.500000
0.500000 0.500000 0.500000
0.500488 0.500488 0.500488
0.500488 0.500488 0.500488
0.500488 0.500488 0.500488
0.500488 0.500488 0.500488
0.500977 0.500977 0.500977
0.501465 0.501465 0.500977
0.501465 0.501465 0.501465
0.501953 0.501953 0.501953
0.502441 0.502441 0.502441
0.503418 0.503418 0.503418
0.504883 0.504883 0.504883
0.506348 0.506348 0.506348
0.508789 0.508789 0.508789
0.511719 0.511719 0.511719
0.515625 0.515625 0.515625
0.521973 0.521973 0.521973
0.528809 0.528809 0.528809
0.537598 0.537598 0.537598
0.548828 0.548828 0.548828
0.562988 0.562988 0.562988
0.578613 0.578613 0.578613
0.598145 0.598145 0.598145
0.620117 0.620117 0.620117
0.644531 0.644531 0.644531
0.671387 0.671387 0.671387
0.701172 0.701172 0.701172
0.732910 0.732910 0.732910
0.766602 0.766602 0.766602
0.802734 0.802734 0.802734
0.525879 0.525879 0.525879
0.525879 0.525879 0.525879
0.525879 0.525879 0.525879
0.525879 0.525879 0.525879
0.525879 0.525879 0.525879
0.525879 0.525879 0.525879
0.526367 0.526367 0.526367
0.526367 0.526367 0.526367
0.526367 0.526367 0.526367
0.526855 0.526855 0.526855
0.526855 0.526855 0.526855
0.526855 0.526855 0.526855
0.527832 0.527832 0.527832
0.528320 0.528320 0.528320
0.529785 0.529785 0.529785
0.530762 0.530762 0.530762
0.532227 0.532227 0.532227
0.535156 0.535156 0.535156
0.538086 0.538086 0.538086
0.542969 0.542969 0.542969
0.548828 0.548828 0.548828
0.556152 0.556152 0.556152
0.565430 0.565430 0.565430
0.577148 0.577148 0.577148
0.591797 0.591797 0.591309
0.608887 0.608887 0.608887
0.629395 0.629395 0.629395
0.651855 0.651855 0.651855
0.677734 0.677734 0.677734
0.706055 0.706055 0.706055
0.737305 0.737305 0.736816
0.769531 0.769531 0.769531
0.804688 0.804688 0.804688
0.553223 0.553223 0.553223
0.553223 0.553223 0.553223
0.553223 0.553223 0.553223
0.553223 0.553223 0.553223
0.553223 0.553223 0.553223
0.553223 0.553223 0.553223
0.553223 0.553223 0.553223
0.553711 0.553711 0.553711
0.553711 0.553711 0.553711
0.553711 0.553711 0.553711
0.553711 0.553711 0.553711
0.553711 0.553711 0.553711
0.554199 0.554199 0.554199
0.555176 0.555176 0.555176
0.555664 0.555664 0.555664
0.557129 0.557129 0.557129
0.558105 0.558105 0.558105
0.560059 0.560059 0.560059
0.562988 0.562988 0.562988
0.566406 0.566406 0.566406
0.570801 0.570801 0.570801
0.577148 0.577148 0.577148
0.584961 0.584961 0.584961
0.594727 0.594727 0.594727
0.606934 0.606934 0.606934
0.622070 0.622070 0.622070
0.640137 0.640137 0.640137
0.661621 0.661621 0.661621
0.685547 0.685547 0.685547
0.712402 0.712402 0.712402
0.741699 0.741699 0.741699
0.773438 0.773438 0.773438
0.807617 0.807617 0.807617
0.582031 0.582031 0.582031
0.582031 0.582031 0.582031
0.582031 0.582031 0.582031
0.582031 0.582031 0.582031
0.582031 0.582031 0.582031
0.582031 0.582031 0.582031
0.582031 0.582031 0.582031
0.582031 0.582031 0.582031
0.582520 0.582520 0.582520
0.582520 0.582520 0.582520
0.582520 0.582520 0.582520
0.583008 0.583008 0.583008
0.583008 0.583008 0.583008
0.583008 0.583008 0.583008
0.583984 0.583984 0.583984
0.584473 0.584473 0.584473
0.585938 0.585938 0.585938
0.587402 0.587402 0.587402
0.589355 0.589355 0.589355
0.591797 0.591797 0.591797
0.595703 0.595703 0.595703
0.600586 0.600586 0.600586
0.606934 0.606934 0.606934
0.615234 0.615234 0.615234
0.625488 0.625488 0.625488
0.638184 0.638184 0.638184
0.654297 0.654297 0.654297
0.673340 0.673340 0.673340
0.694824 0.694824 0.694824
0.720215 0.720215 0.720215
0.747559 0.747559 0.747559
0.778320 0.778320 0.778320
0.811523 0.811523 0.811523
0.611816 0.611816 0.611816
0.611816 0.611816 0.611816
0.611816 0.611816 0.611816
0.611816 0.611816 0.611816
0.611816 0.611816 0.611816
0.611816 0.611816 0.611816
0.611816 0.611816 0.611816
0.611816 0.611816 0.611816
0.611816 0.611816 0.611816
0.612793 0.612793 0.612793
0.612793 0.612793 0.612793
0.612793 0.612793 0.612793
0.612793 0.612793 0.612793
0.612793 0.612793 0.612793
0.613770 0.613770 0.613770
0.614258 0.614258 0.614258
0.614746 0.614746 0.614746
0.616211 0.616211 0.616211
0.617676 0.617676 0.617676
0.619629 0.619629 0.619629
0.622559 0.622559 0.622559
0.626465 0.626465 0.626465
0.631348 0.631348 0.631348
0.638184 0.638184 0.638184
0.646973 0.646973 0.646973
0.657227 0.657227 0.657227
0.671387 0.671387 0.671387
0.688477 0.688477 0.687500
0.707520 0.707520 0.707520
0.729980 0.729980 0.729980
0.756348 0.756348 0.756348
0.784668 0.784668 0.784668
0.816406 0.816406 0.816406
0.643555 0.643555 0.643555
0.643555 0.643555 0.643555
0.643555 0.643555 0.643555
0.643555 0.643555 0.643555
0.643555 0.643555 0.643555
0.643555 0.643555 0.643555
0.643555 0.643555 0.643555
0.643555 0.643555 0.643555
0.643555 0.643555 0.643555
0.643555 0.643555 0.643555
0.643555 0.643555 0.643555
0.644043 0.644043 0.644043
0.644043 0.644043 0.644043
0.644531 0.644531 0.644531
0.644531 0.644531 0.644531
0.645020 0.645020 0.645020
0.645996 0.645996 0.645508
0.646484 0.646484 0.646484
0.647949 0.647949 0.647949
0.649414 0.649414 0.649414
0.651367 0.651367 0.651367
0.654297 0.654297 0.654297
0.659180 0.659180 0.659180
0.664062 0.664062 0.664062
0.671387 0.671387 0.671387
0.680176 0.680176 0.680176
0.691406 0.691406 0.691406
0.705078 0.705078 0.705078
0.722168 0.722168 0.722168
0.743164 0.743164 0.743164
0.766602 0.766602 0.766602
0.793945 0.793945 0.793945
0.823730 0.823730 0.823730
0.676270 0.676270 0.676270
0.676270 0.676270 0.676270
0.676270 0.676270 0.676270
0.676270 0.676270 0.676270
0.676270 0.676270 0.676270
0.676270 0.676270 0.676270
0.676270 0.676270 0.676270
0.676270 0.676270 0.676270
0.676270 0.676270 0.676270
0.676270 0.676270 0.676270
0.676270 0.676270 0.676270
0.676758 0.676758 0.676270
0.676758 0.676758 0.676758
0.676758 0.676758 0.676758
0.677734 0.677734 0.677734
0.677734 0.677734 0.677734
0.678223 0.678223 0.678223
0.679199 0.679199 0.679199
