RED_IPP2_Creative/RED_BW_0100.cube
# RED Digital Cinema Output Transform LUT for IPP2
# Creatives by Eric Weidt
# BMD cube from Truelight v4.0
# Settings used in creation of this LUT are:
# Development Color Space = USER SELECTABLE
# Output Gamma Curve = USER SELECTABLE
# Output Tonemap = USER SELECTABLE
# Highlight Rolloff = USER SELECTABLE
LUT_3D_SIZE 9
0.050781 0.050781 0.050781
0.053802 0.053802 0.053802
0.081360 0.081360 0.081360
0.207031 0.207031 0.207031
0.386719 0.386719 0.386719
0.564453 0.564453 0.564453
0.722168 0.722168 0.722168
0.850586 0.850586 0.850586
0.925781 0.925781 0.925781
0.061462 0.061462 0.061462
0.069702 0.069702 0.069702
0.106812 0.106812 0.106812
0.222534 0.222534 0.222534
0.392090 0.392090 0.392090
0.565918 0.565918 0.565918
0.722656 0.722656 0.722656
0.850586 0.850586 0.850586
0.925781 0.925781 0.925781
0.150146 0.150146 0.150146
0.159912 0.159912 0.159912
0.190674 0.190674 0.190674
0.269043 0.269043 0.268799
0.408936 0.408936 0.408936
0.570312 0.570312 0.570312
0.723633 0.723633 0.723633
0.851074 0.851074 0.851074
0.925781 0.925781 0.925781
0.322266 0.322266 0.322266
0.325684 0.325684 0.325684
0.337891 0.337891 0.337891
0.373779 0.373779 0.373779
0.457031 0.457031 0.457031
0.585449 0.585449 0.585449
0.727539 0.727539 0.727539
0.851562 0.851562 0.851562
0.926270 0.926270 0.926270
0.506348 0.506348 0.506348
0.507324 0.507324 0.506836
0.510254 0.510254 0.510254
0.520996 0.520996 0.520996
0.553711 0.553711 0.553711
0.627930 0.627930 0.627930
0.741211 0.741211 0.741211
0.854492 0.854492 0.854492
0.926758 0.926758 0.926758
0.670898 0.670898 0.670898
0.671875 0.671875 0.671875
0.672363 0.672363 0.672363
0.674805 0.674805 0.674805
0.684082 0.684082 0.684082
0.713379 0.713379 0.713379
0.778809 0.778809 0.778809
0.862793 0.862793 0.862793
0.928223 0.928223 0.928223
0.814941 0.814941 0.814941
0.814941 0.814941 0.814941
0.814941 0.814941 0.814941
0.815918 0.815918 0.815918
0.817383 0.817383 0.817383
0.824707 0.824707 0.824707
0.844727 0.844727 0.844727
0.884277 0.884277 0.884277
0.933594 0.933594 0.933594
0.904297 0.904297 0.904297
0.904297 0.904297 0.904297
0.904297 0.904297 0.904297
0.904297 0.904297 0.904297
0.904785 0.904785 0.904785
0.906250 0.906250 0.906250
0.910156 0.910156 0.910156
0.922363 0.922363 0.922363
0.947754 0.947754 0.947754
0.961914 0.961914 0.961914
0.961914 0.961914 0.961914
0.961914 0.961914 0.961914
0.961914 0.961914 0.961914
0.961914 0.961914 0.961914
0.962402 0.962402 0.962402
0.963379 0.963379 0.963379
0.966309 0.966309 0.966309
0.976074 0.976074 0.976074
0.058014 0.058014 0.058014
0.065430 0.065430 0.065430
0.100586 0.100586 0.100586
0.219238 0.219238 0.219238
0.390869 0.390869 0.390869
0.565430 0.565430 0.565430
0.722656 0.722656 0.722656
0.850586 0.850586 0.850586
0.925781 0.925781 0.925781
0.077393 0.077393 0.077393
0.086914 0.086914 0.086914
0.128784 0.128784 0.128784
0.233765 0.233765 0.233765
0.395752 0.395752 0.395752
0.566895 0.566895 0.566895
0.722656 0.722656 0.722656
0.850586 0.850586 0.850586
0.925781 0.925781 0.925781
0.167603 0.167603 0.167603
0.176270 0.176270 0.176270
0.204346 0.204346 0.204346
0.277832 0.277832 0.277832
0.412109 0.412109 0.412109
0.571289 0.571289 0.571289
0.723633 0.723633 0.723633
0.851074 0.851074 0.851074
0.925781 0.925781 0.925781
0.328857 0.328857 0.328857
0.332031 0.332031 0.332031
0.343506 0.343506 0.343506
0.377930 0.377930 0.377930
0.459229 0.459229 0.459229
0.586426 0.586426 0.586426
0.727539 0.727539 0.727539
0.851562 0.851562 0.851562
0.926270 0.926270 0.926270
0.507812 0.507812 0.507812
0.508789 0.508789 0.508789
0.512207 0.512207 0.512207
0.522461 0.522461 0.522461
0.555176 0.555176 0.555176
0.628418 0.628418 0.628418
0.741211 0.741211 0.741211
0.854492 0.854492 0.854492
0.926758 0.926758 0.926758
0.671875 0.671875 0.671875
0.671875 0.671875 0.671875
0.672363 0.672363 0.672363
0.675293 0.675293 0.675293
0.685059 0.685059 0.685059
0.713379 0.713379 0.713379
0.778809 0.778809 0.778809
0.862793 0.862793 0.862793
0.928223 0.928223 0.928223
0.814941 0.814941 0.814941
0.814941 0.814941 0.814941
0.815430 0.815430 0.815430
0.815918 0.815918 0.815918
0.817383 0.817383 0.817383
0.824707 0.824707 0.824707
0.844727 0.844727 0.844727
0.884277 0.884277 0.884277
0.933594 0.933594 0.933594
0.904297 0.904297 0.904297
0.904297 0.904297 0.904297
0.904297 0.904297 0.904297
0.904297 0.904297 0.904297
0.904785 0.904785 0.904785
0.906250 0.906250 0.906250
0.910156 0.910156 0.910156
0.922363 0.922363 0.922363
0.947754 0.947754 0.947754
0.961914 0.961914 0.961914
0.961914 0.961914 0.961914
0.961914 0.961914 0.961914
0.961914 0.961914 0.961914
0.961914 0.961914 0.961914
0.962402 0.962402 0.962402
0.963379 0.963379 0.963379
0.966309 0.966309 0.966309
0.976074 0.976074 0.976074
0.125610 0.125488 0.125488
0.136719 0.136719 0.136719
0.171875 0.171875 0.171875
0.257080 0.257080 0.257080
0.404541 0.404541 0.404541
0.568848 0.568848 0.568848
0.723145 0.723145 0.723145
0.851074 0.851074 0.851074
0.925781 0.925781 0.925781
0.150635 0.150635 0.150635
0.160400 0.160400 0.160400
0.191162 0.191162 0.191162
0.269043 0.269043 0.269043
0.408936 0.408936 0.408936
0.570312 0.570312 0.570312
0.723633 0.723633 0.723633
0.851074 0.851074 0.851074
0.925781 0.925781 0.925781
0.218262 0.218262 0.218262
0.224609 0.224609 0.224365
0.245483 0.245483 0.245483
0.306396 0.306396 0.306396
0.424316 0.424316 0.423828
0.574707 0.574707 0.574707
0.725098 0.725098 0.725098
0.851074 0.851074 0.851074
0.925781 0.925781 0.925781
0.349609 0.349609 0.349609
0.352295 0.352295 0.352295
0.362305 0.362305 0.362305
0.393066 0.393066 0.393066
0.467773 0.467773 0.467773
0.589355 0.589355 0.589355
0.729004 0.729004 0.729004
0.851562 0.851562 0.851562
0.926270 0.926270 0.926270
0.513672 0.513672 0.513672
0.514648 0.514648 0.514648
0.517578 0.517578 0.517578
0.527832 0.527832 0.527832
0.559082 0.558594 0.558594
0.630371 0.630371 0.630371
0.742188 0.742188 0.742188
0.854492 0.854492 0.854492
0.926758 0.926758 0.926758
0.672852 0.672852 0.672852
0.673340 0.673340 0.673340
0.673828 0.673828 0.673828
0.676270 0.676270 0.676270
0.686035 0.686035 0.686035
0.714355 0.714355 0.714355
0.779297 0.779297 0.779297
0.862793 0.862793 0.862793
0.928223 0.928223 0.928223
0.815430 0.815430 0.815430
0.815430 0.815430 0.815430
0.815430 0.815430 0.815430
0.815918 0.815918 0.815918
0.817871 0.817871 0.817871
0.825195 0.825195 0.825195
0.844727 0.844727 0.844727
0.884277 0.884277 0.884277
0.933594 0.933594 0.933594
0.904297 0.904297 0.904297
0.904297 0.904297 0.904297
0.904297 0.904297 0.904297
0.904785 0.904785 0.904785
0.904785 0.904785 0.904785
0.906250 0.906250 0.906250
0.910156 0.910156 0.910156
0.922363 0.922363 0.922363
0.947754 0.947754 0.947754
0.961914 0.961914 0.961914
0.961914 0.961914 0.961914
0.961914 0.961914 0.961914
0.961914 0.961914 0.961914
0.961914 0.961914 0.961914
0.962402 0.962402 0.962402
0.963379 0.963379 0.963379
0.966309 0.966309 0.966309
0.976074 0.976074 0.976074
0.288086 0.288086 0.288086
0.292480 0.292480 0.292480
0.307129 0.307129 0.307129
0.350586 0.350586 0.350586
0.444824 0.444824 0.444824
0.581543 0.581543 0.581543
0.726562 0.726562 0.726562
0.851562 0.851562 0.851562
0.926270 0.926270 0.926270
0.298096 0.298096 0.298096
0.302246 0.302246 0.302246
0.315918 0.315918 0.315918
0.356934 0.356934 0.356934
0.448242 0.448242 0.448242
0.582520 0.582520 0.582520
0.726562 0.726562 0.726562
0.851562 0.851562 0.851562
0.926270 0.926270 0.926270
0.329590 0.329590 0.329590
0.332520 0.332520 0.332520
0.343994 0.343994 0.343994
0.378662 0.378662 0.378662
0.459717 0.459717 0.459717
0.586426 0.586426 0.586426
0.727539 0.727539 0.727539
0.851562 0.851562 0.851562
0.926270 0.926270 0.926270
0.406006 0.406006 0.406006
0.407715 0.407715 0.407715
0.414551 0.414551 0.414551
0.436279 0.436279 0.436279
0.494141 0.494141 0.494141
0.600098 0.600098 0.600098
0.731934 0.731934 0.731934
0.852539 0.852539 0.852539
0.926270 0.926270 0.926270
0.532715 0.532715 0.532715
0.533203 0.533203 0.533203
0.535645 0.535645 0.535645
0.544922 0.544922 0.544922
0.572266 0.572266 0.572266
0.637695 0.637695 0.637695
0.745117 0.745117 0.744629
0.854980 0.854980 0.854980
0.926758 0.926758 0.926758
0.678223 0.678223 0.678223
0.678223 0.678223 0.678223
0.678711 0.678711 0.678711
0.681641 0.681641 0.681641
0.690918 0.690918 0.690918
0.717773 0.717773 0.717773
0.780762 0.780762 0.780762
0.863281 0.863281 0.863281
0.928223 0.928223 0.928223
0.815918 0.815918 0.815918
0.815918 0.815918 0.815918
0.816406 0.816406 0.816406
0.816895 0.816895 0.816895
0.818848 0.818848 0.818848
0.826172 0.826172 0.826172
0.845703 0.845703 0.845703
0.884766 0.884766 0.884766
0.933594 0.933594 0.933594
0.904785 0.904785 0.904785
0.904785 0.904785 0.904785
0.904785 0.904785 0.904785
0.904785 0.904785 0.904785
0.905273 0.905273 0.905273
0.906250 0.906250 0.906250
0.910645 0.910645 0.910645
0.922363 0.922363 0.922363
0.947754 0.947754 0.947754
0.961914 0.961914 0.961914
0.961914 0.961914 0.961914
0.961914 0.961914 0.961914
0.961914 0.961914 0.961914
0.961914 0.961914 0.961914
0.962402 0.962402 0.962402
0.963379 0.963379 0.963379
0.966309 0.966309 0.966309
0.976074 0.976074 0.976074
0.473389 0.473389 0.473389
0.474609 0.474609 0.474609
0.478760 0.478760 0.478760
0.492432 0.492432 0.492432
0.532227 0.532227 0.532227
0.617188 0.617188 0.617188
0.737793 0.737793 0.737793
0.853516 0.853516 0.853516
0.926270 0.926270 0.926270
0.476318 0.476318 0.476318
0.477295 0.477295 0.477295
0.481201 0.481201 0.481201
0.494873 0.494873 0.494873
0.534180 0.533691 0.533691
0.617676 0.617676 0.617676
0.737793 0.737793 0.737793
0.853516 0.853516 0.853516
0.926270 0.926270 0.926270
0.485352 0.485352 0.485352
0.486572 0.486572 0.486572
0.490234 0.490234 0.490234
0.502930 0.502930 0.502930
0.540039 0.540039 0.540039
0.621094 0.621094 0.621094
0.738770 0.738770 0.738770
0.853516 0.853516 0.853516
0.926270 0.926270 0.926270
0.514160 0.514160 0.514160
0.515137 0.515137 0.515137
0.518066 0.518066 0.518066
0.528320 0.528320 0.528320
0.559570 0.559570 0.559570
0.630859 0.630859 0.630859
0.742188 0.742188 0.742188
0.854492 0.854492 0.854492
0.926758 0.926758 0.926758
0.583008 0.583008 0.583008
0.583984 0.583984 0.583984
0.585449 0.585449 0.585449
0.591309 0.591309 0.591309
0.610352 0.610352 0.610352
0.661133 0.661133 0.661133
0.753418 0.753418 0.753418
0.856934 0.856934 0.856934
0.927246 0.927246 0.927246
0.694336 0.694336 0.694336
0.694824 0.694824 0.694824
0.695312 0.695312 0.695312
0.697266 0.697266 0.697266
0.705566 0.705566 0.705566
0.729492 0.729492 0.729492
0.787598 0.787598 0.787598
0.864746 0.864746 0.864746
0.928711 0.928711 0.928711
0.819824 0.819824 0.819824
0.820312 0.820312 0.820312
0.820312 0.820312 0.820312
0.820801 0.820801 0.820801
0.822266 0.822266 0.822266
0.829590 0.829590 0.829590
0.848145 0.848145 0.848145
0.885742 0.885742 0.885742
0.934082 0.934082 0.934082
0.905273 0.905273 0.905273
0.905273 0.905273 0.905273
0.905273 0.905273 0.905273
0.905273 0.905273 0.905273
0.905762 0.905762 0.905762
0.906738 0.906738 0.906738
0.911133 0.911133 0.911133
0.922852 0.922852 0.922852
0.948242 0.948242 0.948242
0.962402 0.962402 0.962402
0.962402 0.962402 0.962402
0.962402 0.962402 0.962402
0.962402 0.962402 0.962402
0.962402 0.962402 0.962402
0.962402 0.962402 0.962402
0.963379 0.963379 0.963379
0.966797 0.966797 0.966797
0.976074 0.976074 0.976074
0.642090 0.642090 0.642090
0.642090 0.642090 0.642090
0.643555 0.643555 0.643555
0.646973 0.646973 0.646973
0.658691 0.658691 0.658691
0.694336 0.694336 0.694336
0.769531 0.769531 0.769531
0.860352 0.860352 0.860352
0.927734 0.927734 0.927734
0.643066 0.643066 0.643066
0.643066 0.643066 0.643066
0.644043 0.644043 0.644043
0.647949 0.647949 0.647949
0.659668 0.659668 0.659668
0.694824 0.694824 0.694824
0.769531 0.769531 0.769531
0.860352 0.860352 0.860352
0.927734 0.927734 0.927734
0.645508 0.645508 0.645508
0.645508 0.645508 0.645508
0.646484 0.646484 0.646484
0.649414 0.649414 0.649414
0.662109 0.662109 0.662109
0.696289 0.696289 0.696289
0.770020 0.770020 0.770020
0.860352 0.860352 0.860352
0.927734 0.927734 0.927734
0.653320 0.653320 0.653320
0.653320 0.653320 0.653320
0.654785 0.654785 0.654785
0.657715 0.657715 0.657715
0.668457 0.668457 0.668457
0.701660 0.701660 0.701660
0.772461 0.772461 0.772461
0.861328 0.861328 0.861328
0.927734 0.927734 0.927734
0.678223 0.678223 0.678223
0.678711 0.678711 0.678711
0.679688 0.679688 0.679688
0.681641 0.681641 0.681641
0.690918 0.690918 0.690918
0.718262 0.718262 0.718262
0.781738 0.781738 0.781738
0.863281 0.863281 0.863281
0.928223 0.928223 0.928223
0.739258 0.739258 0.739258
0.739258 0.739258 0.739258
0.739746 0.739746 0.739746
0.741211 0.741211 0.741211
0.746094 0.746094 0.746094
0.763184 0.763184 0.763184
0.807129 0.807129 0.807129
0.870605 0.870605 0.870605
0.929688 0.929688 0.929688
0.832031 0.832031 0.832031
0.832031 0.832031 0.832031
0.832520 0.832520 0.832520
0.833008 0.833008 0.833008
0.833984 0.833984 0.833984
0.839844 0.839844 0.839844
0.855469 0.855469 0.855469
0.889160 0.889160 0.889160
0.935059 0.935059 0.935059
0.907715 0.907715 0.907715
0.907715 0.907715 0.907715
0.907715 0.907715 0.907715
0.907715 0.907715 0.907715
0.907715 0.907715 0.907715
0.909180 0.909180 0.909180
0.913086 0.913086 0.913086
0.924316 0.924316 0.924316
0.948730 0.948730 0.948730
0.962402 0.962402 0.962402
0.962402 0.962402 0.962402
0.962402 0.962402 0.962402
0.962402 0.962402 0.962402
0.962891 0.962891 0.962891
0.962891 0.962891 0.962891
0.963867 0.963867 0.963867
0.966797 0.966797 0.966797
0.976562 0.976562 0.976562
0.791016 0.791016 0.791016
0.791016 0.791016 0.791016
0.791504 0.791504 0.791504
0.792480 0.792480 0.792480
0.794922 0.794922 0.794922
0.805176 0.805176 0.805176
0.832031 0.832031 0.832031
0.878906 0.878906 0.878906
0.932129 0.932129 0.932129
0.791504 0.791504 0.791504
0.791504 0.791504 0.791504
0.791504 0.791504 0.791504
0.792480 0.792480 0.792480
0.795410 0.795410 0.795410
0.805176 0.805176 0.805176
0.832031 0.832031 0.832031
0.878906 0.878906 0.878906
0.932129 0.932129 0.932129
0.791992 0.791992 0.791992
0.791992 0.791992 0.791992
0.791992 0.791992 0.791992
0.792969 0.792969 0.792969
0.796387 0.796387 0.796387
0.805664 0.805664 0.805664
0.832520 0.832520 0.832520
0.878906 0.878906 0.878906
0.932129 0.932129 0.932129
0.793945 0.793945 0.793457
0.793945 0.793945 0.793457
0.793945 0.793945 0.793945
0.794922 0.794922 0.794922
0.797852 0.797852 0.797852
0.807617 0.807617 0.807617
0.833008 0.833008 0.833008
0.879395 0.879395 0.879395
0.932129 0.932129 0.932129
0.800781 0.800781 0.800781
0.800781 0.800781 0.800781
0.800781 0.800781 0.800781
0.801758 0.801758 0.801758
0.804199 0.804199 0.804199
0.812988 0.812988 0.812988
0.836914 0.836914 0.836914
0.880859 0.880859 0.880859
0.932617 0.932617 0.932617
0.820312 0.820312 0.820312
0.820312 0.820312 0.820312
0.820801 0.820801 0.820801
0.821289 0.821289 0.821289
0.822754 0.822754 0.822754
0.829590 0.829590 0.829590
0.848145 0.848145 0.848145
0.885742 0.885742 0.885742
0.934082 0.934082 0.934082
0.861328 0.861328 0.861328
0.861328 0.861328 0.861328
0.861328 0.861328 0.861328
0.861816 0.861816 0.861816
0.862793 0.862793 0.862793
0.866211 0.866211 0.865723
0.875488 0.875488 0.875488
0.899902 0.899902 0.899902
0.938477 0.938477 0.938477
0.914551 0.914551 0.914551
0.914551 0.914551 0.914551
0.914551 0.914551 0.914551
0.914551 0.914551 0.914551
0.915039 0.915039 0.915039
0.916016 0.916016 0.916016
0.919434 0.919434 0.919434
0.929199 0.929199 0.929199
0.951172 0.951172 0.951172
0.964355 0.964355 0.964355
0.964355 0.964355 0.964355
0.964355 0.964355 0.964355
0.964355 0.964355 0.964355
0.964355 0.964355 0.964355
0.964844 0.964844 0.964844
0.965332 0.965332 0.965332
0.968750 0.968750 0.968750
0.978027 0.978027 0.978027
0.891113 0.891113 0.891113
0.891113 0.891113 0.891113
0.891113 0.891113 0.891113
0.891113 0.891113 0.891113
0.891602 0.891602 0.891602
0.893066 0.893066 0.893066
0.898926 0.898926 0.898926
0.914551 0.914551 0.914551
0.944336 0.944336 0.944336
0.891113 0.891113 0.891113
0.891113 0.891113 0.891113
0.891113 0.891113 0.891113
0.891113 0.891113 0.891113
0.891602 0.891602 0.891602
0.893066 0.893066 0.893066
0.898926 0.898926 0.898926
0.914551 0.914551 0.914551
0.944336 0.944336 0.944336
0.891113 0.891113 0.891113
0.891113 0.891113 0.891113
0.891113 0.891113 0.891113
0.891113 0.891113 0.891113
0.891602 0.891602 0.891602
0.893555 0.893555 0.893555
0.898926 0.898926 0.898926
0.914551 0.914551 0.914551
0.944336 0.944336 0.944336
0.891602 0.891602 0.891602
0.891602 0.891602 0.891602
0.891602 0.891602 0.891602
0.891602 0.891602 0.891602
0.892090 0.892090 0.892090
0.894043 0.894043 0.894043
0.899414 0.899414 0.899414
0.914551 0.914551 0.914551
0.944336 0.944336 0.944336
0.892578 0.892578 0.892578
0.892578 0.892578 0.892578
0.892578 0.892578 0.892578
0.892578 0.892578 0.892578
0.893066 0.893066 0.893066
0.894531 0.894531 0.894531
0.900391 0.900391 0.900391
0.915527 0.915527 0.915527
0.944336 0.944336 0.944336
0.896484 0.896484 0.896484
0.896484 0.896484 0.896484
0.896484 0.896484 0.896484
0.896484 0.896484 0.896484
0.896973 0.896973 0.896973
0.898438 0.898438 0.898438
0.903320 0.903320 0.903320
0.917480 0.917480 0.917480
0.945801 0.945801 0.945801
0.907715 0.907715 0.907715
0.907715 0.907715 0.907715
0.907715 0.907715 0.907715
0.907715 0.907715 0.907715
0.908203 0.908203 0.908203
0.909180 0.909180 0.909180
0.913086 0.913086 0.913086
0.924316 0.924316 0.924316
0.948730 0.948730 0.948730
0.932617 0.932617 0.932617
0.932617 0.932617 0.932617
0.932617 0.932617 0.932617
0.932617 0.932617 0.932617
0.933105 0.933105 0.933105
0.933594 0.933594 0.933594
0.935547 0.935547 0.935547
0.941895 0.941895 0.941895
0.958984 0.958984 0.958984
0.969727 0.969727 0.969727
0.969727 0.969727 0.969727
0.969727 0.969727 0.969727
0.969727 0.969727 0.969727
0.969727 0.969727 0.969727
0.970215 0.970215 0.970215
0.970703 0.970703 0.970703
0.973633 0.973633 0.973633
0.982422 0.982422 0.982422
0.952148 0.952148 0.952148
0.952148 0.952148 0.952148
0.952148 0.952148 0.952148
0.952148 0.952148 0.952148
0.952637 0.952637 0.952637
0.953125 0.953125 0.953125
0.954102 0.954102 0.954102
0.958008 0.958008 0.958008
0.969727 0.969727 0.969727
0.952148 0.952148 0.952148
0.952148 0.952148 0.952148
0.952148 0.952148 0.952148
0.952148 0.952148 0.952148
0.952637 0.952637 0.952637
0.953125 0.953125 0.953125
0.954102 0.954102 0.954102
0.958008 0.958008 0.958008
0.969727 0.969727 0.969727
0.952148 0.952148 0.952148
0.952148 0.952148 0.952148
0.952148 0.952148 0.952148
0.952637 0.952637 0.952148
0.952637 0.952637 0.952637
0.953125 0.953125 0.953125
0.954102 0.954102 0.954102
0.958008 0.958008 0.958008
0.969727 0.969727 0.969727
0.952637 0.952637 0.952148
0.952637 0.952637 0.952148
0.952637 0.952637 0.952637
0.952637 0.952637 0.952637
0.952637 0.952637 0.952637
0.953125 0.953125 0.953125
0.954102 0.954102 0.954102
0.958008 0.958008 0.958008
0.969727 0.969727 0.969727
0.952637 0.952637 0.952637
0.952637 0.952637 0.952637
0.952637 0.952637 0.952637
0.952637 0.952637 0.952637
0.952637 0.952637 0.952637
0.953125 0.953125 0.953125
0.954590 0.954590 0.954590
0.958008 0.958008 0.958008
0.969727 0.969727 0.969727
0.953613 0.953613 0.953613
0.953613 0.953613 0.953613
0.953613 0.953613 0.953613
0.953613 0.953613 0.953613
0.953613 0.953613 0.953613
0.954102 0.954102 0.954102
0.955078 0.955078 0.955078
0.958984 0.958984 0.958984
0.970215 0.970215 0.970215
0.956055 0.956055 0.956055
0.956055 0.956055 0.956055
0.956055 0.956055 0.956055
0.956055 0.956055 0.956055
0.956055 0.956055 0.956055
0.956543 0.956543 0.956543
0.957520 0.957520 0.957520
0.961426 0.961426 0.961426
0.972168 0.972168 0.972168
0.964355 0.964355 0.964355
0.964355 0.964355 0.964355
0.964355 0.964355 0.964355
0.964355 0.964355 0.964355
0.964844 0.964844 0.964844
0.964844 0.964844 0.964844
0.965332 0.965332 0.965332
0.968750 0.968750 0.968750
0.978027 0.978027 0.978027
0.986328 0.986328 0.986328
0.986328 0.986328 0.986328
0.986328 0.986328 0.986328
0.986328 0.986328 0.986328
0.986328 0.986328 0.986328
0.986328 0.986328 0.986328
0.986816 0.986816 0.986816
0.989258 0.989258 0.989258
0.999023 0.999023 0.999023
