RED_IPP2_Creative/RED_BW_0400.cube
# RED Digital Cinema Output Transform LUT for IPP2
# Creatives by Eric Weidt
# BMD cube from Truelight v4.0
# Settings used in creation of this LUT are:
# Development Color Space = USER SELECTABLE
# Output Gamma Curve = USER SELECTABLE
# Output Tonemap = USER SELECTABLE
# Highlight Rolloff = USER SELECTABLE
LUT_3D_SIZE 33
0.016556 0.016556 0.016556
0.014580 0.014580 0.014587
0.012764 0.012772 0.012779
0.015076 0.015076 0.015091
0.025787 0.025787 0.025787
0.049255 0.049255 0.049255
0.093689 0.093689 0.093689
0.159424 0.159424 0.159424
0.230103 0.230103 0.230103
0.291748 0.291748 0.291504
0.343262 0.343262 0.343262
0.387451 0.387451 0.387451
0.424561 0.424561 0.424561
0.456299 0.456299 0.456055
0.481445 0.481445 0.481445
0.501953 0.501953 0.501465
0.520020 0.520020 0.520020
0.538574 0.538574 0.538574
0.557617 0.557617 0.557617
0.576172 0.576172 0.576172
0.595215 0.595215 0.595215
0.613770 0.613770 0.613770
0.632812 0.632812 0.632812
0.651855 0.651855 0.651855
0.670898 0.670898 0.670898
0.690430 0.690430 0.690430
0.709961 0.709961 0.709961
0.729492 0.729492 0.729492
0.749512 0.749512 0.749512
0.770020 0.770020 0.770020
0.791016 0.791016 0.791016
0.813477 0.813477 0.813477
0.839355 0.839355 0.839355
0.018097 0.018112 0.018112
0.018967 0.018967 0.018982
0.019913 0.019913 0.019928
0.024353 0.024353 0.024353
0.035767 0.035797 0.035797
0.057800 0.057800 0.057831
0.098999 0.098999 0.098999
0.162109 0.162109 0.162109
0.231445 0.231445 0.231445
0.292480 0.292480 0.292480
0.343750 0.343750 0.343750
0.387695 0.387695 0.387695
0.424805 0.424805 0.424805
0.456299 0.456299 0.456299
0.481445 0.481445 0.481445
0.501953 0.501953 0.501953
0.520020 0.520020 0.520020
0.538574 0.538574 0.538574
0.557617 0.557617 0.557617
0.576172 0.576172 0.576172
0.595215 0.595215 0.595215
0.613770 0.613770 0.613770
0.632812 0.632812 0.632812
0.651855 0.651855 0.651855
0.670898 0.670898 0.670898
0.690430 0.690430 0.690430
0.709961 0.709961 0.709961
0.729492 0.729492 0.729492
0.749512 0.749512 0.749512
0.770020 0.770020 0.770020
0.791016 0.791016 0.791016
0.813477 0.813477 0.813477
0.839355 0.839355 0.839355
0.019821 0.019821 0.019836
0.019623 0.019638 0.019638
0.019821 0.019821 0.019836
0.023895 0.023895 0.023911
0.035583 0.035583 0.035583
0.058655 0.058655 0.058655
0.100769 0.100769 0.100769
0.163574 0.163574 0.163574
0.232544 0.232544 0.232544
0.292969 0.292969 0.292969
0.344238 0.344238 0.344238
0.387939 0.387939 0.387939
0.425049 0.425049 0.425049
0.456543 0.456543 0.456543
0.481689 0.481689 0.481689
0.501953 0.501953 0.501953
0.520508 0.520508 0.520508
0.539062 0.539062 0.539062
0.557617 0.557617 0.557617
0.576172 0.576172 0.576172
0.595215 0.595215 0.595215
0.613770 0.613770 0.613770
0.632812 0.632812 0.632812
0.651855 0.651855 0.651855
0.670898 0.670898 0.670898
0.690430 0.690430 0.690430
0.709961 0.709961 0.709961
0.729492 0.729492 0.729492
0.749512 0.749512 0.749512
0.770020 0.770020 0.770020
0.791016 0.791016 0.791016
0.813477 0.813477 0.813477
0.839355 0.839355 0.839355
0.029709 0.029709 0.029709
0.027451 0.027451 0.027466
0.025787 0.025787 0.025787
0.028061 0.028061 0.028076
0.038116 0.038116 0.038116
0.059814 0.059814 0.059814
0.101074 0.101074 0.101074
0.163574 0.163574 0.163574
0.232422 0.232422 0.232422
0.292969 0.292969 0.292969
0.344238 0.344238 0.344238
0.388184 0.388184 0.388184
0.425049 0.425049 0.425049
0.456543 0.456543 0.456543
0.481689 0.481689 0.481689
0.501953 0.501953 0.501953
0.520508 0.520508 0.520508
0.539062 0.539062 0.539062
0.558105 0.558105 0.558105
0.576172 0.576172 0.576172
0.595215 0.595215 0.595215
0.613770 0.613770 0.613770
0.632812 0.632812 0.632812
0.651855 0.651855 0.651855
0.670898 0.670898 0.670898
0.690430 0.690430 0.690430
0.709961 0.709961 0.709961
0.729492 0.729492 0.729492
0.749512 0.749512 0.749512
0.770020 0.770020 0.770020
0.791016 0.791016 0.791016
0.813477 0.813477 0.813477
0.839355 0.839355 0.839355
0.054047 0.054047 0.054077
0.048279 0.048279 0.048279
0.043304 0.043304 0.043304
0.042236 0.042236 0.042236
0.048615 0.048615 0.048615
0.066650 0.066650 0.066650
0.104675 0.104675 0.104675
0.165039 0.165039 0.165039
0.233032 0.233032 0.233032
0.293213 0.293213 0.293213
0.344238 0.344238 0.344238
0.388184 0.388184 0.388184
0.425049 0.425049 0.425049
0.456543 0.456543 0.456543
0.481689 0.481689 0.481689
0.501953 0.501953 0.501953
0.520508 0.520508 0.520508
0.539062 0.539062 0.539062
0.558105 0.558105 0.558105
0.576172 0.576172 0.576172
0.595215 0.595215 0.595215
0.613770 0.613770 0.613770
0.632812 0.632812 0.632812
0.651855 0.651855 0.651855
0.670898 0.670898 0.670898
0.690430 0.690430 0.690430
0.709961 0.709961 0.709961
0.729492 0.729492 0.729492
0.749512 0.749512 0.749512
0.770020 0.770020 0.770020
0.791016 0.791016 0.791016
0.813477 0.813477 0.813477
0.839355 0.839355 0.839355
0.094543 0.094543 0.094543
0.085388 0.085388 0.085388
0.077332 0.077332 0.077332
0.072144 0.072144 0.072144
0.072998 0.072998 0.072998
0.084229 0.084229 0.084229
0.114746 0.114746 0.114746
0.169678 0.169678 0.169678
0.234863 0.234863 0.234863
0.293945 0.293945 0.293945
0.344727 0.344727 0.344727
0.388428 0.388428 0.388428
0.425293 0.425293 0.425293
0.456543 0.456543 0.456543
0.481689 0.481689 0.481689
0.501953 0.501953 0.501953
0.520508 0.520508 0.520508
0.539062 0.539062 0.539062
0.558105 0.558105 0.558105
0.576172 0.576172 0.576172
0.595215 0.595215 0.595215
0.613770 0.613770 0.613770
0.632812 0.632812 0.632812
0.651855 0.651855 0.651855
0.670898 0.670898 0.670898
0.690430 0.690430 0.690430
0.709961 0.709961 0.709961
0.729492 0.729492 0.729492
0.749512 0.749512 0.749512
0.770020 0.770020 0.770020
0.791016 0.791016 0.791016
0.813477 0.813477 0.813477
0.839355 0.839355 0.839355
0.155762 0.155762 0.155762
0.142090 0.142090 0.141968
0.129272 0.129272 0.129272
0.119019 0.119019 0.119019
0.113220 0.113220 0.113220
0.115906 0.115906 0.115906
0.135620 0.135620 0.135620
0.180420 0.180420 0.180420
0.239746 0.239746 0.239746
0.296143 0.296143 0.296143
0.345703 0.345703 0.345703
0.388916 0.388916 0.388916
0.425537 0.425537 0.425537
0.456787 0.456787 0.456787
0.481934 0.481934 0.481934
0.501953 0.501953 0.501953
0.520508 0.520508 0.520508
0.539062 0.539062 0.539062
0.558105 0.558105 0.558105
0.576172 0.576172 0.576172
0.595215 0.595215 0.595215
0.613770 0.613770 0.613770
0.632812 0.632812 0.632812
0.651855 0.651855 0.651855
0.670898 0.670898 0.670898
0.690430 0.690430 0.690430
0.709961 0.709961 0.709961
0.729492 0.729492 0.729492
0.749512 0.749512 0.749512
0.770020 0.770020 0.770020
0.791016 0.791016 0.791016
0.813477 0.813477 0.813477
0.839355 0.839355 0.839355
0.232910 0.232910 0.232910
0.217163 0.217163 0.217163
0.201782 0.201782 0.201782
0.187500 0.187500 0.187500
0.175293 0.175293 0.175293
0.168457 0.168457 0.168457
0.173828 0.173828 0.173828
0.202026 0.202026 0.202026
0.250000 0.250000 0.250000
0.301270 0.301270 0.301270
0.348389 0.348389 0.348389
0.390381 0.390381 0.390381
0.426514 0.426514 0.426270
0.457275 0.457275 0.457275
0.482178 0.482178 0.482178
0.502441 0.502441 0.502441
0.520508 0.520508 0.520508
0.539062 0.539062 0.539062
0.558105 0.558105 0.558105
0.576172 0.576172 0.576172
0.595703 0.595703 0.595703
0.613770 0.613770 0.613770
0.632812 0.632812 0.632812
0.651855 0.651855 0.651855
0.670898 0.670898 0.670898
0.690430 0.690430 0.690430
0.709961 0.709961 0.709961
0.729492 0.729492 0.729492
0.749512 0.749512 0.749512
0.770020 0.770020 0.770020
0.791016 0.791016 0.791016
0.813477 0.813477 0.813477
0.839355 0.839355 0.839355
0.308838 0.308838 0.308838
0.294678 0.294678 0.294678
0.280029 0.280029 0.280029
0.265381 0.265381 0.265137
0.251465 0.251465 0.251465
0.239502 0.239502 0.239502
0.234009 0.234009 0.234009
0.243652 0.243652 0.243652
0.273438 0.273438 0.273438
0.313477 0.313477 0.313477
0.354736 0.354736 0.354736
0.393799 0.393799 0.393799
0.428467 0.428467 0.428467
0.458496 0.458496 0.458496
0.482910 0.482910 0.482910
0.502930 0.502930 0.502930
0.520996 0.520996 0.520996
0.539551 0.539551 0.539551
0.558105 0.558105 0.558105
0.576660 0.576660 0.576660
0.595703 0.595703 0.595703
0.613770 0.613770 0.613770
0.632812 0.632812 0.632812
0.651855 0.651855 0.651855
0.670898 0.670898 0.670898
0.690430 0.690430 0.690430
0.709961 0.709961 0.709961
0.729492 0.729492 0.729492
0.749512 0.749512 0.749512
0.770020 0.770020 0.770020
0.791016 0.791016 0.791016
0.813477 0.813477 0.813477
0.839355 0.839355 0.839355
0.372559 0.372559 0.372559
0.360596 0.360596 0.360596
0.348633 0.348633 0.348633
0.336426 0.336426 0.336426
0.324219 0.324219 0.324219
0.312256 0.312256 0.312256
0.303223 0.303223 0.303223
0.301514 0.301514 0.301514
0.313721 0.313721 0.313721
0.338379 0.338379 0.338379
0.369385 0.369385 0.369385
0.402344 0.402344 0.402344
0.433350 0.433350 0.433350
0.461670 0.461670 0.461670
0.485107 0.485107 0.485107
0.504395 0.504395 0.504395
0.521973 0.521973 0.521973
0.540039 0.540039 0.540039
0.558594 0.558594 0.558594
0.577148 0.577148 0.577148
0.595703 0.595703 0.595703
0.614258 0.614258 0.614258
0.633301 0.633301 0.633301
0.651855 0.651855 0.651855
0.670898 0.670898 0.670898
0.690430 0.690430 0.690430
0.709961 0.709961 0.709961
0.729492 0.729492 0.729492
0.749512 0.749512 0.749512
0.770020 0.770020 0.770020
0.791016 0.791016 0.791016
0.813477 0.813477 0.813477
0.839355 0.839355 0.839355
0.425293 0.425293 0.425293
0.415527 0.415527 0.415527
0.405518 0.405518 0.405518
0.395264 0.395264 0.395264
0.385010 0.385010 0.385010
0.374512 0.374512 0.374512
0.365723 0.365723 0.365723
0.360352 0.360352 0.360352
0.363281 0.363281 0.363281
0.375244 0.375244 0.375244
0.394775 0.394775 0.394775
0.418945 0.418945 0.418945
0.444336 0.444336 0.444336
0.468750 0.468750 0.468750
0.489746 0.489746 0.489746
0.507324 0.507324 0.507324
0.524414 0.524414 0.524414
0.541504 0.541504 0.541504
0.559570 0.559570 0.559570
0.577637 0.577637 0.577637
0.596191 0.596191 0.596191
0.614746 0.614746 0.614746
0.633301 0.633301 0.633301
0.652344 0.652344 0.652344
0.671387 0.671387 0.671387
0.690430 0.690430 0.690430
0.709961 0.709961 0.709961
0.729492 0.729492 0.729492
0.749512 0.749512 0.749512
0.770020 0.770020 0.770020
0.791016 0.791016 0.791016
0.813477 0.813477 0.813477
0.839355 0.839355 0.839355
0.469727 0.469727 0.469727
0.461426 0.461426 0.461426
0.452881 0.452881 0.452637
0.444580 0.444580 0.444580
0.435547 0.435547 0.435547
0.426758 0.426758 0.426758
0.418701 0.418701 0.418701
0.412842 0.412842 0.412842
0.411133 0.411133 0.411133
0.416016 0.416016 0.415771
0.426758 0.426758 0.426758
0.442871 0.442871 0.442871
0.461426 0.461426 0.461426
0.481201 0.481201 0.481201
0.499023 0.499023 0.499023
0.514160 0.514160 0.514160
0.529297 0.529297 0.529297
0.545410 0.545410 0.545410
0.562500 0.562500 0.562500
0.579590 0.579590 0.579590
0.597656 0.597656 0.597656
0.615723 0.615723 0.615723
0.633789 0.633789 0.633789
0.652832 0.652832 0.652832
0.671387 0.671387 0.671387
0.690918 0.690918 0.690918
0.709961 0.709961 0.709961
0.729492 0.729492 0.729492
0.749512 0.749512 0.749512
0.770020 0.770020 0.770020
0.791016 0.791016 0.791016
0.813477 0.813477 0.813477
0.839355 0.839355 0.839355
0.506836 0.506836 0.506836
0.500488 0.500000 0.500000
0.493164 0.493164 0.493164
0.485840 0.485840 0.485840
0.478760 0.478760 0.478760
0.471191 0.471191 0.471191
0.463867 0.463867 0.463867
0.458008 0.458008 0.458008
0.454834 0.454834 0.454834
0.455322 0.455322 0.455322
0.460693 0.460693 0.460693
0.470459 0.470459 0.470459
0.483398 0.483398 0.483398
0.498047 0.498047 0.498047
0.512207 0.512207 0.512207
0.524902 0.524902 0.524902
0.537598 0.537598 0.537598
0.551758 0.551758 0.551758
0.567383 0.567383 0.567383
0.583496 0.583496 0.583496
0.600586 0.600586 0.600586
0.617676 0.617676 0.617676
0.635254 0.635254 0.635254
0.653809 0.653809 0.653809
0.672363 0.672363 0.672363
0.691406 0.691406 0.691406
0.710449 0.710449 0.710449
0.729980 0.729980 0.729980
0.750000 0.750000 0.749512
0.770020 0.770020 0.770020
0.791016 0.791016 0.791016
0.813477 0.813477 0.813477
0.839355 0.839355 0.839355
0.538574 0.538574 0.538574
0.532715 0.532715 0.532715
0.526367 0.526367 0.526367
0.520508 0.520508 0.520508
0.514648 0.514648 0.514648
0.507812 0.507812 0.507812
0.501953 0.501953 0.501953
0.496582 0.496582 0.496582
0.492920 0.492920 0.492920
0.491699 0.491699 0.491699
0.494141 0.494141 0.494141
0.499756 0.499756 0.499756
0.507812 0.507812 0.507812
0.518066 0.518066 0.518066
0.528809 0.528809 0.528809
0.539062 0.539062 0.539062
0.549316 0.549316 0.549316
0.561035 0.561035 0.561035
0.574707 0.574707 0.574707
0.589355 0.589355 0.589355
0.604980 0.604980 0.604980
0.621094 0.621094 0.621094
0.638184 0.638184 0.638184
0.655762 0.655762 0.655762
0.673828 0.673828 0.673828
0.692383 0.692383 0.692383
0.711426 0.711426 0.711426
0.730469 0.730469 0.730469
0.750000 0.750000 0.750000
0.770508 0.770508 0.770508
0.791504 0.791504 0.791504
0.813477 0.813477 0.813477
0.839355 0.839355 0.839355
0.563965 0.563965 0.563965
0.559082 0.559082 0.559082
0.554688 0.554688 0.554688
0.549316 0.549316 0.549316
0.544922 0.544922 0.544922
0.539551 0.539551 0.539551
0.534180 0.534180 0.534180
0.529297 0.529297 0.529297
0.525391 0.525391 0.525391
0.524414 0.524414 0.524414
0.524414 0.524414 0.524414
0.527344 0.527344 0.527344
0.532715 0.532715 0.532715
0.540039 0.540039 0.540039
0.547852 0.547852 0.547852
0.555176 0.555176 0.555176
0.563477 0.563477 0.563477
0.573242 0.573242 0.573242
0.584473 0.584473 0.584473
0.597168 0.597168 0.597168
0.611328 0.611328 0.611328
0.625977 0.625977 0.625977
0.642090 0.642090 0.642090
0.658691 0.658691 0.658691
0.676270 0.676270 0.676270
0.694336 0.694336 0.694336
0.712891 0.712891 0.712891
0.731445 0.731445 0.731445
0.750977 0.750977 0.750977
0.770996 0.770996 0.770996
0.791504 0.791504 0.791504
0.813965 0.813965 0.813965
0.839844 0.839844 0.839355
0.584473 0.584473 0.584473
0.580566 0.580566 0.580566
0.576660 0.576660 0.576660
0.572754 0.572754 0.572754
0.568848 0.568848 0.568848
0.564941 0.564941 0.564941
0.560059 0.560059 0.560059
0.556641 0.556641 0.556641
0.553223 0.553223 0.553223
0.551758 0.551758 0.551758
0.551758 0.551758 0.551758
0.553223 0.553223 0.553223
0.556641 0.556641 0.556641
0.562012 0.562012 0.562012
0.567383 0.567383 0.567383
0.572754 0.572754 0.572754
0.579102 0.579102 0.579102
0.586914 0.586914 0.586914
0.596191 0.596191 0.596191
0.606934 0.606934 0.606934
0.619629 0.619629 0.619629
0.632812 0.632812 0.632812
0.647461 0.647461 0.647461
0.663086 0.663086 0.663086
0.679199 0.679199 0.679199
0.696777 0.696777 0.696777
0.714844 0.714844 0.714844
0.732910 0.732910 0.732910
0.751953 0.751953 0.751953
0.771973 0.771973 0.771973
0.792480 0.792480 0.792480
0.814453 0.814453 0.814453
0.839844 0.839844 0.839844
0.603027 0.603027 0.603027
0.599121 0.599121 0.599121
0.595703 0.595703 0.595703
0.591797 0.591797 0.591797
0.588379 0.588379 0.588379
0.584473 0.584473 0.584473
0.581543 0.581543 0.581543
0.578125 0.578125 0.578125
0.575684 0.575684 0.575684
0.574707 0.574707 0.574707
0.574219 0.574219 0.574219
0.575684 0.575684 0.575684
0.577637 0.577637 0.577637
0.581543 0.581543 0.581543
0.585938 0.585938 0.585938
0.590332 0.590332 0.590332
0.594727 0.594727 0.594727
0.601074 0.601074 0.601074
0.608887 0.608887 0.608887
0.618164 0.618164 0.618164
0.628906 0.628906 0.628906
0.641113 0.641113 0.641113
0.654297 0.654297 0.654297
0.668457 0.668457 0.668457
0.684082 0.684082 0.684082
0.700195 0.700195 0.700195
0.717773 0.717773 0.717773
0.735352 0.735352 0.735352
0.753906 0.753906 0.753906
0.772949 0.772949 0.772949
0.793457 0.793457 0.793457
0.814941 0.814941 0.814941
0.840332 0.840332 0.840332
0.621582 0.621582 0.621582
0.617676 0.617676 0.617676
0.614258 0.614258 0.614258
0.610352 0.610352 0.610352
0.606934 0.606934 0.606934
0.603027 0.603027 0.603027
0.600098 0.600098 0.600098
0.597168 0.597168 0.597168
0.594238 0.594238 0.594238
0.593262 0.593262 0.593262
0.592773 0.592773 0.592773
0.593750 0.593750 0.593750
0.595703 0.595703 0.595703
0.599121 0.599121 0.599121
0.602539 0.602539 0.602539
0.605957 0.605957 0.605957
0.609863 0.609863 0.609863
0.615234 0.615234 0.615234
0.622070 0.622070 0.622070
0.629883 0.629883 0.629883
0.639160 0.639160 0.639160
0.649902 0.649902 0.649902
0.661621 0.661621 0.661621
0.674805 0.674805 0.674805
0.688965 0.688965 0.688965
0.704590 0.704590 0.704590
0.721191 0.721191 0.720703
0.737793 0.737793 0.737793
0.755859 0.755859 0.755859
0.774902 0.774902 0.774902
0.794922 0.794922 0.794922
0.815918 0.815918 0.815918
0.841309 0.841309 0.841309
0.640625 0.640625 0.640625
0.636719 0.636719 0.636719
0.632812 0.632812 0.632812
0.629395 0.629395 0.629395
0.625488 0.625488 0.625488
0.622070 0.622070 0.622070
0.618652 0.618652 0.618652
0.615723 0.615723 0.615723
0.612793 0.612793 0.612793
0.610840 0.610840 0.610840
0.609863 0.609863 0.609863
0.610352 0.610352 0.610352
0.611328 0.611328 0.611328
0.614258 0.614258 0.614258
0.616699 0.616699 0.616699
0.619629 0.619629 0.619629
0.623047 0.623047 0.623047
0.627930 0.627930 0.627930
0.633789 0.633789 0.633789
0.640625 0.640625 0.640625
0.648926 0.648926 0.648926
0.658203 0.658203 0.658203
0.669434 0.669434 0.669434
0.681641 0.681641 0.681641
0.694824 0.694824 0.694824
0.709473 0.709473 0.709473
0.725098 0.725098 0.725098
0.741211 0.741211 0.741211
0.758789 0.758789 0.758789
0.776855 0.776855 0.776855
0.796387 0.796387 0.796387
0.817383 0.817383 0.817383
0.842285 0.842285 0.842285
0.659180 0.659180 0.659180
0.655273 0.655273 0.655273
0.651367 0.651367 0.651367
0.647949 0.647949 0.647949
0.644043 0.644043 0.644043
0.640625 0.640625 0.640625
0.636719 0.636719 0.636719
0.633789 0.633789 0.633789
0.630859 0.630859 0.630859
0.628906 0.628906 0.628906
0.627441 0.627441 0.627441
0.626953 0.626953 0.626953
0.627441 0.627441 0.627441
0.629395 0.629395 0.629395
0.630859 0.630859 0.630859
0.633301 0.633301 0.633301
0.635742 0.635742 0.635742
0.639160 0.639160 0.639160
0.644531 0.644531 0.644531
0.650391 0.650391 0.650391
0.658203 0.658203 0.658203
0.666504 0.666504 0.666504
0.676758 0.676758 0.676758
0.687988 0.687988 0.687988
0.700684 0.700684 0.700684
0.714355 0.714355 0.714355
0.729004 0.729004 0.729004
0.744629 0.744629 0.744629
0.761719 0.761719 0.761719
0.779297 0.779297 0.779297
0.798340 0.798340 0.798340
0.818848 0.818848 0.818848
0.843262 0.843262 0.843262
0.678223 0.678223 0.678223
0.674316 0.674316 0.674316
0.670410 0.670410 0.670410
0.666992 0.666992 0.666992
0.663086 0.663086 0.663086
0.659668 0.659668 0.659668
0.655762 0.655762 0.655762
0.652832 0.652832 0.652832
0.649414 0.649414 0.649414
0.647461 0.647461 0.647461
0.645508 0.645508 0.645508
0.644531 0.644531 0.644531
0.644531 0.644531 0.644531
0.645020 0.645020 0.645020
0.645996 0.645996 0.645996
0.646973 0.646973 0.646973
0.648926 0.648926 0.648926
0.651855 0.651855 0.651855
0.655762 0.655762 0.655762
0.660645 0.660645 0.660645
0.667480 0.667480 0.667480
0.674805 0.674805 0.674805
0.684082 0.684082 0.684082
0.694336 0.694336 0.694336
0.706055 0.706055 0.706055
0.719238 0.719238 0.719238
0.733398 0.733398 0.733398
0.748047 0.748047 0.748047
0.764648 0.764648 0.764648
0.781738 0.781738 0.781738
0.800293 0.800293 0.800293
0.820801 0.820801 0.820801
0.844727 0.844727 0.844727
0.696777 0.696777 0.696777
0.692871 0.692871 0.692871
0.689453 0.689453 0.689453
0.685547 0.685547 0.685547
0.681641 0.681641 0.681641
0.678223 0.678223 0.678223
0.674316 0.674316 0.674316
0.671387 0.671387 0.671387
0.667969 0.667969 0.667969
0.665527 0.665527 0.665527
0.663086 0.663086 0.663086
0.662109 0.662109 0.662109
0.661133 0.661133 0.661133
0.661133 0.661133 0.661133
0.661621 0.661621 0.661621
0.662109 0.662109 0.662109
0.663086 0.663086 0.663086
0.665039 0.665039 0.665039
0.667969 0.667969 0.667969
0.671875 0.671875 0.671875
0.677734 0.677734 0.677734
0.684082 0.684082 0.684082
0.691895 0.691895 0.691895
0.701172 0.701172 0.701172
0.711914 0.711914 0.711914
0.724121 0.724121 0.724121
0.737305 0.737305 0.737305
0.751953 0.751953 0.751953
0.767578 0.767578 0.767578
0.784180 0.784180 0.784180
0.802246 0.802246 0.802246
0.822266 0.822266 0.822266
0.845703 0.845703 0.845703
0.715820 0.715820 0.715820
0.711914 0.711914 0.711914
0.708008 0.708008 0.708008
0.704590 0.704590 0.704590
0.700684 0.700684 0.700684
0.697266 0.697266 0.697266
0.693359 0.693359 0.693359
0.690430 0.690430 0.690430
0.687012 0.687012 0.687012
0.684082 0.684082 0.684082
0.681641 0.681641 0.681641
0.680176 0.680176 0.680176
0.678711 0.678711 0.678711
0.677734 0.677734 0.677734
0.677734 0.677734 0.677734
0.677734 0.677734 0.677734
0.678223 0.678223 0.678223
0.679199 0.679199 0.679199
0.681641 0.681641 0.681641
0.684082 0.684082 0.684082
0.688965 0.688965 0.688965
0.694336 0.694336 0.694336
0.701172 0.701172 0.701172
0.709473 0.709473 0.709473
0.718750 0.718750 0.718750
0.729980 0.729980 0.729980
0.742188 0.742188 0.742188
0.755859 0.755859 0.755859
0.770996 0.770996 0.770996
0.787109 0.787109 0.787109
0.804199 0.804199 0.804199
0.823730 0.823730 0.823730
0.847168 0.847168 0.847168
0.734863 0.734863 0.734863
0.730957 0.730957 0.730957
0.727051 0.727051 0.727051
0.723633 0.723633 0.723633
0.719727 0.719727 0.719727
0.716309 0.716309 0.716309
0.712402 0.712402 0.712402
0.708984 0.708984 0.708984
0.705566 0.705566 0.705566
0.702637 0.702637 0.702637
0.700195 0.700195 0.700195
0.697754 0.697754 0.697754
0.695801 0.695801 0.695801
0.695312 0.695312 0.695312
0.694336 0.694336 0.694336
0.693359 0.693359 0.693359
0.693359 0.693359 0.693359
0.693359 0.693359 0.693359
0.695312 0.695312 0.695312
0.697266 0.697266 0.697266
0.700684 0.700684 0.700684
0.705078 0.705078 0.705078
0.710938 0.710938 0.710938
0.718262 0.718262 0.718262
0.726562 0.726562 0.726562
0.736816 0.736816 0.736816
0.748047 0.748047 0.748047
0.760742 0.760742 0.760742
0.774902 0.774902 0.774902
0.790039 0.790039 0.790039
0.807129 0.807129 0.807129
0.826172 0.826172 0.826172
0.848633 0.848633 0.848633
0.753906 0.753906 0.753906
0.750000 0.750000 0.750000
0.746582 0.746582 0.746582
0.742676 0.742676 0.742676
0.738770 0.738770 0.738770
0.735352 0.735352 0.735352
0.731445 0.731445 0.731445
0.728027 0.728027 0.728027
0.724609 0.724609 0.724609
0.721191 0.721191 0.721191
0.718262 0.718262 0.718262
0.716309 0.716309 0.716309
0.713867 0.713867 0.713867
0.712402 0.712402 0.712402
0.710938 0.710938 0.710938
0.709961 0.709961 0.709961
0.709473 0.709473 0.709473
0.708984 0.708984 0.708984
0.709961 0.709961 0.709961
0.710938 0.710938 0.710938
0.713867 0.713867 0.713867
0.717285 0.717285 0.717285
0.722168 0.722168 0.722168
0.728027 0.728027 0.728027
0.735352 0.735352 0.735352
0.744141 0.744141 0.744141
0.754395 0.754395 0.754395
0.766113 0.766113 0.766113
0.779297 0.779297 0.779297
0.793945 0.793945 0.793945
0.810059 0.810059 0.810059
0.828613 0.828613 0.828613
0.850586 0.850586 0.850586
0.773438 0.773438 0.773438
0.769531 0.769531 0.769531
0.765625 0.765625 0.765625
0.761719 0.761719 0.761719
0.757812 0.757812 0.757812
0.754395 0.754395 0.754395
0.750488 0.750488 0.750488
0.747070 0.747070 0.747070
0.743652 0.743652 0.743652
0.740234 0.740234 0.740234
0.736816 0.736816 0.736816
0.734375 0.734375 0.734375
0.731934 0.731934 0.731934
0.729980 0.729980 0.729980
0.728516 0.728516 0.728516
0.727051 0.727051 0.727051
0.726074 0.726074 0.726074
0.725098 0.725098 0.725098
0.725098 0.725098 0.725098
0.725586 0.725586 0.725586
0.727051 0.727051 0.727051
0.729492 0.729492 0.729492
0.733398 0.733398 0.733398
0.738281 0.738281 0.738281
0.744629 0.744629 0.744629
0.752441 0.752441 0.752441
0.761719 0.761719 0.761719
0.772461 0.772461 0.772461
0.784668 0.784668 0.784668
0.798340 0.798340 0.798340
0.813965 0.813965 0.813965
0.831543 0.831543 0.831543
0.852539 0.852539 0.852539
0.792969 0.792969 0.792969
0.789062 0.789062 0.789062
0.785156 0.785156 0.785156
0.781250 0.781250 0.781250
0.777344 0.777344 0.777344
0.773926 0.773926 0.773926
0.770020 0.770020 0.770020
0.766113 0.766113 0.766113
0.762207 0.762207 0.762207
0.759277 0.759277 0.759277
0.756348 0.756348 0.756348
0.753418 0.753418 0.753418
0.750488 0.750488 0.750488
0.748047 0.748047 0.748047
0.746094 0.746094 0.746094
0.744141 0.744141 0.744141
0.742676 0.742676 0.742676
0.741699 0.741699 0.741211
