RED_IPP2_Creative/RED_Achromic.cube
#RED_IPP2_CREATIVE_LUT
# RED_Achromic - A stylized black and white look
# created by Phil Holland - phfx.com
# Settings used in creation of this LUT are:
# Development Color Space = USER SELECTABLE
# Output Gamma Curve = USER SELECTABLE
# Output Tonemap = USER SELECTABLE
# Highlight Rolloff = USER SELECTABLE
#LUT size
LUT_3D_SIZE 9
0.000000 0.000000 0.000000
0.052490 0.052490 0.052490
0.159943 0.159943 0.159943
0.256195 0.256195 0.256195
0.325958 0.325958 0.325958
0.386261 0.386261 0.386261
0.457642 0.457642 0.457642
0.537079 0.537079 0.537079
0.537079 0.537079 0.537079
0.075867 0.075867 0.075867
0.102661 0.102661 0.102661
0.189209 0.189209 0.189209
0.269897 0.269897 0.269897
0.333618 0.333618 0.333618
0.392365 0.392365 0.392365
0.464142 0.464142 0.464142
0.545013 0.545013 0.545013
0.545013 0.545013 0.545013
0.220825 0.220825 0.220825
0.220825 0.220825 0.220825
0.258148 0.258148 0.258148
0.308441 0.308441 0.308441
0.358551 0.358551 0.358551
0.414246 0.414246 0.414246
0.487701 0.487701 0.487701
0.573700 0.573700 0.573700
0.573669 0.573669 0.573669
0.318878 0.318878 0.318878
0.318878 0.318878 0.318878
0.326569 0.326569 0.326569
0.358154 0.358154 0.358154
0.399567 0.399567 0.399567
0.455994 0.455994 0.455994
0.531647 0.531647 0.531647
0.625000 0.625000 0.625000
0.626099 0.626099 0.626099
0.397888 0.397888 0.397888
0.397888 0.397888 0.397888
0.397888 0.397888 0.397888
0.419342 0.419342 0.419342
0.461670 0.461670 0.461670
0.521179 0.521179 0.521179
0.597717 0.597717 0.597717
0.689667 0.689667 0.689667
0.702972 0.702972 0.702972
0.499573 0.499573 0.499573
0.499573 0.499573 0.499573
0.499573 0.499573 0.499573
0.505798 0.505798 0.505798
0.550262 0.550262 0.550262
0.610352 0.610352 0.610352
0.685547 0.685547 0.685547
0.774353 0.774353 0.774353
0.802826 0.802826 0.802826
0.634460 0.634460 0.634460
0.634460 0.634460 0.634460
0.634460 0.634460 0.634460
0.634460 0.634460 0.634460
0.662933 0.662933 0.662933
0.721100 0.721100 0.721100
0.792847 0.792847 0.792847
0.870056 0.870056 0.870056
0.888489 0.888489 0.888489
0.792511 0.792511 0.792511
0.792511 0.792511 0.792511
0.792511 0.792511 0.792511
0.792511 0.792511 0.792511
0.794678 0.794678 0.794678
0.849060 0.849060 0.849060
0.885895 0.885895 0.885895
0.917206 0.917206 0.917206
0.942383 0.942383 0.942383
0.905243 0.905243 0.905243
0.905243 0.905243 0.905243
0.905243 0.905243 0.905243
0.905243 0.905243 0.905243
0.905243 0.905243 0.905243
0.915436 0.915436 0.915436
0.939819 0.939819 0.939819
0.968140 0.968140 0.968140
1.000000 1.000000 1.000000
0.000000 0.000000 0.000000
0.052490 0.052490 0.052490
0.159943 0.159943 0.159943
0.256195 0.256195 0.256195
0.325958 0.325958 0.325958
0.386261 0.386261 0.386261
0.457642 0.457642 0.457642
0.537079 0.537079 0.537079
0.537079 0.537079 0.537079
0.075867 0.075867 0.075867
0.102661 0.102661 0.102661
0.189209 0.189209 0.189209
0.269897 0.269897 0.269897
0.333618 0.333618 0.333618
0.392365 0.392365 0.392365
0.464142 0.464142 0.464142
0.545013 0.545013 0.545013
0.545013 0.545013 0.545013
0.220825 0.220825 0.220825
0.220825 0.220825 0.220825
0.258148 0.258148 0.258148
0.308441 0.308441 0.308441
0.358551 0.358551 0.358551
0.414246 0.414246 0.414246
0.487701 0.487701 0.487701
0.573700 0.573700 0.573700
0.573669 0.573669 0.573669
0.318878 0.318878 0.318878
0.318878 0.318878 0.318878
0.326569 0.326569 0.326569
0.358154 0.358154 0.358154
0.399567 0.399567 0.399567
0.455994 0.455994 0.455994
0.531647 0.531647 0.531647
0.625000 0.625000 0.625000
0.626099 0.626099 0.626099
0.397888 0.397888 0.397888
0.397888 0.397888 0.397888
0.397888 0.397888 0.397888
0.419342 0.419342 0.419342
0.461670 0.461670 0.461670
0.521179 0.521179 0.521179
0.597717 0.597717 0.597717
0.689667 0.689667 0.689667
0.702972 0.702972 0.702972
0.499573 0.499573 0.499573
0.499573 0.499573 0.499573
0.499573 0.499573 0.499573
0.505798 0.505798 0.505798
0.550262 0.550262 0.550262
0.610352 0.610352 0.610352
0.685547 0.685547 0.685547
0.774353 0.774353 0.774353
0.802826 0.802826 0.802826
0.634460 0.634460 0.634460
0.634460 0.634460 0.634460
0.634460 0.634460 0.634460
0.634460 0.634460 0.634460
0.662933 0.662933 0.662933
0.721100 0.721100 0.721100
0.792847 0.792847 0.792847
0.870056 0.870056 0.870056
0.888489 0.888489 0.888489
0.792511 0.792511 0.792511
0.792511 0.792511 0.792511
0.792511 0.792511 0.792511
0.792511 0.792511 0.792511
0.794678 0.794678 0.794678
0.849060 0.849060 0.849060
0.885895 0.885895 0.885895
0.917206 0.917206 0.917206
0.942383 0.942383 0.942383
0.905243 0.905243 0.905243
0.905243 0.905243 0.905243
0.905243 0.905243 0.905243
0.905243 0.905243 0.905243
0.905243 0.905243 0.905243
0.915436 0.915436 0.915436
0.939819 0.939819 0.939819
0.968140 0.968140 0.968140
1.000000 1.000000 1.000000
0.000031 0.000031 0.000031
0.052490 0.052490 0.052490
0.159943 0.159943 0.159943
0.256195 0.256195 0.256195
0.325958 0.325958 0.325958
0.386261 0.386261 0.386261
0.457642 0.457642 0.457642
0.537079 0.537079 0.537079
0.537079 0.537079 0.537079
0.075867 0.075867 0.075867
0.102661 0.102661 0.102661
0.189209 0.189209 0.189209
0.269897 0.269897 0.269897
0.333618 0.333618 0.333618
0.392365 0.392365 0.392365
0.464142 0.464142 0.464142
0.545013 0.545013 0.545013
0.545013 0.545013 0.545013
0.220825 0.220825 0.220825
0.220825 0.220825 0.220825
0.258148 0.258148 0.258148
0.308441 0.308441 0.308441
0.358551 0.358551 0.358551
0.414246 0.414246 0.414246
0.487701 0.487701 0.487701
0.573700 0.573700 0.573700
0.573700 0.573700 0.573700
0.318878 0.318878 0.318878
0.318878 0.318878 0.318878
0.326569 0.326569 0.326569
0.358154 0.358154 0.358154
0.399567 0.399567 0.399567
0.455994 0.455994 0.455994
0.531647 0.531647 0.531647
0.625000 0.625000 0.625000
0.626099 0.626099 0.626099
0.397888 0.397888 0.397888
0.397888 0.397888 0.397888
0.397888 0.397888 0.397888
0.419342 0.419342 0.419342
0.461670 0.461670 0.461670
0.521179 0.521179 0.521179
0.597717 0.597717 0.597717
0.689667 0.689667 0.689667
0.702972 0.702972 0.702972
0.499573 0.499573 0.499573
0.499573 0.499573 0.499573
0.499573 0.499573 0.499573
0.505798 0.505798 0.505798
0.550262 0.550262 0.550262
0.610352 0.610352 0.610352
0.685547 0.685547 0.685547
0.774353 0.774353 0.774353
0.802826 0.802826 0.802826
0.634460 0.634460 0.634460
0.634460 0.634460 0.634460
0.634460 0.634460 0.634460
0.634460 0.634460 0.634460
0.662933 0.662933 0.662933
0.721100 0.721100 0.721100
0.792847 0.792847 0.792847
0.870056 0.870056 0.870056
0.888489 0.888489 0.888489
0.792511 0.792511 0.792511
0.792511 0.792511 0.792511
0.792511 0.792511 0.792511
0.792511 0.792511 0.792511
0.794678 0.794678 0.794678
0.849060 0.849060 0.849060
0.885895 0.885895 0.885895
0.917206 0.917206 0.917206
0.942383 0.942383 0.942383
0.905243 0.905243 0.905243
0.905243 0.905243 0.905243
0.905243 0.905243 0.905243
0.905243 0.905243 0.905243
0.905243 0.905243 0.905243
0.915436 0.915436 0.915436
0.939819 0.939819 0.939819
0.968140 0.968140 0.968140
1.000000 1.000000 1.000000
0.000092 0.000092 0.000092
0.052490 0.052490 0.052490
0.159943 0.159943 0.159943
0.256195 0.256195 0.256195
0.325958 0.325958 0.325958
0.386261 0.386261 0.386261
0.457642 0.457642 0.457642
0.537079 0.537079 0.537079
0.537079 0.537079 0.537079
0.075867 0.075867 0.075867
0.102661 0.102661 0.102661
0.189270 0.189270 0.189270
0.269897 0.269897 0.269897
0.333618 0.333618 0.333618
0.392365 0.392365 0.392365
0.464142 0.464142 0.464142
0.545013 0.545013 0.545013
0.545013 0.545013 0.545013
0.220825 0.220825 0.220825
0.220825 0.220825 0.220825
0.258148 0.258148 0.258148
0.308441 0.308441 0.308441
0.358551 0.358551 0.358551
0.414246 0.414246 0.414246
0.487701 0.487701 0.487701
0.573700 0.573700 0.573700
0.573700 0.573700 0.573700
0.318878 0.318878 0.318878
0.318878 0.318878 0.318878
0.326569 0.326569 0.326569
0.358154 0.358154 0.358154
0.399567 0.399567 0.399567
0.455994 0.455994 0.455994
0.531647 0.531647 0.531647
0.625000 0.625000 0.625000
0.626099 0.626099 0.626099
0.397888 0.397888 0.397888
0.397888 0.397888 0.397888
0.397888 0.397888 0.397888
0.419342 0.419342 0.419342
0.461670 0.461670 0.461670
0.521179 0.521179 0.521179
0.597717 0.597717 0.597717
0.689667 0.689667 0.689667
0.702972 0.702972 0.702972
0.499573 0.499573 0.499573
0.499573 0.499573 0.499573
0.499573 0.499573 0.499573
0.505798 0.505798 0.505798
0.550262 0.550262 0.550262
0.610352 0.610352 0.610352
0.685547 0.685547 0.685547
0.774353 0.774353 0.774353
0.802826 0.802826 0.802826
0.634460 0.634460 0.634460
0.634460 0.634460 0.634460
0.634460 0.634460 0.634460
0.634460 0.634460 0.634460
0.662933 0.662933 0.662933
0.721100 0.721100 0.721100
0.792847 0.792847 0.792847
0.870056 0.870056 0.870056
0.888489 0.888489 0.888489
0.792511 0.792511 0.792511
0.792511 0.792511 0.792511
0.792511 0.792511 0.792511
0.792511 0.792511 0.792511
0.794678 0.794678 0.794678
0.849060 0.849060 0.849060
0.885895 0.885895 0.885895
0.917206 0.917206 0.917206
0.942383 0.942383 0.942383
0.905243 0.905243 0.905243
0.905243 0.905243 0.905243
0.905243 0.905243 0.905243
0.905243 0.905243 0.905243
0.905243 0.905243 0.905243
0.915436 0.915436 0.915436
0.939819 0.939819 0.939819
0.968140 0.968140 0.968140
1.000000 1.000000 1.000000
0.000183 0.000183 0.000183
0.052490 0.052490 0.052490
0.159973 0.159973 0.159973
0.256195 0.256195 0.256195
0.325958 0.325958 0.325958
0.386261 0.386261 0.386261
0.457642 0.457642 0.457642
0.537079 0.537079 0.537079
0.537079 0.537079 0.537079
0.075867 0.075867 0.075867
0.102661 0.102661 0.102661
0.189270 0.189270 0.189270
0.269897 0.269897 0.269897
0.333618 0.333618 0.333618
0.392365 0.392365 0.392365
0.464142 0.464142 0.464142
0.545013 0.545013 0.545013
0.545013 0.545013 0.545013
0.220825 0.220825 0.220825
0.220825 0.220825 0.220825
0.258148 0.258148 0.258148
0.308441 0.308441 0.308441
0.358551 0.358551 0.358551
0.414246 0.414246 0.414246
0.487701 0.487701 0.487701
0.573700 0.573700 0.573700
0.573700 0.573700 0.573700
0.318909 0.318909 0.318909
0.318909 0.318909 0.318909
0.326569 0.326569 0.326569
0.358154 0.358154 0.358154
0.399567 0.399567 0.399567
0.455994 0.455994 0.455994
0.531647 0.531647 0.531647
0.625000 0.625000 0.625000
0.626099 0.626099 0.626099
0.397888 0.397888 0.397888
0.397888 0.397888 0.397888
0.397888 0.397888 0.397888
0.419342 0.419342 0.419342
0.461670 0.461670 0.461670
0.521179 0.521179 0.521179
0.597717 0.597717 0.597717
0.689667 0.689667 0.689667
0.702972 0.702972 0.702972
0.499573 0.499573 0.499573
0.499573 0.499573 0.499573
0.499573 0.499573 0.499573
0.505798 0.505798 0.505798
0.550262 0.550262 0.550262
0.610352 0.610352 0.610352
0.685547 0.685547 0.685547
0.774353 0.774353 0.774353
0.802826 0.802826 0.802826
0.634460 0.634460 0.634460
0.634460 0.634460 0.634460
0.634460 0.634460 0.634460
0.634460 0.634460 0.634460
0.662933 0.662933 0.662933
0.721100 0.721100 0.721100
0.792847 0.792847 0.792847
0.870056 0.870056 0.870056
0.888489 0.888489 0.888489
0.792511 0.792511 0.792511
0.792511 0.792511 0.792511
0.792511 0.792511 0.792511
0.792511 0.792511 0.792511
0.794678 0.794678 0.794678
0.849060 0.849060 0.849060
0.885895 0.885895 0.885895
0.917206 0.917206 0.917206
0.942383 0.942383 0.942383
0.905243 0.905243 0.905243
0.905243 0.905243 0.905243
0.905243 0.905243 0.905243
0.905243 0.905243 0.905243
0.905243 0.905243 0.905243
0.915436 0.915436 0.915436
0.939819 0.939819 0.939819
0.968140 0.968140 0.968140
1.000000 1.000000 1.000000
0.000305 0.000305 0.000305
0.052490 0.052490 0.052490
0.159973 0.159973 0.159973
0.256195 0.256195 0.256195
0.325958 0.325958 0.325958
0.386261 0.386261 0.386261
0.457642 0.457642 0.457642
0.537079 0.537079 0.537079
0.537079 0.537079 0.537079
0.075928 0.075928 0.075928
0.102661 0.102661 0.102661
0.189270 0.189270 0.189270
0.269897 0.269897 0.269897
0.333618 0.333618 0.333618
0.392365 0.392365 0.392365
0.464142 0.464142 0.464142
0.545013 0.545013 0.545013
0.545013 0.545013 0.545013
0.220825 0.220825 0.220825
0.220825 0.220825 0.220825
0.258148 0.258148 0.258148
0.308441 0.308441 0.308441
0.358551 0.358551 0.358551
0.414246 0.414246 0.414246
0.487701 0.487701 0.487701
0.573700 0.573700 0.573700
0.573700 0.573700 0.573700
0.318909 0.318909 0.318909
0.318909 0.318909 0.318909
0.326569 0.326569 0.326569
0.358154 0.358154 0.358154
0.399597 0.399597 0.399597
0.455994 0.455994 0.455994
0.531647 0.531647 0.531647
0.625000 0.625000 0.625000
0.626099 0.626099 0.626099
0.397888 0.397888 0.397888
0.397888 0.397888 0.397888
0.397888 0.397888 0.397888
0.419342 0.419342 0.419342
0.461670 0.461670 0.461670
0.521210 0.521210 0.521210
0.597717 0.597717 0.597717
0.689667 0.689667 0.689667
0.702972 0.702972 0.702972
0.499573 0.499573 0.499573
0.499573 0.499573 0.499573
0.499573 0.499573 0.499573
0.505798 0.505798 0.505798
0.550262 0.550262 0.550262
0.610352 0.610352 0.610352
0.685547 0.685547 0.685547
0.774353 0.774353 0.774353
0.802826 0.802826 0.802826
0.634460 0.634460 0.634460
0.634460 0.634460 0.634460
0.634460 0.634460 0.634460
0.634460 0.634460 0.634460
0.662933 0.662933 0.662933
0.721100 0.721100 0.721100
0.792847 0.792847 0.792847
0.870056 0.870056 0.870056
0.888489 0.888489 0.888489
0.792511 0.792511 0.792511
0.792511 0.792511 0.792511
0.792511 0.792511 0.792511
0.792511 0.792511 0.792511
0.794678 0.794678 0.794678
0.849060 0.849060 0.849060
0.885895 0.885895 0.885895
0.917206 0.917206 0.917206
0.942383 0.942383 0.942383
0.905243 0.905243 0.905243
0.905243 0.905243 0.905243
0.905243 0.905243 0.905243
0.905243 0.905243 0.905243
0.905243 0.905243 0.905243
0.915436 0.915436 0.915436
0.939819 0.939819 0.939819
0.968140 0.968140 0.968140
1.000000 1.000000 1.000000
0.000458 0.000458 0.000458
0.052551 0.052551 0.052551
0.159973 0.159973 0.159973
0.256195 0.256195 0.256195
0.325958 0.325958 0.325958
0.386261 0.386261 0.386261
0.457642 0.457642 0.457642
0.537079 0.537079 0.537079
0.537079 0.537079 0.537079
0.075928 0.075928 0.075928
0.102722 0.102722 0.102722
0.189270 0.189270 0.189270
0.269897 0.269897 0.269897
0.333618 0.333618 0.333618
0.392365 0.392365 0.392365
0.464142 0.464142 0.464142
0.545013 0.545013 0.545013
0.545013 0.545013 0.545013
0.220825 0.220825 0.220825
0.220825 0.220825 0.220825
0.258148 0.258148 0.258148
0.308441 0.308441 0.308441
0.358551 0.358551 0.358551
0.414246 0.414246 0.414246
0.487701 0.487701 0.487701
0.573700 0.573700 0.573700
0.573700 0.573700 0.573700
0.318909 0.318909 0.318909
0.318909 0.318909 0.318909
0.326569 0.326569 0.326569
0.358154 0.358154 0.358154
0.399597 0.399597 0.399597
0.455994 0.455994 0.455994
0.531677 0.531677 0.531677
0.625000 0.625000 0.625000
0.626099 0.626099 0.626099
0.397888 0.397888 0.397888
0.397888 0.397888 0.397888
0.397888 0.397888 0.397888
0.419342 0.419342 0.419342
0.461670 0.461670 0.461670
0.521210 0.521210 0.521210
0.597717 0.597717 0.597717
0.689667 0.689667 0.689667
0.702972 0.702972 0.702972
0.499573 0.499573 0.499573
0.499573 0.499573 0.499573
0.499573 0.499573 0.499573
0.505798 0.505798 0.505798
0.550262 0.550262 0.550262
0.610352 0.610352 0.610352
0.685547 0.685547 0.685547
0.774353 0.774353 0.774353
0.802826 0.802826 0.802826
0.634460 0.634460 0.634460
0.634460 0.634460 0.634460
0.634460 0.634460 0.634460
0.634460 0.634460 0.634460
0.662933 0.662933 0.662933
0.721100 0.721100 0.721100
0.792847 0.792847 0.792847
0.870056 0.870056 0.870056
0.888489 0.888489 0.888489
0.792511 0.792511 0.792511
0.792511 0.792511 0.792511
0.792511 0.792511 0.792511
0.792511 0.792511 0.792511
0.794678 0.794678 0.794678
0.849060 0.849060 0.849060
0.885895 0.885895 0.885895
0.917206 0.917206 0.917206
0.942383 0.942383 0.942383
0.905243 0.905243 0.905243
0.905243 0.905243 0.905243
0.905243 0.905243 0.905243
0.905243 0.905243 0.905243
0.905243 0.905243 0.905243
0.915436 0.915436 0.915436
0.939819 0.939819 0.939819
0.968140 0.968140 0.968140
1.000000 1.000000 1.000000
0.000610 0.000610 0.000610
0.052551 0.052551 0.052551
0.159973 0.159973 0.159973
0.256195 0.256195 0.256195
0.325958 0.325958 0.325958
0.386261 0.386261 0.386261
0.457642 0.457642 0.457642
0.537079 0.537079 0.537079
0.537079 0.537079 0.537079
0.075989 0.075989 0.075989
0.102722 0.102722 0.102722
0.189270 0.189270 0.189270
0.269897 0.269897 0.269897
0.333618 0.333618 0.333618
0.392395 0.392395 0.392395
0.464142 0.464142 0.464142
0.545074 0.545074 0.545074
0.545013 0.545013 0.545013
0.220856 0.220856 0.220856
0.220856 0.220856 0.220856
0.258148 0.258148 0.258148
0.308441 0.308441 0.308441
0.358551 0.358551 0.358551
0.414246 0.414246 0.414246
0.487701 0.487701 0.487701
0.573700 0.573700 0.573700
0.573700 0.573700 0.573700
0.318909 0.318909 0.318909
0.318909 0.318909 0.318909
0.326569 0.326569 0.326569
0.358154 0.358154 0.358154
0.399597 0.399597 0.399597
0.455994 0.455994 0.455994
0.531677 0.531677 0.531677
0.625000 0.625000 0.625000
0.626099 0.626099 0.626099
0.397919 0.397919 0.397919
0.397919 0.397919 0.397919
0.397919 0.397919 0.397919
0.419342 0.419342 0.419342
0.461670 0.461670 0.461670
0.521210 0.521210 0.521210
0.597717 0.597717 0.597717
0.689667 0.689667 0.689667
0.702972 0.702972 0.702972
0.499573 0.499573 0.499573
0.499573 0.499573 0.499573
0.499573 0.499573 0.499573
0.505798 0.505798 0.505798
0.550262 0.550262 0.550262
0.610352 0.610352 0.610352
0.685547 0.685547 0.685547
0.774353 0.774353 0.774353
0.802826 0.802826 0.802826
0.634460 0.634460 0.634460
0.634460 0.634460 0.634460
0.634460 0.634460 0.634460
0.634460 0.634460 0.634460
0.662933 0.662933 0.662933
0.721100 0.721100 0.721100
0.792847 0.792847 0.792847
0.870056 0.870056 0.870056
0.888489 0.888489 0.888489
0.792511 0.792511 0.792511
0.792511 0.792511 0.792511
0.792511 0.792511 0.792511
0.792511 0.792511 0.792511
0.794678 0.794678 0.794678
0.849060 0.849060 0.849060
0.885895 0.885895 0.885895
0.917206 0.917206 0.917206
0.942383 0.942383 0.942383
0.905243 0.905243 0.905243
0.905243 0.905243 0.905243
0.905243 0.905243 0.905243
0.905243 0.905243 0.905243
0.905243 0.905243 0.905243
0.915436 0.915436 0.915436
0.939819 0.939819 0.939819
0.968140 0.968140 0.968140
1.000000 1.000000 1.000000
0.000854 0.000854 0.000854
0.052551 0.052551 0.052551
0.159973 0.159973 0.159973
0.256226 0.256226 0.256226
0.325958 0.325958 0.325958
0.386261 0.386261 0.386261
0.457642 0.457642 0.457642
0.537079 0.537079 0.537079
0.537079 0.537079 0.537079
0.076019 0.076019 0.076019
0.102722 0.102722 0.102722
0.189270 0.189270 0.189270
0.269897 0.269897 0.269897
0.333618 0.333618 0.333618
0.392395 0.392395 0.392395
0.464142 0.464142 0.464142
0.545074 0.545074 0.545074
0.545074 0.545074 0.545074
0.220856 0.220856 0.220856
0.220856 0.220856 0.220856
0.258148 0.258148 0.258148
0.308441 0.308441 0.308441
0.358551 0.358551 0.358551
0.414246 0.414246 0.414246
0.487701 0.487701 0.487701
0.573700 0.573700 0.573700
0.573700 0.573700 0.573700
0.318909 0.318909 0.318909
0.318909 0.318909 0.318909
0.326569 0.326569 0.326569
0.358154 0.358154 0.358154
0.399597 0.399597 0.399597
0.455994 0.455994 0.455994
0.531677 0.531677 0.531677
0.625000 0.625000 0.625000
0.626099 0.626099 0.626099
0.397919 0.397919 0.397919
0.397919 0.397919 0.397919
0.397919 0.397919 0.397919
0.419342 0.419342 0.419342
0.461670 0.461670 0.461670
0.521210 0.521210 0.521210
0.597717 0.597717 0.597717
0.689667 0.689667 0.689667
0.702972 0.702972 0.702972
0.499573 0.499573 0.499573
0.499573 0.499573 0.499573
0.499573 0.499573 0.499573
0.505798 0.505798 0.505798
0.550262 0.550262 0.550262
0.610352 0.610352 0.610352
0.685547 0.685547 0.685547
0.774353 0.774353 0.774353
0.802826 0.802826 0.802826
0.634460 0.634460 0.634460
0.634460 0.634460 0.634460
0.634460 0.634460 0.634460
0.634460 0.634460 0.634460
0.662933 0.662933 0.662933
0.721130 0.721130 0.721130
0.792847 0.792847 0.792847
0.870056 0.870056 0.870056
0.888489 0.888489 0.888489
0.792511 0.792511 0.792511
0.792511 0.792511 0.792511
0.792511 0.792511 0.792511
0.792511 0.792511 0.792511
0.794678 0.794678 0.794678
0.849060 0.849060 0.849060
0.885895 0.885895 0.885895
0.917206 0.917206 0.917206
0.942383 0.942383 0.942383
0.905243 0.905243 0.905243
0.905243 0.905243 0.905243
0.905243 0.905243 0.905243
0.905243 0.905243 0.905243
0.905243 0.905243 0.905243
0.915436 0.915436 0.915436
0.939819 0.939819 0.939819
0.968140 0.968140 0.968140
1.000000 1.000000 1.000000
