RED_IPP2_Creative/RED_DEEP_CHROMA.cube
# RED Digital Cinema Output Transform LUT for IPP2
# Creatives by Eric Weidt
# BMD cube from Truelight v4.0
# Settings used in creation of this LUT are:
# Development Color Space = USER SELECTABLE
# Output Gamma Curve = USER SELECTABLE
# Output Tonemap = USER SELECTABLE
# Highlight Rolloff = USER SELECTABLE
LUT_3D_SIZE 9
0.059204 0.065857 0.062683
0.101196 0.066284 0.056274
0.147827 0.063599 0.048828
0.211792 0.057251 0.027557
0.335449 0.033203 0.000000
0.510254 0.070557 0.097778
0.661621 0.053955 0.184326
0.827148 0.053375 0.372070
0.951172 0.191406 0.620605
0.049072 0.108765 0.051025
0.095581 0.098450 0.048767
0.144775 0.096680 0.039825
0.207031 0.087708 0.020721
0.330322 0.083984 0.000000
0.509766 0.129517 0.091370
0.673340 0.127930 0.180176
0.833496 0.136963 0.364258
0.954102 0.219482 0.614258
0.035278 0.158325 0.037842
0.088684 0.153564 0.030045
0.136475 0.141724 0.021927
0.198730 0.139404 0.000000
0.326904 0.155884 0.000000
0.509277 0.204468 0.086243
0.678223 0.225342 0.165894
0.845215 0.245972 0.310303
0.962891 0.276367 0.589844
0.014236 0.218018 0.000000
0.072205 0.221436 0.000000
0.148193 0.211792 0.000000
0.198364 0.198608 0.000000
0.315674 0.224365 0.000000
0.511719 0.291260 0.079407
0.703125 0.328857 0.168091
0.854004 0.362549 0.289551
0.992188 0.377197 0.427979
0.014984 0.316650 0.000000
0.112305 0.318848 0.000000
0.195557 0.323242 0.000000
0.254883 0.319824 0.000000
0.338135 0.323975 0.000000
0.507812 0.386475 0.082092
0.705078 0.440674 0.141602
0.863770 0.483154 0.265625
0.994141 0.500000 0.387939
0.098145 0.473877 0.097046
0.167358 0.473877 0.089722
0.248169 0.477783 0.088379
0.329590 0.485596 0.090393
0.420166 0.492676 0.090942
0.537109 0.524902 0.100952
0.699707 0.571289 0.159546
0.865723 0.610352 0.228516
0.994141 0.625000 0.365234
0.198364 0.651367 0.254639
0.229004 0.650879 0.254150
0.284668 0.652832 0.251953
0.368408 0.656738 0.240234
0.465576 0.663574 0.207275
0.574707 0.690430 0.263428
0.702148 0.719238 0.324463
0.841309 0.746094 0.396729
0.995605 0.749023 0.313721
0.576172 0.894043 0.646484
0.575195 0.892578 0.644043
0.576660 0.892578 0.643555
0.583984 0.893066 0.642578
0.605957 0.895020 0.640137
0.649414 0.885742 0.593750
0.690918 0.891113 0.596680
0.761719 0.898926 0.620117
0.896484 0.894531 0.637695
1.000000 1.000000 1.000000
1.000000 1.000000 1.000000
1.000000 1.000000 1.000000
1.000000 1.000000 1.000000
1.000000 1.000000 1.000000
1.000000 1.000000 1.000000
0.913574 1.000000 0.962891
0.881348 1.000000 0.912598
0.873047 1.000000 0.902344
0.053558 0.061951 0.121765
0.097961 0.063904 0.105835
0.152710 0.053925 0.076233
0.221436 0.046417 0.054962
0.345459 0.020386 0.038910
0.524414 0.065369 0.144897
0.679688 0.053741 0.226807
0.833984 0.055450 0.389160
0.951172 0.197021 0.621582
0.042908 0.101868 0.111511
0.090271 0.097961 0.105530
0.146606 0.093079 0.093445
0.231201 0.070496 0.070923
0.388428 0.071899 0.089233
0.544434 0.109924 0.149658
0.692871 0.122559 0.225098
0.838867 0.136475 0.379639
0.953613 0.219238 0.616211
0.025085 0.160034 0.090027
0.061676 0.159912 0.079163
0.144897 0.150513 0.069214
0.225952 0.150879 0.045868
0.366699 0.176636 0.063232
0.534180 0.203979 0.142090
0.703613 0.220337 0.212158
0.851562 0.244507 0.331543
0.962891 0.275146 0.589844
0.003870 0.222046 0.063660
0.047119 0.230103 0.047516
0.155518 0.236572 0.014450
0.231445 0.223267 0.000000
0.371094 0.256348 0.066284
0.534668 0.298096 0.135376
0.711426 0.329346 0.201172
0.856445 0.362305 0.304199
0.992188 0.376953 0.431641
0.018372 0.325928 0.068787
0.104187 0.333496 0.075256
0.208252 0.351318 0.085815
0.299316 0.368896 0.106018
0.381104 0.358398 0.119263
0.529297 0.397461 0.135254
0.711914 0.442871 0.185059
0.869141 0.483643 0.282959
0.994141 0.500000 0.393066
0.097473 0.479004 0.150146
0.162476 0.481445 0.149536
0.252441 0.492188 0.145020
0.343750 0.505371 0.138916
0.438965 0.521484 0.146362
0.549805 0.537598 0.156128
0.708496 0.574707 0.198120
0.870605 0.610840 0.249023
0.994141 0.625000 0.370605
0.201416 0.653320 0.272705
0.229004 0.653320 0.273193
0.285400 0.655762 0.266846
0.374023 0.663086 0.265137
0.475342 0.677246 0.250000
0.582031 0.705566 0.292480
0.706543 0.724121 0.339844
0.844238 0.746582 0.401855
0.995605 0.749023 0.319824
0.576172 0.894043 0.646973
0.575195 0.893066 0.645020
0.577637 0.893555 0.645508
0.583984 0.893555 0.643555
0.608887 0.896973 0.643555
0.653320 0.889160 0.598633
0.692383 0.893555 0.601074
0.762207 0.898926 0.620117
0.896973 0.894043 0.636719
1.000000 1.000000 1.000000
1.000000 1.000000 1.000000
1.000000 1.000000 1.000000
1.000000 1.000000 1.000000
1.000000 1.000000 1.000000
1.000000 1.000000 1.000000
0.912598 1.000000 0.961426
0.881348 1.000000 0.912598
0.873047 1.000000 0.902344
0.042084 0.065063 0.184814
0.083740 0.063660 0.181641
0.144897 0.059296 0.160034
0.221558 0.033508 0.124451
0.344238 0.000000 0.102722
0.528320 0.061920 0.194092
0.687012 0.052734 0.274902
0.840332 0.060394 0.416016
0.950684 0.196167 0.625000
0.032257 0.089722 0.175903
0.076843 0.089478 0.182739
0.144409 0.083374 0.162720
0.234009 0.061829 0.123718
0.395508 0.073853 0.127563
0.546387 0.119629 0.192505
0.706055 0.125854 0.275146
0.847656 0.140869 0.410400
0.953125 0.219238 0.619629
0.016006 0.143188 0.168091
0.049927 0.152588 0.175537
0.130737 0.142700 0.161133
0.215942 0.144531 0.150146
0.369141 0.169556 0.168579
0.558105 0.200317 0.215210
0.752930 0.209351 0.283447
0.859863 0.240234 0.372314
0.962891 0.278076 0.594727
0.000000 0.214111 0.161743
0.037994 0.231812 0.156372
0.115906 0.236084 0.137817
0.220703 0.224854 0.126465
0.374512 0.266602 0.166626
0.548340 0.306641 0.210571
0.749512 0.331543 0.268311
0.866211 0.361572 0.342041
0.992188 0.376221 0.441895
0.015900 0.333740 0.171631
0.111572 0.351562 0.176025
0.182617 0.380859 0.183472
0.285400 0.394531 0.178711
0.401855 0.383057 0.182739
0.559570 0.416992 0.207397
0.742188 0.451904 0.255371
0.870605 0.484375 0.324951
0.994141 0.500000 0.406982
0.096436 0.489746 0.219727
0.156738 0.496338 0.218628
0.221558 0.512695 0.218506
0.313965 0.529785 0.211060
0.467041 0.562500 0.215820
0.583496 0.564941 0.228394
0.737793 0.589355 0.261475
0.872559 0.613770 0.300537
0.994141 0.625000 0.389648
0.209106 0.661621 0.312256
0.234253 0.660645 0.311279
0.281738 0.664062 0.310547
0.368164 0.673828 0.311523
0.483887 0.693848 0.299805
0.603027 0.735840 0.354980
0.715332 0.736816 0.376953
0.847656 0.747559 0.415527
0.995605 0.749512 0.354248
0.580078 0.896484 0.651367
0.579102 0.895508 0.649414
0.581543 0.895996 0.649902
0.590820 0.897949 0.651367
0.614746 0.902832 0.652832
0.660156 0.896973 0.613770
0.695312 0.898926 0.610840
0.762695 0.900391 0.623047
0.897949 0.894043 0.637695
1.000000 1.000000 1.000000
1.000000 1.000000 1.000000
1.000000 1.000000 1.000000
1.000000 1.000000 1.000000
1.000000 1.000000 1.000000
1.000000 1.000000 1.000000
0.914551 1.000000 0.964355
0.880371 1.000000 0.911133
0.873047 1.000000 0.902832
0.029831 0.075867 0.259521
0.069580 0.072388 0.271973
0.139404 0.071655 0.249756
0.214966 0.043579 0.214478
0.368164 0.026016 0.213135
0.545898 0.061951 0.268555
0.695312 0.056000 0.341309
0.838867 0.073608 0.454346
0.949707 0.212891 0.635742
0.023331 0.103577 0.254395
0.061340 0.104492 0.281982
0.145264 0.103394 0.256836
0.221802 0.077637 0.220459
0.395020 0.096252 0.222412
0.562012 0.114746 0.267090
0.710449 0.126221 0.337402
0.845215 0.144165 0.449219
0.952148 0.231201 0.630859
0.012054 0.141846 0.249878
0.038208 0.161499 0.291992
0.132935 0.145508 0.264648
0.222412 0.128906 0.233398
0.375000 0.158569 0.228760
0.572754 0.192261 0.273438
0.750000 0.210083 0.336914
0.858887 0.242554 0.425781
0.961914 0.281982 0.608398
0.000000 0.205322 0.249146
0.006680 0.231689 0.270752
0.104492 0.230713 0.255127
0.198975 0.214478 0.236206
0.369141 0.257324 0.253662
0.572266 0.288330 0.290771
0.754883 0.317871 0.343506
0.867676 0.357666 0.402588
0.992188 0.377197 0.475830
0.000000 0.323242 0.273682
0.097473 0.356445 0.283447
0.179077 0.389404 0.277344
0.251465 0.386475 0.261475
0.391113 0.384521 0.269043
0.572266 0.420166 0.293213
0.746094 0.452393 0.339111
0.870117 0.484131 0.393311
0.994141 0.500000 0.449951
0.088074 0.488037 0.309082
0.149902 0.497070 0.308350
0.217529 0.516113 0.302002
0.289062 0.550293 0.293701
0.436523 0.568848 0.296631
0.583008 0.572754 0.319092
0.740723 0.593750 0.346191
0.870117 0.613770 0.385010
0.994141 0.624512 0.438232
0.208496 0.662598 0.369629
0.229492 0.663574 0.367920
0.283203 0.674316 0.370361
0.354248 0.685547 0.373291
0.476318 0.705078 0.366455
0.598145 0.734863 0.395264
0.716309 0.742676 0.419922
0.850098 0.748535 0.444824
0.995605 0.749023 0.415527
0.581055 0.897461 0.655762
0.581543 0.897461 0.655762
0.585938 0.899902 0.658203
0.592773 0.900879 0.658203
0.615723 0.904785 0.658691
0.660645 0.899902 0.625000
0.698242 0.902832 0.621094
0.763672 0.900391 0.626953
0.901367 0.893555 0.640137
1.000000 1.000000 1.000000
1.000000 1.000000 1.000000
1.000000 1.000000 1.000000
1.000000 1.000000 1.000000
1.000000 1.000000 1.000000
1.000000 1.000000 1.000000
0.911621 1.000000 0.960449
0.880371 1.000000 0.911133
0.872070 1.000000 0.901367
0.023560 0.110352 0.369385
0.079346 0.114868 0.387939
0.161011 0.113342 0.375977
0.247437 0.083069 0.342285
0.380615 0.036621 0.320801
0.565918 0.074585 0.369629
0.719238 0.072205 0.438477
0.843750 0.118774 0.535645
0.944824 0.252197 0.670410
0.028671 0.149292 0.367432
0.074524 0.153931 0.400635
0.161377 0.153687 0.381348
0.251465 0.136230 0.349121
0.385986 0.111755 0.325439
0.573242 0.132446 0.368408
0.734863 0.137085 0.436523
0.847656 0.169556 0.532227
0.947754 0.262695 0.664062
0.036987 0.201294 0.378662
0.065613 0.202148 0.416504
0.157471 0.192505 0.401855
0.256592 0.193237 0.374512
0.391357 0.180176 0.343506
0.573242 0.203979 0.372314
0.757324 0.214111 0.430420
0.857422 0.250732 0.513672
0.958008 0.297852 0.645996
0.051300 0.266602 0.377197
0.083557 0.274414 0.404785
0.159790 0.275146 0.410400
0.238770 0.254639 0.406738
0.391113 0.256348 0.371338
0.574219 0.286133 0.377686
0.754395 0.319092 0.426514
0.867188 0.360352 0.495605
0.990723 0.377686 0.545410
0.067627 0.355713 0.398193
0.115295 0.368896 0.410889
0.178711 0.390381 0.415771
0.251465 0.405273 0.413330
0.377441 0.387939 0.389893
0.563477 0.414551 0.406006
0.740723 0.442871 0.442871
0.870605 0.481934 0.494629
0.994141 0.500000 0.529297
0.070801 0.497314 0.431152
0.133179 0.504883 0.436523
0.212646 0.524414 0.433594
0.294434 0.557129 0.419678
0.400879 0.565430 0.407959
0.581543 0.577148 0.432373
0.739258 0.594727 0.459473
0.870117 0.615234 0.495361
0.994141 0.625000 0.523926
0.185303 0.661621 0.464355
0.212769 0.666504 0.466309
0.281494 0.678711 0.466797
0.356689 0.692871 0.464355
0.454834 0.710938 0.461670
0.586914 0.734863 0.473633
0.722168 0.741211 0.490967
0.861816 0.746582 0.506836
0.995605 0.749023 0.512695
0.575195 0.895508 0.663086
0.580078 0.897949 0.666504
0.585938 0.900879 0.668945
0.594238 0.902832 0.670410
0.615723 0.906738 0.670898
0.656738 0.898438 0.636230
0.698730 0.900879 0.630859
0.770508 0.898438 0.636719
0.914551 0.890625 0.645508
1.000000 1.000000 1.000000
1.000000 1.000000 1.000000
1.000000 1.000000 1.000000
1.000000 1.000000 1.000000
1.000000 1.000000 1.000000
0.999023 1.000000 1.000000
0.908203 1.000000 0.957031
0.878418 1.000000 0.909180
0.869141 1.000000 0.898438
0.000000 0.129639 0.524414
0.000000 0.133545 0.530273
0.129883 0.129761 0.523926
0.265625 0.120789 0.507324
0.407471 0.108643 0.489990
0.573730 0.109436 0.520020
0.724609 0.143555 0.576172
0.833496 0.231812 0.655762
0.929688 0.351074 0.749023
0.000000 0.174316 0.522949
0.000000 0.175659 0.528809
0.138428 0.174316 0.523926
0.268311 0.168213 0.508789
0.412598 0.162109 0.492188
0.579590 0.159912 0.518066
0.731934 0.177368 0.571289
0.836914 0.246338 0.652344
0.932129 0.352539 0.745605
0.000000 0.236938 0.530762
0.000000 0.238281 0.543457
0.153320 0.232544 0.535156
0.269531 0.226807 0.526367
0.413330 0.227295 0.503906
0.586426 0.229736 0.518555
0.742676 0.244141 0.565918
0.845703 0.283936 0.641113
0.941406 0.358154 0.732422
0.000000 0.313721 0.537109
0.000000 0.312500 0.564941
0.135010 0.314941 0.578125
0.259033 0.295654 0.569336
0.400635 0.299561 0.540039
0.584961 0.318604 0.533203
0.749023 0.337891 0.563965
0.866699 0.367920 0.614258
0.976562 0.389404 0.675781
0.000000 0.409912 0.547852
0.066528 0.411865 0.553223
0.141602 0.437012 0.604492
0.270508 0.419922 0.582031
0.393799 0.409424 0.571777
0.574707 0.430420 0.559082
0.743652 0.454346 0.570801
0.869141 0.487305 0.614258
0.994141 0.500977 0.636719
0.000000 0.536133 0.578125
0.099915 0.541016 0.583496
0.198853 0.565918 0.604980
0.310547 0.576172 0.595703
0.426270 0.581543 0.586914
0.578613 0.584473 0.586914
0.736816 0.595215 0.595703
0.870605 0.617676 0.619141
0.994141 0.625000 0.633789
0.125732 0.689453 0.616211
0.172241 0.694336 0.620605
0.254883 0.702637 0.624023
0.354004 0.709473 0.615723
0.462402 0.724121 0.599609
0.593262 0.734863 0.597656
0.740723 0.740723 0.607422
0.871582 0.745605 0.620605
0.995605 0.749023 0.629395
0.574219 0.900879 0.698242
0.577637 0.902344 0.700195
0.581055 0.903320 0.700684
0.588867 0.904785 0.701172
0.608398 0.905762 0.698242
0.646484 0.892578 0.668945
0.705566 0.890625 0.660645
0.804199 0.889648 0.666016
0.962891 0.880371 0.660156
1.000000 1.000000 1.000000
1.000000 1.000000 1.000000
1.000000 1.000000 1.000000
1.000000 1.000000 1.000000
1.000000 1.000000 1.000000
0.986816 1.000000 1.000000
0.896484 1.000000 0.945312
0.867188 1.000000 0.896973
0.860840 1.000000 0.889160
0.000000 0.298340 0.711914
0.000000 0.299072 0.712402
0.000000 0.294678 0.708984
0.000000 0.285645 0.702148
0.353516 0.277100 0.696289
0.543457 0.302490 0.715820
0.682617 0.360596 0.759766
0.779785 0.454102 0.831055
0.869629 0.541504 0.901367
0.000000 0.306641 0.711914
0.000000 0.307861 0.712891
0.000000 0.303711 0.708496
0.000000 0.293213 0.700195
0.356934 0.288574 0.696777
0.548340 0.306152 0.712891
0.688965 0.359375 0.755371
0.783691 0.451172 0.827637
0.872559 0.538086 0.898438
0.000000 0.334717 0.719727
0.000000 0.339111 0.723633
0.000000 0.334473 0.719727
0.000000 0.326172 0.711426
0.353027 0.320068 0.706055
0.552734 0.326416 0.712891
0.697754 0.365234 0.750000
0.793457 0.445312 0.818359
0.883301 0.527832 0.887695
0.000000 0.365967 0.709473
0.000000 0.371582 0.718750
0.000000 0.377930 0.727051
0.000000 0.370605 0.721191
0.363281 0.369385 0.721191
0.567871 0.368408 0.710938
0.723145 0.384033 0.727539
0.829102 0.430176 0.783203
0.919434 0.495605 0.849121
0.000000 0.452881 0.696289
0.000000 0.455078 0.707520
0.000000 0.463623 0.728027
0.278320 0.458252 0.721191
0.420898 0.450195 0.728027
0.579590 0.460938 0.725098
0.736328 0.477051 0.719238
0.867188 0.494873 0.742188
0.992676 0.502441 0.757324
0.000000 0.579590 0.716309
0.000000 0.583496 0.722168
0.159912 0.593750 0.732910
0.315918 0.594727 0.736328
0.446045 0.593750 0.741699
0.589355 0.597168 0.739258
0.736328 0.607422 0.734375
0.868652 0.619629 0.745117
0.995117 0.625000 0.753418
0.000000 0.720703 0.754395
0.000000 0.724121 0.757812
0.000000 0.726562 0.758301
0.326904 0.729004 0.756348
0.472900 0.732422 0.744629
0.603516 0.741211 0.744141
0.739258 0.742676 0.744629
0.870605 0.746582 0.748047
0.996582 0.749023 0.751465
0.385742 0.899902 0.874512
0.385254 0.899414 0.874023
0.399902 0.898926 0.873047
0.449951 0.899414 0.868652
0.532715 0.894531 0.841309
0.623047 0.875000 0.759277
0.745117 0.872559 0.746582
0.872559 0.873535 0.748047
0.997559 0.874023 0.750000
0.979492 1.000000 1.000000
0.979492 1.000000 1.000000
0.979980 1.000000 1.000000
0.977539 1.000000 1.000000
0.971191 1.000000 1.000000
0.943848 1.000000 1.000000
0.854980 1.000000 0.905273
0.834473 1.000000 0.865234
0.845215 1.000000 0.857910
0.000000 0.743652 1.000000
0.000000 0.743652 1.000000
0.000000 0.740234 1.000000
0.000000 0.732910 1.000000
0.000000 0.738281 1.000000
0.000000 0.749023 1.000000
0.000000 0.781738 1.000000
0.000000 0.836914 1.000000
0.000000 0.894043 1.000000
0.000000 0.743652 1.000000
0.000000 0.743652 1.000000
0.000000 0.740234 1.000000
0.000000 0.733887 1.000000
0.000000 0.735840 1.000000
0.000000 0.746094 1.000000
0.000000 0.777832 1.000000
0.000000 0.834473 1.000000
0.000000 0.892090 1.000000
0.000000 0.737305 1.000000
0.000000 0.737305 1.000000
0.000000 0.738281 1.000000
0.000000 0.730469 1.000000
0.000000 0.732910 1.000000
0.000000 0.741699 1.000000
0.000000 0.769043 1.000000
0.000000 0.824219 1.000000
0.000000 0.879395 1.000000
0.000000 0.711426 1.000000
0.000000 0.714844 1.000000
0.000000 0.715820 1.000000
0.000000 0.709961 1.000000
0.000000 0.715820 1.000000
0.000000 0.720215 1.000000
0.000000 0.737793 1.000000
0.000000 0.787598 1.000000
0.000000 0.842285 1.000000
0.000000 0.605469 0.947266
0.000000 0.611816 0.953613
0.000000 0.609863 0.951660
0.000000 0.610840 0.952637
0.000000 0.624512 0.965820
0.000000 0.627930 0.968750
0.000000 0.629395 0.969727
0.694824 0.657227 0.996582
0.812500 0.704590 1.000000
0.000000 0.614258 0.864746
0.000000 0.615723 0.866211
0.000000 0.616211 0.866699
0.244385 0.617188 0.869629
0.458984 0.617188 0.874023
0.604004 0.617676 0.875977
0.737793 0.621582 0.874512
0.868652 0.624512 0.875488
0.995117 0.626465 0.877930
0.000000 0.741211 0.870605
0.000000 0.741699 0.870605
0.000000 0.742188 0.872070
0.327148 0.744141 0.874512
0.479004 0.745117 0.875488
0.612793 0.746582 0.877441
0.741699 0.746094 0.875977
0.870605 0.748047 0.874512
0.996582 0.749023 0.875977
0.000000 0.899902 0.993164
0.000000 0.899414 0.992188
0.000000 0.898926 0.989258
0.000000 0.896973 0.980469
0.000000 0.888672 0.944824
0.620605 0.872559 0.875000
0.746094 0.873535 0.875000
0.872070 0.873535 0.874512
0.997559 0.874023 0.874512
0.000000 1.000000 1.000000
0.000000 1.000000 1.000000
0.000000 1.000000 1.000000
0.000000 1.000000 1.000000
0.000000 1.000000 1.000000
0.000000 1.000000 1.000000
0.759277 1.000000 0.916992
0.874023 0.998535 0.874023
0.998535 0.998047 0.873047
0.000000 1.000000 1.000000
0.000000 1.000000 1.000000
0.000000 1.000000 1.000000
0.000000 1.000000 1.000000
0.000000 1.000000 1.000000
0.000000 1.000000 1.000000
0.000000 1.000000 1.000000
0.000000 1.000000 1.000000
0.000000 1.000000 1.000000
0.000000 1.000000 1.000000
0.000000 1.000000 1.000000
0.000000 1.000000 1.000000
0.000000 1.000000 1.000000
0.000000 1.000000 1.000000
0.000000 1.000000 1.000000
0.000000 1.000000 1.000000
0.000000 1.000000 1.000000
0.000000 1.000000 1.000000
0.000000 1.000000 1.000000
0.000000 1.000000 1.000000
0.000000 1.000000 1.000000
0.000000 1.000000 1.000000
0.000000 1.000000 1.000000
0.000000 1.000000 1.000000
0.000000 1.000000 1.000000
0.000000 1.000000 1.000000
0.000000 1.000000 1.000000
0.000000 1.000000 1.000000
0.000000 1.000000 1.000000
0.000000 1.000000 1.000000
0.000000 1.000000 1.000000
0.000000 1.000000 1.000000
0.000000 1.000000 1.000000
0.000000 1.000000 1.000000
0.000000 1.000000 1.000000
0.000000 1.000000 1.000000
0.000000 1.000000 1.000000
0.000000 1.000000 1.000000
0.000000 1.000000 1.000000
0.000000 1.000000 1.000000
0.000000 1.000000 1.000000
0.000000 1.000000 1.000000
0.000000 1.000000 1.000000
0.000000 1.000000 1.000000
0.000000 1.000000 1.000000
0.000000 1.000000 1.000000
0.000000 1.000000 1.000000
0.000000 1.000000 1.000000
0.000000 1.000000 1.000000
0.000000 1.000000 1.000000
0.000000 1.000000 1.000000
0.000000 1.000000 1.000000
0.000000 1.000000 1.000000
0.000000 1.000000 1.000000
0.000000 0.750977 1.000000
0.000000 0.750977 1.000000
0.000000 0.750977 1.000000
0.000000 0.750977 1.000000
0.445801 0.750977 1.000000
0.608887 0.750977 1.000000
0.743652 0.750488 1.000000
0.870605 0.750000 1.000000
0.995117 0.750488 1.000000
0.000000 0.874512 1.000000
0.000000 0.874512 1.000000
0.000000 0.874512 1.000000
0.294434 0.874512 1.000000
0.483398 0.874512 1.000000
0.619141 0.874512 1.000000
0.746582 0.874512 1.000000
0.872070 0.874023 0.999512
0.997559 0.874023 0.998535
0.000000 1.000000 1.000000
0.000000 1.000000 1.000000
0.000000 1.000000 1.000000
0.000000 1.000000 1.000000
0.000000 1.000000 1.000000
0.000000 1.000000 1.000000
0.749512 0.999023 0.998535
0.873535 0.998047 0.998047
0.999023 0.998047 0.998047
