RED_IPP2_Creative/RED_BLAU.cube
# RED Digital Cinema Output Transform LUT for IPP2
# Creatives by Eric Weidt
# BMD cube from Truelight v4.0
# Settings used in creation of this LUT are:
# Development Color Space = USER SELECTABLE
# Output Gamma Curve = USER SELECTABLE
# Output Tonemap = USER SELECTABLE
# Highlight Rolloff = USER SELECTABLE
LUT_3D_SIZE 5
0.000000 0.004059 0.015717
0.233765 0.003435 0.013298
0.486328 0.002855 0.011055
0.738770 0.002321 0.008987
0.991211 0.001837 0.007111
0.000000 0.253174 0.012909
0.242065 0.251465 0.006462
0.493896 0.250977 0.004826
0.745605 0.250732 0.003363
0.997070 0.250488 0.002077
0.000000 0.502441 0.010094
0.238770 0.501953 0.009262
0.499023 0.500000 0.000607
0.750000 0.500000 0.000000
1.000000 0.500000 0.000000
0.000000 0.751465 0.007286
0.242188 0.751465 0.006451
0.494873 0.750488 0.004211
0.750000 0.750000 0.000000
1.000000 0.750000 0.000000
0.000000 1.000000 0.004475
0.245483 1.000000 0.003641
0.496582 1.000000 0.002806
0.748535 1.000000 0.000985
1.000000 1.000000 0.000000
0.000000 0.003986 0.265381
0.232300 0.003771 0.264404
0.484863 0.003155 0.261963
0.739258 0.002213 0.258301
0.991699 0.001682 0.256348
0.000000 0.253174 0.262451
0.237549 0.252441 0.260010
0.494629 0.250977 0.254150
0.746094 0.250488 0.252686
0.997559 0.250244 0.251465
0.000000 0.502441 0.259766
0.239136 0.501953 0.258789
0.499512 0.500000 0.250244
0.750000 0.500000 0.250000
1.000000 0.500000 0.250000
0.000000 0.751465 0.256836
0.242432 0.751465 0.256104
0.493408 0.750977 0.255127
0.750000 0.750000 0.250000
1.000000 0.750000 0.250000
0.000000 1.000000 0.254150
0.245850 1.000000 0.253174
0.496826 1.000000 0.252441
0.748047 1.000000 0.250977
1.000000 1.000000 0.250000
0.000000 0.003914 0.515137
0.232666 0.003698 0.514160
0.483643 0.003483 0.513184
0.734375 0.003267 0.512207
0.988281 0.002365 0.508789
0.000000 0.253174 0.512207
0.236084 0.252930 0.511230
0.487061 0.252686 0.510254
0.741699 0.251465 0.506348
0.997559 0.250244 0.501465
0.000000 0.502441 0.509277
0.239380 0.501953 0.508301
0.494873 0.500488 0.500488
0.751465 0.499756 0.495117
1.000000 0.500000 0.500000
0.000000 0.751465 0.506348
0.242798 0.751465 0.505859
0.496582 0.750488 0.498291
0.752441 0.749512 0.492920
1.000000 0.750000 0.500000
0.000000 1.000000 0.503906
0.246216 1.000000 0.502930
0.497070 1.000000 0.501953
0.748047 1.000000 0.500977
1.000000 1.000000 0.500000
0.000000 0.003841 0.764648
0.233032 0.003626 0.763672
0.483887 0.003408 0.763184
0.734863 0.003193 0.762207
0.985840 0.002977 0.761230
0.000000 0.252930 0.761719
0.236328 0.252686 0.760742
0.487305 0.252441 0.760254
0.738281 0.252441 0.759277
0.989258 0.252197 0.758301
0.000000 0.501953 0.758789
0.239746 0.501953 0.758301
0.492920 0.501465 0.751953
0.744141 0.500977 0.750488
0.995605 0.500488 0.752930
0.000000 0.751465 0.756348
0.243164 0.750977 0.755371
0.497314 0.750488 0.747559
0.749512 0.750000 0.745117
0.999023 0.750000 0.750488
0.000000 1.000000 0.753418
0.246582 1.000000 0.752441
0.497559 1.000000 0.751953
0.748535 1.000000 0.750977
0.999512 1.000000 0.750000
0.000000 0.003767 1.000000
0.233276 0.003551 1.000000
0.484375 0.003336 1.000000
0.735352 0.003120 1.000000
0.986328 0.002905 1.000000
0.000000 0.252930 1.000000
0.236694 0.252686 1.000000
0.487549 0.252441 1.000000
0.738770 0.252197 1.000000
0.989746 0.251953 1.000000
0.000000 0.501953 1.000000
0.240112 0.501953 1.000000
0.490967 0.501465 1.000000
0.742188 0.501465 1.000000
0.993164 0.500977 1.000000
0.000000 0.751465 1.000000
0.243530 0.750977 1.000000
0.494385 0.750977 1.000000
0.745117 0.750488 1.000000
0.996582 0.750488 1.000000
0.000000 1.000000 1.000000
0.246948 1.000000 1.000000
0.497803 1.000000 1.000000
0.748535 1.000000 1.000000
0.999512 1.000000 1.000000
