RED_IPP2_Creative/RED_GRIME.cube
# RED Digital Cinema Output Transform LUT for IPP2
# Creatives by Eric Weidt
# BMD cube from Truelight v4.0
# Settings used in creation of this LUT are:
# Development Color Space = USER SELECTABLE
# Output Gamma Curve = USER SELECTABLE
# Output Tonemap = USER SELECTABLE
# Highlight Rolloff = USER SELECTABLE
LUT_3D_SIZE 9
0.000000 0.000300 0.000101
0.129272 0.000981 0.000799
0.260742 0.000000 0.000000
0.423584 0.156128 0.144653
0.547852 0.333496 0.296143
0.657715 0.415771 0.376953
0.750977 0.372559 0.332764
0.868164 0.030884 0.007687
0.999512 0.000000 0.000000
0.000000 0.160156 0.000000
0.109192 0.105164 0.000000
0.206299 0.099487 0.000000
0.353760 0.154297 0.065125
0.508789 0.311768 0.263672
0.634766 0.409912 0.366211
0.740234 0.405029 0.362305
0.847656 0.146240 0.022629
0.999512 0.000000 0.000000
0.048584 0.390381 0.203979
0.185791 0.340576 0.151245
0.249634 0.245117 0.053497
0.372559 0.293701 0.185425
0.505371 0.361084 0.286621
0.628418 0.426270 0.369141
0.734375 0.424805 0.370361
0.818848 0.262695 0.000000
0.916016 0.184692 0.000000
0.297607 0.566406 0.377686
0.323975 0.557129 0.371582
0.357178 0.490967 0.322754
0.416748 0.422363 0.297852
0.511230 0.444580 0.343262
0.622559 0.471680 0.386719
0.728516 0.457764 0.371094
0.801758 0.384277 0.043549
0.929688 0.388672 0.000000
0.276123 0.666016 0.375732
0.210327 0.658691 0.000000
0.368652 0.649902 0.403076
0.450439 0.594727 0.404297
0.530273 0.541016 0.406250
0.619629 0.546875 0.425293
0.708984 0.526367 0.373535
0.802734 0.500488 0.108521
0.916016 0.496338 0.000000
0.000000 0.747070 0.000000
0.182739 0.753906 0.024246
0.318848 0.718750 0.079041
0.418701 0.658691 0.075500
0.519043 0.647461 0.385010
0.615723 0.625977 0.420898
0.703613 0.602051 0.084717
0.819336 0.609863 0.053406
0.936523 0.622070 0.131470
0.012100 0.834473 0.036896
0.182617 0.825684 0.000000
0.317383 0.826172 0.038147
0.435791 0.774414 0.071777
0.520996 0.750488 0.066345
0.617676 0.732422 0.091248
0.721191 0.716309 0.081482
0.837402 0.725098 0.076843
0.948730 0.725098 0.000000
0.125244 0.897461 0.000000
0.128296 0.907715 0.000000
0.310791 0.940918 0.101318
0.447021 0.875000 0.000000
0.538086 0.864746 0.103821
0.636230 0.854492 0.119324
0.737793 0.836914 0.000000
0.850098 0.834961 0.000000
0.961914 0.838867 0.000000
0.000000 0.933594 0.000000
0.269287 0.898438 0.000000
0.304932 0.984375 0.164185
0.453857 0.924805 0.000000
0.548340 0.941895 0.151978
0.649414 0.952148 0.297363
0.751953 0.941895 0.000000
0.853027 0.937988 0.000000
0.988770 0.966797 0.102783
0.000940 0.000291 0.189697
0.128784 0.000345 0.130371
0.286377 0.000000 0.138916
0.501953 0.272217 0.279541
0.590820 0.369629 0.345215
0.680664 0.424072 0.392822
0.764160 0.282471 0.262939
0.882812 0.108276 0.147217
0.999512 0.000000 0.057892
0.000000 0.210327 0.232544
0.115479 0.115173 0.115601
0.224243 0.103638 0.097717
0.427734 0.213745 0.211060
0.548828 0.345215 0.313721
0.657227 0.420166 0.384033
0.750977 0.377441 0.342285
0.866211 0.163940 0.127563
0.999512 0.000000 0.057892
0.119202 0.400879 0.263428
0.153809 0.324463 0.175659
0.249390 0.247681 0.152954
0.373047 0.293213 0.218994
0.507324 0.359863 0.297852
0.629883 0.425293 0.375244
0.738281 0.419434 0.372070
0.847656 0.270752 0.148193
0.955078 0.187866 0.000000
0.300293 0.563965 0.386719
0.297119 0.524902 0.352295
0.356689 0.491943 0.331299
0.416748 0.422119 0.310303
0.511230 0.444580 0.351807
0.623535 0.471191 0.391113
0.729492 0.458496 0.377930
0.827637 0.380859 0.161011
0.961426 0.383789 0.137939
0.225586 0.674805 0.337891
0.311523 0.657227 0.399658
0.367676 0.650879 0.406006
0.450684 0.599121 0.410156
0.530273 0.540527 0.410889
0.619629 0.546875 0.429443
0.710449 0.525391 0.378418
0.809570 0.503418 0.217529
0.919922 0.504395 0.083557
0.000000 0.797852 0.161377
0.130249 0.750000 0.122620
0.309570 0.755859 0.148071
0.418945 0.689453 0.197266
0.517090 0.649414 0.365479
0.616211 0.626953 0.426025
0.705078 0.606934 0.217773
0.820801 0.616211 0.215454
0.937500 0.626465 0.250488
0.083618 0.868652 0.174805
0.130371 0.834473 0.145264
0.284668 0.839844 0.130981
0.421875 0.810547 0.178223
0.526367 0.764160 0.207642
0.620117 0.740723 0.219116
0.722656 0.722168 0.232910
0.838867 0.730957 0.237793
0.953125 0.730957 0.011871
0.033386 0.942871 0.035828
0.163208 0.911621 0.115051
0.301025 0.892090 0.000000
0.446777 0.876465 0.000000
0.535645 0.859375 0.000000
0.636719 0.855469 0.053894
0.744629 0.852539 0.241821
0.855469 0.843262 0.158081
0.966797 0.843750 0.000000
0.269287 0.898438 0.000000
0.269287 0.898438 0.000000
0.304932 0.984375 0.164185
0.412842 0.970703 0.168091
0.523926 0.967773 0.260254
0.649414 0.952148 0.297363
0.758789 0.954590 0.185059
0.862793 0.947754 0.000000
0.988770 0.966797 0.097229
0.000000 0.001631 0.376953
0.130493 0.000650 0.294922
0.267334 0.000000 0.256836
0.500488 0.275146 0.384033
0.645996 0.403076 0.415771
0.714844 0.425293 0.422119
0.788574 0.000000 0.285156
0.899414 0.134277 0.277832
0.999512 0.062317 0.257568
0.000000 0.208618 0.410400
0.130859 0.130249 0.316895
0.225220 0.109436 0.232666
0.468994 0.261719 0.358643
0.607422 0.384277 0.392090
0.688965 0.427734 0.416260
0.769043 0.253662 0.306885
0.884277 0.125732 0.267578
0.999512 0.042694 0.246460
0.168091 0.403320 0.428955
0.210571 0.387939 0.422363
0.244019 0.245605 0.250244
0.390137 0.289551 0.297119
0.553711 0.376953 0.357666
0.659180 0.433594 0.404785
0.752930 0.392090 0.369141
0.871582 0.245117 0.256592
0.999512 0.205688 0.224976
0.318848 0.559082 0.430420
0.314697 0.529297 0.399170
0.341553 0.479492 0.349121
0.417236 0.423828 0.338135
0.515625 0.444824 0.367920
0.629395 0.470459 0.401855
0.732910 0.456055 0.393311
0.848633 0.375488 0.264893
0.984375 0.385498 0.276855
0.220703 0.675781 0.399170
0.320557 0.654297 0.431152
0.367676 0.626465 0.425537
0.448486 0.602539 0.418457
0.531250 0.543945 0.415283
0.623047 0.547852 0.431885
0.716309 0.524902 0.393066
0.829102 0.500488 0.297607
0.964355 0.498535 0.272949
0.050995 0.822754 0.342041
0.129272 0.777344 0.302246
0.249878 0.734375 0.255371
0.405762 0.739746 0.270996
0.505859 0.662598 0.305908
0.616211 0.629883 0.429932
0.708008 0.612305 0.322754
0.822266 0.620605 0.338623
0.940918 0.626953 0.312744
0.000000 0.910645 0.292725
0.159424 0.872070 0.286621
0.251709 0.833496 0.266357
0.400635 0.847168 0.272949
0.518066 0.794434 0.304199
0.621582 0.753418 0.336182
0.723145 0.726562 0.343018
0.839844 0.735352 0.356445
0.956055 0.743164 0.338623
0.011192 0.975098 0.282471
0.000000 0.944336 0.226074
0.250732 0.916992 0.263916
0.389893 0.927734 0.255371
0.526855 0.900391 0.264404
0.641113 0.870117 0.322510
0.746582 0.858887 0.361572
0.857910 0.850586 0.359863
0.974121 0.858887 0.344727
0.082520 0.999512 0.215576
0.124207 0.997559 0.108643
0.273682 0.999512 0.272949
0.387207 0.988770 0.282959
0.515137 0.975098 0.300049
0.642090 0.962891 0.368896
0.760254 0.961914 0.379639
0.875000 0.966309 0.314209
0.992676 0.976074 0.388184
0.000000 0.006882 0.511719
0.129883 0.001338 0.461426
0.250244 0.002077 0.399902
0.406738 0.025879 0.414551
0.591797 0.374023 0.500488
0.715332 0.422852 0.482178
0.822266 0.000000 0.433350
0.921875 0.000000 0.414062
0.999512 0.142822 0.399902
0.003067 0.169312 0.517578
0.131104 0.131348 0.505859
0.250488 0.130615 0.424316
0.411865 0.161255 0.420898
0.605957 0.392822 0.509277
0.729004 0.422363 0.486084
0.796875 0.129272 0.421631
0.903320 0.053589 0.404541
0.999512 0.126099 0.394531
0.000000 0.334717 0.525879
0.128662 0.313721 0.518066
0.238525 0.247803 0.439697
0.378906 0.271973 0.402588
0.619141 0.422119 0.512695
0.699219 0.439209 0.473145
0.770508 0.259521 0.408691
0.886230 0.257080 0.397949
0.999512 0.220093 0.383545
0.315186 0.535645 0.554688
0.324219 0.524902 0.552734
0.358154 0.515137 0.546875
0.411865 0.427734 0.440430
0.535645 0.448975 0.462646
0.662598 0.472412 0.454346
0.754883 0.430908 0.430908
0.872070 0.370850 0.391846
0.999512 0.364990 0.380371
0.326904 0.660156 0.518066
0.348877 0.647949 0.511719
0.379883 0.628418 0.489746
0.441406 0.594238 0.453125
0.533691 0.548340 0.447998
0.628906 0.549316 0.458740
0.727539 0.523438 0.437744
0.848633 0.494629 0.396973
0.985840 0.494629 0.393555
0.024536 0.810547 0.491943
0.136963 0.789551 0.476074
0.248779 0.750977 0.427979
0.360352 0.714355 0.380371
0.496094 0.681641 0.389160
0.617676 0.634766 0.459473
0.711426 0.616699 0.421631
0.828613 0.622559 0.437012
0.966797 0.623047 0.417969
0.000000 0.963867 0.493896
0.127441 0.921387 0.466309
0.254395 0.877441 0.426514
0.360596 0.834473 0.390869
0.507324 0.834961 0.397217
0.623535 0.770508 0.433105
0.724609 0.731934 0.444580
0.841309 0.739258 0.460693
0.957520 0.748047 0.466064
0.184326 0.999512 0.442627
0.041718 0.979004 0.415527
0.235474 0.946289 0.398926
0.360840 0.916992 0.386230
0.501953 0.933594 0.403320
0.633789 0.892578 0.438477
0.749023 0.866699 0.468262
0.858887 0.855469 0.476807
0.975586 0.863770 0.478271
0.045349 0.999512 0.410156
0.133179 0.999512 0.388428
0.256104 0.999512 0.375244
0.361816 0.999512 0.389160
0.492432 0.988770 0.385010
0.628418 0.977539 0.437744
0.762695 0.966309 0.485352
0.876953 0.972656 0.480469
0.994141 0.979980 0.500488
0.024719 0.000000 0.598633
0.137817 0.000985 0.576660
0.250732 0.001107 0.547852
0.364990 0.000000 0.517090
0.542969 0.298096 0.571289
0.684570 0.433594 0.595703
0.788574 0.053802 0.545898
0.921875 0.107178 0.543457
0.999512 0.157959 0.538086
0.000000 0.152832 0.603516
0.131104 0.134644 0.607422
0.249390 0.137085 0.571777
0.362061 0.130615 0.526367
0.543945 0.316406 0.572266
0.689941 0.438965 0.597656
0.796875 0.130249 0.549805
0.929688 0.154175 0.547363
0.999512 0.010559 0.530273
0.000000 0.294678 0.610840
0.133179 0.280273 0.613281
0.249146 0.251709 0.614258
0.360840 0.251221 0.548340
0.547363 0.363770 0.571289
0.699707 0.453125 0.596680
0.810059 0.255127 0.553711
0.908691 0.262939 0.537598
0.999512 0.241943 0.522949
0.229980 0.451660 0.624512
0.044464 0.433350 0.618652
0.247070 0.420410 0.619141
0.349121 0.367676 0.561523
0.531250 0.443359 0.560059
0.719727 0.482666 0.596191
0.779297 0.369141 0.537598
0.889648 0.375000 0.528809
0.999512 0.369385 0.518555
0.364258 0.635742 0.640625
0.372803 0.627930 0.641602
0.395020 0.620605 0.638184
0.446289 0.614258 0.634277
0.531250 0.553223 0.565430
0.651855 0.551758 0.569336
0.750488 0.506836 0.527832
0.872070 0.491211 0.520020
0.999512 0.489746 0.514648
0.000000 0.764648 0.603027
0.124329 0.751953 0.598145
0.249390 0.735840 0.583008
0.359863 0.712891 0.555664
0.488525 0.676270 0.518066
0.620117 0.637207 0.536621
0.714355 0.618164 0.526367
0.848633 0.619141 0.527832
0.986816 0.618652 0.523926
0.000000 0.891113 0.592285
0.092651 0.910645 0.600586
0.260254 0.912598 0.598145
0.362549 0.866211 0.556152
0.474854 0.822754 0.514160
0.619629 0.803223 0.523438
0.725098 0.735352 0.549805
0.841797 0.743164 0.566406
0.966797 0.749512 0.561523
0.000000 0.999512 0.579102
0.018555 0.999512 0.588867
0.244385 0.984863 0.562988
0.356201 0.949707 0.536621
0.473877 0.916992 0.519531
0.620117 0.921387 0.528809
0.751953 0.875488 0.575684
0.859863 0.859375 0.582031
0.976562 0.868164 0.592285
0.051117 0.999512 0.570801
0.122131 0.999512 0.550293
0.234741 0.999512 0.532227
0.355957 0.999512 0.516113
0.475342 0.999512 0.511719
0.611816 0.991211 0.525879
0.756348 0.976074 0.573242
0.877930 0.977051 0.595703
0.995117 0.984375 0.610840
0.094727 0.000000 0.683105
0.104675 0.038483 0.677246
0.248779 0.027100 0.666504
0.361084 0.000000 0.652344
0.483154 0.013054 0.645996
0.661621 0.409668 0.690430
0.770996 0.366211 0.668945
0.899414 0.000000 0.657227
0.999512 0.106323 0.653320
0.091614 0.074341 0.687988
0.160889 0.124023 0.692383
0.260254 0.104736 0.679688
0.363770 0.127808 0.662109
0.475830 0.129761 0.641602
0.661133 0.413574 0.690430
0.772949 0.355713 0.668945
0.903320 0.158081 0.659180
0.999512 0.166626 0.654785
0.000000 0.277100 0.695801
0.166138 0.262451 0.697754
0.248657 0.251709 0.698730
0.361816 0.251221 0.674805
0.474365 0.252441 0.644043
0.661621 0.432373 0.687012
0.774414 0.352051 0.666504
0.908691 0.272949 0.662109
0.999512 0.261230 0.656250
0.000000 0.405518 0.702148
0.102234 0.397705 0.703613
0.239746 0.390625 0.703125
0.363037 0.373047 0.703125
0.475342 0.372314 0.658691
0.663086 0.477051 0.683594
0.779297 0.370605 0.662598
0.916992 0.369385 0.665039
0.999512 0.369385 0.649902
0.414062 0.585938 0.730957
0.411133 0.573730 0.733887
0.416016 0.565918 0.730957
0.436279 0.547852 0.725098
0.517578 0.516602 0.708008
0.653320 0.553711 0.678711
0.797852 0.492432 0.669922
0.894043 0.492432 0.654785
0.999512 0.488525 0.643555
0.000000 0.700195 0.696289
0.128296 0.706055 0.703125
0.251221 0.696777 0.700195
0.385010 0.693848 0.701172
0.494141 0.687500 0.703613
0.621094 0.643555 0.658203
0.744629 0.616699 0.646484
0.872070 0.615234 0.645020
0.999512 0.615723 0.640625
0.053589 0.832520 0.686035
0.147949 0.842773 0.693848
0.243042 0.855957 0.699707
0.361816 0.853516 0.697266
0.474121 0.833496 0.680176
0.594238 0.791504 0.637207
0.726074 0.738281 0.653320
0.847168 0.745605 0.660645
0.985840 0.745605 0.652832
0.021591 0.951172 0.675781
0.096008 0.962402 0.683105
0.247192 0.976074 0.690918
0.369873 0.995117 0.699219
0.473145 0.955078 0.671387
0.594238 0.916504 0.644043
0.746094 0.899414 0.658691
0.860840 0.863281 0.683594
0.977539 0.872070 0.692383
0.169800 0.999512 0.663574
0.057098 0.999512 0.671387
0.267090 0.999512 0.679688
0.362305 0.999512 0.660156
0.476807 0.999512 0.647461
0.595215 0.999512 0.641113
0.740723 0.991211 0.654297
0.878906 0.980957 0.699707
0.995605 0.987793 0.708496
0.196899 0.000000 0.767090
0.210938 0.110474 0.770996
0.262939 0.129761 0.771973
0.366211 0.078857 0.769531
0.474365 0.000000 0.764648
0.605469 0.050873 0.768066
0.767578 0.447510 0.790527
0.882812 0.000000 0.771484
0.999512 0.000000 0.768555
0.000000 0.117737 0.772461
0.000000 0.175659 0.775879
0.230713 0.233032 0.777344
0.364502 0.000000 0.773438
0.473145 0.140747 0.767578
0.602539 0.000000 0.765625
0.767578 0.450439 0.791016
0.884277 0.149170 0.771973
0.999512 0.000000 0.769043
0.000000 0.252441 0.778320
0.241211 0.243408 0.781250
0.000000 0.290771 0.783691
0.360840 0.290039 0.780762
0.473877 0.262451 0.771973
0.596191 0.245117 0.761719
0.766602 0.459229 0.789551
0.886230 0.256836 0.772949
0.999512 0.273438 0.769531
0.156494 0.371338 0.784180
0.221069 0.378174 0.787109
0.255371 0.372314 0.788086
0.357178 0.365967 0.789551
0.479980 0.370850 0.780762
0.594238 0.372314 0.762695
0.766113 0.484375 0.788086
0.889648 0.372559 0.774414
0.999512 0.374512 0.770508
0.000000 0.508301 0.790527
0.153320 0.509277 0.793457
0.251465 0.505859 0.793945
0.353760 0.504883 0.795898
0.472168 0.493652 0.797852
0.594727 0.492676 0.773926
0.761719 0.540527 0.784668
0.894043 0.492188 0.776855
0.999512 0.488525 0.772461
0.459229 0.678711 0.808594
0.468750 0.678711 0.814941
0.482666 0.675293 0.820312
0.506348 0.672852 0.822266
0.555176 0.666016 0.825195
0.641113 0.643555 0.827148
0.746582 0.618164 0.771484
0.904785 0.615723 0.780762
0.999512 0.615723 0.765625
0.000000 0.784180 0.778320
0.140259 0.789551 0.786133
0.250000 0.795410 0.791992
0.359863 0.801758 0.799316
0.473633 0.795898 0.800781
0.593750 0.785645 0.800781
0.724121 0.742188 0.760742
0.871582 0.742676 0.766602
0.999512 0.742676 0.762207
0.068481 0.905762 0.768066
0.137695 0.913574 0.775879
0.239014 0.921875 0.783203
0.356445 0.932129 0.790527
0.473389 0.944824 0.798340
0.594238 0.956055 0.801758
0.724609 0.910645 0.762695
0.861328 0.866211 0.780762
0.983887 0.874023 0.783203
0.098877 0.999512 0.767090
0.208862 0.999512 0.770020
0.280273 0.999512 0.773926
0.374512 0.999512 0.779785
0.473145 0.999512 0.787109
0.593750 0.999512 0.770508
0.725098 0.999512 0.761719
0.876465 0.988281 0.787109
0.997070 0.991699 0.807617
0.302734 0.000000 0.849121
0.000000 0.055328 0.858887
0.362793 0.080750 0.868164
0.359619 0.000000 0.873535
0.469727 0.000000 0.877930
0.588379 0.286133 0.881348
0.732910 0.000000 0.883301
0.871582 0.000000 0.884766
0.999512 0.000000 0.882812
0.000000 0.000000 0.853027
0.301758 0.000000 0.857422
0.000000 0.000000 0.864746
0.282959 0.000000 0.872070
0.453125 0.304932 0.879395
0.598145 0.000000 0.879395
0.733398 0.000000 0.882812
0.871582 0.119446 0.884766
0.999512 0.000000 0.882812
0.000000 0.307373 0.860840
0.301758 0.264648 0.863770
0.364502 0.252197 0.867188
0.425781 0.000000 0.871094
0.485107 0.000000 0.878906
0.593750 0.207642 0.880371
0.728027 0.261230 0.882324
0.871582 0.238525 0.884766
0.999512 0.213989 0.883301
0.303955 0.332031 0.866211
0.000000 0.377441 0.868652
0.299805 0.362793 0.872070
0.366699 0.373291 0.874512
0.471680 0.329834 0.878906
0.583008 0.410156 0.882324
0.725586 0.378418 0.881348
0.872070 0.368896 0.885254
0.999512 0.375488 0.883301
0.000000 0.482666 0.871094
0.157715 0.496338 0.875488
0.321289 0.471924 0.875488
0.324951 0.494873 0.880371
0.464600 0.499268 0.883789
0.595215 0.501953 0.886719
0.725586 0.490234 0.882324
0.872070 0.490234 0.885254
0.999512 0.491699 0.883789
0.242310 0.609863 0.876953
0.000000 0.614746 0.879883
0.269287 0.618652 0.884277
0.356689 0.614746 0.884277
0.492188 0.614258 0.888184
0.593750 0.615234 0.891602
0.720215 0.616211 0.884766
0.872070 0.615723 0.885254
0.999512 0.615234 0.884277
0.302490 0.747559 0.872070
0.324707 0.750977 0.878906
0.379395 0.754395 0.886719
0.448486 0.757324 0.895508
0.513184 0.757324 0.898438
0.604980 0.754395 0.899902
0.725098 0.742188 0.899902
0.871582 0.742188 0.884766
0.999512 0.742188 0.885742
0.000000 0.873535 0.866699
0.106750 0.874512 0.867188
0.256348 0.880371 0.874512
0.362305 0.885742 0.881348
0.474121 0.891602 0.888672
0.593750 0.896973 0.895996
0.724609 0.897461 0.900391
0.861328 0.870605 0.880371
0.999512 0.870605 0.880371
0.011696 0.999512 0.878906
0.150757 0.999512 0.879395
0.276855 0.999512 0.880371
0.356445 0.999512 0.881348
0.474121 0.999512 0.882812
0.594727 0.999512 0.886230
0.724609 0.999512 0.893066
0.861328 0.999512 0.880371
0.997559 0.995117 0.902832
0.000000 0.478760 0.978027
0.393799 0.000000 0.973633
0.000000 0.000000 0.974609
0.000000 0.000000 0.975098
0.499512 0.408691 0.985840
0.558594 0.433594 0.992676
0.715332 0.000000 0.995117
0.864746 0.000000 0.998535
0.999512 0.142334 0.998535
0.000000 0.342041 0.970703
0.514160 0.302979 0.981445
0.000000 0.000000 0.973633
0.309326 0.367188 0.979980
0.000000 0.416260 0.982910
0.000000 0.518066 0.989258
0.736328 0.000000 0.998535
0.858887 0.507812 1.000000
0.999512 0.142334 0.998535
0.390869 0.405029 0.968262
0.000000 0.402100 0.973145
0.000000 0.436279 0.981445
0.233643 0.394287 0.981445
0.000000 0.235962 0.980957
0.000000 0.500000 0.986328
0.738281 0.314697 0.998535
0.861328 0.411865 0.998535
0.999512 0.260010 0.998535
0.000000 0.468018 0.962891
0.000000 0.408203 0.968262
0.000000 0.449707 0.976562
0.493164 0.296875 0.985352
0.000000 0.487305 0.983398
0.576172 0.456055 0.987793
0.720215 0.000000 0.991699
0.866211 0.344482 1.000000
0.999512 0.388916 0.998535
0.474121 0.337402 0.955078
0.000000 0.416260 0.961426
0.467529 0.443359 0.971680
0.000000 0.469238 0.976562
0.502930 0.487549 0.987793
0.652344 0.261230 0.987793
0.731934 0.275146 0.989258
0.864746 0.440918 1.000000
0.999512 0.490723 0.998535
0.379883 0.581543 0.958008
0.454834 0.554688 0.957520
0.435791 0.598145 0.967773
0.518555 0.598633 0.976074
0.533691 0.578613 0.979492
0.588379 0.618652 0.990723
0.726562 0.639648 0.994629
0.861328 0.602051 0.996094
0.999512 0.616699 0.998535
0.000000 0.716309 0.962891
0.000000 0.720703 0.968262
0.477783 0.719238 0.970703
0.242188 0.725586 0.972656
0.485596 0.731445 0.977539
0.581055 0.737305 0.984863
0.724609 0.739746 0.992188
0.878906 0.750000 1.000000
0.999512 0.742188 0.998535
0.052612 0.862793 0.983398
0.107788 0.861816 0.982422
0.254395 0.859863 0.980957
0.360107 0.856934 0.979004
0.471924 0.855469 0.979980
0.594238 0.859375 0.983887
0.724609 0.864746 0.988281
0.861328 0.870605 0.995605
0.999512 0.870605 0.998535
0.103943 0.999512 0.998535
0.109863 0.999512 0.998535
0.243652 0.999512 0.998535
0.347412 0.999512 0.998535
0.472900 0.999512 0.998535
0.595703 0.999512 0.998535
0.724609 0.999512 0.998535
0.861328 0.999512 0.998535
0.999023 0.999023 0.998535
