RED_IPP2_Creative/RED_PROCESS.cube
# RED Digital Cinema Output Transform LUT for IPP2
# Creatives by Eric Weidt
# BMD cube from Truelight v4.0
# Settings used in creation of this LUT are:
# Development Color Space = USER SELECTABLE
# Output Gamma Curve = USER SELECTABLE
# Output Tonemap = USER SELECTABLE
# Highlight Rolloff = USER SELECTABLE 
LUT_3D_SIZE 33
0.033539 0.038483 0.039185
0.074158 0.035858 0.031525
0.122681 0.027008 0.024689
0.168945 0.019211 0.019012
0.206421 0.015205 0.019516
0.249512 0.012154 0.017822
0.285889 0.012054 0.018814
0.315186 0.016174 0.020813
0.345459 0.017807 0.024643
0.376221 0.017502 0.027664
0.409424 0.017303 0.028732
0.438232 0.018311 0.031677
0.461914 0.018845 0.035950
0.486084 0.020905 0.039154
0.510254 0.022018 0.041473
0.531738 0.020218 0.046661
0.552734 0.020782 0.050873
0.570801 0.026138 0.051605
0.585449 0.031250 0.052948
0.597168 0.038422 0.053375
0.606934 0.048859 0.053101
0.610352 0.063904 0.053040
0.612305 0.081604 0.056274
0.615234 0.096741 0.056824
0.618652 0.110291 0.055573
0.621094 0.123596 0.054230
0.627441 0.132202 0.053589
0.630371 0.135986 0.054016
0.634766 0.138306 0.055939
0.638184 0.139771 0.057556
0.642090 0.141235 0.060944
0.645508 0.142456 0.063171
0.649414 0.142334 0.063477
0.014168 0.073242 0.016830
0.063110 0.063843 0.025803
0.091736 0.064880 0.031830
0.133545 0.060303 0.020584
0.179199 0.052551 0.013657
0.222046 0.044769 0.011833
0.265137 0.036011 0.012367
0.302979 0.032196 0.013237
0.337402 0.030441 0.017365
0.369629 0.028519 0.021957
0.400879 0.027191 0.023422
0.432129 0.026917 0.024353
0.459473 0.027145 0.028778
0.483887 0.027710 0.034393
0.506348 0.028366 0.038391
0.530273 0.028854 0.044373
0.550781 0.027969 0.047699
0.569336 0.030960 0.050354
0.584961 0.036133 0.051849
0.597656 0.041016 0.053223
0.606934 0.052063 0.054077
0.609375 0.067505 0.053680
0.611816 0.084656 0.056915
0.616211 0.100525 0.057953
0.617676 0.114929 0.055573
0.621094 0.126953 0.054138
0.626465 0.134521 0.053131
0.630859 0.138550 0.054962
0.634277 0.140381 0.055695
0.637695 0.142700 0.059143
0.641113 0.144775 0.061829
0.645020 0.145996 0.065002
0.648438 0.145752 0.064514
0.000057 0.108704 0.000000
0.051636 0.093323 0.012535
0.090210 0.089417 0.014519
0.119934 0.089661 0.023651
0.148071 0.089111 0.034698
0.193604 0.082214 0.021378
0.234619 0.076111 0.016479
0.275879 0.066956 0.013496
0.316162 0.059265 0.012512
0.351562 0.055084 0.013290
0.382080 0.051636 0.015160
0.415527 0.047821 0.014641
0.447510 0.044952 0.016724
0.473877 0.043732 0.024963
0.497070 0.043976 0.032043
0.521484 0.043304 0.037842
0.544434 0.042297 0.040924
0.562988 0.043793 0.043884
0.579102 0.047058 0.046814
0.593750 0.051605 0.050415
0.600586 0.062561 0.051025
0.605957 0.075745 0.053436
0.611328 0.091003 0.057190
0.615234 0.106873 0.055542
0.617676 0.122498 0.053741
0.621582 0.131836 0.051483
0.627441 0.139038 0.054932
0.632324 0.142334 0.054657
0.635254 0.144653 0.057281
0.638184 0.147461 0.060974
0.641113 0.149536 0.062744
0.643555 0.150513 0.063904
0.646973 0.151001 0.065125
0.002449 0.138184 0.000000
0.027100 0.131226 0.000000
0.078369 0.118958 0.007500
0.115662 0.115540 0.010498
0.146484 0.114746 0.022324
0.172974 0.114136 0.038208
0.205933 0.111511 0.036377
0.245728 0.106995 0.026688
0.287109 0.098450 0.020157
0.324951 0.090210 0.016953
0.360840 0.084900 0.014160
0.393311 0.078186 0.014206
0.428955 0.072021 0.013809
0.457764 0.068054 0.017776
0.481934 0.066772 0.025375
0.506348 0.065308 0.030258
0.530273 0.063904 0.034027
0.549805 0.064270 0.037659
0.566895 0.066528 0.039185
0.581055 0.070618 0.042847
0.590820 0.080505 0.048279
0.600586 0.088440 0.049896
0.609375 0.098816 0.050232
0.614258 0.116150 0.052399
0.617676 0.129028 0.051819
0.623047 0.136841 0.051849
0.629395 0.141724 0.052429
0.632812 0.145386 0.053925
0.636230 0.149048 0.060242
0.638672 0.151978 0.061340
0.641113 0.154663 0.063843
0.643555 0.155884 0.065186
0.645508 0.156006 0.067566
0.000000 0.171631 0.000000
0.007702 0.166870 0.000000
0.062195 0.151001 0.000000
0.105042 0.143921 0.006104
0.141357 0.141602 0.009842
0.171875 0.140259 0.022293
0.199951 0.139160 0.037292
0.221313 0.139648 0.053558
0.257080 0.136353 0.042664
0.297119 0.128418 0.032257
0.334229 0.120972 0.026688
0.369141 0.114746 0.022507
0.402832 0.106567 0.020279
0.435059 0.100647 0.019547
0.464844 0.095886 0.023300
0.490967 0.092041 0.025940
0.515137 0.089417 0.028534
0.536621 0.087219 0.030258
0.555176 0.087769 0.033508
0.569336 0.091919 0.037537
0.582031 0.098145 0.044189
0.596191 0.101807 0.045013
0.607910 0.110291 0.047272
0.613281 0.124146 0.047699
0.618164 0.134399 0.047943
0.625977 0.139771 0.049530
0.630859 0.144653 0.053101
0.634277 0.148682 0.054749
0.637207 0.152588 0.058014
0.639160 0.156006 0.061340
0.640625 0.159424 0.066101
0.642090 0.160767 0.068359
0.645020 0.162109 0.069580
0.000000 0.201050 0.000000
0.000000 0.197632 0.000000
0.038757 0.188110 0.000000
0.094666 0.172119 0.004093
0.132324 0.169922 0.006931
0.167603 0.167847 0.010788
0.197510 0.166138 0.022995
0.226318 0.165039 0.037079
0.248535 0.164307 0.052155
0.268555 0.166260 0.064819
0.309082 0.157104 0.047821
0.345947 0.151978 0.040436
0.378418 0.144775 0.034332
0.409424 0.137573 0.029938
0.442139 0.130615 0.028595
0.469971 0.126709 0.028839
0.495850 0.121765 0.028168
0.520020 0.118042 0.027710
0.540527 0.113831 0.030533
0.558105 0.115662 0.035553
0.574219 0.115845 0.038879
0.591797 0.116821 0.041168
0.605957 0.121338 0.044250
0.612305 0.132080 0.043091
0.619629 0.140381 0.048889
0.627441 0.143188 0.048828
0.632812 0.147095 0.050049
0.636230 0.151855 0.053589
0.638672 0.156494 0.059113
0.639648 0.160645 0.063293
0.640625 0.164307 0.067322
0.642578 0.166626 0.069946
0.644043 0.168335 0.070984
0.000000 0.224487 0.000000
0.000000 0.222778 0.000000
0.026627 0.218628 0.000000
0.078796 0.204346 0.000000
0.124512 0.197632 0.006210
0.159790 0.196167 0.009148
0.193970 0.194214 0.012779
0.223633 0.192017 0.024765
0.251221 0.191284 0.038147
0.275146 0.190552 0.051636
0.295410 0.191772 0.067078
0.323242 0.186768 0.067932
0.355957 0.183716 0.058472
0.390137 0.174438 0.047516
0.417725 0.168579 0.043671
0.447021 0.164185 0.040527
0.474121 0.160034 0.038788
0.499512 0.156128 0.034882
0.521973 0.149658 0.033264
0.544434 0.146362 0.037842
0.562500 0.143677 0.040405
0.582031 0.140869 0.042114
0.599609 0.139038 0.040741
0.609863 0.144653 0.043823
0.619629 0.148193 0.048218
0.627441 0.147827 0.044647
0.635254 0.150757 0.048767
0.637207 0.155762 0.053192
0.639648 0.161011 0.059265
0.640625 0.165894 0.065552
0.641602 0.170288 0.070068
0.641602 0.174438 0.072021
0.642090 0.177612 0.071838
0.000000 0.246338 0.000000
0.004330 0.247314 0.000000
0.018295 0.247314 0.000000
0.060333 0.236694 0.000000
0.121033 0.221069 0.010963
0.153809 0.224365 0.009155
0.187378 0.222656 0.012482
0.220459 0.221069 0.016525
0.249756 0.219360 0.027634
0.276855 0.217773 0.040558
0.302002 0.217773 0.053223
0.322998 0.217407 0.068970
0.339111 0.216187 0.086670
0.367188 0.212646 0.078491
0.399170 0.205566 0.066406
0.426514 0.203247 0.062683
0.454346 0.198364 0.058380
0.479980 0.194458 0.053192
0.503418 0.189209 0.047516
0.526855 0.183228 0.046021
0.547363 0.182373 0.047211
0.566895 0.177979 0.048187
0.585938 0.172974 0.048065
0.601074 0.169434 0.047363
0.613281 0.164062 0.047760
0.625000 0.159912 0.047424
0.634277 0.159058 0.050720
0.638672 0.162842 0.056335
0.639648 0.167725 0.062622
0.640137 0.173218 0.068115
0.641113 0.179810 0.072754
0.640625 0.186035 0.075562
0.641113 0.189819 0.077271
0.008507 0.267822 0.000000
0.012848 0.269287 0.000000
0.021225 0.270264 0.000000
0.049988 0.264648 0.000000
0.107178 0.250000 0.000000
0.152588 0.247803 0.014694
0.183228 0.251221 0.013420
0.215210 0.249268 0.017395
0.247192 0.248413 0.021347
0.276367 0.247192 0.032074
0.303711 0.244507 0.044800
0.329834 0.244629 0.058228
0.348633 0.242310 0.073303
0.365479 0.243042 0.087158
0.379883 0.242310 0.102661
0.409424 0.241699 0.094360
0.436523 0.235107 0.084839
0.461182 0.232056 0.078430
0.486572 0.228271 0.072266
0.511230 0.222168 0.065674
0.531738 0.219849 0.062561
0.549316 0.216309 0.061249
0.569336 0.209717 0.059875
0.586426 0.202515 0.058502
0.602539 0.194458 0.058777
0.615723 0.187500 0.057587
0.626465 0.182007 0.058044
0.635254 0.179321 0.062439
0.638184 0.181030 0.067200
0.638672 0.186768 0.071777
0.638672 0.194458 0.077942
0.638672 0.200317 0.081787
0.640137 0.203003 0.083923
0.020813 0.286377 0.000000
0.024216 0.286621 0.000000
0.034882 0.286621 0.000000
0.061127 0.281738 0.000000
0.110107 0.271484 0.000000
0.155151 0.267334 0.026138
0.181030 0.275635 0.016968
0.212158 0.278320 0.018799
0.243164 0.276367 0.023117
0.275879 0.276123 0.026520
0.303711 0.274658 0.037659
0.332031 0.271973 0.051636
0.356201 0.271484 0.065186
0.373779 0.269287 0.078064
0.394287 0.271973 0.091248
0.407959 0.270752 0.107361
0.420654 0.270752 0.120911
0.445068 0.269287 0.112244
0.469971 0.267334 0.104492
0.494385 0.262939 0.095703
0.516113 0.258789 0.088745
0.534668 0.256348 0.083557
0.552246 0.250488 0.080078
0.571777 0.239624 0.078491
0.587891 0.231689 0.078125
0.603027 0.224365 0.077209
0.615234 0.217407 0.074402
0.625488 0.210083 0.076050
0.631836 0.206665 0.079895
0.634766 0.208374 0.082214
0.636719 0.213135 0.086792
0.637207 0.216431 0.088806
0.638672 0.217651 0.088989
0.032379 0.302246 0.000000
0.036346 0.302246 0.000000
0.048859 0.300781 0.000000
0.076599 0.296875 0.000000
0.120117 0.290283 0.007919
0.164917 0.285400 0.039764
0.188721 0.295898 0.030807
0.210571 0.303711 0.024323
0.243408 0.305420 0.026154
0.272949 0.303467 0.029556
0.306152 0.305420 0.034485
0.333740 0.303467 0.044983
0.360107 0.299805 0.061646
0.382080 0.300537 0.073547
0.401123 0.299316 0.084351
0.419922 0.299805 0.098694
0.436768 0.301025 0.109619
0.451660 0.303467 0.118164
0.462646 0.303711 0.133789
0.479980 0.302490 0.134277
0.501465 0.299561 0.124939
0.520508 0.296875 0.117920
0.538086 0.290039 0.111084
0.556641 0.279053 0.105164
0.574707 0.269043 0.101868
0.589844 0.261963 0.096863
0.603516 0.253418 0.093079
0.614258 0.246582 0.093628
0.622070 0.241577 0.095825
0.628418 0.238403 0.096802
0.633301 0.237061 0.099060
0.634766 0.236816 0.100098
0.636230 0.236938 0.099609
0.043945 0.318359 0.000000
0.048859 0.317871 0.000000
0.062683 0.316650 0.000000
0.089600 0.313232 0.001906
0.130615 0.309326 0.018951
0.174316 0.306152 0.048340
0.197754 0.313477 0.046783
0.217285 0.323486 0.038147
0.241699 0.332031 0.033447
0.271973 0.333252 0.034302
0.300781 0.331787 0.039642
0.333740 0.331055 0.045929
0.362549 0.334473 0.055481
0.384277 0.331543 0.067627
0.408936 0.329590 0.081543
0.429443 0.330322 0.095337
0.449951 0.332764 0.105408
0.467773 0.334961 0.114868
0.480469 0.333496 0.127441
0.490723 0.332031 0.140015
0.500488 0.332520 0.151489
0.510254 0.334229 0.158203
0.526855 0.329102 0.148926
0.545410 0.319580 0.138550
0.560547 0.309082 0.131348
0.576660 0.300049 0.124512
0.590820 0.290527 0.118347
0.602539 0.283447 0.116394
0.612305 0.279297 0.118103
0.619629 0.275391 0.117065
0.624512 0.270508 0.116516
0.628418 0.266602 0.115356
0.630859 0.264160 0.114014
0.057068 0.335693 0.001084
0.061127 0.334961 0.002413
0.074829 0.334717 0.006802
0.100769 0.333008 0.014259
0.140259 0.329834 0.028229
0.179443 0.327393 0.051575
0.207397 0.332275 0.060638
0.225098 0.343750 0.052704
0.242798 0.354492 0.046600
0.273193 0.360596 0.046448
0.303223 0.366455 0.047424
0.333740 0.364746 0.051788
0.367920 0.363525 0.056427
0.392578 0.366943 0.066406
0.415771 0.366943 0.077759
0.437256 0.364014 0.093689
0.457520 0.364990 0.106506
0.476074 0.365967 0.116577
0.492920 0.366211 0.126587
0.507324 0.364990 0.135864
0.517578 0.362305 0.146362
0.525391 0.360840 0.156738
0.532715 0.360596 0.167725
0.536133 0.358643 0.180664
0.552246 0.349609 0.168823
0.566406 0.339111 0.158203
0.580078 0.329102 0.150146
0.593262 0.320557 0.145996
0.603516 0.315186 0.143188
0.611328 0.310303 0.141113
0.616699 0.305420 0.138428
0.621582 0.301514 0.137451
0.624512 0.297363 0.135620
0.067810 0.355225 0.012337
0.071960 0.355225 0.013596
0.084167 0.355957 0.017822
0.107910 0.355469 0.022995
0.145630 0.352295 0.033569
0.186279 0.349854 0.054810
0.216797 0.351562 0.073486
0.234253 0.361572 0.067261
0.253906 0.370605 0.064392
0.280029 0.380615 0.061829
0.307373 0.390381 0.060455
0.334473 0.392578 0.059692
0.368164 0.397217 0.064392
0.395264 0.392578 0.070374
0.423828 0.397705 0.080017
0.447021 0.401611 0.091003
0.465820 0.398682 0.105896
0.484619 0.396973 0.118042
0.503418 0.395264 0.129028
0.520508 0.396729 0.136108
0.532715 0.395020 0.145630
0.540527 0.391113 0.157471
0.547363 0.388184 0.168945
0.553711 0.386963 0.180298
0.558105 0.384277 0.191895
0.559082 0.379639 0.201050
0.572266 0.369629 0.188965
0.583984 0.358887 0.179321
0.594727 0.350098 0.173096
0.605469 0.343506 0.168823
0.611328 0.338623 0.165039
0.615723 0.335205 0.162964
0.619141 0.333008 0.161621
0.076416 0.376953 0.023178
0.080139 0.377686 0.024139
0.091675 0.378418 0.028595
0.117737 0.376953 0.031708
0.154663 0.373291 0.041504
0.192505 0.370605 0.059326
0.225464 0.369873 0.084229
0.245605 0.377197 0.084229
0.266846 0.386719 0.080994
0.288330 0.397217 0.078369
0.314209 0.407959 0.077271
0.339355 0.416260 0.078186
0.370605 0.420654 0.079773
0.401855 0.424561 0.083130
0.432129 0.424805 0.086121
0.456787 0.430176 0.093933
0.477539 0.433594 0.105957
0.495361 0.430420 0.118347
0.512207 0.426758 0.129395
0.529785 0.425781 0.141479
0.544434 0.427002 0.149658
0.555176 0.425293 0.161011
0.563477 0.421143 0.172729
0.569824 0.417480 0.183105
0.575684 0.413818 0.193237
0.579102 0.409668 0.203491
0.577637 0.403564 0.214355
0.577637 0.395264 0.218628
0.588379 0.385254 0.208008
0.599121 0.376465 0.199707
0.606934 0.370361 0.194092
0.612793 0.368652 0.192383
0.616211 0.366455 0.190430
0.083191 0.398682 0.032684
0.086731 0.398682 0.033234
0.101929 0.399170 0.036560
0.125732 0.397217 0.040314
0.161743 0.393555 0.048676
0.198853 0.390869 0.065430
0.231201 0.388916 0.088806
0.256592 0.392334 0.100220
0.277832 0.402588 0.097229
0.299072 0.412842 0.094788
0.321777 0.422607 0.095093
0.347168 0.435303 0.096985
0.376465 0.444824 0.096802
0.406738 0.450439 0.097290
0.434326 0.453857 0.100647
0.465088 0.458496 0.103821
0.490234 0.465332 0.109375
0.508301 0.466309 0.120300
0.524414 0.461914 0.132812
0.540039 0.458496 0.145386
0.555176 0.458008 0.155762
0.567871 0.457764 0.167114
0.577148 0.454346 0.178345
0.584961 0.448730 0.190186
0.591309 0.443359 0.198364
0.594238 0.436279 0.207275
0.594238 0.430908 0.218262
0.591797 0.424316 0.228394
0.588379 0.417725 0.237793
0.593262 0.408936 0.234497
0.602539 0.401855 0.226562
0.609863 0.398682 0.222534
0.613770 0.397217 0.220947
0.092285 0.419434 0.041443
0.096497 0.419434 0.042084
0.109253 0.419434 0.046051
0.132324 0.417969 0.049744
0.168701 0.414062 0.057465
0.202759 0.410645 0.072083
0.237915 0.407715 0.095459
0.266846 0.407959 0.115112
0.287842 0.416992 0.112366
0.308105 0.426514 0.111694
0.331543 0.439209 0.112549
0.354980 0.453125 0.113708
0.381104 0.461914 0.113464
0.411133 0.470215 0.116638
0.438965 0.477539 0.118530
0.468750 0.484375 0.118042
0.497314 0.490479 0.121521
0.520020 0.496338 0.125854
0.538086 0.497559 0.137085
0.553711 0.494873 0.149658
0.565918 0.489502 0.161621
0.578613 0.486328 0.174683
0.588867 0.483398 0.187622
0.597656 0.477783 0.199341
0.603027 0.470459 0.207275
0.605957 0.463135 0.214111
0.606934 0.456299 0.223755
0.606934 0.450684 0.233765
0.605469 0.444824 0.243042
0.603027 0.437500 0.250732
0.601562 0.432129 0.259033
0.606934 0.429932 0.258301
0.612305 0.428467 0.255859
0.095764 0.440918 0.049561
0.099915 0.440918 0.050934
0.113037 0.440674 0.053741
0.135986 0.438477 0.056763
0.170532 0.434326 0.064453
0.206543 0.428955 0.078857
0.241699 0.425537 0.100220
0.276611 0.422852 0.129517
0.296875 0.432129 0.128174
0.318604 0.442871 0.128906
0.340332 0.455322 0.128784
0.361572 0.467285 0.130127
0.386475 0.477295 0.131592
0.414551 0.486328 0.134033
0.442871 0.495850 0.135742
0.472900 0.505371 0.136475
0.500000 0.510742 0.136353
0.526367 0.517090 0.140259
0.550293 0.525879 0.146729
0.566895 0.528320 0.158203
0.580566 0.525391 0.170044
0.588867 0.516602 0.183350
0.597168 0.508301 0.195923
0.605469 0.503418 0.208374
0.611816 0.497070 0.217163
0.615723 0.490234 0.223755
0.618652 0.482422 0.231934
0.619141 0.476807 0.241089
0.619629 0.471436 0.250488
0.619141 0.464844 0.258301
0.618652 0.458008 0.265625
0.619141 0.456543 0.271729
0.622070 0.457031 0.276611
0.100708 0.461670 0.057068
0.102661 0.461670 0.057343
0.116089 0.462158 0.061371
0.136230 0.459961 0.065430
0.172485 0.454590 0.072144
0.210693 0.448242 0.085144
0.246582 0.444092 0.104797
0.280273 0.441650 0.132324
0.306152 0.447266 0.143799
0.327148 0.458496 0.144409
0.346924 0.470215 0.145630
0.367432 0.480957 0.146729
0.391357 0.490723 0.148315
0.417480 0.500000 0.151245
0.446289 0.510742 0.152466
0.474365 0.519531 0.153564
0.501953 0.526367 0.154419
0.529785 0.534180 0.156250
0.555664 0.544922 0.161255
0.579590 0.558105 0.168213
0.594238 0.560059 0.179810
0.602539 0.550781 0.192871
0.609863 0.541016 0.205322
0.615723 0.531738 0.217529
0.622559 0.524902 0.227173
0.627441 0.517090 0.235474
0.631348 0.510254 0.243286
0.632324 0.502930 0.250488
0.633789 0.498535 0.259033
0.634766 0.492920 0.267578
0.635254 0.487549 0.274170
0.637207 0.484863 0.280518
0.638672 0.484619 0.285889
0.112122 0.479980 0.064697
0.115479 0.479736 0.066284
0.122803 0.480713 0.071045
0.143188 0.478516 0.072998
0.173218 0.473633 0.079468
0.212524 0.466797 0.091187
0.248535 0.463379 0.109253
0.282715 0.461670 0.133545
0.314453 0.464355 0.160400
0.334229 0.473877 0.160645
0.353271 0.484131 0.161377
0.373779 0.494141 0.161987
0.395996 0.503906 0.164673
0.421631 0.514160 0.166870
0.449463 0.523926 0.168335
0.477051 0.531250 0.170654
0.503418 0.538086 0.171509
0.530762 0.545410 0.172974
0.558105 0.558594 0.176147
0.583496 0.572754 0.183228
0.604980 0.585449 0.194458
0.617188 0.583496 0.205322
0.624023 0.575195 0.217773
0.628906 0.565918 0.227417
0.634277 0.557129 0.238159
0.638672 0.547852 0.246460
0.643555 0.539551 0.255615
0.646484 0.533203 0.263428
0.648438 0.527344 0.270752
0.649902 0.521973 0.278320
0.651367 0.516602 0.284180
0.653320 0.514648 0.289795
0.656250 0.514648 0.294678
0.120056 0.496094 0.072937
0.122375 0.495361 0.071472
0.133057 0.495605 0.075806
0.149048 0.495850 0.080200
0.177124 0.491455 0.086731
0.212891 0.486328 0.097290
0.249268 0.483643 0.115173
0.283203 0.482422 0.136108
0.315186 0.482910 0.162231
0.339355 0.487549 0.175537
0.359131 0.497314 0.176392
0.379150 0.508301 0.179077
0.400391 0.517090 0.179810
0.424316 0.525879 0.180908
0.451172 0.533691 0.184326
0.478271 0.541992 0.185913
0.504395 0.548340 0.187256
0.530762 0.555664 0.187622
0.558105 0.567871 0.191284
0.584961 0.582520 0.198242
0.608398 0.597168 0.207031
0.627930 0.606934 0.218750
0.639160 0.606445 0.232056
0.645508 0.599609 0.242065
0.649902 0.591309 0.251953
0.654297 0.581543 0.260254
0.658203 0.572266 0.270264
0.663086 0.565430 0.277588
0.666504 0.560059 0.284668
0.667969 0.555176 0.291748
0.668457 0.549805 0.295654
0.671387 0.547363 0.301025
0.673340 0.545898 0.304932
0.129028 0.510742 0.078735
0.129028 0.510742 0.078735
0.141113 0.511230 0.083435
0.155029 0.511719 0.087891
0.177246 0.509766 0.093689
0.211060 0.506836 0.102966
0.249146 0.502930 0.118652
0.282471 0.501953 0.137573
0.313477 0.501465 0.160522
0.341797 0.501953 0.185913
0.363281 0.511230 0.191162
0.383301 0.521484 0.192871
0.403564 0.530273 0.193848
0.427979 0.537109 0.195923
0.453857 0.544434 0.198242
0.479736 0.552246 0.200928
0.503418 0.557129 0.201416
0.531738 0.565430 0.203247
0.558594 0.577637 0.205811
0.585449 0.592773 0.212280
0.610840 0.606934 0.219849
0.633301 0.620117 0.231445
0.650391 0.628906 0.245850
0.660645 0.629883 0.258301
0.666504 0.622070 0.266602
0.670898 0.613770 0.275146
0.675781 0.606445 0.285400
0.681152 0.599609 0.293213
0.684082 0.594238 0.299805
0.686523 0.589355 0.305664
0.687988 0.585938 0.309570
0.689453 0.583008 0.313232
0.690918 0.579102 0.314697
0.135010 0.527344 0.083740
0.133789 0.526855 0.084106
0.145752 0.527344 0.088684
0.162598 0.527832 0.094727
0.179688 0.529297 0.102417
0.209717 0.525879 0.109802
0.244873 0.522461 0.122131
0.278076 0.521484 0.139038
0.309326 0.521484 0.157959
0.339844 0.521973 0.181519
0.367432 0.524902 0.205078
0.385498 0.533203 0.205566
0.406494 0.540527 0.206665
0.429688 0.545898 0.208252
0.455811 0.553711 0.210449
0.481445 0.561035 0.214111
0.505371 0.565918 0.214233
0.532227 0.574707 0.216064
0.558594 0.586426 0.219971
0.586426 0.601074 0.226807
0.613281 0.615723 0.232666
0.637695 0.629395 0.243652
0.657227 0.641602 0.258301
0.671387 0.648438 0.271973
0.681152 0.648438 0.282959
0.686523 0.642090 0.291016
0.693848 0.636719 0.300293
0.698242 0.631836 0.308105
0.701172 0.627930 0.313965
0.703613 0.625000 0.318848
0.707031 0.622559 0.323242
0.707031 0.619141 0.325439
0.709961 0.615723 0.327637
0.140137 0.543457 0.092285
0.140137 0.543457 0.092285
0.153442 0.544922 0.096313
0.166626 0.545410 0.101685
0.181274 0.546875 0.107910
0.209351 0.545410 0.114075
0.241211 0.542480 0.127686
0.274658 0.541504 0.141235
0.305420 0.541016 0.159058
0.337402 0.540527 0.179199
0.365479 0.539551 0.203125
0.388184 0.542969 0.216797
0.408691 0.548340 0.217041
0.431641 0.554199 0.219116
0.457764 0.561523 0.222046
0.481689 0.566895 0.223633
0.505859 0.573730 0.225220
0.532715 0.583496 0.226685
0.559570 0.595215 0.231323
0.586426 0.608887 0.237549
0.612305 0.622070 0.245117
0.636230 0.634766 0.254395
0.659668 0.649414 0.269531
0.678223 0.661133 0.283936
0.689453 0.665527 0.294922
0.700195 0.665527 0.306396
0.707031 0.661621 0.315186
0.714355 0.661133 0.324219
0.719238 0.659180 0.329590
0.721680 0.658203 0.334473
0.722656 0.654785 0.336182
0.725586 0.652832 0.339844
0.728027 0.652832 0.340820
0.144043 0.561035 0.097107
0.140259 0.561523 0.097412
0.155396 0.562012 0.102234
0.161987 0.563477 0.107239
0.180054 0.564941 0.113037
0.204346 0.563965 0.121643
0.237183 0.561523 0.129395
0.269287 0.558594 0.142334
0.300537 0.557617 0.158203
0.330811 0.556152 0.176270
0.359863 0.554199 0.198486
0.389404 0.550781 0.226562
0.410156 0.555176 0.226196
0.432861 0.561035 0.227295
0.458008 0.567383 0.229980
0.481934 0.573242 0.232300
0.506348 0.582031 0.234131
0.532227 0.590332 0.236572
0.560059 0.603027 0.241821
0.586426 0.614746 0.246338
0.611816 0.627441 0.255127
0.636719 0.641113 0.264893
0.659668 0.655762 0.278809
0.680176 0.669434 0.292480
0.697266 0.678223 0.307861
0.708496 0.683105 0.319092
0.719238 0.684082 0.328613
0.727539 0.684570 0.337402
0.732910 0.685547 0.342773
0.735840 0.685547 0.348389
0.738770 0.684570 0.350830
0.741699 0.683594 0.353516
0.744141 0.683105 0.354736
0.141968 0.579102 0.103088
0.143188 0.578613 0.102234
0.154297 0.579102 0.106384
0.160645 0.581055 0.115051
0.183228 0.581543 0.119141
0.200684 0.581055 0.124512
0.232300 0.577637 0.133179
0.264893 0.575195 0.145630
0.294922 0.573242 0.157837
0.325439 0.570801 0.174316
0.354492 0.567383 0.194580
0.384521 0.562012 0.220947
0.410400 0.562500 0.234497
0.434326 0.568848 0.236938
0.457764 0.573730 0.237549
0.482178 0.580078 0.239990
0.506348 0.587891 0.241211
0.532715 0.598145 0.244995
0.559570 0.610352 0.251221
0.585938 0.621582 0.255859
0.611816 0.634277 0.264404
0.636230 0.647461 0.275879
0.659668 0.661133 0.286621
0.682617 0.676270 0.303223
0.701172 0.689453 0.317139
0.718262 0.699707 0.331787
0.729492 0.704102 0.342041
0.739258 0.707520 0.351807
0.745605 0.709473 0.357178
0.749512 0.710938 0.361816
0.754883 0.712402 0.366943
0.757324 0.712402 0.367920
0.759766 0.711914 0.369629
0.138794 0.594727 0.106262
0.140747 0.594238 0.105469
0.148315 0.595703 0.112061
0.166504 0.595703 0.117981
0.179077 0.597168 0.124634
0.199585 0.596680 0.130127
0.227539 0.594727 0.137207
0.258789 0.591797 0.146118
0.287598 0.589355 0.158081
0.317139 0.585449 0.173340
0.348145 0.580078 0.191162
0.380859 0.574219 0.217529
0.412354 0.570801 0.242554
0.434570 0.575684 0.243408
0.458740 0.580566 0.244263
0.482666 0.588379 0.247070
0.507812 0.596191 0.250000
0.533691 0.606934 0.255127
