RED_IPP2_Creative/RED_BLEACH_2.cube
# RED Digital Cinema Output Transform LUT for IPP2
# Creatives by Eric Weidt
# BMD cube from Truelight v4.0
# Settings used in creation of this LUT are:
# Development Color Space = USER SELECTABLE
# Output Gamma Curve = USER SELECTABLE
# Output Tonemap = USER SELECTABLE
# Highlight Rolloff = USER SELECTABLE 
LUT_3D_SIZE 5
0.005047 0.005051 0.005062
0.191284 0.014374 0.018433
0.420898 0.038361 0.043671
0.641113 0.057770 0.059601
0.848633 0.067871 0.066711
0.021011 0.279541 0.020813
0.214478 0.244507 0.020248
0.449707 0.265381 0.069580
0.707031 0.317627 0.130005
0.935547 0.357666 0.167114
0.004810 0.603027 0.063354
0.306885 0.611328 0.090271
0.569824 0.584473 0.103394
0.809082 0.590820 0.164185
0.979980 0.605469 0.231079
0.112061 0.859375 0.095093
0.310791 0.865723 0.111450
0.566406 0.841797 0.082581
0.815430 0.821289 0.044800
1.000000 0.813477 0.106628
0.187866 1.000000 0.000000
0.278320 1.000000 0.000000
0.530273 1.000000 0.080017
0.780762 1.000000 0.083130
0.999512 1.000000 0.214844
0.008362 0.008629 0.311768
0.224609 0.015411 0.271729
0.470215 0.040588 0.278076
0.654785 0.061218 0.276855
0.855957 0.074158 0.280762
0.020233 0.285889 0.313721
0.215820 0.246460 0.270996
0.477295 0.284180 0.307617
0.725586 0.331543 0.351318
0.944336 0.368652 0.385498
0.053375 0.618164 0.357910
0.301270 0.610840 0.348877
0.571777 0.586914 0.357178
0.790527 0.597168 0.416016
0.981934 0.607910 0.427734
0.203979 0.880859 0.369873
0.307861 0.854492 0.352051
0.564941 0.846191 0.344971
0.811523 0.817871 0.334961
1.000000 0.812012 0.379639
0.182251 1.000000 0.338379
0.330322 1.000000 0.317383
0.525879 1.000000 0.320801
0.776367 1.000000 0.320557
0.999512 0.999512 0.292480
0.010742 0.010941 0.530273
0.213745 0.018860 0.513672
0.496582 0.022629 0.515137
0.709473 0.035400 0.489746
0.868652 0.085876 0.476562
0.017288 0.258545 0.533691
0.218872 0.249146 0.538086
0.525391 0.280273 0.540527
0.755371 0.344727 0.552246
0.952148 0.378906 0.578125
0.039978 0.600098 0.591797
0.305176 0.606445 0.604004
0.572754 0.588379 0.588867
0.797363 0.599609 0.601074
0.985352 0.610840 0.611328
0.138550 0.873047 0.600586
0.287354 0.878906 0.601074
0.556152 0.846191 0.574219
0.809082 0.815430 0.565918
1.000000 0.815918 0.615234
0.130493 1.000000 0.577148
0.280762 1.000000 0.559570
0.523438 1.000000 0.544434
0.771484 0.999512 0.532227
0.998535 0.999023 0.516602
0.028183 0.012085 0.729980
0.215454 0.017365 0.733887
0.479736 0.007866 0.735352
0.740234 0.031311 0.730469
0.953125 0.020935 0.707031
0.041351 0.244629 0.735352
0.229248 0.256348 0.748047
0.522949 0.291016 0.775879
0.813477 0.318359 0.798828
1.000000 0.356934 0.791504
0.014397 0.573730 0.810059
0.307861 0.586914 0.823242
0.572266 0.586426 0.827637
0.831055 0.584473 0.816406
0.987305 0.613281 0.798340
0.000000 0.839844 0.814941
0.302490 0.838379 0.814453
0.554688 0.835449 0.812988
0.806152 0.812988 0.794922
0.998047 0.816895 0.801270
0.053589 1.000000 0.791992
0.291504 1.000000 0.783203
0.519531 1.000000 0.776367
0.765137 0.999512 0.754883
0.998047 0.999512 0.737793
0.037964 0.113098 0.978027
0.250244 0.046600 0.985352
0.477295 0.000000 0.989258
0.732910 0.078735 0.989746
1.000000 0.145020 1.000000
0.000000 0.249634 0.976074
0.250000 0.261230 1.000000
0.530762 0.300293 1.000000
0.815918 0.318604 1.000000
1.000000 0.330078 1.000000
0.000000 0.568359 1.000000
0.330078 0.582520 1.000000
0.571777 0.584961 1.000000
0.826172 0.581055 1.000000
1.000000 0.577148 1.000000
0.000000 0.826172 1.000000
0.298340 0.818848 1.000000
0.552734 0.814453 1.000000
0.801758 0.809082 1.000000
1.000000 0.799316 1.000000
0.061188 1.000000 1.000000
0.308105 1.000000 1.000000
0.520020 1.000000 0.999512
0.758789 0.999512 0.999023
0.999512 0.999512 0.999512
