RED_IPP2_Creative/RED_ZONE.cube
# RED Digital Cinema Output Transform LUT for IPP2
# Creatives by Eric Weidt
# BMD cube from Truelight v4.0
# Settings used in creation of this LUT are:
# Development Color Space = USER SELECTABLE
# Output Gamma Curve = USER SELECTABLE
# Output Tonemap = USER SELECTABLE
# Highlight Rolloff = USER SELECTABLE
LUT_3D_SIZE 33
0.036407 0.029739 0.030701
0.055420 0.029037 0.029099
0.071411 0.029739 0.029724
0.087524 0.031799 0.031830
0.102600 0.035156 0.035278
0.115906 0.039948 0.040222
0.128784 0.046326 0.047180
0.140747 0.054535 0.055908
0.151978 0.064392 0.066528
0.163696 0.075623 0.078186
0.177734 0.088257 0.090393
0.196655 0.101746 0.103638
0.221558 0.115967 0.117493
0.250244 0.132080 0.132080
0.279785 0.150513 0.147461
0.308594 0.171387 0.164185
0.333008 0.193604 0.181274
0.358154 0.218262 0.199951
0.382812 0.243286 0.219727
0.405762 0.267822 0.239990
0.427246 0.293945 0.262451
0.450439 0.320068 0.287109
0.474365 0.345215 0.311523
0.498291 0.369629 0.336182
0.523926 0.392822 0.360840
0.551270 0.416992 0.384521
0.578125 0.442139 0.407959
0.606934 0.468994 0.433594
0.636230 0.496826 0.461182
0.666504 0.526855 0.490234
0.697266 0.557617 0.520508
0.728027 0.589844 0.552246
0.761230 0.622559 0.584961
0.026154 0.049622 0.025970
0.046539 0.048492 0.026337
0.065979 0.048462 0.027359
0.084900 0.049377 0.030533
0.103455 0.051453 0.035034
0.119690 0.055115 0.041992
0.134155 0.060791 0.050018
0.148071 0.068176 0.060638
0.160156 0.077271 0.072144
0.172485 0.088196 0.084595
0.187866 0.100281 0.097473
0.207397 0.113220 0.111206
0.232666 0.127319 0.124634
0.260986 0.143066 0.138672
0.288818 0.161743 0.153687
0.314941 0.181763 0.169922
0.339355 0.203857 0.186523
0.363525 0.227417 0.204712
0.386963 0.251221 0.224121
0.409424 0.275391 0.243896
0.430664 0.300049 0.266602
0.453125 0.324707 0.290527
0.476807 0.349854 0.315186
0.500488 0.373291 0.339111
0.526855 0.396240 0.363281
0.553223 0.419922 0.386475
0.580078 0.444824 0.409668
0.608887 0.471436 0.435303
0.637695 0.499023 0.462646
0.668457 0.528320 0.491455
0.698242 0.559570 0.521973
0.729492 0.590820 0.553223
0.762207 0.624023 0.585938
0.032104 0.068298 0.032227
0.047119 0.067810 0.033295
0.063965 0.068298 0.033752
0.082397 0.069092 0.035583
0.101135 0.070801 0.039734
0.120361 0.073364 0.046051
0.137817 0.077820 0.054657
0.154297 0.084167 0.065735
0.168213 0.092651 0.078003
0.182251 0.102722 0.091003
0.198975 0.114075 0.104858
0.220459 0.126465 0.118713
0.244263 0.140503 0.132324
0.270752 0.156738 0.145752
0.298096 0.174805 0.160522
0.322266 0.194214 0.175903
0.345947 0.215454 0.192261
0.369141 0.237915 0.210205
0.391602 0.260254 0.229004
0.413086 0.283447 0.248779
0.434326 0.307129 0.270996
0.456299 0.331299 0.294434
0.479492 0.354492 0.318604
0.503418 0.377441 0.342041
0.528809 0.399658 0.365967
0.555664 0.422852 0.388672
0.582520 0.447754 0.412109
0.610352 0.474121 0.437256
0.640137 0.501465 0.464355
0.668945 0.530273 0.492920
0.700684 0.561035 0.523438
0.730957 0.592773 0.555176
0.763184 0.625488 0.586914
0.042480 0.087585 0.043396
0.054169 0.088013 0.043945
0.067932 0.088501 0.045868
0.083862 0.089844 0.046631
0.101624 0.091675 0.049255
0.120667 0.094055 0.054443
0.139526 0.097839 0.062683
0.157959 0.103271 0.073181
0.175903 0.110291 0.085571
0.193848 0.119141 0.098572
0.212524 0.129639 0.112244
0.233643 0.141968 0.126221
0.256592 0.155762 0.139893
0.282227 0.171997 0.153687
0.306885 0.189575 0.167847
0.329590 0.208130 0.182861
0.352539 0.228516 0.198853
0.375244 0.249512 0.216431
0.396484 0.270264 0.234253
0.417480 0.292236 0.254150
0.438232 0.314941 0.276367
0.459961 0.337646 0.299072
0.482666 0.360352 0.322510
0.505859 0.382080 0.345703
0.531250 0.403809 0.368896
0.557617 0.426758 0.391357
0.584473 0.451416 0.414795
0.612305 0.477051 0.439697
0.641602 0.504395 0.466553
0.671387 0.532715 0.494629
0.701660 0.563477 0.524902
0.732422 0.594727 0.556641
0.763672 0.626953 0.588379
0.056854 0.107788 0.060211
0.065918 0.109131 0.060547
0.077637 0.109985 0.061798
0.090576 0.111450 0.064026
0.106018 0.113708 0.065796
0.123840 0.116150 0.069275
0.143066 0.119751 0.075439
0.162476 0.124390 0.084900
0.182007 0.130615 0.095642
0.202759 0.138428 0.108032
0.224854 0.148071 0.121277
0.246338 0.160278 0.134766
0.268799 0.174316 0.148438
0.292969 0.189819 0.162354
0.315186 0.206543 0.176025
0.337646 0.224121 0.190674
0.359375 0.242798 0.206055
0.381348 0.261719 0.223022
0.401855 0.281738 0.240234
0.422119 0.302002 0.260254
0.442383 0.323730 0.281982
0.463867 0.344727 0.304199
0.486084 0.366455 0.327148
0.509766 0.386963 0.349854
0.534668 0.407959 0.372070
0.561035 0.430908 0.394287
0.587402 0.455078 0.417480
0.615234 0.480957 0.442383
0.644043 0.506836 0.468994
0.673340 0.535645 0.496582
0.703613 0.565918 0.527344
0.733887 0.596680 0.558105
0.766113 0.629395 0.590820
0.074707 0.129272 0.081848
0.082153 0.131104 0.081909
0.091064 0.132812 0.082947
0.102966 0.134033 0.085022
0.115540 0.136597 0.087585
0.130859 0.139526 0.089600
0.148926 0.142944 0.093933
0.168823 0.147461 0.100342
0.189575 0.153442 0.109802
0.211548 0.161255 0.120911
0.234863 0.170532 0.132324
0.258057 0.181885 0.144897
0.280518 0.195801 0.158569
0.302490 0.210449 0.171997
0.324219 0.225342 0.185303
0.345703 0.241455 0.199341
0.366943 0.258057 0.214478
0.387695 0.275391 0.230225
0.407959 0.293457 0.247437
0.427246 0.313232 0.267090
0.447021 0.332764 0.288330
0.468262 0.353027 0.310059
0.490479 0.373047 0.332031
0.514160 0.393066 0.354492
0.538574 0.413330 0.376221
0.563965 0.435791 0.397705
0.590332 0.458984 0.420166
0.617676 0.484375 0.445068
0.646484 0.510742 0.471436
0.675293 0.538574 0.499023
0.705566 0.568848 0.528809
0.735840 0.599121 0.560059
0.767090 0.630859 0.592285
0.095093 0.152954 0.106323
0.100830 0.155151 0.106628
0.108215 0.157715 0.107178
0.116943 0.159912 0.108093
0.129272 0.161865 0.109985
0.142944 0.164673 0.112366
0.159546 0.168457 0.114990
0.178345 0.172974 0.119568
0.199951 0.178955 0.126465
0.223022 0.186401 0.135620
0.245972 0.195801 0.146362
0.268555 0.207275 0.158081
0.291504 0.220093 0.170410
0.312012 0.232544 0.182983
0.332764 0.245605 0.196045
0.354004 0.259521 0.209717
0.374756 0.274170 0.223999
0.394531 0.290527 0.239136
0.413574 0.307129 0.255859
0.432617 0.324707 0.275146
0.452393 0.343262 0.295654
0.473633 0.362061 0.316650
0.495117 0.380615 0.337891
0.517578 0.399170 0.359375
0.541992 0.419434 0.380371
0.567871 0.441162 0.401367
0.594238 0.464600 0.424561
0.621094 0.488281 0.448486
0.648926 0.514648 0.474854
0.678223 0.542969 0.502441
0.708008 0.571777 0.531250
0.738281 0.602051 0.562500
0.769531 0.634277 0.594727
0.115051 0.181030 0.129395
0.119995 0.183350 0.130005
0.126709 0.185913 0.130493
0.135620 0.188354 0.130737
0.146362 0.190918 0.132080
0.160522 0.192871 0.135010
0.175537 0.197021 0.137451
0.192871 0.201660 0.140747
0.213867 0.207642 0.145752
0.236694 0.215576 0.153076
0.259277 0.224731 0.162354
0.281006 0.234741 0.173340
0.301025 0.244629 0.185547
0.321289 0.254883 0.197144
0.341797 0.266357 0.209106
0.362305 0.278564 0.221558
0.382080 0.292236 0.234497
0.401367 0.306641 0.248779
0.419678 0.321533 0.265137
0.438477 0.337402 0.283936
0.458252 0.354248 0.303223
0.478760 0.371094 0.323730
0.500000 0.388428 0.344238
0.523926 0.406738 0.365234
0.546875 0.426025 0.385010
0.571777 0.447266 0.405762
0.597656 0.470215 0.428467
0.625000 0.493896 0.452148
0.652832 0.519043 0.478027
0.681152 0.546875 0.504883
0.710938 0.575684 0.534180
0.740234 0.605469 0.564941
0.771484 0.636719 0.596680
0.136597 0.214233 0.150513
0.142700 0.216309 0.151245
0.149536 0.218750 0.152100
0.158813 0.221191 0.153076
0.169556 0.223389 0.154785
0.182495 0.226074 0.157593
0.197632 0.229248 0.161133
0.214233 0.234009 0.164062
0.232666 0.239136 0.167847
0.252441 0.245972 0.173706
0.273926 0.253418 0.181274
0.292969 0.260498 0.190308
0.312012 0.268555 0.200684
0.331543 0.277832 0.212646
0.350586 0.288330 0.224487
0.370605 0.299561 0.234863
0.389893 0.311035 0.246216
0.408203 0.323486 0.260010
0.426270 0.336670 0.275879
0.445068 0.351074 0.293945
0.464111 0.365723 0.312256
0.484375 0.381348 0.331787
0.505371 0.397217 0.351074
0.527832 0.414551 0.370850
0.552246 0.433594 0.390381
0.576660 0.454102 0.410645
0.602051 0.476318 0.433105
0.627930 0.499512 0.456543
0.656250 0.524414 0.481934
0.684570 0.551758 0.508789
0.713867 0.580078 0.538086
0.743164 0.608887 0.567871
0.773926 0.640137 0.599121
0.162354 0.249512 0.173218
0.169189 0.251709 0.174316
0.176636 0.252930 0.175049
0.185791 0.255127 0.176758
0.197510 0.257324 0.179199
0.209595 0.259521 0.182007
0.224243 0.261963 0.186890
0.238770 0.265625 0.189453
0.254639 0.270020 0.193359
0.270752 0.275146 0.197632
0.288086 0.280518 0.203735
0.306396 0.286865 0.210693
0.324463 0.293945 0.219604
0.343506 0.301514 0.228882
0.361572 0.310791 0.239014
0.379883 0.320312 0.249390
0.397461 0.330566 0.260254
0.415283 0.341064 0.273193
0.433105 0.352783 0.288574
0.451904 0.364990 0.304932
0.471191 0.378174 0.322266
0.490967 0.392090 0.340576
0.512207 0.407471 0.359375
0.534180 0.424072 0.377930
0.557617 0.442383 0.396484
0.581055 0.461914 0.416260
0.606934 0.483643 0.438477
0.633301 0.505859 0.461914
0.660645 0.530762 0.486572
0.688477 0.556641 0.513184
0.716797 0.583984 0.541504
0.746582 0.613770 0.571289
0.777344 0.644531 0.602539
0.192505 0.282959 0.197998
0.198486 0.283691 0.198486
0.206787 0.284912 0.199707
0.215454 0.286621 0.201538
0.225586 0.288330 0.203979
0.236816 0.290039 0.207031
0.248901 0.291504 0.211426
0.262207 0.294678 0.215088
0.274902 0.298340 0.218262
0.289307 0.302246 0.222168
0.304199 0.306641 0.227051
0.321289 0.312012 0.232666
0.338135 0.318359 0.239136
0.355957 0.324951 0.246338
0.373291 0.332764 0.254395
0.389893 0.341064 0.263672
0.406006 0.349854 0.275391
0.422852 0.358887 0.288818
0.440674 0.368652 0.302002
0.458984 0.379639 0.317139
0.478516 0.391113 0.333252
0.497803 0.404297 0.350342
0.519043 0.418457 0.367676
0.540527 0.434326 0.385254
0.563965 0.452148 0.403564
0.586914 0.471191 0.422852
0.612305 0.491455 0.444580
0.638184 0.514160 0.467529
0.664062 0.537598 0.491455
0.692383 0.563477 0.517578
0.720703 0.589844 0.545898
0.750000 0.618652 0.575684
0.780762 0.648926 0.606445
0.224365 0.312500 0.223755
0.230347 0.313477 0.224731
0.237061 0.314453 0.225830
0.245239 0.315674 0.227539
0.253662 0.317139 0.229614
0.263184 0.318848 0.232300
0.273682 0.320312 0.235718
0.284668 0.322510 0.239746
0.296143 0.325684 0.242432
0.309082 0.329346 0.245483
0.322266 0.333252 0.249512
0.336670 0.337402 0.254150
0.352539 0.342773 0.259033
0.368652 0.348877 0.264160
0.384521 0.355225 0.271484
0.399658 0.361572 0.279541
0.415283 0.368896 0.291260
0.431641 0.376709 0.303467
0.448486 0.385254 0.317139
0.466797 0.394531 0.330566
0.485596 0.405273 0.345459
0.504883 0.417236 0.360596
0.526367 0.430908 0.377197
0.547852 0.446045 0.393555
0.570312 0.462646 0.411133
0.593750 0.480957 0.430420
0.618164 0.500488 0.451172
0.644043 0.522461 0.473877
0.669434 0.545410 0.497314
0.697266 0.570312 0.522949
0.725586 0.595703 0.550293
0.753906 0.624512 0.579590
0.784180 0.654297 0.610840
0.255859 0.341797 0.250000
0.260986 0.342773 0.250732
0.266846 0.343750 0.251709
0.272949 0.344727 0.253174
0.280762 0.345703 0.254883
0.288818 0.347168 0.257324
0.298340 0.348633 0.260254
0.308594 0.350586 0.264160
0.318359 0.352783 0.266113
0.329834 0.355957 0.268555
0.341309 0.359131 0.271484
0.354492 0.362793 0.275391
0.367432 0.366943 0.279297
0.381836 0.371826 0.284424
0.395508 0.376709 0.291016
0.409912 0.381836 0.299072
0.425293 0.387695 0.308838
0.441406 0.394287 0.320068
0.458252 0.401611 0.332031
0.475586 0.410645 0.345459
0.493896 0.420654 0.358887
0.513672 0.432129 0.372803
0.534180 0.444580 0.387207
0.555176 0.458740 0.402588
0.577148 0.474854 0.420166
0.600586 0.491455 0.438477
0.625000 0.510742 0.458984
0.649902 0.531250 0.480957
0.676270 0.554199 0.503906
0.702637 0.577637 0.528809
0.730957 0.604004 0.556152
0.759277 0.630371 0.584961
0.787598 0.659668 0.614746
0.285645 0.369873 0.275391
0.290771 0.370850 0.276611
0.296143 0.371582 0.277344
0.301270 0.372070 0.278076
0.307617 0.373291 0.279541
0.315186 0.374268 0.281982
0.322754 0.375488 0.283936
0.331787 0.376465 0.287354
0.340576 0.378418 0.290283
0.350098 0.381104 0.292236
0.360352 0.383301 0.295166
0.370850 0.386230 0.298096
0.382568 0.389404 0.302246
0.394531 0.393066 0.306885
0.407471 0.396973 0.312744
0.421387 0.401611 0.319580
0.436523 0.406982 0.328125
0.452148 0.413086 0.337158
0.468506 0.420166 0.348145
0.485352 0.427979 0.359375
0.503906 0.437500 0.372559
0.522461 0.447998 0.385254
0.542480 0.459717 0.398438
0.563965 0.473389 0.413330
0.585449 0.487793 0.429932
0.608398 0.504395 0.448242
0.632324 0.521973 0.467529
0.656738 0.541992 0.488770
0.682129 0.563477 0.511230
0.708496 0.586426 0.536133
0.735840 0.611328 0.562500
0.764160 0.637695 0.590820
0.792969 0.666016 0.620117
0.316162 0.394531 0.302979
0.320068 0.395020 0.303711
0.323975 0.395752 0.304443
0.329102 0.396484 0.305664
0.333984 0.397217 0.306885
0.340088 0.397949 0.308594
0.346924 0.398926 0.310791
0.353760 0.400146 0.313232
0.362061 0.401367 0.316650
0.369873 0.403320 0.318604
0.378174 0.405518 0.320801
0.387207 0.407959 0.323486
0.397461 0.411377 0.326660
0.408691 0.414307 0.330566
0.420410 0.418213 0.334961
0.434082 0.422607 0.341064
0.448242 0.427246 0.347656
0.463623 0.433105 0.355713
0.479736 0.439453 0.364746
0.496094 0.446777 0.374756
0.514160 0.455566 0.385986
0.532227 0.465332 0.398193
0.551758 0.476562 0.411377
0.572754 0.488281 0.425293
0.594727 0.502441 0.440918
0.616699 0.517090 0.458252
0.640625 0.534668 0.477539
0.663574 0.553223 0.497314
0.689453 0.574219 0.520020
0.714844 0.596680 0.543945
0.742188 0.620605 0.569824
0.770508 0.646973 0.597168
0.798340 0.673340 0.626465
0.345703 0.418701 0.330811
0.348389 0.419189 0.331299
0.351318 0.419678 0.332031
0.355713 0.420410 0.333008
0.359863 0.421143 0.334473
0.364502 0.421875 0.335693
0.370361 0.422852 0.337402
0.375732 0.423828 0.339355
0.382080 0.425293 0.342041
0.389160 0.426514 0.344482
0.396729 0.428711 0.346680
0.404541 0.430908 0.348633
0.414062 0.434082 0.351318
0.424072 0.437256 0.354492
0.435547 0.440430 0.358398
0.447754 0.444580 0.362793
0.461914 0.449463 0.368652
0.476318 0.454346 0.375000
0.491455 0.460205 0.382080
0.507812 0.467285 0.390625
0.525391 0.475098 0.400635
0.543457 0.484131 0.412109
0.562500 0.493896 0.424805
0.581543 0.505371 0.438721
0.603027 0.518555 0.453613
0.625488 0.532715 0.469971
0.648438 0.548340 0.487793
0.672363 0.566895 0.507324
0.696777 0.585938 0.529297
0.722656 0.607910 0.552734
0.749512 0.630371 0.577637
0.776367 0.655273 0.604492
0.804688 0.681641 0.633301
0.372803 0.444092 0.357910
0.375488 0.444580 0.358398
0.377930 0.445068 0.359131
0.380615 0.446045 0.360107
0.384277 0.446533 0.361084
0.387939 0.447266 0.362061
0.392334 0.447998 0.363281
0.397461 0.448975 0.365234
0.402588 0.450439 0.366943
0.408936 0.451416 0.369629
0.416016 0.453369 0.371582
0.423096 0.455811 0.373291
0.431885 0.458252 0.375488
0.441406 0.461182 0.378174
0.451660 0.464355 0.381104
0.463867 0.468262 0.384766
0.476318 0.472412 0.389160
0.490234 0.477051 0.394531
0.504883 0.482422 0.400635
0.520996 0.487793 0.407959
0.537598 0.495117 0.416992
0.555664 0.503906 0.427490
0.573730 0.513184 0.439697
0.593262 0.523438 0.453125
0.612793 0.536621 0.468262
0.635742 0.549316 0.483154
0.657227 0.564941 0.500488
0.681641 0.581543 0.519531
0.705566 0.599609 0.540039
0.730957 0.620117 0.562988
0.756836 0.642090 0.585938
0.783691 0.666016 0.612305
0.811035 0.690430 0.640137
0.398438 0.470703 0.383545
0.400391 0.471191 0.384033
0.402588 0.471436 0.384521
0.404785 0.471924 0.385254
0.407959 0.472656 0.385986
0.411621 0.473389 0.386963
0.415283 0.474365 0.388184
0.419678 0.475342 0.389404
0.424805 0.475830 0.390869
0.430420 0.477051 0.392822
0.436768 0.478516 0.395020
0.444092 0.480957 0.396729
0.451416 0.483154 0.398438
0.459961 0.485352 0.400635
0.469971 0.488281 0.403320
0.480713 0.491943 0.406494
0.491455 0.495605 0.410156
0.504883 0.500000 0.414551
0.519531 0.505371 0.420654
0.534180 0.510742 0.427246
0.551270 0.517090 0.435547
0.568848 0.525391 0.445068
0.586426 0.534180 0.456299
0.604980 0.543945 0.468750
0.625000 0.555176 0.482910
0.645508 0.568359 0.498291
0.667969 0.582031 0.514160
0.690430 0.597168 0.531738
0.714355 0.614746 0.551758
0.739258 0.633789 0.573730
0.764648 0.654785 0.596191
0.791992 0.677734 0.621582
0.818848 0.702148 0.648926
0.425049 0.498291 0.408936
0.426758 0.498779 0.409424
0.428711 0.498291 0.409668
0.430420 0.498779 0.410156
0.433594 0.499512 0.410889
0.435791 0.500000 0.411621
0.439941 0.500977 0.412598
0.443848 0.501953 0.413818
0.448486 0.502930 0.415771
0.453369 0.503906 0.416992
0.459717 0.504883 0.419434
0.465576 0.506836 0.421387
0.473145 0.508789 0.423096
0.480713 0.511230 0.424805
0.489014 0.514648 0.427734
0.499023 0.517090 0.429932
0.510254 0.521973 0.433838
0.521973 0.525391 0.437744
0.535645 0.529785 0.442627
0.550293 0.535645 0.448730
0.565918 0.541504 0.456055
0.583008 0.548828 0.464600
0.599609 0.556152 0.474365
0.618652 0.565918 0.486084
0.637695 0.575684 0.498779
0.657227 0.586914 0.513672
0.678711 0.600586 0.529785
0.701660 0.614746 0.546387
0.724609 0.630371 0.564941
0.749512 0.648926 0.585449
0.773926 0.668457 0.607910
0.799805 0.689941 0.632324
0.826172 0.713867 0.658203
0.452393 0.526855 0.435547
0.454102 0.527344 0.436035
0.455811 0.527344 0.436523
0.457764 0.527344 0.436768
0.460693 0.528320 0.437500
0.463135 0.528809 0.438232
0.466064 0.529297 0.438965
0.469727 0.530273 0.439941
0.473877 0.531250 0.441406
0.478516 0.532227 0.443115
0.484131 0.533691 0.445312
0.489746 0.534668 0.447754
0.496094 0.536621 0.449463
0.502930 0.539062 0.451172
0.510742 0.541992 0.453369
0.520020 0.544922 0.456055
0.529785 0.548340 0.458984
0.541016 0.552246 0.462402
0.553223 0.556152 0.466553
0.566895 0.561035 0.471680
0.582031 0.566895 0.478516
0.597656 0.572754 0.485596
0.614746 0.579590 0.494385
0.632324 0.588379 0.504883
0.650879 0.597656 0.516602
0.670410 0.607910 0.530273
0.691406 0.620117 0.545898
0.712402 0.633789 0.562988
0.735352 0.648438 0.579590
0.759277 0.665527 0.599121
0.783691 0.683594 0.620605
0.809082 0.704102 0.643555
0.835449 0.727051 0.668945
0.481689 0.557129 0.463623
0.483398 0.556641 0.464111
0.484375 0.557129 0.464111
0.486572 0.557617 0.464600
0.488281 0.558105 0.465576
0.490723 0.558594 0.466064
0.493408 0.559570 0.466797
0.496582 0.560059 0.467773
0.500000 0.561035 0.468994
0.504883 0.562012 0.470459
0.508789 0.562988 0.471924
0.514648 0.564453 0.474365
0.521484 0.565918 0.476807
0.526855 0.567383 0.478271
0.534180 0.569824 0.479980
0.541992 0.572266 0.482666
0.551758 0.575684 0.485107
0.562012 0.579102 0.488281
0.572266 0.583008 0.491943
0.585449 0.586914 0.496582
0.599121 0.592285 0.501465
0.614746 0.598145 0.508301
0.629883 0.605469 0.516602
0.647949 0.611816 0.525879
0.666016 0.621094 0.537109
0.684570 0.630859 0.549316
0.705078 0.641602 0.563477
0.725586 0.654297 0.579102
0.746582 0.667969 0.596680
0.770508 0.683594 0.615234
0.794922 0.701172 0.634766
0.819824 0.720215 0.656738
0.845703 0.741699 0.681641
0.512207 0.586914 0.492920
0.512695 0.586914 0.492920
0.514160 0.586914 0.492920
0.515137 0.588379 0.493896
0.517090 0.588379 0.494385
0.519531 0.589355 0.494629
0.522461 0.589844 0.495605
0.525391 0.590332 0.496582
0.527832 0.591309 0.497314
0.531250 0.591797 0.498291
0.536621 0.592285 0.500000
0.541016 0.593750 0.501953
0.546387 0.595215 0.504395
0.552734 0.596680 0.506348
0.559570 0.599121 0.508301
0.566406 0.601074 0.510254
0.574707 0.604004 0.512695
0.584473 0.607422 0.515137
0.594727 0.610840 0.519043
0.605957 0.615234 0.522949
0.618652 0.619629 0.527344
0.632324 0.625000 0.533691
0.647949 0.630859 0.540527
0.665039 0.638184 0.549316
0.681641 0.645996 0.559082
0.699707 0.654785 0.569824
0.719238 0.665039 0.582520
0.739258 0.676270 0.597656
0.760254 0.689453 0.614746
0.782715 0.703125 0.631836
0.806152 0.719727 0.650879
0.831055 0.737793 0.671875
0.855957 0.757324 0.694336
0.543457 0.618652 0.523438
0.544434 0.618652 0.523438
0.545898 0.619141 0.523926
0.547852 0.619141 0.524414
0.548828 0.619629 0.524902
0.550293 0.620605 0.525391
0.552734 0.620605 0.525879
0.555176 0.621582 0.526367
0.558594 0.622559 0.527344
0.561035 0.622559 0.528320
0.564453 0.624023 0.529297
0.569336 0.625000 0.531250
0.574219 0.625977 0.533691
0.579102 0.626953 0.536133
0.584961 0.628418 0.537598
0.591797 0.631836 0.539551
0.599121 0.633789 0.541992
0.607910 0.636719 0.544434
0.617676 0.640625 0.547852
0.627441 0.643555 0.551270
0.639648 0.648438 0.555664
0.652832 0.653809 0.561035
0.666992 0.657715 0.566406
0.682129 0.665039 0.573730
0.698242 0.671875 0.582520
0.716797 0.679688 0.592773
0.735352 0.688965 0.604980
0.754883 0.699707 0.618164
0.774414 0.711426 0.633301
0.795898 0.725586 0.650391
0.819336 0.739746 0.668457
0.842773 0.756348 0.687988
0.868164 0.774902 0.709473
0.576172 0.650879 0.555664
0.576660 0.651367 0.556152
0.577637 0.651367 0.556152
0.580078 0.652344 0.556641
0.581055 0.652832 0.557129
0.582520 0.653320 0.557617
0.583984 0.653809 0.557617
0.585938 0.653809 0.558594
0.589355 0.654297 0.559082
0.591797 0.654785 0.560059
0.594727 0.656250 0.561523
0.598633 0.657227 0.563477
0.604004 0.657715 0.564453
0.608887 0.659668 0.566895
0.613770 0.660645 0.569336
0.620117 0.663086 0.571289
0.626465 0.665527 0.573242
0.633789 0.667969 0.575195
0.642090 0.670898 0.578125
0.651367 0.674316 0.581055
0.662598 0.678711 0.584961
0.674316 0.682617 0.589844
0.687500 0.687988 0.595215
0.701660 0.693359 0.601074
0.716797 0.699219 0.608398
0.734375 0.707031 0.617188
0.751953 0.715332 0.627930
0.770996 0.725586 0.640137
0.790527 0.735840 0.654297
0.811523 0.747559 0.669434
0.833008 0.762207 0.687012
0.855957 0.776855 0.706055
0.879883 0.793945 0.726074
0.609863 0.685059 0.589355
0.610840 0.684570 0.589355
0.611816 0.684570 0.589844
0.613770 0.685059 0.589844
0.614746 0.685059 0.590332
0.616211 0.686035 0.590820
0.617676 0.687012 0.591309
0.618652 0.687012 0.591797
0.621094 0.687500 0.592285
0.624512 0.687988 0.593262
0.626953 0.688965 0.594238
0.630371 0.689941 0.595703
0.633301 0.690430 0.596680
0.638184 0.691895 0.598633
0.643066 0.693359 0.600586
0.648438 0.694336 0.603027
0.655273 0.697266 0.604980
0.661621 0.699219 0.606934
0.668945 0.701660 0.609375
0.677734 0.705566 0.611816
0.687988 0.708496 0.615723
0.698242 0.712891 0.619141
0.709961 0.717773 0.624512
0.723633 0.722656 0.629395
0.737793 0.728516 0.636230
0.753906 0.734863 0.644043
0.770508 0.743164 0.653809
0.787598 0.750977 0.663574
0.807617 0.761230 0.677246
0.827148 0.772461 0.691406
0.849121 0.784668 0.707031
0.870117 0.799316 0.725586
0.893555 0.815430 0.743652
0.644531 0.718750 0.623047
0.645996 0.718750 0.624023
0.646484 0.719238 0.624023
0.647461 0.719238 0.624512
0.648926 0.719727 0.624512
0.650391 0.719727 0.625000
0.650879 0.720215 0.625488
0.652832 0.720703 0.625488
0.654785 0.722168 0.626465
0.657227 0.722168 0.626953
0.659180 0.723145 0.627930
0.662598 0.723633 0.628906
0.666016 0.724121 0.629883
0.668945 0.726074 0.631836
0.674316 0.726562 0.633789
0.679688 0.728027 0.636230
0.684082 0.729980 0.638184
0.689941 0.731934 0.640137
0.697266 0.734375 0.642090
0.705566 0.737793 0.644531
0.713867 0.740234 0.647461
0.723145 0.743652 0.650391
0.733887 0.748535 0.655273
0.746582 0.752930 0.659668
0.759766 0.758301 0.666016
0.773926 0.764160 0.672852
0.790039 0.770996 0.680176
0.807617 0.779785 0.689941
0.825684 0.788574 0.701172
0.844238 0.798828 0.714355
0.865234 0.810547 0.729492
0.886230 0.822754 0.745605
0.908203 0.837891 0.764160
0.681152 0.753906 0.659180
0.682129 0.753418 0.659180
0.682617 0.753418 0.659668
0.682617 0.753906 0.659668
0.684082 0.753906 0.659668
0.686523 0.754883 0.660645
0.687500 0.754883 0.661133
0.687988 0.755859 0.661133
0.689453 0.756348 0.661621
0.691406 0.756836 0.662109
0.693848 0.757324 0.663086
0.695801 0.757812 0.663574
0.699707 0.759277 0.665527
0.702637 0.759766 0.666504
0.706543 0.761230 0.667969
0.710449 0.762207 0.669434
0.715332 0.763184 0.671875
0.721680 0.765137 0.673828
