RED_IPP2_Creative/RED_CHROMATIC.cube
# RED Digital Cinema Output Transform LUT for IPP2
# Creatives by Eric Weidt
# BMD cube from Truelight v4.0
# Settings used in creation of this LUT are:
# Development Color Space = USER SELECTABLE
# Output Gamma Curve = USER SELECTABLE
# Output Tonemap = USER SELECTABLE
# Highlight Rolloff = USER SELECTABLE
LUT_3D_SIZE 5
0.000082 0.000086 0.000098
0.290283 0.000043 0.020584
0.538574 0.000000 0.018524
0.769531 0.000000 0.012932
1.000000 0.003637 0.057648
0.001553 0.348877 0.001812
0.249756 0.249634 0.000251
0.499756 0.249878 0.000000
0.750488 0.250000 0.000000
1.000000 0.246338 0.028976
0.000000 0.656738 0.008850
0.283447 0.630371 0.000000
0.499756 0.499756 0.001113
0.750000 0.500000 0.000000
0.999512 0.500000 0.083313
0.000000 0.839844 0.060547
0.289062 0.865723 0.000000
0.512695 0.800293 0.000000
0.750000 0.750000 0.000000
0.999512 0.749512 0.036285
0.000000 1.000000 0.000000
0.234863 1.000000 0.000000
0.503418 1.000000 0.000000
0.753418 1.000000 0.000000
0.999512 0.999512 0.182129
0.001802 0.000000 0.365234
0.290283 0.000073 0.270020
0.635742 0.001872 0.318115
0.809082 0.000000 0.279297
1.000000 0.010597 0.258789
0.000000 0.366943 0.375732
0.249878 0.249878 0.249878
0.538574 0.250000 0.269287
0.769531 0.250244 0.259766
1.000000 0.249878 0.249756
0.026810 0.676758 0.338623
0.250977 0.595703 0.249756
0.499512 0.499512 0.250000
0.750000 0.500000 0.250244
0.999512 0.499756 0.250977
0.000000 0.914062 0.312012
0.234741 0.839355 0.262451
0.519531 0.823242 0.252930
0.750000 0.750000 0.245850
0.999512 0.749512 0.244263
0.000000 1.000000 0.239136
0.249634 1.000000 0.212646
0.504883 1.000000 0.242065
0.753906 1.000000 0.222656
0.999512 0.999512 0.255371
0.003271 0.000000 0.582031
0.250488 0.000000 0.531250
0.538574 0.000000 0.519043
0.809082 0.005203 0.529297
1.000000 0.002047 0.522461
0.000000 0.294434 0.594238
0.251465 0.249878 0.600098
0.538574 0.250000 0.519043
0.828613 0.250000 0.539062
1.000000 0.248047 0.507812
0.000000 0.605469 0.584473
0.250244 0.584961 0.583984
0.500000 0.500000 0.500000
0.769043 0.500000 0.509277
1.000000 0.500488 0.500488
0.123047 0.895020 0.576172
0.240967 0.916016 0.583008
0.500977 0.828125 0.502441
0.749512 0.749512 0.500000
0.999512 0.749512 0.499512
0.000000 1.000000 0.552734
0.052155 1.000000 0.517090
0.494873 1.000000 0.499756
0.753906 1.000000 0.497559
0.999512 0.999512 0.501953
0.016846 0.001193 0.754883
0.252197 0.011574 0.759277
0.500000 0.000000 0.752930
0.769531 0.013290 0.759766
1.000000 0.058899 0.756836
0.000000 0.254883 0.767090
0.251953 0.252441 0.772949
0.500000 0.249390 0.761719
0.769531 0.250732 0.759766
1.000000 0.249146 0.757812
0.015533 0.517578 0.779785
0.250732 0.516113 0.785156
0.500977 0.500000 0.791016
0.769043 0.500000 0.759277
1.000000 0.500000 0.760742
0.050323 0.791016 0.767090
0.244019 0.802246 0.782227
0.499756 0.802734 0.791992
0.750000 0.750000 0.750000
1.000000 0.750000 0.750000
0.136475 1.000000 0.755371
0.271973 1.000000 0.762207
0.506348 1.000000 0.776367
0.750488 1.000000 0.750000
0.999512 0.999512 0.750000
0.000000 0.000000 0.976074
0.261963 0.019150 0.976074
0.499023 0.044525 0.983887
0.750977 0.105225 1.000000
1.000000 0.000000 1.000000
0.000000 0.249634 0.965332
0.234741 0.255371 0.981934
0.499756 0.258057 0.982910
0.749512 0.250977 0.996582
1.000000 0.250977 1.000000
0.005898 0.478760 0.955566
0.231812 0.492188 0.971680
0.500000 0.500977 0.987793
0.749512 0.500977 0.991699
1.000000 0.500488 1.000000
0.000000 0.721191 0.960938
0.247314 0.728516 0.969238
0.501465 0.738770 0.977539
0.750000 0.750000 0.993652
1.000000 0.750000 1.000000
0.124207 1.000000 0.999512
0.278564 1.000000 0.999512
0.499023 1.000000 0.999512
0.749512 1.000000 0.999512
1.000000 1.000000 1.000000
