RED_IPP2_Creative/RED_MAUVE.cube
# RED Digital Cinema Output Transform LUT for IPP2
# Creatives by Eric Weidt
# BMD cube from Truelight v4.0
# Settings used in creation of this LUT are:
# Development Color Space = USER SELECTABLE
# Output Gamma Curve = USER SELECTABLE
# Output Tonemap = USER SELECTABLE
# Highlight Rolloff = USER SELECTABLE
LUT_3D_SIZE 9
0.029587 0.024429 0.024719
0.078979 0.025757 0.025635
0.124756 0.042999 0.042969
0.242920 0.142090 0.135742
0.359863 0.236694 0.217285
0.443604 0.313965 0.285156
0.554199 0.407715 0.369385
0.666992 0.501953 0.453125
0.780762 0.613770 0.562500
0.046844 0.102966 0.047729
0.114319 0.117615 0.066467
0.226074 0.163696 0.120605
0.310303 0.224487 0.188965
0.382568 0.276123 0.239990
0.461914 0.343262 0.305176
0.559570 0.425537 0.383057
0.668457 0.511719 0.461182
0.784180 0.621094 0.568359
0.198853 0.277100 0.195923
0.238403 0.281982 0.200073
0.289551 0.282959 0.208130
0.348877 0.300049 0.233154
0.412598 0.332031 0.273926
0.486572 0.383789 0.332275
0.569336 0.451660 0.403320
0.672852 0.528809 0.475342
0.789551 0.632812 0.578125
0.298340 0.378662 0.276123
0.320068 0.379639 0.279785
0.350098 0.379150 0.287354
0.393311 0.384033 0.300049
0.450684 0.403564 0.325928
0.514160 0.437256 0.369629
0.585449 0.488525 0.432861
0.682617 0.557129 0.500488
0.798828 0.652832 0.594238
0.400146 0.478271 0.372070
0.411133 0.478760 0.373779
0.427979 0.478271 0.376709
0.454590 0.477783 0.382568
0.494385 0.483643 0.395996
0.549316 0.504395 0.425049
0.614746 0.542480 0.476807
0.704102 0.604492 0.543457
0.814453 0.684570 0.621582
0.499756 0.580566 0.470459
0.506348 0.580078 0.472168
0.518066 0.579590 0.476318
0.534668 0.579590 0.482178
0.562500 0.583496 0.492920
0.606445 0.595215 0.512207
0.665039 0.624512 0.550781
0.741699 0.670898 0.604492
0.838379 0.731934 0.663086
0.618652 0.708496 0.585449
0.624023 0.708984 0.587402
0.631836 0.708496 0.591309
0.644043 0.708008 0.597168
0.663574 0.708496 0.606934
0.693359 0.713379 0.624023
0.735352 0.726074 0.645996
0.793457 0.753418 0.678223
0.870117 0.794434 0.718750
0.739746 0.835449 0.704102
0.743164 0.836426 0.705566
0.747559 0.835938 0.707031
0.754395 0.835449 0.708984
0.766113 0.834961 0.713379
0.786133 0.835449 0.722168
0.814941 0.836914 0.736816
0.857910 0.847168 0.758301
0.916016 0.872559 0.787109
0.854004 0.940430 0.820801
0.855469 0.940918 0.821777
0.857910 0.941406 0.822754
0.862793 0.942383 0.824219
0.869141 0.941895 0.825195
0.880859 0.942383 0.829590
0.900391 0.944336 0.835938
0.930176 0.949219 0.846680
0.968750 0.960938 0.864258
0.025513 0.025345 0.099854
0.060883 0.025650 0.060883
0.125977 0.051697 0.080139
0.250977 0.151245 0.168213
0.364990 0.240845 0.244629
0.451416 0.316895 0.308594
0.552734 0.411865 0.392822
0.664062 0.501953 0.469971
0.781738 0.614258 0.572266
0.041840 0.134399 0.142456
0.122620 0.128784 0.127319
0.244385 0.166748 0.164185
0.321777 0.224243 0.217163
0.386719 0.278564 0.266113
0.468018 0.344482 0.325928
0.557129 0.427490 0.402832
0.665527 0.511230 0.476807
0.784668 0.621094 0.577148
0.186157 0.291504 0.229980
0.223267 0.291748 0.219849
0.290039 0.286865 0.219849
0.360107 0.298340 0.244629
0.416992 0.332764 0.295166
0.489502 0.383057 0.349121
0.567383 0.451660 0.419189
0.669434 0.528809 0.490479
0.789062 0.632812 0.586426
0.290039 0.382812 0.301514
0.311768 0.383057 0.301270
0.344971 0.384766 0.304199
0.392090 0.385986 0.312012
0.452148 0.404297 0.341064
0.515625 0.436523 0.383301
0.585449 0.487061 0.443359
0.679199 0.558105 0.513672
0.799316 0.652832 0.602539
0.391602 0.480225 0.385010
0.403320 0.481201 0.386230
0.423340 0.482178 0.388184
0.451416 0.480713 0.394043
0.492432 0.485107 0.406982
0.549805 0.504395 0.433594
0.615723 0.541992 0.483643
0.701660 0.605469 0.554199
0.812988 0.685059 0.628906
0.496338 0.579590 0.480713
0.502930 0.580078 0.481689
0.515137 0.580566 0.484619
0.533203 0.582520 0.489990
0.560547 0.585449 0.498291
0.605957 0.596680 0.517578
0.666016 0.625000 0.554688
0.739746 0.671387 0.611816
0.835938 0.731934 0.669922
0.617188 0.707031 0.593262
0.622070 0.707520 0.595703
0.631348 0.708008 0.598633
0.643555 0.707520 0.604492
0.663574 0.709473 0.614746
0.692383 0.713379 0.629395
0.735352 0.725586 0.650879
0.792969 0.753906 0.685059
0.868652 0.794434 0.724121
0.738770 0.835449 0.708984
0.742188 0.835449 0.709473
0.747559 0.836426 0.711426
0.754395 0.835938 0.713867
0.765625 0.835449 0.718262
0.786133 0.835938 0.727051
0.814453 0.837402 0.741211
0.856934 0.846680 0.762695
0.915527 0.872070 0.791016
0.853027 0.940430 0.823242
0.854980 0.940918 0.824219
0.857422 0.941895 0.825195
0.861816 0.941895 0.826172
0.868652 0.942383 0.827637
0.880859 0.942383 0.831543
0.899902 0.945312 0.837891
0.929688 0.949219 0.848145
0.968262 0.960938 0.866211
0.025803 0.025513 0.108154
0.059875 0.029892 0.094849
0.130249 0.071960 0.125488
0.258545 0.168579 0.216187
0.363281 0.247192 0.280273
0.457031 0.321289 0.339600
0.554199 0.415283 0.417969
0.663086 0.504883 0.491943
0.780762 0.613770 0.584961
0.074341 0.140259 0.222046
0.146729 0.143188 0.220825
0.241333 0.183960 0.239014
0.320068 0.232056 0.268066
0.387451 0.282715 0.302246
0.473633 0.347412 0.355713
0.560547 0.429688 0.425781
0.665039 0.515137 0.498779
0.783691 0.620605 0.590332
0.167480 0.328125 0.335205
0.202393 0.326660 0.334229
0.289062 0.288574 0.288574
0.374268 0.295654 0.293457
0.426270 0.331543 0.326172
0.493896 0.385498 0.376465
0.572266 0.452637 0.438965
0.667480 0.530762 0.509277
0.788574 0.633301 0.599609
0.279053 0.397949 0.346436
0.294922 0.396973 0.337891
0.328125 0.395508 0.325928
0.392090 0.389893 0.324707
0.463135 0.403564 0.353271
0.518066 0.437012 0.404053
0.587891 0.486572 0.457520
0.676270 0.559570 0.530762
0.798340 0.653809 0.615723
0.384766 0.486084 0.409668
0.395264 0.484619 0.407959
0.415283 0.484131 0.407715
0.447754 0.485107 0.410645
0.491455 0.486572 0.418701
0.550781 0.505371 0.447754
0.618164 0.541992 0.494385
0.699707 0.606445 0.566895
0.812500 0.686035 0.641113
0.491455 0.581055 0.493896
0.498291 0.581543 0.494385
0.509766 0.583496 0.496338
0.528320 0.585449 0.499268
0.559082 0.588379 0.506836
0.604980 0.597656 0.525879
0.667480 0.625488 0.561035
0.739746 0.672363 0.621094
0.833984 0.733398 0.680176
0.616211 0.704590 0.605469
0.621582 0.706055 0.607422
0.629883 0.706543 0.610840
0.643066 0.708008 0.615723
0.663086 0.710449 0.624023
0.691895 0.714844 0.637207
0.734375 0.726562 0.656738
0.792480 0.754395 0.691406
0.867676 0.795410 0.733398
0.736816 0.834473 0.715820
0.740234 0.833496 0.716309
0.745117 0.835449 0.718262
0.753418 0.835449 0.720703
0.765625 0.836426 0.725586
0.786133 0.834961 0.734375
0.813965 0.837402 0.749023
0.855957 0.847168 0.770020
0.913086 0.872559 0.797363
0.851562 0.939453 0.826660
0.854492 0.940430 0.828125
0.856445 0.940918 0.828125
0.861328 0.941895 0.829590
0.868164 0.942383 0.831055
0.880371 0.943359 0.834961
0.899414 0.945312 0.840820
0.928223 0.949707 0.851562
0.968262 0.960938 0.870117
0.050415 0.032318 0.133301
0.087341 0.055359 0.146362
0.163574 0.108704 0.186035
0.274414 0.192627 0.267334
0.361328 0.257812 0.318848
0.455811 0.329834 0.373291
0.557129 0.419434 0.444824
0.665039 0.510254 0.519043
0.783203 0.616699 0.606445
0.140015 0.150757 0.245117
0.187256 0.175171 0.263672
0.249756 0.210815 0.286377
0.316162 0.249268 0.311768
0.384521 0.291992 0.340576
0.473877 0.353760 0.389893
0.564453 0.432861 0.452393
0.667480 0.520020 0.525391
0.786133 0.624512 0.611328
0.206177 0.324219 0.405518
0.238770 0.315674 0.401367
0.295166 0.292969 0.374023
0.362549 0.305176 0.360596
0.423828 0.338379 0.373047
0.494385 0.389648 0.410156
0.578125 0.454590 0.464355
0.669922 0.535645 0.534180
0.789062 0.636230 0.618652
0.262207 0.424561 0.429932
0.275391 0.429443 0.436523
0.306641 0.430420 0.437744
0.392578 0.391846 0.389893
0.478271 0.400635 0.399170
0.527344 0.437500 0.433838
0.595215 0.488525 0.481689
0.679688 0.563965 0.552734
0.797363 0.656250 0.633789
0.379395 0.498291 0.452148
0.387939 0.497314 0.448975
0.403320 0.495850 0.441650
0.432861 0.495361 0.431396
0.491455 0.489990 0.429932
0.559082 0.504883 0.461670
0.621094 0.543457 0.513184
0.701660 0.607910 0.582520
0.809082 0.687988 0.657715
0.486328 0.587402 0.516113
0.491943 0.586914 0.515137
0.503906 0.587402 0.515137
0.522461 0.589355 0.516602
0.556152 0.593262 0.523438
0.604980 0.600586 0.540527
0.668945 0.626953 0.574707
0.742188 0.672852 0.630371
0.830566 0.735352 0.694824
0.616699 0.705078 0.622070
0.621094 0.706055 0.623047
0.627930 0.706543 0.625000
0.640137 0.707520 0.628906
0.660645 0.711914 0.635254
0.690430 0.718262 0.645020
0.734375 0.727539 0.663574
0.792969 0.755371 0.698242
0.864258 0.796387 0.746094
0.735352 0.832031 0.726562
0.737793 0.832520 0.727539
0.743652 0.833008 0.729004
0.751465 0.833496 0.731934
0.766602 0.835449 0.737305
0.786133 0.836426 0.746582
0.813965 0.837402 0.759766
0.854980 0.848145 0.780273
0.912598 0.874023 0.808105
0.850586 0.940430 0.833008
0.852539 0.940430 0.833984
0.855469 0.940918 0.833984
0.860352 0.942383 0.835449
0.866211 0.942871 0.836426
0.878906 0.944336 0.840332
0.898438 0.946289 0.846680
0.928223 0.950684 0.858887
0.968750 0.961914 0.876953
0.115540 0.079590 0.185913
0.154907 0.113647 0.218018
0.223145 0.168091 0.271484
0.295654 0.224365 0.318604
0.365723 0.276123 0.357910
0.453613 0.344238 0.410400
0.556641 0.426758 0.475098
0.668457 0.515137 0.548828
0.785645 0.622559 0.632812
0.207764 0.194946 0.311279
0.237183 0.213379 0.324707
0.276855 0.238525 0.340576
0.326660 0.268066 0.355957
0.388428 0.306885 0.382324
0.469482 0.366211 0.426025
0.564941 0.439941 0.482666
0.669922 0.525391 0.553711
0.788086 0.630371 0.637695
0.264893 0.303223 0.402832
0.285156 0.301270 0.399414
0.315918 0.305176 0.396729
0.359863 0.323242 0.398926
0.419189 0.354004 0.415771
0.489990 0.398438 0.447021
0.578125 0.459717 0.495850
0.673828 0.541016 0.562012
0.791504 0.641113 0.645020
0.297363 0.422852 0.495361
0.313477 0.422363 0.498779
0.343750 0.415527 0.496338
0.398193 0.396240 0.473633
0.463379 0.411133 0.461914
0.522949 0.443848 0.475342
0.597656 0.492432 0.513672
0.684570 0.567383 0.577637
0.798340 0.661133 0.658691
0.369873 0.517090 0.521484
0.375000 0.520508 0.524414
0.384521 0.524414 0.529785
0.411621 0.524902 0.530762
0.493896 0.491455 0.491943
0.575195 0.503418 0.501953
0.627930 0.546387 0.543945
0.711426 0.609863 0.606445
0.808105 0.692871 0.680176
0.483398 0.597168 0.554688
0.489502 0.598145 0.553223
0.500000 0.596191 0.550781
0.516602 0.598633 0.549316
0.546387 0.600586 0.545410
0.605957 0.604004 0.552246
0.676270 0.628418 0.591309
0.747070 0.674805 0.646973
0.828125 0.737793 0.713867
0.616211 0.709473 0.645996
0.619629 0.709961 0.645508
0.625488 0.710449 0.646973
0.636719 0.712402 0.647461
0.655762 0.715332 0.649414
0.687988 0.722656 0.659180
0.735352 0.730469 0.676758
0.795898 0.756348 0.708496
0.862305 0.797852 0.759766
0.735840 0.831055 0.744141
0.738770 0.831055 0.745117
0.743652 0.830566 0.746582
0.751465 0.831543 0.748535
0.764648 0.833496 0.753906
0.785156 0.834961 0.760742
0.814941 0.840332 0.773926
0.854492 0.849121 0.790527
0.910156 0.874512 0.821289
0.848633 0.939453 0.842285
0.850098 0.939453 0.842285
0.852051 0.940430 0.843262
0.856445 0.940918 0.843750
0.864258 0.942383 0.845703
0.877441 0.945312 0.849121
0.897949 0.946777 0.856934
0.928711 0.951660 0.870117
0.968750 0.963379 0.888672
0.226929 0.176392 0.327881
0.251221 0.196777 0.342773
0.284912 0.224121 0.360352
0.326660 0.257080 0.379639
0.382812 0.300537 0.406006
0.463623 0.364990 0.454590
0.561523 0.438965 0.513184
0.673828 0.522461 0.583008
0.791016 0.629395 0.665039
0.271973 0.243896 0.375732
0.287842 0.254395 0.381348
0.312012 0.270508 0.390869
0.347412 0.293457 0.403076
0.401855 0.332520 0.427246
0.474365 0.385986 0.467041
0.563965 0.451904 0.518066
0.674805 0.532715 0.586914
0.792480 0.636230 0.669434
0.310791 0.307861 0.430176
0.324219 0.314697 0.433350
0.345703 0.325684 0.437744
0.380615 0.344482 0.446777
0.430176 0.373291 0.459961
0.493896 0.414795 0.488037
0.573730 0.471436 0.529297
0.677734 0.548340 0.594727
0.795898 0.647949 0.676270
0.355713 0.406738 0.506836
0.368408 0.406738 0.506348
0.388184 0.405762 0.502441
0.418457 0.409668 0.498291
0.462646 0.427246 0.501465
0.520020 0.456543 0.516113
0.595703 0.501465 0.550293
0.690430 0.575195 0.610840
0.801758 0.666992 0.687988
0.400635 0.515625 0.577637
0.407959 0.516113 0.580078
0.422607 0.516113 0.584961
0.449219 0.511719 0.585938
0.498779 0.497314 0.566895
0.561035 0.515137 0.560059
0.627930 0.553711 0.583008
0.718262 0.616211 0.637695
0.812500 0.698242 0.707031
0.483643 0.610840 0.612793
0.487061 0.611816 0.614258
0.492920 0.616211 0.618164
0.503906 0.622070 0.624512
0.529785 0.629883 0.636230
0.609375 0.607910 0.607910
0.692871 0.628906 0.628418
0.755371 0.677734 0.677246
0.832031 0.741211 0.737305
0.613281 0.717773 0.677734
0.617188 0.718262 0.678223
0.623535 0.719727 0.679199
0.634766 0.720703 0.679688
0.653320 0.724609 0.681152
0.683105 0.728516 0.681641
0.737305 0.734375 0.691406
0.799805 0.758301 0.726562
0.867188 0.800293 0.775879
0.741211 0.832031 0.770508
0.743164 0.832031 0.770508
0.747070 0.832031 0.770996
0.754395 0.833008 0.772461
0.764648 0.834473 0.774414
0.783203 0.837402 0.777832
0.812012 0.843262 0.785645
0.854980 0.851074 0.801758
0.912109 0.876465 0.833008
0.847168 0.941895 0.857422
0.848633 0.941895 0.857910
0.851074 0.941406 0.857910
0.855469 0.941406 0.858887
0.863770 0.942871 0.861328
0.877441 0.945312 0.865723
0.898438 0.948242 0.873535
0.929199 0.952637 0.887207
0.968262 0.963867 0.904785
0.313721 0.247681 0.444580
0.324951 0.256104 0.448242
0.344482 0.270752 0.455322
0.375000 0.294434 0.467285
0.426758 0.335938 0.489014
0.494385 0.389648 0.519043
0.579590 0.455078 0.565430
0.684570 0.534180 0.625977
0.803223 0.638672 0.706055
0.334229 0.286133 0.466064
0.344482 0.293457 0.468262
0.363037 0.306396 0.474365
0.393799 0.329102 0.485596
0.439453 0.363037 0.501953
0.500000 0.409180 0.526367
0.581543 0.467773 0.568848
0.684570 0.543457 0.628418
0.804688 0.645020 0.709473
0.365967 0.342773 0.493408
0.375732 0.348389 0.495850
0.392578 0.359131 0.499756
0.418701 0.375732 0.507812
0.456543 0.400391 0.519043
0.509766 0.437012 0.537109
0.583008 0.488037 0.573730
0.687500 0.560059 0.635254
0.808105 0.656738 0.715332
0.407715 0.412109 0.531738
0.415527 0.414551 0.533203
0.428711 0.420898 0.535645
0.450195 0.431396 0.541016
0.482178 0.448730 0.546875
0.529297 0.476318 0.559082
0.596191 0.519531 0.589844
0.694336 0.587891 0.647461
0.812500 0.675293 0.724609
0.451172 0.503906 0.600098
0.458252 0.503418 0.600098
0.469971 0.504395 0.600098
0.488525 0.504395 0.597656
0.519531 0.510742 0.596680
0.565430 0.531250 0.603516
0.629883 0.567871 0.625977
0.717773 0.627441 0.674316
0.822266 0.705566 0.742188
0.512207 0.613770 0.666992
0.517090 0.613281 0.668457
0.526855 0.615234 0.671875
0.541504 0.617188 0.676270
0.569336 0.620605 0.681641
0.617676 0.616699 0.677246
0.682617 0.643066 0.681152
0.760742 0.686035 0.715820
0.839355 0.746582 0.766602
0.619141 0.727051 0.728027
0.623047 0.728516 0.729492
0.628418 0.730469 0.730957
0.635254 0.733887 0.734375
0.646484 0.740234 0.742188
0.668945 0.749023 0.752930
0.739746 0.738770 0.738770
0.818359 0.759277 0.760742
0.874023 0.802734 0.801758
0.743164 0.835938 0.800293
0.745117 0.836426 0.800293
0.747559 0.836914 0.800781
0.753418 0.838379 0.801270
0.763184 0.840820 0.803223
0.780273 0.842773 0.805176
0.808594 0.848145 0.807129
0.856445 0.854492 0.817871
0.916016 0.877441 0.849121
0.851074 0.944336 0.881836
0.852539 0.944824 0.882324
0.855469 0.944336 0.883789
0.859863 0.944336 0.884277
0.868652 0.945312 0.887207
0.881348 0.945801 0.890137
0.899902 0.948730 0.894531
0.928223 0.954590 0.904297
0.969727 0.965820 0.919922
0.401611 0.324707 0.548340
0.410400 0.331787 0.552734
0.425049 0.343262 0.559570
0.448242 0.361816 0.568848
0.483154 0.389648 0.582520
0.531738 0.428955 0.598633
0.600098 0.482178 0.625977
0.696289 0.555176 0.678223
0.809570 0.653809 0.750000
0.417725 0.352539 0.567383
0.425293 0.358398 0.571289
0.438721 0.368164 0.575684
0.459717 0.384033 0.582520
0.492432 0.407959 0.593262
0.538574 0.443115 0.606445
0.603027 0.492920 0.630371
0.698242 0.562988 0.681152
0.812500 0.660156 0.753418
0.438232 0.391602 0.592285
0.445557 0.396484 0.594238
0.456787 0.403564 0.596191
0.475342 0.416016 0.600098
0.504395 0.435791 0.606445
0.547363 0.465576 0.616699
0.607910 0.510742 0.635742
0.703613 0.579102 0.688477
0.816895 0.669922 0.759277
0.465332 0.444336 0.614258
0.470947 0.447266 0.614258
0.480713 0.452881 0.616211
0.496826 0.461670 0.618652
0.522461 0.476807 0.622070
0.561523 0.501465 0.630859
0.620117 0.541992 0.648926
0.712402 0.604980 0.700195
0.824219 0.687500 0.768555
0.503906 0.512207 0.636719
0.508789 0.512695 0.637695
0.516602 0.516113 0.638672
0.530762 0.523438 0.641602
0.553711 0.535156 0.645508
0.589355 0.556641 0.654297
0.645020 0.591797 0.674316
0.727539 0.645996 0.719238
0.832520 0.714844 0.781250
0.562988 0.611328 0.699219
0.567871 0.613281 0.701172
0.575195 0.615234 0.703125
0.587402 0.618164 0.705566
0.609375 0.622559 0.708496
0.642578 0.635742 0.714844
0.691895 0.660645 0.726562
0.758789 0.700684 0.753906
0.847168 0.756836 0.802734
0.646484 0.731934 0.777344
0.648926 0.732910 0.777832
0.655273 0.733398 0.780273
0.664551 0.734863 0.782227
0.680176 0.738770 0.787598
0.705078 0.743652 0.794922
0.748535 0.747559 0.798828
0.807617 0.771484 0.806152
0.884766 0.810547 0.840820
0.748047 0.840332 0.838867
0.749512 0.840332 0.839355
0.752441 0.842285 0.840820
0.758789 0.844238 0.841797
0.766602 0.846191 0.845215
0.778809 0.852051 0.851074
0.795898 0.861328 0.862305
0.860352 0.859375 0.859863
0.928711 0.879395 0.878906
0.860840 0.945312 0.912109
0.861816 0.946289 0.912109
0.863770 0.946777 0.912598
0.867676 0.948242 0.914551
0.873535 0.949707 0.916016
0.882324 0.953125 0.918945
0.897949 0.954590 0.920898
0.927246 0.958496 0.926270
0.970703 0.969727 0.937988
0.502441 0.419434 0.651367
0.506836 0.422852 0.652832
0.514648 0.429688 0.655762
0.528320 0.440430 0.660156
0.549805 0.457764 0.666992
0.583008 0.485596 0.677734
0.632812 0.528320 0.697266
0.710449 0.594238 0.734863
0.812500 0.680176 0.798340
0.509277 0.434326 0.659180
0.513672 0.437500 0.660156
0.520996 0.443604 0.663086
0.534180 0.453369 0.666016
0.554688 0.469727 0.672852
0.587402 0.495850 0.682617
0.636230 0.536621 0.701172
0.714355 0.601562 0.739258
0.815918 0.685059 0.801270
0.520508 0.458252 0.670898
0.524414 0.461182 0.671875
0.531738 0.466064 0.673340
0.543457 0.475098 0.677246
0.563477 0.489502 0.682617
0.595215 0.513672 0.692383
0.644531 0.552734 0.710449
0.721191 0.614746 0.747070
0.819336 0.693848 0.805664
0.537109 0.493896 0.689453
0.541016 0.496826 0.690430
0.547852 0.500488 0.692383
0.559570 0.507812 0.694336
0.578613 0.520508 0.699219
0.610352 0.542969 0.708984
0.659668 0.580566 0.727051
0.730957 0.635742 0.758789
0.826660 0.708008 0.813477
0.566895 0.548340 0.720215
0.570312 0.550293 0.721191
0.576660 0.553711 0.722656
0.588379 0.560547 0.724121
0.606445 0.571777 0.728516
0.637695 0.591309 0.738770
0.684082 0.622559 0.753418
0.750488 0.669922 0.780273
0.839844 0.732422 0.828125
0.620117 0.630859 0.760742
0.623535 0.632324 0.761230
0.629395 0.635254 0.763672
0.639648 0.639648 0.767090
0.655273 0.647949 0.770996
0.680664 0.662109 0.776855
0.720703 0.685547 0.788574
0.776855 0.721191 0.808594
0.856934 0.769531 0.847656
0.695801 0.735840 0.813965
0.697754 0.737305 0.814941
0.702148 0.738281 0.816895
0.708984 0.740723 0.818359
0.720703 0.743652 0.820801
0.740723 0.750000 0.828125
0.770508 0.763672 0.836426
0.816406 0.788086 0.849121
0.880859 0.823730 0.875000
0.771973 0.841797 0.879395
0.773438 0.842773 0.879883
0.776367 0.843750 0.880859
0.780762 0.845215 0.883301
0.789551 0.846680 0.886230
0.804688 0.851562 0.891602
0.829102 0.856934 0.898926
0.868164 0.867676 0.910156
0.925293 0.890137 0.921875
0.868164 0.944824 0.941895
0.868652 0.945312 0.941895
0.870117 0.945801 0.942383
0.873535 0.946289 0.944336
0.877930 0.948242 0.946289
0.886230 0.950684 0.949219
0.901855 0.955566 0.954590
0.918457 0.964844 0.964844
0.975098 0.974121 0.975098
