RED_IPP2_Creative/RED_CHROMATIC.cube
# RED Digital Cinema Output Transform LUT for IPP2
# Creatives by Eric Weidt
# BMD cube from Truelight v4.0
# Settings used in creation of this LUT are:
# Development Color Space = USER SELECTABLE
# Output Gamma Curve = USER SELECTABLE
# Output Tonemap = USER SELECTABLE
# Highlight Rolloff = USER SELECTABLE
LUT_3D_SIZE 9
0.000082 0.000086 0.000098
0.124084 0.000628 0.000028
0.290283 0.000043 0.020584
0.423340 0.000093 0.024414
0.538574 0.000000 0.018524
0.654297 0.000060 0.015350
0.769531 0.000000 0.012932
0.884277 0.000000 0.000000
1.000000 0.003637 0.057648
0.000000 0.179443 0.003370
0.125122 0.125000 0.000137
0.249756 0.124878 0.000000
0.374023 0.124817 0.000311
0.501465 0.123108 0.000000
0.629883 0.119446 0.000000
0.755859 0.120667 0.000236
0.878906 0.117188 0.000000
1.000000 0.121948 0.032074
0.001553 0.348877 0.001812
0.142212 0.315918 0.000000
0.249756 0.249634 0.000251
0.374268 0.249634 0.000000
0.499756 0.249878 0.000000
0.625000 0.250000 0.000000
0.750488 0.250000 0.000000
0.875488 0.249634 0.000000
1.000000 0.246338 0.028976
0.000000 0.518066 0.000057
0.159058 0.507324 0.000000
0.266846 0.440918 0.000135
0.374268 0.374512 0.000153
0.499756 0.374756 0.000000
0.625000 0.375000 0.000000
0.750488 0.375000 0.000000
0.875488 0.375488 0.009048
0.999512 0.374023 0.003902
0.000000 0.656738 0.008850
0.180420 0.693848 0.002718
0.283447 0.630371 0.000000
0.390869 0.561035 0.000000
0.499756 0.499756 0.001113
0.625000 0.500000 0.000077
0.750000 0.500000 0.000000
0.875000 0.500000 0.000000
0.999512 0.500000 0.083313
0.031113 0.759277 0.034180
0.121155 0.778809 0.000000
0.286133 0.756348 0.006222
0.395752 0.707031 0.000000
0.509766 0.663086 0.000000
0.625000 0.625000 0.011414
0.750000 0.625000 0.000000
0.875000 0.625000 0.014481
0.999512 0.624512 0.000000
0.000000 0.839844 0.060547
0.139771 0.860840 0.000000
0.289062 0.865723 0.000000
0.393799 0.831055 0.000000
0.512695 0.800293 0.000000
0.630859 0.773438 0.000000
0.750000 0.750000 0.000000
0.875000 0.750000 0.000925
0.999512 0.749512 0.036285
0.000000 0.919922 0.087952
0.209351 0.943359 0.080505
0.283203 0.966309 0.000000
0.390137 0.941895 0.000000
0.514160 0.920898 0.000000
0.631348 0.902832 0.000000
0.752930 0.887695 0.000000
0.874512 0.874512 0.110107
0.999512 0.874512 0.000000
0.000000 1.000000 0.000000
0.234863 1.000000 0.000000
0.234863 1.000000 0.000000
0.385254 1.000000 0.000000
0.503418 1.000000 0.000000
0.629395 1.000000 0.004829
0.753418 1.000000 0.000000
0.875977 1.000000 0.000000
0.999512 0.999512 0.182129
0.000988 0.000084 0.182495
0.123474 0.000060 0.124695
0.312744 0.000015 0.156982
0.489502 0.000000 0.182251
0.579102 0.000000 0.164673
0.679688 0.000000 0.151733
0.786133 0.000000 0.143677
0.894531 0.000000 0.134766
1.000000 0.031769 0.147339
0.000000 0.231201 0.249756
0.124939 0.124939 0.124939
0.249023 0.125366 0.124939
0.422852 0.124939 0.149170
0.538574 0.125000 0.144409
0.653809 0.125366 0.139893
0.769531 0.124573 0.136841
0.884277 0.127075 0.129517
1.000000 0.131104 0.137939
0.002497 0.358398 0.180176
0.125000 0.304199 0.128174
0.249878 0.249878 0.125000
0.374268 0.249756 0.124939
0.499512 0.249878 0.124939
0.625977 0.248657 0.124695
0.753906 0.246460 0.124451
0.878418 0.246338 0.122742
1.000000 0.248901 0.136963
0.000000 0.515625 0.171631
0.124695 0.472412 0.126099
0.266846 0.441162 0.125366
0.374512 0.374512 0.124939
0.499756 0.374756 0.124939
0.625000 0.375000 0.125000
0.750000 0.375244 0.124695
0.875488 0.374756 0.117004
0.999512 0.373535 0.126831
0.000000 0.674316 0.170898
0.129883 0.642090 0.124390
0.282227 0.632324 0.125244
0.392090 0.565918 0.124573
0.499756 0.499756 0.124817
0.625000 0.500000 0.123413
0.750000 0.500000 0.121582
0.875000 0.500000 0.117737
0.999512 0.499756 0.117737
0.000000 0.804199 0.177979
0.141479 0.758789 0.138306
0.283691 0.781250 0.117310
0.400391 0.727051 0.128906
0.512207 0.671875 0.130493
0.625000 0.625000 0.124573
0.750000 0.625000 0.124268
0.875000 0.625000 0.129883
0.999512 0.624512 0.115784
0.000000 0.873047 0.161133
0.121094 0.839844 0.153076
0.264648 0.861816 0.118469
0.396973 0.846191 0.121460
0.515137 0.809082 0.126953
0.631836 0.777344 0.121155
0.750000 0.750000 0.122620
0.875000 0.750000 0.123291
0.999512 0.749512 0.118042
0.127563 0.945312 0.182861
0.000000 0.919922 0.141846
0.259033 0.943848 0.129639
0.396729 0.951660 0.124756
0.510742 0.927246 0.152710
0.632324 0.906250 0.150024
0.753418 0.889160 0.158813
0.875000 0.875000 0.178223
0.999512 0.874512 0.035034
0.000000 1.000000 0.000000
0.000000 1.000000 0.000000
0.239990 1.000000 0.044525
0.386475 1.000000 0.000000
0.503906 1.000000 0.006252
0.629395 1.000000 0.004829
0.753418 1.000000 0.090820
0.875977 1.000000 0.134155
0.999512 0.999512 0.182129
0.001802 0.000000 0.365234
0.125366 0.000082 0.286133
0.290283 0.000073 0.270020
0.489502 0.000155 0.307129
0.635742 0.001872 0.318115
0.715332 0.000000 0.295410
0.809082 0.000000 0.279297
0.909668 0.000000 0.266602
1.000000 0.010597 0.258789
0.000060 0.204346 0.397461
0.125732 0.124939 0.307373
0.248413 0.124939 0.249634
0.459717 0.125000 0.292480
0.593262 0.125122 0.296631
0.686035 0.125610 0.280762
0.789062 0.125732 0.269775
0.895996 0.124756 0.261719
1.000000 0.124084 0.255859
0.000000 0.366943 0.375732
0.124939 0.356201 0.374756
0.249878 0.249878 0.249878
0.380371 0.249878 0.252686
0.538574 0.250000 0.269287
0.653809 0.250244 0.264404
0.769531 0.250244 0.259766
0.884277 0.249634 0.253906
1.000000 0.249878 0.249756
0.002678 0.511230 0.340088
0.124634 0.478516 0.302490
0.250000 0.427979 0.252441
0.375000 0.375000 0.250000
0.499512 0.374756 0.250000
0.624512 0.374756 0.250000
0.750977 0.374268 0.249756
0.877441 0.372803 0.249634
1.000000 0.373291 0.255371
0.026810 0.676758 0.338623
0.122375 0.637207 0.294678
0.250977 0.595703 0.249756
0.392090 0.565918 0.250488
0.499512 0.499512 0.250000
0.624512 0.499756 0.250244
0.750000 0.500000 0.250244
0.875488 0.500000 0.248291
0.999512 0.499756 0.250977
0.057587 0.828613 0.335693
0.092651 0.784180 0.295410
0.251465 0.742188 0.256104
0.409424 0.757324 0.252441
0.516113 0.687500 0.249023
0.624512 0.624512 0.250000
0.750000 0.625000 0.249512
0.875000 0.625000 0.250977
0.999512 0.624512 0.250244
0.000000 0.914062 0.312012
0.166016 0.876465 0.288330
0.234741 0.839355 0.262451
0.400391 0.863770 0.239746
0.519531 0.823242 0.252930
0.633301 0.783203 0.249512
0.750000 0.750000 0.245850
0.875000 0.750000 0.252441
0.999512 0.749512 0.244263
0.000000 0.976074 0.283203
0.023865 0.946777 0.276123
0.100403 0.919922 0.255859
0.389160 0.944336 0.247803
0.512207 0.936035 0.255859
0.634277 0.911621 0.243042
0.753906 0.891113 0.256592
0.875000 0.875000 0.257812
0.999512 0.874512 0.229492
0.000000 1.000000 0.239136
0.000000 1.000000 0.239136
0.249634 1.000000 0.212646
0.361084 1.000000 0.229980
0.504883 1.000000 0.242065
0.629883 1.000000 0.241943
0.753906 1.000000 0.222656
0.875977 1.000000 0.257324
0.999512 0.999512 0.255371
0.000900 0.000000 0.495605
0.125854 0.000000 0.446777
0.249878 0.000000 0.387451
0.423340 0.000162 0.398926
0.579102 0.001181 0.414795
0.715332 0.000000 0.420410
0.839844 0.009773 0.420166
0.929688 0.000000 0.401855
1.000000 0.020432 0.389160
0.000000 0.163696 0.501465
0.126831 0.125122 0.490234
0.250244 0.124939 0.411133
0.422852 0.125122 0.398682
0.593262 0.124939 0.421631
0.732422 0.123352 0.428711
0.816406 0.123657 0.408203
0.913086 0.127319 0.394043
1.000000 0.145142 0.385254
0.001993 0.337158 0.509766
0.125122 0.314941 0.502441
0.250732 0.250000 0.432617
0.380615 0.250000 0.378174
0.605957 0.250000 0.428223
0.697266 0.250000 0.411377
0.792969 0.250244 0.396729
0.897461 0.248535 0.386475
1.000000 0.250732 0.379883
0.000000 0.486328 0.479980
0.125122 0.476074 0.479736
0.250000 0.465576 0.479492
0.374756 0.374756 0.374756
0.512695 0.375000 0.381592
0.653809 0.375244 0.389648
0.769531 0.375000 0.384521
0.884766 0.374512 0.378662
1.000000 0.375977 0.376709
0.000000 0.645508 0.469482
0.122009 0.626953 0.455566
0.248901 0.598145 0.425049
0.374756 0.551270 0.376709
0.500000 0.500000 0.375000
0.624512 0.499756 0.375000
0.750000 0.500000 0.375000
0.875977 0.499512 0.375244
1.000000 0.499512 0.377197
0.050476 0.816406 0.477295
0.124023 0.796387 0.460449
0.252686 0.757812 0.417480
0.376709 0.720215 0.375000
0.516602 0.690918 0.375000
0.624512 0.624512 0.375244
0.750000 0.625000 0.374756
0.875000 0.625000 0.375000
0.999512 0.624512 0.376709
0.192505 0.965332 0.482178
0.123535 0.923828 0.450439
0.254883 0.881836 0.417969
0.374756 0.839355 0.383301
0.524414 0.847168 0.375977
0.636230 0.793457 0.375488
0.750000 0.750000 0.375488
0.875000 0.750000 0.374512
0.999512 0.749512 0.376953
0.217773 1.000000 0.431641
0.042633 0.979980 0.415039
0.272461 0.948730 0.396484
0.364258 0.919922 0.381836
0.516113 0.945312 0.375977
0.636230 0.919434 0.373535
0.755371 0.894531 0.372559
0.875000 0.875000 0.375977
0.999512 0.874512 0.373291
0.000000 1.000000 0.401611
0.189697 1.000000 0.390869
0.171021 1.000000 0.377197
0.374756 1.000000 0.375000
0.506348 1.000000 0.369385
0.632324 1.000000 0.363037
0.753906 1.000000 0.373535
0.875977 1.000000 0.375732
0.999512 0.999512 0.375000
0.003271 0.000000 0.582031
0.127319 0.000000 0.559570
0.250488 0.000000 0.531250
0.378418 0.000000 0.501465
0.538574 0.000000 0.519043
0.679688 0.000000 0.527344
0.809082 0.005203 0.529297
0.929688 0.000000 0.527344
1.000000 0.002047 0.522461
0.000000 0.144165 0.586914
0.126709 0.124878 0.590820
0.251221 0.125000 0.554688
0.374756 0.124512 0.509766
0.538574 0.125488 0.519043
0.686035 0.123901 0.530273
0.816406 0.123108 0.533203
0.936523 0.123535 0.530762
1.000000 0.120789 0.514648
0.000000 0.294434 0.594238
0.123718 0.279053 0.596680
0.251465 0.249878 0.600098
0.375488 0.250244 0.535645
0.538574 0.250000 0.519043
0.697266 0.250488 0.536133
0.828613 0.250000 0.539062
0.917480 0.248413 0.520996
1.000000 0.248047 0.507812
0.002840 0.448975 0.599121
0.125244 0.442627 0.604492
0.249756 0.425781 0.606934
0.375732 0.375000 0.557617
0.512695 0.375000 0.506348
0.721191 0.375000 0.547852
0.800781 0.375244 0.525391
0.900391 0.375244 0.512207
1.000000 0.376709 0.503418
0.000000 0.605469 0.584473
0.124634 0.595215 0.583984
0.250244 0.584961 0.583984
0.375000 0.574219 0.583496
0.500000 0.500000 0.500000
0.645020 0.500000 0.510254
0.769043 0.500000 0.509277
0.884766 0.500000 0.504395
1.000000 0.500488 0.500488
0.000000 0.771484 0.586914
0.132812 0.759277 0.581543
0.245117 0.742676 0.570312
0.375000 0.718262 0.546875
0.500000 0.674316 0.500488
0.624512 0.624512 0.500000
0.749512 0.624512 0.500000
0.875000 0.625000 0.500000
1.000000 0.624512 0.500977
0.123047 0.895020 0.576172
0.058655 0.913574 0.584961
0.240967 0.916016 0.583008
0.367920 0.870605 0.543945
0.500977 0.828125 0.502441
0.641602 0.814941 0.500488
0.749512 0.749512 0.500000
0.875000 0.750000 0.500488
0.999512 0.749512 0.499512
0.000000 1.000000 0.565430
0.220215 1.000000 0.573730
0.129517 0.985840 0.548340
0.377197 0.951660 0.522949
0.498779 0.919922 0.501953
0.639648 0.932617 0.500000
0.756348 0.899902 0.498535
0.875000 0.875000 0.500488
0.999512 0.874512 0.500000
0.000000 1.000000 0.552734
0.150024 1.000000 0.531738
0.052155 1.000000 0.517090
0.355469 1.000000 0.503418
0.494873 1.000000 0.499756
0.631348 1.000000 0.498779
0.753906 1.000000 0.497559
0.876465 1.000000 0.499023
0.999512 0.999512 0.501953
0.000000 0.000000 0.668457
0.127686 0.000000 0.661621
0.250977 0.000796 0.650879
0.375244 0.003248 0.636719
0.510254 0.003143 0.629883
0.654297 0.000000 0.639648
0.786133 0.000000 0.643066
0.909668 0.000000 0.642090
1.000000 0.000000 0.638184
0.000000 0.131714 0.673828
0.125366 0.122375 0.677246
0.250000 0.121216 0.664551
0.375732 0.124756 0.646484
0.502441 0.124756 0.625977
0.653809 0.125000 0.639648
0.789062 0.127563 0.644531
0.913086 0.123657 0.644043
1.000000 0.135498 0.639648
0.000490 0.270264 0.680664
0.123596 0.261963 0.682617
0.252686 0.250000 0.686523
0.375977 0.250732 0.663086
0.500000 0.250244 0.631836
0.653809 0.250244 0.639160
0.792969 0.251465 0.646484
0.917480 0.250000 0.646484
1.000000 0.249146 0.641113
0.000000 0.410400 0.687500
0.127930 0.405518 0.689941
0.250000 0.395264 0.691895
0.375977 0.375000 0.695312
0.500000 0.375244 0.650391
0.653809 0.375244 0.639160
0.800781 0.375244 0.650391
0.925293 0.375244 0.649902
1.000000 0.374512 0.634277
0.000000 0.558594 0.688965
0.125244 0.552246 0.695312
0.250488 0.547852 0.699219
0.375244 0.536133 0.702148
0.500488 0.500000 0.682617
0.645020 0.500000 0.634766
0.817871 0.500000 0.658691
0.904297 0.500000 0.639648
1.000000 0.500000 0.628418
0.038452 0.708984 0.681641
0.120239 0.714844 0.688965
0.252930 0.704102 0.688477
0.376709 0.693848 0.687988
0.500000 0.683594 0.687500
0.625000 0.625000 0.625000
0.769043 0.625000 0.634277
0.884766 0.625000 0.629395
1.000000 0.625000 0.625488
0.000000 0.837891 0.671387
0.171509 0.848145 0.679199
0.251221 0.860840 0.687500
0.367188 0.858398 0.686035
0.500488 0.838379 0.668945
0.625000 0.797852 0.625000
0.749512 0.749512 0.625000
0.875000 0.750000 0.625000
0.999512 0.749512 0.625000
0.000000 0.953125 0.660645
0.211548 0.963867 0.668457
0.270752 0.977051 0.676758
0.388672 0.996094 0.686035
0.502930 0.957031 0.656250
0.625488 0.919434 0.628906
0.759277 0.911621 0.625000
0.875000 0.875000 0.625000
0.999512 0.874512 0.625000
0.132935 1.000000 0.648926
0.000469 1.000000 0.656738
0.224854 1.000000 0.664062
0.389648 1.000000 0.645508
0.496582 1.000000 0.631348
0.626465 1.000000 0.625000
0.755371 1.000000 0.625000
0.876465 1.000000 0.624512
0.999512 0.999512 0.625488
0.016846 0.001193 0.754883
0.119507 0.008049 0.758301
0.252197 0.011574 0.759277
0.375977 0.000000 0.757324
0.500000 0.000000 0.752930
0.635742 0.028900 0.755859
0.769531 0.013290 0.759766
0.894531 0.042511 0.759766
1.000000 0.058899 0.756836
0.004383 0.132446 0.760742
0.119446 0.126709 0.763672
0.252441 0.126587 0.764648
0.375488 0.131104 0.762207
0.500000 0.126831 0.755859
0.632324 0.127441 0.753906
0.769531 0.130005 0.760254
0.895996 0.125977 0.760254
1.000000 0.143555 0.757324
0.000000 0.254883 0.767090
0.129517 0.252686 0.769531
0.251953 0.252441 0.772949
0.375488 0.250732 0.769531
0.500000 0.249390 0.761719
0.626953 0.249878 0.750977
0.769531 0.250732 0.759766
0.897461 0.254150 0.761230
1.000000 0.249146 0.757812
0.000000 0.385498 0.773438
0.128418 0.384766 0.775879
0.249023 0.381592 0.778809
0.375977 0.375732 0.781738
0.500488 0.375488 0.771484
0.625000 0.374756 0.753906
0.769531 0.374756 0.759766
0.900391 0.375977 0.762695
1.000000 0.377197 0.758789
0.015533 0.517578 0.779785
0.129639 0.518066 0.782715
0.250732 0.516113 0.785156
0.376221 0.511230 0.787598
0.500977 0.500000 0.791016
0.625000 0.500000 0.765625
0.769043 0.500000 0.759277
0.904297 0.500000 0.764648
1.000000 0.500000 0.760742
0.010315 0.659180 0.776855
0.121582 0.659668 0.784180
0.250000 0.656250 0.791016
0.376221 0.653320 0.794922
0.500000 0.646973 0.796875
0.625488 0.625000 0.799805
0.769043 0.625000 0.759277
0.914062 0.625000 0.769531
1.000000 0.625000 0.753906
0.050323 0.791016 0.767090
0.096375 0.796387 0.774902
0.244019 0.802246 0.782227
0.373291 0.808105 0.790039
0.499756 0.802734 0.791992
0.625000 0.792480 0.791992
0.750000 0.750000 0.750000
0.884277 0.750000 0.754395
1.000000 0.750000 0.750000
0.099487 0.909180 0.756348
0.173584 0.916504 0.764160
0.112000 0.924805 0.771973
0.375732 0.934570 0.779785
0.502930 0.947266 0.788086
0.625488 0.958008 0.791504
0.750000 0.914062 0.750977
0.874512 0.874512 0.750000
0.999512 0.874512 0.750000
0.136475 1.000000 0.755371
0.250732 1.000000 0.758301
0.271973 1.000000 0.762207
0.385986 1.000000 0.768555
0.506348 1.000000 0.776367
0.625977 1.000000 0.758789
0.750488 1.000000 0.750000
0.876953 1.000000 0.750000
0.999512 0.999512 0.750000
0.003502 0.012962 0.841309
0.109009 0.000000 0.851562
0.253418 0.022980 0.860352
0.374756 0.036133 0.867676
0.500488 0.000000 0.872559
0.625488 0.000000 0.875488
0.757812 0.000000 0.878906
0.884277 0.031799 0.879395
1.000000 0.016174 0.877441
0.000000 0.114868 0.847168
0.096741 0.118286 0.850098
0.252930 0.128906 0.859863
0.375000 0.124817 0.867188
0.500488 0.130615 0.872559
0.625000 0.105835 0.875000
0.756836 0.111511 0.878418
0.884277 0.145996 0.879395
1.000000 0.141357 0.877441
0.004204 0.250732 0.853027
0.135864 0.249878 0.855957
0.247925 0.247314 0.859375
0.376709 0.250977 0.867188
0.500000 0.249390 0.873047
0.625000 0.250000 0.875488
0.754883 0.248901 0.877441
0.884277 0.257324 0.879395
1.000000 0.249146 0.877930
0.000000 0.369629 0.859375
0.128906 0.370117 0.862305
0.250977 0.372559 0.865234
0.372559 0.374756 0.868164
0.500000 0.375244 0.874023
0.625000 0.374023 0.876465
0.751465 0.374268 0.875977
0.884766 0.375000 0.879883
1.000000 0.375244 0.877930
0.000000 0.493164 0.865234
0.131104 0.496094 0.868164
0.253662 0.498291 0.871094
0.376221 0.499512 0.874512
0.500000 0.500000 0.877441
0.625000 0.500000 0.879395
0.750000 0.500000 0.876465
0.884766 0.499756 0.879883
1.000000 0.500000 0.878418
0.032990 0.620117 0.871094
0.111755 0.623047 0.874512
0.241577 0.625000 0.877441
0.373779 0.626953 0.880371
0.499512 0.626953 0.883301
0.625000 0.625000 0.886230
0.750000 0.625000 0.880859
0.884766 0.625000 0.879883
1.000000 0.625000 0.878906
0.000000 0.752441 0.863770
0.127686 0.755859 0.871094
0.242920 0.757812 0.878418
0.375732 0.758301 0.885742
0.500000 0.758789 0.889648
0.625000 0.757812 0.892578
0.750488 0.750000 0.895508
0.884277 0.750000 0.879395
1.000000 0.750000 0.880371
0.094971 0.877930 0.859863
0.058411 0.878906 0.860840
0.243286 0.884277 0.868164
0.370361 0.889648 0.875977
0.500488 0.895508 0.883301
0.625488 0.900879 0.891113
0.750000 0.901367 0.895996
0.875000 0.875000 0.875000
1.000000 0.875000 0.875000
0.000000 1.000000 0.873047
0.274658 1.000000 0.873535
0.273682 1.000000 0.874512
0.376953 1.000000 0.875977
0.495605 1.000000 0.877441
0.627441 1.000000 0.880859
0.750000 1.000000 0.888184
0.875000 1.000000 0.875000
0.999512 0.999512 0.875000
0.000000 0.000000 0.976074
0.118042 0.000000 0.975098
0.261963 0.019150 0.976074
0.375000 0.050690 0.979004
0.499023 0.044525 0.983887
0.625000 0.072998 0.992188
0.750977 0.105225 1.000000
0.878418 0.000000 1.000000
1.000000 0.000000 1.000000
0.000000 0.149170 0.970703
0.094299 0.136841 0.979004
0.250732 0.077820 0.978027
0.374512 0.107056 0.979492
0.499756 0.123657 0.982910
0.624512 0.142212 0.989746
0.749512 0.101990 0.998535
0.877930 0.072937 1.000000
1.000000 0.155273 1.000000
0.000000 0.249634 0.965332
0.125610 0.250977 0.973633
0.234741 0.255371 0.981934
0.372803 0.249268 0.980957
0.499756 0.258057 0.982910
0.625000 0.253906 0.987793
0.749512 0.250977 0.996582
0.877441 0.233643 1.000000
1.000000 0.250977 1.000000
0.019440 0.361572 0.960449
0.156494 0.368652 0.968262
0.239258 0.370850 0.976562
0.377441 0.371582 0.984863
0.498779 0.375488 0.984375
0.625000 0.378174 0.987305
0.749512 0.373047 0.994141
0.876465 0.372314 1.000000
1.000000 0.375488 1.000000
0.005898 0.478760 0.955566
0.144775 0.484619 0.963379
0.231812 0.492188 0.971680
0.372559 0.495850 0.979492
0.500000 0.500977 0.987793
0.625000 0.500488 0.987793
0.749512 0.500977 0.991699
0.875000 0.500488 1.000000
1.000000 0.500488 1.000000
0.103455 0.597656 0.957031
0.104065 0.602051 0.959961
0.260742 0.608398 0.966309
0.380127 0.615723 0.974609
0.499268 0.621094 0.982422
0.624512 0.625488 0.990723
0.749512 0.625000 0.991211
0.874512 0.625488 0.998047
1.000000 0.625000 1.000000
0.000000 0.721191 0.960938
0.144409 0.724609 0.966309
0.247314 0.728516 0.969238
0.378174 0.732910 0.972168
0.501465 0.738770 0.977539
0.625488 0.745117 0.985840
0.750000 0.750000 0.993652
0.874512 0.750000 0.995605
1.000000 0.750000 1.000000
0.107056 0.867676 0.983887
0.155884 0.866699 0.982910
0.245483 0.864746 0.981445
0.378418 0.861816 0.979492
0.500488 0.860352 0.980469
0.625000 0.864258 0.984375
0.750000 0.869141 0.988770
0.875000 0.875000 0.996582
1.000000 0.875000 1.000000
0.124207 1.000000 0.999512
0.124207 1.000000 0.999512
0.278564 1.000000 0.999512
0.371338 1.000000 0.999512
0.499023 1.000000 0.999512
0.625000 1.000000 0.999512
0.749512 1.000000 0.999512
0.875000 1.000000 0.999512
1.000000 1.000000 1.000000
