RED_IPP2_Creative/RED_BIPOLAR.cube
# RED Digital Cinema Output Transform LUT for IPP2
# Creatives by Eric Weidt
# BMD cube from Truelight v4.0
# Settings used in creation of this LUT are:
# Development Color Space = USER SELECTABLE
# Output Gamma Curve = USER SELECTABLE
# Output Tonemap = USER SELECTABLE
# Highlight Rolloff = USER SELECTABLE
LUT_3D_SIZE 9
0.070801 0.070801 0.070801
0.070801 0.070801 0.070801
0.196655 0.068481 0.092651
0.312988 0.127197 0.145020
0.443604 0.204712 0.218872
0.581543 0.291260 0.302490
0.720703 0.371582 0.379639
0.854980 0.437500 0.443115
0.981445 0.486816 0.489502
0.000000 0.116760 0.066833
0.085693 0.119751 0.055634
0.207031 0.160889 0.091309
0.330811 0.207397 0.137817
0.461670 0.265625 0.196167
0.595703 0.332520 0.257812
0.732422 0.400391 0.313721
0.863281 0.458252 0.356689
0.987793 0.502441 0.382324
0.073730 0.230225 0.131836
0.140259 0.234375 0.140747
0.225098 0.242798 0.096069
0.352295 0.293213 0.135376
0.482910 0.343506 0.177490
0.614258 0.395508 0.218994
0.745605 0.447266 0.252686
0.872559 0.491943 0.272705
0.994629 0.524414 0.271973
0.189575 0.363281 0.236694
0.231079 0.366455 0.242432
0.287109 0.373047 0.222534
0.375000 0.383789 0.131226
0.505371 0.434326 0.159424
0.633301 0.479248 0.181519
0.760254 0.520020 0.196167
0.883301 0.551758 0.202881
1.000000 0.573730 0.200928
0.324219 0.504883 0.362793
0.344971 0.506348 0.365234
0.379395 0.508301 0.370850
0.435059 0.516602 0.258545
0.523438 0.525879 0.132690
0.649414 0.568359 0.143188
0.770996 0.604492 0.150513
0.887695 0.633789 0.152588
1.000000 0.660156 0.186890
0.456543 0.636230 0.486816
0.465088 0.636230 0.487305
0.483154 0.637695 0.489990
0.513672 0.639648 0.475098
0.568359 0.647949 0.257324
0.652344 0.653320 0.143555
0.770020 0.688477 0.153809
0.885254 0.718262 0.163086
0.996582 0.745117 0.158569
0.574707 0.750488 0.595703
0.577148 0.750488 0.595703
0.585449 0.750488 0.596191
0.602539 0.750977 0.598145
0.625977 0.754883 0.482422
0.684082 0.763672 0.252686
0.765625 0.766113 0.134888
0.878418 0.796387 0.158569
0.989258 0.824219 0.106873
0.683105 0.854492 0.695312
0.683594 0.854004 0.695801
0.686523 0.854004 0.695312
0.694336 0.854004 0.696777
0.710449 0.853516 0.696777
0.728027 0.861816 0.473389
0.789551 0.868652 0.232300
0.869141 0.869141 0.161255
0.979492 0.897949 0.059143
0.781738 0.948730 0.786621
0.782227 0.948730 0.786621
0.784180 0.948730 0.786621
0.786621 0.948730 0.787109
0.794434 0.948242 0.787109
0.799805 0.951172 0.703613
0.824219 0.960449 0.452393
0.888184 0.967285 0.156372
0.966309 0.966309 0.130981
0.000000 0.039093 0.146362
0.075134 0.046906 0.146851
0.193970 0.088745 0.184448
0.316895 0.138184 0.224121
0.447021 0.208130 0.282959
0.583496 0.288818 0.358398
0.721680 0.365479 0.437988
0.855469 0.429199 0.510742
0.981445 0.475586 0.567871
0.007576 0.122192 0.147461
0.085876 0.124756 0.148315
0.208984 0.135986 0.152222
0.328125 0.169434 0.182495
0.456787 0.221924 0.232300
0.590820 0.284424 0.292725
0.726074 0.345947 0.350830
0.857910 0.395752 0.399414
0.984375 0.431396 0.433105
0.088989 0.235596 0.198608
0.124878 0.235840 0.180908
0.228149 0.245483 0.160400
0.350098 0.266602 0.187500
0.478027 0.300781 0.224854
0.607910 0.342773 0.266602
0.738281 0.386230 0.304688
0.866699 0.422607 0.333984
0.991699 0.446045 0.348145
0.198364 0.366699 0.279053
0.215210 0.366699 0.261230
0.268799 0.371338 0.269531
0.377930 0.385742 0.198242
0.503906 0.409424 0.221924
0.629395 0.437012 0.245972
0.756348 0.463867 0.263672
0.879883 0.485107 0.271484
1.000000 0.496094 0.270508
0.328613 0.505859 0.383545
0.335205 0.505859 0.372803
0.362305 0.507324 0.376465
0.416260 0.514648 0.342773
0.525391 0.526855 0.210205
0.649414 0.547852 0.219849
0.769531 0.566895 0.236938
0.887695 0.584473 0.250732
1.000000 0.599609 0.248169
0.458008 0.636719 0.495850
0.459961 0.636230 0.490479
0.471680 0.637207 0.491943
0.498779 0.637695 0.494385
0.550293 0.646484 0.360352
0.653320 0.653320 0.225220
0.770020 0.670410 0.238037
0.886230 0.686035 0.245850
0.999512 0.699707 0.260010
0.574707 0.750977 0.599609
0.576172 0.750488 0.597168
0.579102 0.750488 0.597168
0.590332 0.750488 0.597656
0.615723 0.751465 0.582031
0.667969 0.761719 0.360596
0.764648 0.765137 0.229736
0.879395 0.780273 0.246460
0.991211 0.793457 0.252686
0.682617 0.854004 0.696777
0.682129 0.854004 0.695312
0.684082 0.854004 0.696289
0.688477 0.854004 0.695801
0.700195 0.854004 0.696289
0.713867 0.858887 0.580078
0.772949 0.866699 0.346191
0.868164 0.868652 0.218018
0.979004 0.881348 0.237793
0.782227 0.948730 0.787109
0.782227 0.948730 0.786621
0.782227 0.948730 0.786621
0.784668 0.948730 0.787109
0.788574 0.948730 0.787109
0.800781 0.948730 0.787598
0.806641 0.957520 0.564453
0.871094 0.964355 0.335693
0.965332 0.965332 0.205078
0.059204 0.098328 0.249756
0.127075 0.105286 0.249634
0.193604 0.118347 0.251953
0.312988 0.182861 0.301270
0.449463 0.249634 0.358398
0.586426 0.315186 0.421143
0.722168 0.368896 0.487061
0.855957 0.420654 0.554688
0.982422 0.464844 0.615723
0.077698 0.169067 0.250244
0.112793 0.148804 0.250244
0.198364 0.160156 0.254883
0.325684 0.195679 0.279785
0.459473 0.229736 0.309082
0.592773 0.284424 0.357910
0.726074 0.341553 0.414307
0.858398 0.389404 0.466064
0.984863 0.422607 0.505371
0.112793 0.242188 0.262207
0.145264 0.244629 0.264648
0.223877 0.251221 0.267578
0.350830 0.257324 0.263672
0.478271 0.281006 0.284180
0.606445 0.317383 0.319092
0.736328 0.354980 0.356934
0.863770 0.384521 0.386475
0.989258 0.403076 0.403809
0.215088 0.372314 0.333496
0.227661 0.371582 0.316650
0.268311 0.373779 0.309814
0.379883 0.387451 0.278076
0.505859 0.397217 0.287842
0.629883 0.415527 0.308105
0.754883 0.434570 0.327881
0.878418 0.448486 0.339111
0.999512 0.451904 0.334473
0.337158 0.508301 0.419678
0.340576 0.507324 0.401367
0.358643 0.507812 0.392334
0.412109 0.511719 0.396484
0.527832 0.527344 0.288330
0.650879 0.535645 0.298340
0.770020 0.547363 0.315430
0.887695 0.558105 0.329590
1.000000 0.569824 0.337891
0.461914 0.637695 0.514648
0.462891 0.637695 0.502441
0.469482 0.636719 0.496094
0.493164 0.637207 0.494385
0.544922 0.643555 0.451172
0.653320 0.652832 0.302490
0.770020 0.659668 0.317139
0.886230 0.668945 0.329346
1.000000 0.676758 0.333984
0.576172 0.750977 0.607910
0.576660 0.750488 0.601562
0.578125 0.750000 0.598145
0.587891 0.750000 0.598145
0.611816 0.750488 0.599121
0.659180 0.758789 0.458008
0.764648 0.764160 0.312256
0.879395 0.770996 0.320557
0.992188 0.778320 0.328857
0.682617 0.854004 0.699707
0.682129 0.854492 0.697266
0.683594 0.854004 0.696777
0.687012 0.854492 0.697266
0.695801 0.853516 0.697754
0.718262 0.854004 0.679688
0.765137 0.864746 0.449219
0.867676 0.868164 0.313965
0.979980 0.873535 0.316162
0.782715 0.949219 0.788574
0.782227 0.948730 0.787109
0.782227 0.948730 0.787109
0.783691 0.948730 0.787109
0.787598 0.949219 0.787598
0.796875 0.948242 0.787598
0.805176 0.953613 0.667969
0.863770 0.962891 0.424316
0.963379 0.963867 0.314941
0.146118 0.179321 0.358887
0.192749 0.185303 0.360596
0.250732 0.197388 0.364258
0.321777 0.219971 0.372070
0.454834 0.305420 0.435059
0.592285 0.393555 0.500977
0.727539 0.450928 0.563965
0.856445 0.489502 0.626953
0.981445 0.506348 0.681641
0.163452 0.233032 0.364014
0.178101 0.209961 0.362061
0.236450 0.219238 0.365479
0.325928 0.242310 0.375000
0.456543 0.312012 0.418701
0.594238 0.354248 0.460693
0.729980 0.385986 0.504883
0.859375 0.396484 0.539551
0.985352 0.414062 0.574707
0.193848 0.299805 0.376709
0.202881 0.278809 0.373047
0.243652 0.272949 0.370850
0.338623 0.291016 0.377197
0.472900 0.318115 0.396484
0.609375 0.324707 0.410400
0.738281 0.353027 0.442139
0.865234 0.380371 0.474854
0.989746 0.394287 0.494873
0.243164 0.380859 0.398193
0.257080 0.382568 0.399658
0.291016 0.384766 0.394043
0.375488 0.393066 0.390625
0.502441 0.395264 0.383545
0.631836 0.398926 0.385498
0.754395 0.411377 0.406006
0.876953 0.418457 0.418457
0.998047 0.422363 0.422607
0.354736 0.514160 0.472412
0.355713 0.512695 0.457031
0.371094 0.512695 0.442383
0.415771 0.515137 0.432373
0.525879 0.528809 0.400146
0.652832 0.527344 0.389160
0.770508 0.530762 0.405029
0.887207 0.538086 0.419678
1.000000 0.545410 0.428223
0.469482 0.639160 0.547363
0.468750 0.638184 0.531250
0.474365 0.637695 0.517090
0.493164 0.638184 0.505859
0.543945 0.640625 0.509277
0.654785 0.653320 0.395264
0.771484 0.651855 0.407471
0.887207 0.654785 0.418945
1.000000 0.658691 0.423340
0.579102 0.750977 0.625000
0.578613 0.750977 0.613770
0.580078 0.750488 0.606445
0.586426 0.750488 0.601074
0.607910 0.750488 0.602539
0.656250 0.754883 0.556641
0.764160 0.764160 0.404053
0.879883 0.764160 0.412354
0.993164 0.765625 0.414795
0.684570 0.854492 0.708008
0.683594 0.854004 0.702148
0.684570 0.854004 0.700684
0.686523 0.854004 0.699707
0.694336 0.854004 0.699707
0.717285 0.854004 0.701172
0.760742 0.861816 0.553711
0.865723 0.866699 0.398438
0.979492 0.866699 0.404297
0.783203 0.948730 0.791504
0.782715 0.949219 0.789062
0.782227 0.948730 0.787598
0.783203 0.948730 0.787598
0.786621 0.948730 0.788086
0.794434 0.948242 0.788574
0.813477 0.948730 0.769043
0.858398 0.959961 0.531738
0.962402 0.962402 0.388672
0.266846 0.295654 0.487549
0.292236 0.299316 0.488525
0.332764 0.307373 0.491699
0.392822 0.322266 0.497803
0.466553 0.349854 0.509277
0.600586 0.441406 0.573242
0.729980 0.540039 0.634277
0.853027 0.586426 0.690430
0.975098 0.609863 0.749023
0.277832 0.326660 0.492188
0.282227 0.310547 0.490234
0.314941 0.315918 0.492432
0.377686 0.328857 0.497559
0.468506 0.359375 0.510254
0.600586 0.438965 0.557129
0.729980 0.505859 0.604980
0.859375 0.524414 0.649902
0.984375 0.522949 0.689941
0.298096 0.374756 0.500488
0.297119 0.350586 0.496826
0.316406 0.342285 0.492920
0.376709 0.352783 0.492676
0.474365 0.379883 0.504395
0.602539 0.447754 0.542480
0.736816 0.455811 0.571777
0.866699 0.445068 0.597168
0.991699 0.409180 0.599609
0.332275 0.442627 0.515625
0.329590 0.423096 0.511230
0.345215 0.414795 0.502441
0.392090 0.413574 0.494141
0.488281 0.432129 0.502441
0.620605 0.443359 0.516113
0.755859 0.418213 0.520508
0.878418 0.416260 0.531738
0.998535 0.422607 0.539551
0.382812 0.522461 0.536133
0.388184 0.522949 0.535645
0.402344 0.523438 0.528320
0.437988 0.525391 0.519043
0.520996 0.532715 0.520996
0.640625 0.528320 0.513672
0.767578 0.523438 0.516113
0.886719 0.520020 0.520020
1.000000 0.523926 0.523438
0.485352 0.643066 0.598145
0.483398 0.642090 0.584473
0.488037 0.641113 0.570312
0.504395 0.641113 0.556152
0.546875 0.642578 0.554199
0.647949 0.651367 0.527344
0.768555 0.645508 0.519531
0.887207 0.642578 0.519531
1.000000 0.642578 0.521484
0.586426 0.752441 0.657715
0.583984 0.751953 0.641602
0.584473 0.750977 0.632324
0.590820 0.751465 0.624023
0.607910 0.750977 0.621094
0.656738 0.751465 0.625488
0.762207 0.762695 0.520508
0.879395 0.757812 0.512695
0.992676 0.753906 0.513184
0.687012 0.854980 0.725586
0.686035 0.854980 0.715332
0.685547 0.854492 0.710938
0.687500 0.854492 0.708008
0.693359 0.854004 0.706543
0.713867 0.854004 0.707520
0.759766 0.857422 0.659668
0.864746 0.865234 0.497803
0.978516 0.859863 0.499268
0.784180 0.948730 0.799316
0.783691 0.948730 0.793457
0.784180 0.948730 0.791992
0.784180 0.949219 0.791016
0.785645 0.948730 0.790039
0.792969 0.948242 0.790527
0.814941 0.948242 0.791992
0.854980 0.956543 0.641113
0.960449 0.961426 0.483398
0.406250 0.430420 0.624512
0.417969 0.432373 0.625488
0.440430 0.435791 0.626953
0.479736 0.443604 0.629395
0.539062 0.458740 0.635742
0.610352 0.485107 0.644531
0.734863 0.568359 0.698730
0.850098 0.653320 0.745117
0.961426 0.720215 0.797363
0.410889 0.443848 0.626465
0.412354 0.436035 0.625488
0.426758 0.438477 0.626465
0.461426 0.444336 0.629395
0.523438 0.458496 0.634766
0.610352 0.488525 0.644531
0.734375 0.562988 0.684570
0.849609 0.647461 0.725098
0.970703 0.662598 0.771484
0.421143 0.470703 0.631348
0.418701 0.453857 0.627930
0.425537 0.448486 0.624023
0.457031 0.453125 0.621582
0.518555 0.465576 0.626953
0.613281 0.495117 0.638184
0.734863 0.562500 0.672852
0.854980 0.607910 0.710449
0.982422 0.585449 0.741211
0.439697 0.516602 0.638184
0.433594 0.494385 0.634766
0.439697 0.484863 0.625977
0.460693 0.480225 0.616699
0.520508 0.489990 0.619141
0.617676 0.514648 0.631836
0.735352 0.571777 0.664551
0.867188 0.545898 0.684570
0.994629 0.506836 0.689453
0.470215 0.579102 0.648438
0.464600 0.562500 0.645020
0.468018 0.553711 0.636719
0.486084 0.548828 0.626953
0.531250 0.548340 0.625977
0.625488 0.564453 0.636719
0.751953 0.566406 0.650879
0.885254 0.528320 0.645508
1.000000 0.524414 0.644043
0.513184 0.648926 0.659668
0.515137 0.648926 0.659668
0.519531 0.648926 0.652832
0.531738 0.648926 0.644043
0.565430 0.650391 0.645020
0.644531 0.653809 0.646973
0.758789 0.648926 0.645996
0.880371 0.642578 0.643066
1.000000 0.627930 0.627441
0.602051 0.755371 0.707520
0.598633 0.754395 0.694336
0.598633 0.753418 0.685059
0.602539 0.753418 0.677246
0.617188 0.753418 0.673828
0.659668 0.753418 0.672852
0.755371 0.759766 0.651855
0.873047 0.752930 0.638184
0.993164 0.743652 0.619629
0.693848 0.855469 0.757812
0.690918 0.854492 0.743164
0.690918 0.855469 0.737305
0.691406 0.854980 0.731934
0.696289 0.854492 0.728027
0.713867 0.854492 0.726562
0.762207 0.854004 0.729980
0.860840 0.863281 0.631348
0.978516 0.854004 0.604980
0.786621 0.949219 0.817383
0.784668 0.948730 0.806152
0.784180 0.948730 0.802246
0.784668 0.948730 0.799316
0.786621 0.948730 0.798340
0.792480 0.948730 0.796387
0.812012 0.948242 0.798340
0.855957 0.951660 0.749023
0.958496 0.959473 0.585938
0.543945 0.562500 0.755859
0.548340 0.562988 0.756348
0.557617 0.563965 0.756348
0.579102 0.567383 0.758301
0.617188 0.573242 0.758789
0.672363 0.584473 0.760254
0.739258 0.607422 0.764648
0.853027 0.679688 0.807129
0.958008 0.755859 0.845215
0.545410 0.567383 0.756348
0.545898 0.564453 0.755859
0.550781 0.564941 0.756836
0.565918 0.566895 0.757324
0.599121 0.571777 0.758301
0.658691 0.583008 0.760742
0.738770 0.607910 0.765137
0.852051 0.673828 0.793945
0.958008 0.749512 0.826172
0.548340 0.579590 0.757324
0.547363 0.570801 0.756348
0.549316 0.567383 0.754883
0.561523 0.568848 0.754883
0.592285 0.574219 0.754883
0.652344 0.583984 0.757324
0.739258 0.610352 0.763672
0.852051 0.672363 0.787109
0.957031 0.747559 0.816406
0.554688 0.602051 0.758301
0.551758 0.587402 0.757812
0.553223 0.581543 0.753906
0.561035 0.578613 0.750977
0.588867 0.581543 0.750488
0.648438 0.590820 0.753418
0.738770 0.615723 0.760742
0.851074 0.673340 0.781738
0.967285 0.701660 0.806641
0.567871 0.641602 0.760254
0.562988 0.623535 0.760254
0.562988 0.614746 0.755859
0.570312 0.608887 0.752441
0.590332 0.606934 0.751953
0.647461 0.612793 0.753906
0.740234 0.633301 0.761230
0.851562 0.681152 0.776855
0.981445 0.651855 0.789062
0.591797 0.696289 0.763184
0.586914 0.684082 0.762207
0.585938 0.676758 0.759277
0.590820 0.671387 0.755859
0.606934 0.667969 0.754883
0.653320 0.666992 0.756348
0.743652 0.677734 0.763184
0.864746 0.679199 0.767578
0.999512 0.634277 0.753906
0.627441 0.760254 0.767090
0.627930 0.760254 0.767090
0.629883 0.759766 0.765137
0.633789 0.760254 0.765137
0.645996 0.759766 0.764648
0.678711 0.760254 0.765137
0.754883 0.762695 0.765625
0.865723 0.755371 0.757812
0.983398 0.749512 0.750000
0.708496 0.857422 0.805664
0.704590 0.856934 0.795410
0.703613 0.856445 0.789062
0.704590 0.856445 0.784668
0.708008 0.855957 0.780762
0.722168 0.855957 0.777832
0.765137 0.854980 0.776855
0.856445 0.860352 0.755371
0.970215 0.850586 0.739258
0.793457 0.949219 0.848633
0.790527 0.949707 0.835449
0.789062 0.949219 0.829590
0.789551 0.949707 0.825195
0.790039 0.948730 0.821777
0.795898 0.948730 0.818848
0.812012 0.948242 0.815918
0.860840 0.947266 0.819336
0.953613 0.955078 0.731445
0.665039 0.678711 0.869629
0.666992 0.679199 0.870117
0.670898 0.679199 0.869141
0.680664 0.680176 0.869629
0.700195 0.682129 0.869629
0.736816 0.687012 0.870117
0.789551 0.696289 0.869629
0.853027 0.715820 0.870605
0.959473 0.780762 0.905762
0.665039 0.680176 0.869629
0.665527 0.679199 0.870117
0.667480 0.679688 0.868652
0.673828 0.679688 0.869141
0.688477 0.681641 0.870117
0.720703 0.684570 0.869629
0.777344 0.694824 0.869141
0.853027 0.715820 0.870605
0.958496 0.774902 0.893555
0.666504 0.685059 0.870117
0.666504 0.681152 0.869629
0.666992 0.681152 0.869629
0.670898 0.680664 0.869141
0.683105 0.682129 0.869629
0.713867 0.685547 0.869629
0.770996 0.693848 0.869141
0.852539 0.715820 0.869629
0.957520 0.772461 0.886719
0.668945 0.695312 0.869141
0.666992 0.687500 0.870117
0.667480 0.685059 0.869141
0.670410 0.684082 0.870117
0.680664 0.684570 0.869629
0.708984 0.687500 0.869141
0.766113 0.695801 0.869629
0.853516 0.718262 0.869629
0.958008 0.771484 0.880859
0.672852 0.716309 0.868652
0.670898 0.703125 0.869629
0.670410 0.698242 0.869629
0.672852 0.694824 0.869629
0.680176 0.692871 0.869629
0.705566 0.694824 0.868164
0.762695 0.702637 0.869141
0.852539 0.723633 0.868652
0.958496 0.773438 0.876953
0.683594 0.751953 0.867188
0.678223 0.735840 0.867676
0.677734 0.729004 0.868164
0.679199 0.724121 0.868164
0.684570 0.720215 0.867676
0.705078 0.717773 0.867676
0.761230 0.722656 0.868164
0.853027 0.739746 0.868164
0.958008 0.780762 0.872559
0.702637 0.802734 0.864746
0.697266 0.791016 0.865234
0.695801 0.785645 0.865234
0.695801 0.780762 0.865234
0.701172 0.776855 0.866699
0.717285 0.773438 0.865723
0.764160 0.773926 0.865234
0.853027 0.782227 0.866211
0.968262 0.780762 0.866699
0.733887 0.861816 0.864746
0.734375 0.861328 0.864746
0.734863 0.861328 0.864746
0.735352 0.861328 0.864746
0.739258 0.861328 0.864746
0.750488 0.861328 0.864746
0.783203 0.861328 0.864258
0.857422 0.861816 0.863770
0.963867 0.853027 0.853516
0.807129 0.951172 0.896973
0.803711 0.950684 0.886230
0.802734 0.950195 0.880859
0.801758 0.950195 0.875977
0.802246 0.949707 0.872559
0.806152 0.949707 0.869629
0.821777 0.949219 0.868164
0.864258 0.948242 0.866699
0.951172 0.952148 0.847656
0.774902 0.782715 0.971191
0.775391 0.783203 0.970703
0.777344 0.783203 0.971191
0.780273 0.783203 0.969727
0.791016 0.784180 0.970703
0.810059 0.785645 0.969727
0.845215 0.789551 0.969238
0.895996 0.797363 0.967285
0.957031 0.814453 0.966309
0.775391 0.784180 0.971191
0.775391 0.783203 0.970703
0.775391 0.783203 0.970703
0.777832 0.783203 0.971191
0.783691 0.783203 0.970215
0.797852 0.784668 0.970215
0.830078 0.787598 0.969238
0.884766 0.795410 0.967773
0.957031 0.814453 0.966309
0.774902 0.784668 0.970703
0.775391 0.784180 0.971191
0.775879 0.783691 0.971191
0.776855 0.783691 0.970215
0.780762 0.783691 0.970215
0.792969 0.784180 0.970703
0.824219 0.787598 0.969727
0.879395 0.794922 0.967285
0.957031 0.814453 0.965332
0.775391 0.789551 0.970703
0.774902 0.785645 0.970215
0.774902 0.784668 0.970703
0.776367 0.784668 0.970703
0.780273 0.784668 0.969727
0.790039 0.785156 0.970703
0.818848 0.787598 0.969238
0.874512 0.794434 0.967285
0.957031 0.814453 0.965332
0.776855 0.798828 0.969238
0.776367 0.791992 0.969727
0.775879 0.789551 0.970703
0.777344 0.789062 0.970703
0.779297 0.787598 0.970215
0.788086 0.787598 0.970215
0.814453 0.789551 0.969238
0.871582 0.796875 0.967773
0.957031 0.816406 0.965332
0.780273 0.818848 0.967773
0.777832 0.806641 0.968262
0.777832 0.801758 0.969238
0.778809 0.798828 0.968750
0.779785 0.796387 0.969238
0.788086 0.795410 0.969238
0.812012 0.797363 0.968750
0.867676 0.802734 0.966797
0.956055 0.821777 0.964355
0.787598 0.851562 0.962891
0.784668 0.838379 0.965332
0.783691 0.832031 0.965820
0.783203 0.827148 0.966309
0.784668 0.823242 0.966309
0.791504 0.819824 0.967285
0.811035 0.818359 0.966309
0.865723 0.821777 0.964844
0.955566 0.836914 0.962402
0.803711 0.898926 0.958496
0.800293 0.889160 0.958496
0.798828 0.884766 0.960449
0.797852 0.879883 0.960449
0.798828 0.876465 0.960938
0.803223 0.873535 0.960449
0.820312 0.871094 0.960938
0.865723 0.870117 0.958984
0.953125 0.876953 0.957520
0.832031 0.954590 0.955078
0.832031 0.954590 0.955078
0.832031 0.954590 0.955078
0.833008 0.954590 0.955566
0.834473 0.954590 0.954590
0.837891 0.954590 0.955566
0.848145 0.954590 0.954102
0.881348 0.954102 0.953613
0.953613 0.954590 0.954590
