RED_IPP2_Creative/RED_ZONE.cube
# RED Digital Cinema Output Transform LUT for IPP2
# Creatives by Eric Weidt
# BMD cube from Truelight v4.0
# Settings used in creation of this LUT are:
# Development Color Space = USER SELECTABLE
# Output Gamma Curve = USER SELECTABLE
# Output Tonemap = USER SELECTABLE
# Highlight Rolloff = USER SELECTABLE
LUT_3D_SIZE 5
0.036407 0.029739 0.030701
0.151978 0.064392 0.066528
0.333008 0.193604 0.181274
0.523926 0.392822 0.360840
0.761230 0.622559 0.584961
0.136597 0.214233 0.150513
0.232666 0.239136 0.167847
0.389893 0.311035 0.246216
0.552246 0.433594 0.390381
0.773926 0.640137 0.599121
0.372803 0.444092 0.357910
0.402588 0.450439 0.366943
0.476318 0.472412 0.389160
0.612793 0.536621 0.468262
0.811035 0.690430 0.640137
0.609863 0.685059 0.589355
0.621094 0.687500 0.592285
0.655273 0.697266 0.604980
0.737793 0.728516 0.636230
0.893555 0.815430 0.743652
0.917480 0.981934 0.894043
0.921387 0.984863 0.896973
0.932617 0.987793 0.900879
0.965820 1.000000 0.916016
1.000000 1.000000 0.955566
0.057404 0.053253 0.128052
0.142578 0.091248 0.153320
0.336914 0.207275 0.259766
0.531738 0.393066 0.396484
0.766113 0.621582 0.598633
0.123901 0.239502 0.249878
0.223633 0.254639 0.271484
0.395508 0.311035 0.316406
0.560547 0.432617 0.420166
0.779297 0.639648 0.611816
0.355957 0.450684 0.390625
0.395508 0.451904 0.390869
0.471191 0.475586 0.413086
0.621582 0.535156 0.484131
0.815430 0.689941 0.649902
0.602539 0.687988 0.598633
0.614746 0.691406 0.601562
0.649414 0.699707 0.612305
0.736328 0.730469 0.644043
0.896484 0.814453 0.748535
0.915039 0.983398 0.896973
0.918457 0.984863 0.898438
0.930664 0.989258 0.903809
0.964355 1.000000 0.918457
1.000000 1.000000 0.957520
0.132080 0.103577 0.207397
0.196533 0.145996 0.261230
0.347900 0.247437 0.351562
0.532715 0.404785 0.457275
0.773926 0.624023 0.630371
0.216187 0.259277 0.357910
0.275635 0.279053 0.371338
0.396484 0.333252 0.408936
0.564941 0.441406 0.483398
0.787598 0.641113 0.643066
0.337646 0.462402 0.468262
0.354492 0.471191 0.478271
0.465576 0.484375 0.494385
0.637207 0.536133 0.538574
0.824219 0.690430 0.676758
0.591309 0.695801 0.629883
0.602051 0.698730 0.632324
0.635742 0.708496 0.637207
0.734863 0.734375 0.664062
0.904785 0.814453 0.763672
0.909180 0.986816 0.904785
0.912598 0.988770 0.905762
0.924316 0.992676 0.910156
0.960449 1.000000 0.924805
1.000000 1.000000 0.962891
0.289795 0.233398 0.377686
0.323242 0.262451 0.396729
0.396729 0.330322 0.444336
0.542480 0.444092 0.539551
0.777832 0.640625 0.694336
0.348633 0.328857 0.443604
0.372803 0.345215 0.456299
0.432861 0.385986 0.490479
0.568848 0.476562 0.567871
0.792480 0.656250 0.706543
0.431885 0.477051 0.565430
0.451904 0.483887 0.572754
0.507324 0.503418 0.592773
0.633301 0.560547 0.637695
0.830566 0.701660 0.740234
0.582520 0.709473 0.711426
0.592773 0.712402 0.715332
0.616699 0.724121 0.728027
0.740234 0.743652 0.750488
0.921875 0.816406 0.815430
0.897949 0.995605 0.931641
0.900879 0.997070 0.932129
0.912598 1.000000 0.935059
0.949707 1.000000 0.944336
1.000000 1.000000 0.981445
0.468262 0.421387 0.544922
0.480225 0.431641 0.554688
0.514648 0.460693 0.581543
0.606445 0.536133 0.650391
0.792969 0.693359 0.784668
0.495605 0.457520 0.579590
0.506348 0.466064 0.587402
0.539062 0.491455 0.611328
0.625488 0.560059 0.672852
0.804688 0.706543 0.796387
0.562988 0.548340 0.665039
0.572266 0.554199 0.669434
0.600098 0.572754 0.687012
0.675293 0.624512 0.731934
0.839355 0.745605 0.831543
0.684570 0.733398 0.821777
0.692383 0.736328 0.825195
0.714844 0.745117 0.833984
0.779297 0.771484 0.859863
0.922852 0.846680 0.919434
0.893555 1.000000 1.000000
0.895508 1.000000 1.000000
0.906250 1.000000 1.000000
0.937012 1.000000 1.000000
1.000000 1.000000 1.000000
