RED_IPP2_Creative/RED_BW_0600.cube
# RED Digital Cinema Output Transform LUT for IPP2
# Creatives by Eric Weidt
# BMD cube from Truelight v4.0
# Settings used in creation of this LUT are:
# Development Color Space = USER SELECTABLE
# Output Gamma Curve = USER SELECTABLE
# Output Tonemap = USER SELECTABLE
# Highlight Rolloff = USER SELECTABLE
LUT_3D_SIZE 33
0.127441 0.127441 0.127441
0.127441 0.127441 0.127441
0.127441 0.127441 0.127441
0.127441 0.127441 0.127441
0.127441 0.127441 0.127441
0.127441 0.127441 0.127441
0.127441 0.127441 0.127441
0.128174 0.128174 0.128174
0.129883 0.129883 0.129883
0.132324 0.132324 0.132324
0.136841 0.136841 0.136841
0.146240 0.146240 0.146240
0.168579 0.168579 0.168579
0.218628 0.218628 0.218628
0.285889 0.285889 0.285889
0.330078 0.330078 0.330078
0.374756 0.374756 0.374756
0.406738 0.406982 0.406738
0.435059 0.435059 0.435303
0.463379 0.463379 0.463379
0.491943 0.491943 0.491943
0.520996 0.520996 0.520996
0.550293 0.550293 0.550293
0.580078 0.580078 0.580078
0.609863 0.609863 0.609863
0.638672 0.638672 0.639160
0.666992 0.666992 0.666992
0.694824 0.694824 0.694824
0.722168 0.722168 0.722168
0.749023 0.749023 0.749023
0.776367 0.776367 0.776367
0.802734 0.802734 0.802734
0.829590 0.829590 0.829590
0.127441 0.127441 0.127441
0.127441 0.127441 0.127441
0.127441 0.127441 0.127441
0.127441 0.127441 0.127441
0.127441 0.127441 0.127441
0.127441 0.127441 0.127441
0.127441 0.127441 0.127441
0.128540 0.128540 0.128540
0.130249 0.130249 0.130249
0.132935 0.132935 0.132935
0.137573 0.137573 0.137573
0.147461 0.147339 0.147339
0.170532 0.170532 0.170532
0.221313 0.221313 0.221313
0.286865 0.286865 0.286865
0.330566 0.330566 0.330566
0.375244 0.375244 0.375244
0.407471 0.407227 0.407227
0.435303 0.435303 0.435303
0.463379 0.463379 0.463379
0.491943 0.491943 0.491943
0.520996 0.520996 0.520996
0.550293 0.550293 0.550293
0.580566 0.580566 0.580566
0.609863 0.609863 0.609863
0.638672 0.638672 0.639160
0.666992 0.666992 0.666992
0.694824 0.694824 0.694824
0.722168 0.722168 0.722168
0.749023 0.749023 0.749023
0.776367 0.776367 0.776367
0.802734 0.802734 0.802734
0.829590 0.829590 0.829590
0.127441 0.127441 0.127441
0.127441 0.127441 0.127441
0.127441 0.127441 0.127441
0.127441 0.127441 0.127441
0.127441 0.127441 0.127441
0.127441 0.127441 0.127441
0.127930 0.127930 0.127930
0.129150 0.129150 0.129150
0.130859 0.130859 0.130859
0.133667 0.133667 0.133667
0.138672 0.138672 0.138672
0.149048 0.149048 0.149048
0.173462 0.173462 0.173462
0.225464 0.225464 0.225464
0.288818 0.288818 0.288818
0.332275 0.332275 0.332275
0.376465 0.376465 0.376465
0.407715 0.407715 0.407715
0.435791 0.435791 0.435791
0.463623 0.463623 0.463623
0.492432 0.492432 0.492432
0.520996 0.520996 0.520996
0.550293 0.550293 0.550293
0.580566 0.580566 0.580566
0.610352 0.610352 0.610352
0.638672 0.638672 0.639160
0.666992 0.666992 0.666992
0.694824 0.694824 0.694824
0.722168 0.722168 0.722168
0.749023 0.749023 0.749023
0.776367 0.776367 0.776367
0.802734 0.802734 0.802734
0.829590 0.829590 0.829590
0.127441 0.127441 0.127441
0.127441 0.127441 0.127441
0.127441 0.127441 0.127441
0.127441 0.127441 0.127441
0.127441 0.127441 0.127441
0.127930 0.127930 0.127930
0.128662 0.128662 0.128662
0.129883 0.129883 0.129883
0.131714 0.131714 0.131714
0.134766 0.134766 0.134766
0.140137 0.140137 0.140137
0.151489 0.151489 0.151489
0.177734 0.177734 0.177612
0.231567 0.231445 0.231445
0.291260 0.291260 0.291260
0.333984 0.333984 0.333984
0.377686 0.377686 0.377686
0.408447 0.408447 0.408447
0.436279 0.436279 0.436279
0.464111 0.464111 0.464111
0.492432 0.492432 0.492432
0.521484 0.521484 0.521484
0.550293 0.550293 0.550293
0.580566 0.580566 0.580566
0.610352 0.610352 0.610352
0.639160 0.639160 0.639160
0.666992 0.666992 0.666992
0.694824 0.694824 0.694824
0.722168 0.722168 0.722168
0.749023 0.749023 0.749023
0.776367 0.776367 0.776367
0.802734 0.802734 0.802734
0.829590 0.829590 0.829590
0.127441 0.127441 0.127441
0.127441 0.127441 0.127441
0.127563 0.127563 0.127563
0.127930 0.127930 0.127930
0.128296 0.128296 0.128296
0.128906 0.128906 0.128906
0.129761 0.129761 0.129761
0.131104 0.131104 0.131104
0.133057 0.133057 0.133057
0.136475 0.136475 0.136475
0.142456 0.142456 0.142456
0.155151 0.155151 0.155151
0.183838 0.183838 0.183838
0.238770 0.238647 0.238647
0.294434 0.294434 0.294434
0.336914 0.336914 0.336914
0.379150 0.379150 0.379150
0.409180 0.409180 0.409180
0.437012 0.437012 0.437012
0.464600 0.464600 0.464600
0.492920 0.492920 0.492920
0.521484 0.521484 0.521484
0.550781 0.550781 0.550781
0.580566 0.580566 0.580566
0.610352 0.610352 0.610352
0.639160 0.639160 0.639160
0.666992 0.666992 0.666992
0.694824 0.694824 0.694824
0.722168 0.722168 0.722168
0.749023 0.749023 0.749023
0.776367 0.776367 0.776367
0.802734 0.802734 0.802734
0.829590 0.829590 0.829590
0.128540 0.128540 0.128540
0.128784 0.128784 0.128784
0.129028 0.129028 0.129028
0.129272 0.129272 0.129272
0.129761 0.129761 0.129761
0.130493 0.130493 0.130493
0.131348 0.131348 0.131348
0.132812 0.132812 0.132812
0.135132 0.135132 0.135132
0.139038 0.139038 0.139038
0.146240 0.146240 0.146240
0.161133 0.161133 0.161133
0.192627 0.192627 0.192627
0.249146 0.249146 0.249146
0.299072 0.299072 0.298584
0.340576 0.340576 0.340576
0.381348 0.381348 0.381348
0.410645 0.410645 0.410400
0.437744 0.437744 0.437744
0.465088 0.464844 0.465088
0.493164 0.493164 0.493164
0.521973 0.521973 0.521484
0.550781 0.550781 0.550781
0.581055 0.581055 0.581055
0.610352 0.610352 0.610352
0.639160 0.639160 0.639160
0.666992 0.666992 0.666992
0.694824 0.694824 0.694824
0.722168 0.722168 0.722168
0.749023 0.749023 0.749023
0.776367 0.776367 0.776367
0.802734 0.802734 0.802734
0.829590 0.829590 0.829590
0.130737 0.130737 0.130737
0.130859 0.130859 0.130859
0.131104 0.131104 0.131104
0.131470 0.131470 0.131470
0.132080 0.132080 0.132080
0.132812 0.132812 0.132812
0.133911 0.133911 0.133911
0.135742 0.135742 0.135742
0.138550 0.138550 0.138550
0.143433 0.143433 0.143433
0.152344 0.152344 0.152344
0.170288 0.170288 0.170288
0.205933 0.205933 0.205933
0.262207 0.262207 0.262207
0.304688 0.304688 0.304688
0.345215 0.344971 0.344971
0.383789 0.383789 0.383789
0.412109 0.412109 0.412109
0.438965 0.438965 0.438721
0.466064 0.466064 0.466064
0.493652 0.493652 0.493652
0.522461 0.522461 0.522461
0.551270 0.551270 0.551270
0.581055 0.581055 0.581055
0.610840 0.610840 0.610352
0.639160 0.639160 0.639160
0.667480 0.667480 0.667480
0.695312 0.695312 0.695312
0.722168 0.722168 0.722168
0.749023 0.749023 0.749023
0.776367 0.776367 0.776367
0.802734 0.802734 0.802734
0.829590 0.829590 0.829590
0.134155 0.134155 0.134155
0.134399 0.134399 0.134399
0.134766 0.134766 0.134644
0.135254 0.135132 0.135132
0.135864 0.135864 0.135864
0.136963 0.136963 0.136963
0.138550 0.138550 0.138428
0.140869 0.140869 0.140869
0.144775 0.144775 0.144653
0.151245 0.151245 0.151245
0.163208 0.163208 0.163208
0.185913 0.185791 0.185913
0.225464 0.225464 0.225464
0.277588 0.277588 0.277588
0.312744 0.312500 0.312500
0.351318 0.351318 0.351318
0.387451 0.387451 0.387451
0.414062 0.414062 0.414062
0.440674 0.440674 0.440674
0.467041 0.467041 0.467041
0.494629 0.494629 0.494629
0.522949 0.522949 0.522949
0.551758 0.551758 0.551758
0.581543 0.581543 0.581543
0.610840 0.610840 0.610352
0.639648 0.639648 0.639160
0.667480 0.667480 0.667480
0.695312 0.695312 0.695312
0.722168 0.722168 0.721680
0.749023 0.749023 0.749023
0.776367 0.776367 0.776367
0.802734 0.802734 0.802734
0.829590 0.829590 0.829590
0.140747 0.140747 0.140747
0.141113 0.141113 0.141113
0.141724 0.141724 0.141724
0.142456 0.142456 0.142456
0.143555 0.143555 0.143433
0.145142 0.145142 0.145020
0.147461 0.147461 0.147461
0.151123 0.151123 0.151123
0.156982 0.156982 0.156860
0.166504 0.166504 0.166504
0.183228 0.183105 0.183228
0.210693 0.210693 0.210693
0.252686 0.252686 0.252441
0.290771 0.290771 0.290771
0.323242 0.323242 0.323242
0.359131 0.359131 0.359131
0.391846 0.391846 0.391846
0.416992 0.416992 0.416992
0.442627 0.442627 0.442627
0.468750 0.468750 0.468750
0.495850 0.495850 0.495850
0.523926 0.523926 0.523926
0.552246 0.552246 0.552246
0.582031 0.582031 0.582031
0.610840 0.610840 0.610840
0.639648 0.639648 0.639648
0.667480 0.667480 0.667480
0.695312 0.695312 0.695312
0.722168 0.722168 0.722168
0.749023 0.749023 0.749023
0.776367 0.776367 0.776367
0.802734 0.802734 0.802734
0.829590 0.829590 0.829590
0.156128 0.156128 0.156128
0.156616 0.156616 0.156616
0.157715 0.157715 0.157715
0.158936 0.158936 0.158936
0.160767 0.160767 0.160767
0.163574 0.163574 0.163574
0.167603 0.167603 0.167603
0.173584 0.173584 0.173584
0.182617 0.182617 0.182495
0.196777 0.196777 0.196777
0.217529 0.217529 0.217529
0.248413 0.248535 0.248535
0.281738 0.281738 0.281738
0.306885 0.306885 0.306885
0.336914 0.336914 0.336914
0.369385 0.369385 0.369385
0.396973 0.396729 0.396729
0.420898 0.420898 0.420898
0.445312 0.445312 0.445312
0.470947 0.470947 0.470947
0.497559 0.497559 0.497559
0.524902 0.524902 0.524902
0.553711 0.553711 0.553711
0.582031 0.582031 0.582031
0.611328 0.611328 0.611816
0.640137 0.640137 0.640137
0.667969 0.667969 0.667969
0.695801 0.695801 0.695801
0.722168 0.722168 0.722168
0.749512 0.749512 0.749512
0.776367 0.776367 0.776855
0.802734 0.802734 0.802734
0.829590 0.829590 0.829590
0.193604 0.193604 0.193604
0.194702 0.194702 0.194702
0.196289 0.196289 0.196289
0.198364 0.198364 0.198364
0.201416 0.201416 0.201538
0.205811 0.205811 0.205811
0.211548 0.211548 0.211548
0.219849 0.219849 0.219849
0.231567 0.231445 0.231445
0.247192 0.247192 0.247192
0.267334 0.267334 0.267334
0.286621 0.286621 0.286621
0.304443 0.304443 0.304443
0.326660 0.326660 0.326660
0.353516 0.353516 0.353516
0.381104 0.381104 0.381104
0.403564 0.403564 0.403564
0.425781 0.425781 0.425781
0.449219 0.449219 0.449219
0.473877 0.473877 0.473877
0.499756 0.499756 0.499756
0.526855 0.526855 0.526855
0.554688 0.554688 0.554688
0.583008 0.583008 0.583008
0.612305 0.612305 0.612305
0.640625 0.640625 0.640625
0.668457 0.668457 0.668457
0.695801 0.695801 0.695801
0.722168 0.722168 0.722168
0.749512 0.749512 0.749512
0.776367 0.776367 0.776855
0.802734 0.802734 0.802734
0.829590 0.829590 0.829590
0.262207 0.262207 0.262207
0.263428 0.263428 0.263428
0.264648 0.264648 0.264648
0.266602 0.266602 0.266602
0.269287 0.269287 0.269043
0.272949 0.272949 0.272949
0.277100 0.277100 0.277100
0.282471 0.282471 0.282471
0.287598 0.287598 0.287598
0.294434 0.294434 0.294434
0.303955 0.303955 0.303955
0.315918 0.315918 0.316162
0.331543 0.331543 0.331543
0.351074 0.350830 0.350830
0.372803 0.372803 0.372803
0.393066 0.393066 0.393066
0.411865 0.411865 0.411865
0.432373 0.432373 0.432373
0.454102 0.454102 0.454102
0.477783 0.477783 0.477539
0.502441 0.502441 0.502441
0.528809 0.528809 0.528809
0.556152 0.556152 0.556152
0.584961 0.584961 0.584961
0.613281 0.613281 0.613281
0.641113 0.641113 0.641113
0.668457 0.668457 0.668457
0.696289 0.696289 0.696289
0.722656 0.722656 0.722656
0.749512 0.749512 0.749512
0.776367 0.776367 0.776855
0.803223 0.803223 0.803223
0.830078 0.830078 0.829590
0.312256 0.312256 0.312256
0.312988 0.312988 0.312988
0.313477 0.313477 0.313477
0.314453 0.314453 0.314453
0.315674 0.315674 0.315674
0.317139 0.317139 0.317383
0.319580 0.319580 0.319580
0.322998 0.322998 0.322998
0.327393 0.327393 0.327393
0.333008 0.333008 0.333008
0.340576 0.340576 0.340576
0.350586 0.350586 0.350342
0.362793 0.362793 0.362793
0.376953 0.376953 0.376953
0.391357 0.391357 0.391357
0.405518 0.405518 0.405518
0.422119 0.422119 0.422119
0.440430 0.440430 0.440430
0.460449 0.460449 0.460449
0.482666 0.482666 0.482666
0.506348 0.506348 0.506348
0.531738 0.531738 0.531738
0.558105 0.558105 0.558105
0.585938 0.585938 0.586426
0.614258 0.614258 0.614746
0.642090 0.642090 0.642090
0.668945 0.668945 0.668945
0.696777 0.696289 0.696777
0.723145 0.723145 0.723145
0.750000 0.750000 0.750000
0.776367 0.776367 0.776855
0.803223 0.803223 0.803223
0.830078 0.830078 0.830078
0.358643 0.358887 0.358887
0.358643 0.358887 0.358887
0.359619 0.359619 0.359619
0.360352 0.360352 0.360352
0.361084 0.361084 0.361084
0.362305 0.362305 0.362305
0.363770 0.363770 0.363770
0.366211 0.366211 0.366211
0.368896 0.368896 0.368896
0.373047 0.373047 0.373291
0.378174 0.378174 0.378174
0.384277 0.384277 0.384277
0.391113 0.391113 0.391113
0.398926 0.398926 0.398926
0.408936 0.408691 0.408936
0.420654 0.420654 0.420654
0.434570 0.434570 0.434570
0.450439 0.450439 0.450439
0.468750 0.468750 0.468750
0.489014 0.489014 0.489014
0.511719 0.511719 0.511719
0.535645 0.535645 0.535645
0.562012 0.562012 0.562012
0.588379 0.588379 0.588379
0.615723 0.615723 0.615723
0.643555 0.643555 0.643555
0.669922 0.669922 0.669922
0.697266 0.697266 0.697266
0.723633 0.723633 0.723633
0.750488 0.750488 0.750488
0.776367 0.776367 0.776855
0.803223 0.803223 0.803223
0.830078 0.830078 0.830078
0.396240 0.396240 0.396240
0.396484 0.396484 0.396484
0.396484 0.396484 0.396484
0.396973 0.396729 0.396729
0.397217 0.397217 0.397217
0.397949 0.397949 0.397949
0.398682 0.398682 0.398438
0.399658 0.399902 0.399902
0.401611 0.401611 0.401367
0.403320 0.403320 0.403320
0.406006 0.406006 0.406006
0.409668 0.409668 0.409424
0.414307 0.414307 0.414307
0.420166 0.420166 0.420166
0.427979 0.427979 0.427979
0.437256 0.437256 0.437256
0.448975 0.448975 0.448975
0.462646 0.462646 0.462646
0.478760 0.478760 0.478760
0.497070 0.497070 0.497070
0.518066 0.518066 0.518066
0.541016 0.541016 0.541016
0.565430 0.565430 0.565430
0.591797 0.591797 0.591797
0.618164 0.618164 0.618164
0.644531 0.644531 0.644531
0.671387 0.671387 0.671387
0.697754 0.697754 0.697754
0.724121 0.724121 0.724121
0.750977 0.750977 0.750977
0.776855 0.776855 0.776855
0.803711 0.803711 0.803711
0.830078 0.830078 0.830078
0.425049 0.425049 0.425049
0.425293 0.425293 0.425293
0.425293 0.425293 0.425293
0.425537 0.425537 0.425537
0.425781 0.425781 0.425781
0.426270 0.426270 0.426514
0.427002 0.427002 0.427002
0.427734 0.427734 0.427734
0.428711 0.428711 0.428711
0.430176 0.430176 0.430176
0.432129 0.432129 0.432129
0.434814 0.434814 0.434814
0.438477 0.438477 0.438232
0.442871 0.442871 0.442871
0.448730 0.448730 0.448486
0.456055 0.456055 0.456055
0.465576 0.465576 0.465576
0.477295 0.477295 0.477295
0.491455 0.491455 0.491455
0.507812 0.507812 0.507812
0.526367 0.525879 0.526367
0.547852 0.547852 0.547852
0.570312 0.570312 0.570312
0.595215 0.595215 0.595215
0.621094 0.621094 0.621094
0.646973 0.646973 0.646973
0.672363 0.672363 0.672363
0.699219 0.699219 0.699219
0.725098 0.725098 0.725098
0.750977 0.750977 0.751465
0.777344 0.777344 0.777344
0.804199 0.804199 0.804199
0.830566 0.830566 0.830566
0.453369 0.453369 0.453369
0.453369 0.453369 0.453369
0.453613 0.453613 0.453613
0.453857 0.453857 0.453857
0.453857 0.453857 0.453613
0.454102 0.454102 0.454102
0.454590 0.454590 0.454590
0.455078 0.455078 0.455078
0.455811 0.455811 0.455811
0.457275 0.457275 0.457275
0.458496 0.458496 0.458496
0.460449 0.460449 0.460449
0.462891 0.462891 0.462891
0.466553 0.466553 0.466553
0.471191 0.470947 0.470947
0.477051 0.477051 0.477051
0.484619 0.484619 0.484619
0.494141 0.494141 0.494141
0.506348 0.506348 0.506348
0.520508 0.520508 0.520508
0.537109 0.537109 0.537109
0.556152 0.556152 0.556152
0.577637 0.577637 0.577637
0.600586 0.600586 0.600586
0.625000 0.625000 0.625000
0.649902 0.649902 0.649414
0.674805 0.674805 0.674805
0.700684 0.700684 0.700684
0.726074 0.726074 0.726074
0.751953 0.751953 0.751953
0.777832 0.777832 0.778320
0.804688 0.804688 0.804688
0.831055 0.831055 0.831055
0.481934 0.481934 0.481689
0.481934 0.481934 0.481689
0.481934 0.481934 0.481689
0.481934 0.481934 0.481689
0.482178 0.482178 0.482178
0.482422 0.482422 0.482422
0.482666 0.482666 0.482666
0.482910 0.482910 0.482910
0.483643 0.483643 0.483643
0.484131 0.484131 0.484131
0.485596 0.485596 0.485596
0.486816 0.486816 0.486816
0.489014 0.489014 0.489014
0.491455 0.491455 0.491455
0.495361 0.495361 0.495361
0.499756 0.499756 0.499756
0.505859 0.505859 0.505859
0.513672 0.513672 0.513672
0.523438 0.523438 0.523438
0.535645 0.535645 0.535645
0.550293 0.550293 0.550293
0.566895 0.566895 0.566895
0.585938 0.585938 0.586426
0.607422 0.607422 0.607422
0.629883 0.629883 0.629883
0.653320 0.653320 0.653320
0.677734 0.677734 0.677734
0.702637 0.702637 0.702637
0.727539 0.727539 0.727539
0.753418 0.753418 0.753418
0.778809 0.778809 0.778809
0.805176 0.805176 0.805176
0.831055 0.831543 0.831055
0.510254 0.510254 0.510254
0.510254 0.510254 0.510254
0.510254 0.510254 0.510254
0.510742 0.510742 0.510742
0.510742 0.510742 0.510742
0.511230 0.511230 0.510742
0.511230 0.511230 0.510742
0.511719 0.511719 0.511719
0.512207 0.512207 0.512207
0.512695 0.512695 0.512695
0.513672 0.513672 0.513672
0.514160 0.514160 0.514160
0.516113 0.516113 0.516113
0.518066 0.518066 0.518066
0.520996 0.520996 0.520996
0.524414 0.524414 0.524414
0.529297 0.529297 0.529297
0.535156 0.535156 0.535156
0.542969 0.542969 0.542969
0.552734 0.552734 0.552734
0.565430 0.565430 0.565430
0.580078 0.580078 0.580078
0.597168 0.597168 0.597168
0.615723 0.615723 0.615723
0.636719 0.636719 0.636719
0.658203 0.658203 0.658203
0.681152 0.681152 0.681152
0.705078 0.705078 0.705078
0.729980 0.729980 0.729980
0.754883 0.754883 0.754883
0.780273 0.780273 0.780273
0.805176 0.805176 0.806152
0.831055 0.831543 0.831055
0.539551 0.539551 0.539551
0.539551 0.539551 0.539551
0.539551 0.539551 0.539551
0.540527 0.540527 0.540527
0.540527 0.540527 0.540527
0.540527 0.540527 0.540527
0.541016 0.541016 0.540527
0.541016 0.541016 0.541016
0.541504 0.541504 0.541504
0.541504 0.541504 0.541504
0.541992 0.541992 0.541992
0.542969 0.542969 0.542969
0.543945 0.543945 0.543945
0.545410 0.545410 0.545410
0.547852 0.547852 0.547852
0.550293 0.550293 0.550293
0.554199 0.554199 0.554199
0.558594 0.558594 0.558594
0.564941 0.564941 0.564941
0.573242 0.573242 0.573242
0.582520 0.582520 0.582520
0.594727 0.594727 0.594727
0.609863 0.609863 0.609863
0.626465 0.626465 0.626465
0.644531 0.644531 0.644531
0.664551 0.664551 0.664551
0.686035 0.686035 0.686035
0.708984 0.708984 0.708984
0.732422 0.732422 0.732422
0.756836 0.756836 0.756836
0.781250 0.781250 0.781250
0.806641 0.806641 0.806641
0.832031 0.832031 0.832031
0.569824 0.569824 0.569824
0.569824 0.569824 0.569824
0.569824 0.569824 0.569824
0.569824 0.569824 0.569824
0.569824 0.569824 0.569824
0.569824 0.569824 0.569824
0.569824 0.569824 0.569824
0.569824 0.569824 0.569824
0.570312 0.570312 0.570312
0.570801 0.570801 0.570312
0.570801 0.570801 0.570801
0.572266 0.572266 0.571777
0.572754 0.572754 0.572754
0.573730 0.573730 0.573730
0.575195 0.575195 0.575195
0.577148 0.577148 0.577148
0.580078 0.580078 0.580078
0.583496 0.583496 0.583496
0.588379 0.588379 0.588379
0.594727 0.594727 0.594727
0.602539 0.602539 0.602539
0.612793 0.612793 0.612793
0.624512 0.624512 0.624512
0.638672 0.638672 0.639160
0.654785 0.654785 0.654785
0.672363 0.672363 0.672363
0.692871 0.692871 0.692871
0.713379 0.713867 0.713867
0.735840 0.735840 0.735840
0.759277 0.759277 0.759277
0.783691 0.783691 0.783691
0.808105 0.808105 0.808105
0.833496 0.833496 0.833496
0.599609 0.599609 0.599609
0.599609 0.599609 0.599609
0.599609 0.599609 0.599609
0.599609 0.599609 0.599609
0.599609 0.599609 0.599609
0.599609 0.599609 0.599609
0.600098 0.600098 0.600098
0.600098 0.600098 0.600098
0.600098 0.600098 0.600098
0.600586 0.600586 0.600586
0.600586 0.600586 0.600586
0.601074 0.601074 0.601074
0.602051 0.602051 0.602051
0.603027 0.602051 0.602051
0.604004 0.604004 0.604004
0.605469 0.605469 0.605469
0.606934 0.606934 0.606934
0.609863 0.609863 0.609863
0.613770 0.613770 0.613770
0.618164 0.618164 0.618164
0.624512 0.624512 0.624512
0.631836 0.631836 0.631836
0.641602 0.641602 0.641602
0.652832 0.652832 0.652832
0.666992 0.666992 0.666504
0.682617 0.682617 0.682617
0.700684 0.700684 0.700684
0.720215 0.720215 0.719727
0.740723 0.740723 0.740723
0.763184 0.763184 0.763184
0.786621 0.786621 0.786133
0.810547 0.810547 0.810059
0.834961 0.834961 0.834961
0.628906 0.628906 0.628906
0.628906 0.628906 0.628906
0.628906 0.628906 0.628906
0.628906 0.628906 0.628906
0.628906 0.628906 0.628906
0.628906 0.628906 0.628906
0.628906 0.628906 0.628906
0.629395 0.629395 0.629395
0.629395 0.629395 0.629395
0.629395 0.629395 0.629395
0.629883 0.629883 0.629883
0.629883 0.629883 0.629883
0.630371 0.630371 0.630371
0.630859 0.630859 0.630859
0.631348 0.631348 0.631348
0.632812 0.632812 0.632812
0.634766 0.634766 0.634766
0.636230 0.636230 0.636230
0.638672 0.638672 0.639160
0.642578 0.642578 0.642578
0.646973 0.646973 0.646973
0.652832 0.652832 0.652832
0.660156 0.660156 0.660156
0.669434 0.669434 0.669434
0.680664 0.680664 0.680664
0.694336 0.694336 0.694336
0.709961 0.709961 0.709961
0.727539 0.727539 0.727539
0.747070 0.747070 0.747070
0.767578 0.767578 0.767578
0.789551 0.789551 0.789551
0.812988 0.812988 0.812988
0.836914 0.836914 0.836914
0.657227 0.657227 0.657227
0.657227 0.657227 0.657227
0.657227 0.657227 0.657227
0.657227 0.657227 0.657227
0.657227 0.657227 0.657227
0.657227 0.657227 0.657227
0.657227 0.657227 0.657227
0.657227 0.657227 0.657227
0.657715 0.657715 0.657715
0.657715 0.657715 0.657715
0.657715 0.657715 0.657715
0.658203 0.658203 0.658203
0.658203 0.658203 0.658203
0.658691 0.658691 0.658691
0.659180 0.659668 0.659668
0.660156 0.660156 0.660156
0.661133 0.661133 0.661133
0.662598 0.662598 0.662598
0.664062 0.664062 0.664062
0.666992 0.666992 0.666992
0.670410 0.670410 0.670410
0.674805 0.674805 0.674805
0.680664 0.680664 0.680664
0.688477 0.688477 0.688477
0.697266 0.697266 0.697266
0.708496 0.708496 0.708496
0.722168 0.722168 0.722168
0.737305 0.737305 0.737305
0.754883 0.754883 0.754883
0.773926 0.773926 0.773926
0.794434 0.794434 0.794434
0.816406 0.816406 0.816406
0.839355 0.839355 0.838867
0.685059 0.685059 0.685059
0.685059 0.685059 0.685059
0.685059 0.685059 0.685059
0.685059 0.685059 0.685059
0.685059 0.685059 0.685059
0.685059 0.685059 0.685059
0.685059 0.685059 0.685059
0.685059 0.685059 0.685059
0.685059 0.685059 0.685059
0.685547 0.685547 0.685547
0.685547 0.685547 0.685547
0.685547 0.685547 0.685547
0.686035 0.686035 0.686035
0.686035 0.686035 0.686035
0.686523 0.686523 0.686523
0.687012 0.687012 0.687012
0.687988 0.687988 0.687988
0.688965 0.688965 0.688965
0.690430 0.690430 0.690430
0.692383 0.692383 0.692383
0.694824 0.694824 0.694824
0.698242 0.698242 0.698242
0.702637 0.702637 0.702637
0.708496 0.708496 0.708496
0.715820 0.715820 0.715820
0.724609 0.724609 0.724609
0.735352 0.735352 0.735352
0.749023 0.749023 0.748535
0.764160 0.764160 0.764160
0.781250 0.781250 0.781250
0.800781 0.800781 0.800781
0.821289 0.821289 0.821289
0.843262 0.843262 0.843262
0.712891 0.712891 0.712891
0.712891 0.712891 0.712891
0.712891 0.712891 0.712891
0.712891 0.712891 0.712891
0.712891 0.712891 0.712891
0.712891 0.712891 0.712891
0.712891 0.712891 0.712891
0.712891 0.712891 0.712891
0.712891 0.712891 0.712891
0.712891 0.712891 0.712891
0.712891 0.712891 0.712891
0.713379 0.713379 0.713379
0.713379 0.713379 0.713379
0.713379 0.713867 0.713867
0.713379 0.713867 0.713867
0.713867 0.713867 0.714355
0.714844 0.714844 0.714355
0.715332 0.715332 0.715332
0.716797 0.716797 0.716797
0.717773 0.717773 0.717773
0.719727 0.719727 0.719727
0.722168 0.722168 0.722168
0.725586 0.725586 0.725586
0.729980 0.729980 0.729980
0.735352 0.735352 0.735352
0.743164 0.743164 0.743164
0.751465 0.751465 0.751465
0.762695 0.762695 0.762695
0.775879 0.775879 0.775879
0.791016 0.791016 0.791016
0.808105 0.808105 0.808105
0.827148 0.827148 0.827148
0.847656 0.847656 0.847656
0.739746 0.739746 0.739746
0.739746 0.739746 0.739746
0.739746 0.739746 0.739746
0.739746 0.739746 0.739746
0.739746 0.739746 0.739746
0.739746 0.739746 0.739746
0.739746 0.739746 0.739746
0.739746 0.739746 0.739746
0.739746 0.739746 0.739746
0.739746 0.739746 0.739746
0.739746 0.739746 0.739746
0.740234 0.740234 0.739746
0.740234 0.740234 0.740234
0.740234 0.740234 0.740234
0.740723 0.740723 0.740723
0.740723 0.740723 0.740723
0.741211 0.741211 0.741211
0.742188 0.742188 0.742188
