2499DRT/2499log_to_P3.cube
LUT_3D_SIZE 32
0 0 0
0.023821217939258 0.0049217562191188 0.0029471183661371
0.046310182660818 0.0095682460814714 0.0057294112630188
0.072512432932854 0.014981956221163 0.0089711081236601
0.10306128114462 0.021293696016073 0.012750554829836
0.13823691010475 0.028561424463987 0.017102420330048
0.17803354561329 0.036783888936043 0.022025993093848
0.22220820188522 0.04591092467308 0.027491202577949
0.27035027742386 0.055857602506876 0.033447243273258
0.32194304466248 0.066517367959023 0.039830215275288
0.37638264894485 0.077765256166458 0.046565391123295
0.43294543027878 0.089451804757118 0.053563229739666
0.49072894454002 0.10139060020447 0.060712110251188
0.54861032962799 0.11334948241711 0.067873083055019
0.60526537895203 0.12505520880222 0.074882343411446
0.65926957130432 0.13621300458908 0.081563636660576
0.70926690101624 0.14654317498207 0.087749227881432
0.75416195392609 0.15581893920898 0.093303561210632
0.79326564073563 0.16389819979668 0.098141402006149
0.82635319232941 0.17073464393616 0.10223494470119
0.85362362861633 0.17636896669865 0.10560877621174
0.87558937072754 0.18090726435184 0.10832634568214
0.89294308423996 0.18449291586876 0.11047331988811
0.90643727779388 0.18728098273277 0.11214278638363
0.91679787635803 0.18942159414291 0.11342460662127
0.92467373609543 0.19104884564877 0.11439897119999
0.93061494827271 0.19227613508701 0.11513399332762
0.93507009744644 0.19319686293602 0.11568519473076
0.93839627504349 0.19388410449028 0.11609670519829
0.94087094068527 0.19439540803432 0.11640286445618
0.94270783662796 0.19477492570877 0.11663012951612
0.94406849145889 0.19505606591702 0.11679847538471
0.011743192560971 0.025180069729686 0.0054601933807135
0.025279330089688 0.025279330089688 0.0047760428860784
0.046920195221901 0.02568007260561 0.0063618733547628
0.072876259684563 0.026938227936625 0.0092788822948933
0.10333016514778 0.029568195343018 0.012929949909449
0.13844060897827 0.03410604968667 0.01721722446382
0.17818343639374 0.040552187711 0.022103382274508
0.22231811285019 0.048555966466665 0.027545435354114
0.27043202519417 0.057779662311077 0.03348682820797
0.32200527191162 0.067959822714329 0.039860062301159
0.37643110752106 0.078879632055759 0.046588201075792
0.43298411369324 0.090335413813591 0.053581651300192
0.49076044559479 0.10210831463337 0.06072685495019
0.54863649606705 0.1139460504055 0.067885376513004
0.60528773069382 0.1255618929863 0.074893072247505
0.65928876399994 0.13665254414082 0.081573002040386
0.70928400754929 0.14693230390549 0.087757512927055
0.75417745113373 0.1561703234911 0.093311496078968
0.79327976703644 0.16422125697136 0.098148569464684
0.82636642456055 0.17103636264801 0.1022419705987
0.85363614559174 0.17665489017963 0.10561528801918
0.87560147047043 0.1811815649271 0.10833232104778
0.89295476675034 0.18475817143917 0.11047930270433
0.90644866228104 0.1875397413969 0.11214884370565
0.91680908203125 0.18967540562153 0.11343064159155
0.92468482255936 0.19129909574986 0.11440506577492
0.93062561750412 0.1925240457058 0.11514004319906
0.93508094549179 0.19344282150269 0.11569128185511
0.93840700387955 0.19412814080715 0.11610279977322
0.94088172912598 0.1946387141943 0.11640895903111
0.94271838665009 0.19501715898514 0.11663558334112
0.94407910108566 0.19529765844345 0.11680391430855
0.022829627618194 0.048951882869005 0.010615013539791
0.03040031902492 0.04898551851511 0.0103929201141
0.049144852906466 0.049144852906466 0.0092849545180798
0.074082016944885 0.049476660788059 0.010720041580498
0.10406109690666 0.050381261855364 0.013735395856202
0.13895669579506 0.052186477929354 0.017717918381095
0.1786086410284 0.055249284952879 0.022442013025284
0.22268584370613 0.059971772134304 0.027788614854217
0.27074331045151 0.066518686711788 0.033667631447315
0.32226267457008 0.07469617575407 0.039998255670071
0.3766422867775 0.084159456193447 0.046696569770575
0.43315789103508 0.094557136297226 0.053667921572924
0.49090501666069 0.10555489361286 0.060797698795795
0.54875862598419 0.11681878566742 0.067944288253784
0.60539239645004 0.12800651788712 0.074943408370018
0.65938037633896 0.13877634704113 0.081616505980492
0.70936554670334 0.14881473779678 0.087796233594418
0.75425136089325 0.15787121653557 0.093345873057842
0.79334789514542 0.16578595340252 0.098180338740349
0.8264302611351 0.17249864339828 0.10227170586586
0.85369670391083 0.17804074287415 0.10564358532429
0.87565952539444 0.18251013755798 0.10835976153612
0.893011033535 0.18604458868504 0.11050603538752
0.90650349855423 0.18879449367523 0.11217414587736
0.91686290502548 0.19090667366982 0.11345489323139
0.92473787069321 0.19251330196857 0.11442919820547
0.93067818880081 0.19372515380383 0.11516371369362
0.93513303995132 0.19463418424129 0.11571480333805
0.93845874071121 0.19531312584877 0.11612573266029
0.94093346595764 0.19581788778305 0.11643189191818
0.94277000427246 0.19619315862656 0.11665916442871
0.94413059949875 0.19647072255611 0.11682753264904
0.035746593028307 0.076648786664009 0.0166209731251
0.039981160312891 0.076664835214615 0.016515927389264
0.054221138358116 0.076741941273212 0.016000838950276
0.076950959861279 0.076950959861279 0.014538371935487
0.10585281997919 0.077283203601837 0.015956562012434
0.14013722538948 0.078081585466862 0.019084990024567
0.17942476272583 0.079602003097534 0.023340297862887
0.22330585122108 0.082077868282795 0.028414953500032
0.27127307653427 0.08574852347374 0.034129090607166
0.32274290919304 0.090860858559608 0.040353260934353
0.37707740068436 0.097519174218178 0.046978130936623
0.43354547023773 0.10558089613914 0.053896173834801
0.49124628305435 0.11472541093826 0.060986120253801
0.54905813932419 0.12455220520496 0.068102821707726
0.60565662384033 0.13463693857193 0.075078777968884
0.65961557626724 0.1445644646883 0.081735074520111
0.70957767963409 0.1539620757103 0.087901383638382
0.75444537401199 0.16253261268139 0.09344144910574
0.79352796077728 0.1700800806284 0.098268620669842
0.82659959793091 0.17651650309563 0.1023536324501
0.8538578748703 0.18185138702393 0.10572202503681
0.87581473588943 0.18616598844528 0.10843458026648
0.89316153526306 0.18958494067192 0.11057795584202
0.90665060281754 0.19224901497364 0.11224510520697
0.91700738668442 0.1942977309227 0.11352470517159
0.92488038539886 0.19585679471493 0.11449787765741
0.93081951141357 0.19703388214111 0.11523222178221
0.93527311086655 0.19791729748249 0.11578235030174
0.93859821557999 0.1985769867897 0.11619332432747
0.94107222557068 0.19906793534756 0.11649891734123
0.94290828704834 0.199432477355 0.11672609299421
0.94426846504211 0.199702501297 0.1168944388628
0.05080633610487 0.10894027352333 0.023623244836926
0.053304843604565 0.10894920676947 0.02356475405395
0.063323564827442 0.10899245738983 0.023279612883925
0.082443960011005 0.10911111533642 0.022480199113488
0.10936971008778 0.10936971008778 0.020663294941187
0.14251942932606 0.10971996933222 0.022107386961579
0.18110167980194 0.1104746311903 0.025336183607578
0.22451914846897 0.11184002459049 0.029795175418258
0.2721833884716 0.11398610472679 0.035125959664583
0.32347398996353 0.11705807596445 0.041103392839432
0.37771651148796 0.12119018286467 0.047565035521984
0.43413543701172 0.12649489939213 0.054371036589146
0.49179881811142 0.13297085464001 0.061380386352539
0.54957336187363 0.14043191075325 0.068437203764915
0.60613393783569 0.1485361456871 0.075367398560047
0.66005671024323 0.15686449408531 0.081988863646984
0.70998668670654 0.1650003194809 0.088128477334976
0.75482702255249 0.1725912541151 0.093647450208664
0.79388731718063 0.17938643693924 0.09845907241106
0.82694113254547 0.18525043129921 0.10253246873617
0.85418552160263 0.1901524066925 0.1058913692832
0.87613171339035 0.19414202868938 0.108597651124
0.89347034692764 0.19731758534908 0.11073629558086
0.90695333480835 0.19980020821095 0.11239936202765
0.91730558872223 0.2017140686512 0.11367677897215
0.92517518997192 0.20317295193672 0.1146481782198
0.93111175298691 0.20427589118481 0.11538033932447
0.93556356430054 0.20510452985764 0.11592925339937
0.93888705968857 0.2057238817215 0.11633960902691
0.9413600564003 0.20618477463722 0.11664471775293
0.94319552183151 0.20652709901333 0.11687137186527
0.94455498456955 0.20678128302097 0.11703910678625
0.068146958947182 0.14612244069576 0.031686048954725
0.069714307785034 0.14612790942192 0.03165016323328
0.076597310602665 0.14615453779697 0.0314756706357
0.091683804988861 0.14622788131237 0.030989274382591
0.11541795730591 0.14638927578926 0.029894217848778
0.14669845998287 0.14669845998287 0.027715845033526
0.18409425020218 0.14707170426846 0.029193408787251
0.22673025727272 0.14780271053314 0.032486137002707
0.27385425567627 0.14905886352062 0.037069246172905
0.32476383447647 0.15096662938595 0.042556185275316
0.37874257564545 0.15362054109573 0.048686191439629
0.43499332666397 0.15708169341087 0.055263251066208
0.49256062507629 0.16137692332268 0.062111917883158
0.55028164386749 0.16647902131081 0.069053627550602
0.60680770874023 0.17226000130177 0.075899511575699
0.66070234775543 0.17847253382206 0.082457475364208
0.71060597896576 0.18479092419147 0.088549211621284
0.75542187690735 0.19088438153267 0.094032198190689
0.79446017742157 0.19648185372353 0.098815642297268
0.82749527692795 0.20140796899796 0.10286790132523
0.85472428798676 0.20558699965477 0.10621114075184
0.87665778398514 0.20902536809444 0.10890551656485
0.89398688077927 0.211784273386 0.11103455722332
0.90746235847473 0.21395416557789 0.11269185692072
0.91780877113342 0.2156340777874 0.11396372318268
0.9256739616394 0.21691930294037 0.11493076384068
0.93160712718964 0.2178927063942 0.11566024273634
0.93605649471283 0.2186253964901 0.11620754003525
0.93937838077545 0.21917340159416 0.11661645770073
0.941850066185 0.21958203613758 0.1169204339385
0.94368433952332 0.21988573670387 0.11714594811201
0.9450432062149 0.22011096775532 0.11731322109699
0.087765574455261 0.18818920850754 0.04080805182457
0.088804319500923 0.18819281458855 0.04078446701169
0.093579024076462 0.18821030855179 0.040670067071915
0.10504441708326 0.18825861811638 0.040351983159781
0.12499576061964 0.18836544454098 0.03963977470994
0.15333032608032 0.18857160210609 0.038233112543821
0.18893104791641 0.18893106281757 0.035694822669029
0.23034353554249 0.1893272548914 0.037197936326265
0.27662700414658 0.19004082679749 0.040507387369871
0.32693442702293 0.19120694696903 0.045132234692574
0.38047164678574 0.19291965663433 0.050672307610512
0.43639627099037 0.19523645937443 0.056836150586605
0.49372777342796 0.19817420840263 0.063389480113983
0.55128836631775 0.20169964432716 0.070118315517902
0.60771316289902 0.20572626590729 0.076808892190456
0.66154658794403 0.21011158823967 0.083252891898155
0.7114126086235 0.21465989947319 0.089260622859001
0.756203353405 0.2191468924284 0.094680935144424
0.79522293806076 0.22336161136627 0.099417552351952
0.82824325561523 0.22714442014694 0.10343474894762
0.8554602265358 0.2304061204195 0.1067511215806
0.87738406658173 0.23312468826771 0.10942517966032
0.89470535516739 0.23532801866531 0.11154017597437
0.90817457437515 0.23707446455956 0.1131855994463
0.9185163974762 0.23843422532082 0.11444959789515
0.92637813091278 0.23947885632515 0.11541064083576
0.93230855464935 0.24027295410633 0.11613562703133
0.93675589561462 0.24087192118168 0.11667988449335
0.94007611274719 0.24132071435452 0.11708552390337
0.94254660606384 0.24165560305119 0.11738792061806
0.94438010454178 0.24190498888493 0.11761268228292
0.94573843479156 0.24208991229534 0.11777897179127
0.10954245179892 0.2348837852478 0.050933569669724
0.11026400327682 0.23488625884056 0.050917308777571
0.11365929245949 0.23489835858345 0.050838239490986
0.12227637320757 0.23493182659149 0.050618629902601
0.1384864449501 0.23500600457191 0.050128329545259
0.16327302157879 0.23514977097511 0.049164906144142
0.19611749053001 0.23540198802948 0.047435760498047
0.23580963909626 0.23580963909626 0.044551625847816
0.28085222840309 0.23622651398182 0.046065781265497
0.33027845621109 0.23692379891872 0.049344621598721
0.38316679000854 0.23800928890705 0.053931228816509
0.43860310316086 0.23955008387566 0.059418894350529
0.49556320905685 0.24157272279263 0.065485820174217
0.55284154415131 0.24405965209007 0.071858793497086
0.60905569791794 0.24694353342056 0.078287534415722
0.66273802518845 0.25010865926743 0.084537349641323
0.71249997615814 0.25340539216995 0.090400874614716
0.75722146034241 0.25667178630829 0.095714204013348
0.79619550704956 0.25975796580315 0.10037185996771
0.82918548583984 0.26254796981812 0.10432981699705
0.85638201236725 0.2649719119072 0.10760267078876
0.87829154729843 0.26700669527054 0.11024444550276
0.89560270309448 0.26866590976715 0.11233539879322
0.90906494855881 0.26998770236969 0.11396308988333
0.91940140724182 0.27102142572403 0.11521373689175
0.92725914716721 0.27181813120842 0.11616499722004
0.93318682909012 0.27242496609688 0.11688343435526
0.93763202428818 0.27288365364075 0.11742162704468
0.94095075130463 0.27322798967361 0.11782417446375
0.94341999292374 0.27348518371582 0.11812356859446
0.94525277614594 0.27367648482323 0.11834540218115
0.94661027193069 0.27381882071495 0.11850979924202
0.13327510654926 0.28577199578285 0.061968468129635
0.13379690051079 0.28577384352684 0.061956681311131
0.13628309965134 0.28578251600266 0.061899676918983
0.14280255138874 0.28580671548843 0.061741352081299
0.15575270354748 0.28586035966873 0.061388485133648
0.17684680223465 0.28596457839012 0.060696993023157
0.20637729763985 0.28614804148674 0.059461239725351
0.24349017441273 0.28644615411758 0.057408653199673
0.28689849376678 0.28689849376678 0.054203942418098
0.33508712053299 0.28733265399933 0.055713519454002
0.3870724439621 0.28801253437996 0.058917712420225
0.44182986021042 0.28902149200439 0.0633874386549
0.49826964735985 0.29040196537971 0.068711370229721
0.55514574050903 0.2921536564827 0.07453814893961
0.61104869842529 0.29423254728317 0.0805619135499
0.66449135541916 0.29655280709267 0.086510024964809
0.71407145261765 0.29899710416794 0.092147715389729
0.75865745544434 0.30143550038338 0.09729190915823
0.79753255844116 0.30374801158905 0.10182309895754
0.83045160770416 0.30584302544594 0.10568740218878
0.85759735107422 0.30766582489014 0.10889063030481
0.87947100400925 0.3091978430748 0.11148060113192
0.89675641059875 0.31044870615005 0.11353288590908
0.91020011901855 0.31144636869431 0.11513201147318
0.92052334547043 0.31222712993622 0.11636204272509
0.92837154865265 0.31282940506935 0.11729770898819
0.93429219722748 0.3132885992527 0.11800406128168
0.93873232603073 0.31363561749458 0.11853460222483
0.9420473575592 0.31389629840851 0.11893060803413
0.94451397657394 0.31409114599228 0.11922485381365
0.94634467363358 0.31423625349998 0.11944401264191
0.94770085811615 0.31434401869774 0.11960637569427
0.15870888531208 0.34030783176422 0.073794342577457
0.15909957885742 0.34030917286873 0.073785528540611
0.16097381711006 0.34031569957733 0.073742881417274
0.1659849435091 0.34033378958702 0.073624566197395
0.17630517482758 0.3403739631176 0.073361046612263
0.19395950436592 0.34045213460922 0.072845593094826
0.21994823217392 0.34059000015259 0.071926787495613
0.25398951768875 0.34081476926804 0.070406429469585
0.29499632120132 0.3411571085453 0.06803996860981
0.34164932370186 0.34164932370186 0.064548045396805
0.39242026209831 0.34209656715393 0.066037692129612
0.44627192616463 0.3427562713623 0.069123595952988
0.50202006101608 0.34368824958801 0.0733962059021
0.55836033821106 0.34491214156151 0.078437283635139
0.61384546756744 0.34640562534332 0.083874404430389
0.66696280241013 0.34810784459114 0.089383371174335
0.71629059314728 0.34992933273315 0.094691433012486
0.76068234443665 0.35176765918732 0.09958827495575
0.79940956830978 0.35352590680122 0.10393420606852
0.8322166800499 0.35512819886208 0.1076598316431
0.85927891731262 0.35652792453766 0.11075876653194
0.88109028339386 0.35770738124847 0.1132718026638
0.89832985401154 0.35867202281952 0.11526706069708
0.91173958778381 0.35944214463234 0.11682394146919
0.92203778028488 0.36004543304443 0.11802230030298
0.92986768484116 0.36051088571548 0.11893476545811
0.93577480316162 0.36086603999138 0.11962446570396
0.94020503759384 0.36113449931145 0.12014144659042
0.94351261854172 0.36133614182472 0.12052846699953
0.94597381353378 0.36148691177368 0.1208161637187
0.94780057668686 0.36159914731979 0.1210300475359
0.94915384054184 0.36168259382248 0.1211880594492
0.18554617464542 0.39785292744637 0.086272746324539
0.18584753572941 0.39785394072533 0.086265988647938
0.18729943037033 0.39785894751549 0.086233124136925
0.19122742116451 0.39787295460701 0.086141884326935
0.19951002299786 0.39790385961533 0.085938863456249
0.2141942679882 0.39796426892281 0.085542045533657
0.23673789203167 0.39807096123695 0.084836170077324
0.26745635271072 0.39824509620667 0.083670973777771
0.30564227700233 0.3985111117363 0.081862926483154
0.35007554292679 0.39889496564865 0.079201355576515
0.39942121505737 0.39942121505737 0.075462944805622
0.45210072398186 0.39987659454346 0.076915740966797
0.50695979595184 0.40051075816154 0.079837270081043
0.56261420249939 0.40136140584946 0.08382710069418
0.61756509542465 0.40242809057236 0.088464125990868
0.67026495933533 0.40367269515991 0.093368597328663
0.71926748752594 0.40502932667732 0.098221316933632
0.76340728998184 0.4064177274704 0.10277611762285
0.80194067955017 0.40775948762894 0.10686437040567
0.8345999121666 0.40899187326431 0.11039716005325
0.86154991388321 0.41007477045059 0.11335238814354
0.8832768201828 0.41099113225937 0.11575781553984
0.90045309066772 0.41174313426018 0.11767337471247
0.91381549835205 0.41234475374222 0.11917043477297
0.92407858371735 0.41281694173813 0.12032471597195
0.93188238143921 0.41318172216415 0.12120507657528
0.93777018785477 0.41346007585526 0.12186994403601
0.94218617677689 0.41367083787918 0.12237007915974
0.94548326730728 0.4138291478157 0.12274317443371
0.94793659448624 0.41394767165184 0.12302143871784
0.94975769519806 0.41403579711914 0.1232281178236
0.95110660791397 0.41410136222839 0.12338069081306
0.21343000233173 0.45764219760895 0.09923779964447
0.21366876363754 0.45764300227165 0.099232509732246
0.21482217311859 0.45764699578285 0.099206328392029
0.21796549856663 0.45765808224678 0.099134132266045
0.22469665110111 0.45768260955811 0.098973378539085
0.23693615198135 0.45773050189018 0.098659493029118
0.25635668635368 0.45781508088112 0.098101548850536
0.28375774621964 0.45795354247093 0.0971819460392
0.31888598203659 0.45816537737846 0.095758579671383
0.36075568199158 0.45847165584564 0.093668416142464
0.40806958079338 0.45889294147491 0.09073793888092
0.45944622159004 0.45944619178772 0.086803503334522
0.51319509744644 0.45990312099457 0.088198892772198
0.56799751520157 0.46050420403481 0.090905360877514
0.62228763103485 0.461266964674 0.094526097178459
0.67447245121002 0.46217501163483 0.09864704310894
0.72307348251343 0.46318364143372 0.10290334373713
0.76690149307251 0.46423184871674 0.10700637847185
0.80519449710846 0.46525710821152 0.11075505614281
0.83766961097717 0.46620732545853 0.11403273046017
0.86447966098785 0.46704787015915 0.11679666489363
0.88610082864761 0.46776282787323 0.11905956268311
0.90319764614105 0.46835160255432 0.12086885422468
0.91650068759918 0.4688241481781 0.12228735536337
0.92671942710876 0.46919560432434 0.12338312715292
0.93449020385742 0.46948310732841 0.1242203861475
0.94035357236862 0.46970281004906 0.12485322356224
0.94475126266479 0.46986916661263 0.12532958388329
0.94803500175476 0.46999430656433 0.12568546831608
0.95047855377197 0.47008794546127 0.12595073878765
0.95229232311249 0.47015768289566 0.12614759802818
0.95363575220108 0.47020941972733 0.12629397213459
0.24191564321518 0.51872193813324 0.11248269677162
0.24210956692696 0.51872259378433 0.11247839778662
0.24304750561714 0.51872581243515 0.11245725303888
0.24561578035355 0.51873481273651 0.11239859461784
0.25117200613022 0.51875472068787 0.11226811259985
0.26145541667938 0.5187936425209 0.11201336234808
0.27818441390991 0.51886236667633 0.11156114935875
0.30248069763184 0.51897501945496 0.11081644892693
0.334518045187 0.51914763450623 0.10966570675373
0.37362626194954 0.51939755678177 0.10797925293446
0.418641269207 0.51974195241928 0.10561993718147
0.46818405389786 0.52019536495209 0.10245598852634
0.5207667350769 0.5207667350769 0.098388820886612
0.57454216480255 0.52121686935425 0.099703341722488
0.62803882360458 0.52177578210831 0.10214254260063
0.67960739135742 0.52244412899017 0.10531733185053
0.7277295589447 0.52319622039795 0.10883782804012
0.7711860537529 0.52398890256882 0.11237743496895
0.80919247865677 0.52477359771729 0.1156989634037
0.84144794940948 0.52550786733627 0.11865495145321
0.86809080839157 0.52616226673126 0.12117749452591
0.88958561420441 0.5267219543457 0.1232600659132
0.90658712387085 0.52718484401703 0.12493507564068
0.91981899738312 0.52755755186081 0.12625390291214
0.92998456954956 0.52785116434097 0.12727531790733
0.93771588802338 0.52807885408401 0.1280574798584
0.94354993104935 0.52825301885605 0.12865060567856
0.94792604446411 0.52838504314423 0.12909606099129
0.95119369029999 0.52848446369171 0.12942999601364
0.9536252617836 0.52855879068375 0.12967859208584
0.95543003082275 0.52861416339874 0.1298635751009
0.95676720142365 0.52865529060364 0.13000097870827
0.27044957876205 0.57990509271622 0.12575000524521
0.27061060070992 0.57990550994873 0.12574641406536
0.27139055728912 0.57990825176239 0.12572878599167
0.27353286743164 0.57991570234299 0.1256799697876
0.27819955348969 0.57993233203888 0.12557181715965
0.28694379329681 0.57996451854706 0.12536036968231
0.301433801651 0.58002173900604 0.12498500198126
0.32296833395958 0.58011549711227 0.12436736375093
0.35206255316734 0.58025914430618 0.1234140843153
0.38837730884552 0.58046746253967 0.12201924622059
0.43094989657402 0.58075499534607 0.12007126957178
0.47846859693527 0.58113408088684 0.11746326088905
0.52942955493927 0.58161282539368 0.11411353945732
0.58219093084335 0.58219087123871 0.10999374091625
0.63476574420929 0.58262491226196 0.11120222508907
0.68562030792236 0.58313238620758 0.11332878470421
0.73318892717361 0.58370262384415 0.11600574851036
0.77621757984161 0.58430802822113 0.11888617277145
0.8138941526413 0.58491271734238 0.12170097976923
0.84589731693268 0.58548337221146 0.12427240610123
0.87234801054001 0.58599549531937 0.12650568783283
0.89369750022888 0.58643615245819 0.12837153673172
0.9105898141861 0.58680200576782 0.12988390028477
0.92373961210251 0.58709752559662 0.13108214735985
0.93384408950806 0.58733093738556 0.13201436400414
0.94152998924255 0.58751231431961 0.13273006677628
0.94733035564423 0.58765125274658 0.13327321410179
0.95168125629425 0.58775663375854 0.13368304073811
0.95493054389954 0.58783602714539 0.13399021327496
0.95734834671021 0.58789545297623 0.13421909511089
0.95914304256439 0.58793985843658 0.1343896985054
0.96047276258469 0.5879727602005 0.13451537489891
0.29837894439697 0.63979184627533 0.13873618841171
0.29851564764977 0.63979238271713 0.13873314857483
0.29917839169502 0.63979464769363 0.13871812820435
0.30100265145302 0.63980090618134 0.13867703080177
0.30499508976936 0.63981509208679 0.13858500123024
0.31254085898399 0.63984251022339 0.13840539753437
0.3252144753933 0.63989102840424 0.13808691501617
0.3443877696991 0.6399707198143 0.13756307959557
0.37081676721573 0.64009290933609 0.13675510883331
0.40445980429649 0.6402702331543 0.13557426631451
0.44458454847336 0.64051520824432 0.1339273005724
0.4899970293045 0.64083874225616 0.13172540068626
0.53922009468079 0.64124768972397 0.12890094518661
0.59058719873428 0.64174246788025 0.12542930245399
0.64231395721436 0.64231395721436 0.12135284394026
0.69237101078033 0.64272171258926 0.1224319934845
0.73932260274887 0.64317035675049 0.12421923875809
0.78187495470047 0.64364403486252 0.12638281285763
0.81918573379517 0.64411807060242 0.12863671779633
0.85090881586075 0.64456760883331 0.13077664375305
