2499DRT/2499log_to_Base.cube
LUT_3D_SIZE 32
0 0 0
0.017263770103455 0.00093261431902647 0.00093261431902647
0.03613144531846 0.001951873768121 0.001951873768121
0.059461936354637 0.0032122214324772 0.0032122214324772
0.087876856327057 0.0047472370788455 0.0047472370788455
0.12177638709545 0.0065785394981503 0.0065785394981503
0.16130247712135 0.0087137967348099 0.0087137967348099
0.20634171366692 0.011146882548928 0.011146882548928
0.25657230615616 0.013860415667295 0.013860415667295
0.31151860952377 0.016828693449497 0.016828693449497
0.37056809663773 0.020018633455038 0.020018633455038
0.43293485045433 0.023387774825096 0.023387774825096
0.49759024381638 0.026880556717515 0.026880556717515
0.56320989131927 0.030425425618887 0.030425425618887
0.62818968296051 0.033935725688934 0.033935725688934
0.69076240062714 0.037315998226404 0.037315998226404
0.74920380115509 0.040473092347383 0.040473092347383
0.80207371711731 0.043329201638699 0.043329201638699
0.84841012954712 0.045832365751266 0.045832365751266
0.88781750202179 0.047961205244064 0.047961205244064
0.92042911052704 0.049722924828529 0.049722924828529
0.94678175449371 0.051146537065506 0.051146537065506
0.96765351295471 0.05227405577898 0.05227405577898
0.98391461372375 0.05315250903368 0.05315250903368
0.99641799926758 0.053827956318855 0.053827956318855
1.0059334039688 0.054341994225979 0.054341994225979
1.0131170749664 0.054730083793402 0.054730083793402
1.0185078382492 0.055021282285452 0.055021282285452
1.0225340127945 0.055238775908947 0.055238775908947
1.0255306959152 0.055400677025318 0.055400677025318
1.0277554988861 0.055520862340927 0.055520862340927
1.029403924942 0.055609904229641 0.055609904229641
0.0002000543900067 0.016999421641231 0.0002000543900067
0.016823152080178 0.016823152080178 7.1299051342066e-05
0.035976238548756 0.015912938863039 0.0012810026528314
0.059384625405073 0.01307825371623 0.0028315780218691
0.087832078337669 0.0097059449180961 0.0045187422074378
0.12174798548222 0.0092664416879416 0.006431873422116
0.16128332912922 0.010393650270998 0.0086143435910344
0.20632809400558 0.012293798848987 0.011076098307967
0.25656229257584 0.014689891599119 0.01380811817944
0.31151098012924 0.017454328015447 0.016788579523563
0.3705620765686 0.020506231114268 0.019986614584923
0.43293008208275 0.023777974769473 0.023362141102552
0.49758633971214 0.027201633900404 0.026859048753977
0.56320655345917 0.030694847926497 0.030407018959522
0.62818688154221 0.034166179597378 0.03392031416297
0.69075983762741 0.037517335265875 0.037301324307919
0.74920159578323 0.040651973336935 0.040460459887981
0.80207175016403 0.043492075055838 0.043317276984453
0.84840834140778 0.045982651412487 0.045821659266949
0.88781571388245 0.048102170228958 0.047950733453035
0.92042738199234 0.049856454133987 0.049713518470526
0.94678008556366 0.051275670528412 0.051136154681444
0.96765196323395 0.052398510277271 0.052264761179686
0.98391300439835 0.053273916244507 0.053141515702009
0.99641650915146 0.053946666419506 0.053818196058273
1.005931854248 0.054459623992443 0.054333463311195
1.013115644455 0.054846163839102 0.054721534252167
1.0185062885284 0.05513833835721 0.055012490600348
1.022532582283 0.055353794246912 0.055229958146811
1.0255292654037 0.055516257882118 0.055391822010279
1.0277540683746 0.055635586380959 0.05551203340292
1.0294023752213 0.055725049227476 0.055601079016924
0.00041869474807754 0.035578183829784 0.00041869474807754
0.014349282719195 0.035515528172255 0.00035103788832203
0.035209260880947 0.035209260880947 0.00014922198897693
0.059007316827774 0.034332737326622 0.0015076213749126
0.087614201009274 0.032253209501505 0.0035448151174933
0.12161001563072 0.027797948569059 0.0057612722739577
0.16119021177292 0.022094847634435 0.0081458035856485
0.2062621563673 0.019392499700189 0.010738705284894
0.2565136551857 0.019384853541851 0.013557589612901
0.31147390604019 0.020808024331927 0.016596827656031
0.37053301930428 0.023037403821945 0.01983593031764
0.43290662765503 0.025767020881176 0.023240277543664
0.4975671172142 0.028812913224101 0.026759000495076
0.56319040060043 0.032037198543549 0.030323170125484
0.62817287445068 0.035310622304678 0.033847752958536
0.69074773788452 0.038515064865351 0.037238899618387
0.74919068813324 0.041540160775185 0.040403723716736
0.802061855793 0.044298488646746 0.043265823274851
0.84839910268784 0.046726636588573 0.045773457735777
0.88780707120895 0.048799101263285 0.0479068569839
0.92041915655136 0.050519846379757 0.049670659005642
0.94677221775055 0.051911246031523 0.051095984876156
0.96764421463013 0.053015850484371 0.052224673330784
0.98390567302704 0.053875546902418 0.053104043006897
0.9964092373848 0.054539080709219 0.053781490772963
1.0059247016907 0.055043671280146 0.054295815527439
1.0131086111069 0.05542479082942 0.054683670401573
1.0184992551804 0.055711179971695 0.054974433034658
1.0225255489349 0.05592368543148 0.055192690342665
1.0255222320557 0.056083362549543 0.055356096476316
1.0277470350266 0.056201998144388 0.055476032197475
1.0293954610825 0.056288689374924 0.055564861744642
0.00068905082298443 0.058551423251629 0.00068905082298443
0.0056560281664133 0.058520190417767 0.00065322482259944
0.032927844673395 0.058368194848299 0.00050440517952666
0.057944305241108 0.057944305241108 0.00024557637516409
0.087006568908691 0.056979529559612 0.0017728516831994
0.12122663855553 0.055023483932018 0.0042221988551319
0.1609318703413 0.051290653645992 0.006964844185859
0.206079185009 0.044793501496315 0.0098516102880239
0.2563787996769 0.03733691573143 0.012883828021586
0.31137108802795 0.032843597233295 0.016074728220701
0.37045237421989 0.031495235860348 0.019423155114055
0.43284177780151 0.032069910317659 0.022906452417374
0.49751371145248 0.033743269741535 0.026483247056603
0.56314545869827 0.036043465137482 0.03009020164609
0.62813436985016 0.038670986890793 0.03364735096693
0.69071400165558 0.041411243379116 0.037063471972942
0.74916064739227 0.044097781181335 0.040247291326523
0.8020344376564 0.046604350209236 0.043123967945576
0.84837383031845 0.048846706748009 0.045641958713531
0.88778334856033 0.050781033933163 0.047782380133867
0.92039656639099 0.052399184554815 0.049553174525499
0.9467505812645 0.053714830428362 0.050982799381018
0.96762323379517 0.054762430489063 0.052115563303232
0.98388510942459 0.055580709129572 0.052996497601271
0.99638891220093 0.056212604045868 0.053676333278418
1.00590467453 0.056694656610489 0.054191425442696
1.0130887031555 0.057057458907366 0.054581522941589
1.0184795856476 0.057332318276167 0.054873075336218
1.0225059986115 0.057536277920008 0.055091056972742
1.0255029201508 0.057687535881996 0.055253475904465
1.0277278423309 0.05780091136694 0.055374428629875
1.0293761491776 0.057885307818651 0.055464491248131
0.0010183256817982 0.08653125166893 0.0010183256817982
0.0023720909375697 0.086513139307499 0.0009985389187932
0.026783131062984 0.08642515540123 0.00089958438184112
0.055459216237068 0.086180791258812 0.00068089261185378
0.085633985698223 0.085633985698223 0.00036292930599302
0.12036801874638 0.084547504782677 0.0020755098666996
0.16035526990891 0.08256821334362 0.0048827431164682
0.2056715041399 0.079161167144775 0.0081117954105139
0.25607854127884 0.073513567447662 0.011491651646793
0.31114232540131 0.065127156674862 0.014966649003327
0.37027296423912 0.056223589926958 0.018531521782279
0.43269741535187 0.050093226134777 0.022178603336215
0.49739494919777 0.047187156975269 0.025878164917231
0.56304562091827 0.046511806547642 0.029579287394881
0.62804865837097 0.047168046236038 0.033206731081009
0.69063895940781 0.04856101796031 0.036676462739706
0.74909365177155 0.050300691276789 0.039901241660118
0.80197358131409 0.052130155265331 0.042808886617422
0.84831750392914 0.053882051259279 0.045350205153227
0.88773047924042 0.055458091199398 0.047509238123894
0.92034637928009 0.056811615824699 0.049292203038931
0.94670218229294 0.057934056967497 0.050731670111418
0.96757638454437 0.058838225901127 0.051872473210096
0.98383927345276 0.05955296382308 0.052759505808353
0.99634397029877 0.060105610638857 0.053442098200321
1.0058603286743 0.060529693961143 0.053960110992193
1.0130447149277 0.060851484537125 0.054353293031454
1.0184359550476 0.061093959957361 0.054647006094456
1.0224626064301 0.061275787651539 0.054865013808012
1.0254596471786 0.061411019414663 0.055030338466167
1.0276846885681 0.061510428786278 0.055150702595711
1.029333114624 0.061585914343596 0.055240146815777
0.0014111566124484 0.11991166323423 0.0014111566124484
0.0020688646472991 0.11990018934011 0.0013993572210893
0.012661219574511 0.11984443664551 0.0013357608113438
0.050075113773346 0.11968979984522 0.0011734209256247
0.082848682999611 0.11934494227171 0.00088201445760205
0.11866828799248 0.11866828799248 0.00050293351523578
0.1592221558094 0.11745020002127 0.0024019535630941
0.20487295091152 0.11540885269642 0.0055116345174611
0.25549131631851 0.11216107755899 0.0091643538326025
0.31069532036781 0.10717727988958 0.013000944629312
0.36992260813713 0.099796526134014 0.016897765919566
0.43241569399834 0.090042963624001 0.020817765966058
0.49716311693192 0.080029100179672 0.024734050035477
0.56285065412521 0.072356440126896 0.028603162616491
0.62788134813309 0.067681923508644 0.032361540943384
0.6904923915863 0.065340235829353 0.035930372774601
0.74896281957626 0.064499668776989 0.039232019335032
0.80185467004776 0.064530536532402 0.042199265211821
0.84820771217346 0.065010890364647 0.044786021113396
0.8876274228096 0.065677337348461 0.046978119760752
0.92024827003479 0.066374458372593 0.048787049949169
0.94660794734955 0.067019537091255 0.050245445221663
0.96748495101929 0.067575871944427 0.05140096694231
0.98374992609024 0.068035736680031 0.0522993914783
0.99625623226166 0.068401619791985 0.052988931536674
1.0057737827301 0.068688705563545 0.053513865917921
1.0129590034485 0.068908765912056 0.053910054266453
1.0183507204056 0.069077253341675 0.054207041859627
1.0223779678345 0.069203689694405 0.05442950502038
1.0253752470016 0.069298267364502 0.054594073444605
1.027600646019 0.069369226694107 0.054716803133488
1.0292491912842 0.069422461092472 0.054808154702187
0.0018691895529628 0.15883252024651 0.0018691895529628
0.0022706529125571 0.15882480144501 0.0018629516707733
0.0059048607945442 0.15878716111183 0.0018168000970036
0.037948716431856 0.15868282318115 0.0017013656906784
0.077545143663883 0.15845046937466 0.0014702713815495
0.1155544295907 0.15799586474895 0.0011012580944225
0.15718558430672 0.15718558430672 0.00066617550328374
0.20344671607018 0.15583802759647 0.0027339984662831
0.25444579124451 0.15372987091541 0.0060907555744052
0.30990076065063 0.15058259665966 0.010090065188706
0.369300365448 0.14605194330215 0.014318184927106
0.43191567063332 0.13971701264381 0.018588868901134
0.496751755476 0.13122081756592 0.022815015166998
0.56250488758087 0.12093849480152 0.026942500844598
0.6275846362114 0.11051771044731 0.030909055843949
0.69023263454437 0.10180738568306 0.034643109887838
0.74873095750809 0.095526747405529 0.038073088973761
0.80164390802383 0.091400168836117 0.04113831371069
0.8480127453804 0.088839456439018 0.04380014538765
0.88744449615479 0.0873097255826 0.046050898730755
0.92007434368134 0.086423002183437 0.047903224825859
0.94644075632095 0.085921943187714 0.04939454048872
0.96732276678085 0.085646510124207 0.050573382526636
0.98359143733978 0.085499837994576 0.051489442586899
0.9961005449295 0.085423223674297 0.052193962037563
1.0056201219559 0.085386127233505 0.052729517221451
1.0128070116043 0.085368454456329 0.053133986890316
1.018199801445 0.085361421108246 0.05343659594655
1.0222277641296 0.085359558463097 0.053662188351154
1.0252257585526 0.085359580814838 0.053829222917557
1.0274515151978 0.085361197590828 0.053954988718033
1.0291005373001 0.085362643003464 0.0540481954813
0.0023911076132208 0.20318211615086 0.0023911076132208
0.0026629467029124 0.20317660272121 0.0023860239889473
0.0045013637281954 0.20314992964268 0.0023554190993309
0.018789991736412 0.20307601988316 0.0022705062292516
0.067483387887478 0.20291146636009 0.0020936378277838
0.11016219109297 0.20258995890617 0.0017897239886224
0.15374748408794 0.20201833546162 0.0013402791228145
0.20107525587082 0.20107525587082 0.00085218652384356
0.25271677970886 0.1996074616909 0.0030708436388522
0.30859050154686 0.19744098186493 0.0066084722056985
0.36827600002289 0.19437605142593 0.010868178680539
0.43109318614006 0.1901949942112 0.015399496071041
0.49607563018799 0.18467585742474 0.019957881420851
0.56193673610687 0.17763282358646 0.02440538443625
0.62709718942642 0.16907648742199 0.02865270152688
0.68980586528778 0.15951818227768 0.032619174569845
0.74835014343262 0.15000554919243 0.036235008388758
0.80129778385162 0.14159612357616 0.039447914808989
0.84769278764725 0.13483175635338 0.042226023972034
0.88714414834976 0.12971746921539 0.044563103467226
0.91978883743286 0.12598294019699 0.046483442187309
0.94616627693176 0.12330090999603 0.048026323318481
0.96705651283264 0.12138521671295 0.049241404980421
0.98333138227463 0.12001593410969 0.050187394022942
0.99584496021271 0.1190349906683 0.050912521779537
1.0053678750992 0.11832801252604 0.051463596522808
1.0125572681427 0.11781653761864 0.051879998296499
1.0179520845413 0.11744564771652 0.052190437912941
1.0219813585281 0.11717492341995 0.05242195725441
1.0249803066254 0.11697723716497 0.052595671266317
1.0272067785263 0.11683194339275 0.052724815905094
1.0288563966751 0.11672608554363 0.052819460630417
0.0029731853865087 0.25264355540276 0.0029731853865087
0.0031669021118432 0.25263950228691 0.0029663690365851
0.004319790750742 0.25261986255646 0.002946148859337
0.010314063169062 0.25256532430649 0.0028859924059361
0.047885600477457 0.25244405865669 0.0027491257060319
0.10103292763233 0.25220721960068 0.0025026183575392
0.1482290327549 0.25178664922714 0.0021181560587138
0.19733589887619 0.25109431147575 0.0016145723639056
0.25002384185791 0.25002387166023 0.0010596374049783
0.30655932426453 0.24844935536385 0.0034034722484648
0.36669212579727 0.24623963236809 0.0070577580481768
0.42982351779938 0.24325975775719 0.011481123045087
0.49503284692764 0.23938918113708 0.016201559454203
0.56106108427048 0.23454618453979 0.020926548168063
0.6263462305069 0.22871957719326 0.025470014661551
0.68914878368378 0.22200837731361 0.029710594564676
0.74776375293732 0.21467608213425 0.033563476055861
0.80076479911804 0.20716989040375 0.036969851702452
0.84720027446747 0.20002171397209 0.039900444447994
0.88668197393417 0.19366830587387 0.042358417063951
0.91934943199158 0.18833604454994 0.04437168315053
0.94574379920959 0.1840486228466 0.045985098928213
0.96664679050446 0.18070265650749 0.047255419194698
0.98293101787567 0.17814274132252 0.048240959644318
0.99545156955719 0.17620918154716 0.048995386809111
1.0049797296524 0.17476047575474 0.049569997936487
1.0121729373932 0.17368116974831 0.05000027269125
1.0175704956055 0.17287969589233 0.050324581563473
1.0216019153595 0.1722859442234 0.050566397607327
1.0246025323868 0.17184686660767 0.050745155662298
1.0268300771713 0.17152200639248 0.050878297537565
1.0284806489944 0.17128247022629 0.050979129970074
0.0036099082790315 0.3067484498024 0.0036099082790315
0.0037566227838397 0.30674535036087 0.0036049785558134
0.004563155118376 0.30673038959503 0.0035927444696426
0.0078557571396232 0.30668884515762 0.0035416681785136
0.025774143636227 0.3065964281559 0.0034347341861576
0.085204690694809 0.30641594529152 0.0032421487849206
0.13962210714817 0.30609568953514 0.0029173698276281
0.19170053303242 0.3055691421032 0.0024626823142171
0.24601712822914 0.30475646257401 0.0018771726172417
0.30356776714325 0.30356776714325 0.0012865648604929
0.3643687069416 0.30190345644951 0.0037235298659652
0.42796546220779 0.29967212677002 0.0074365017935634
0.49350905418396 0.29679650068283 0.011910172179341
0.55978268384933 0.29323583841324 0.016681745648384
0.62525063753128 0.28900837898254 0.021417004987597
0.68819040060043 0.28420901298523 0.025899892672896
0.7469088435173 0.27901205420494 0.029991865158081
0.79998803138733 0.27365592122078 0.033611185848713
0.8464822769165 0.26840889453888 0.036721892654896
0.88600838184357 0.26352179050446 0.039323877543211
0.91870903968811 0.25918132066727 0.041451796889305
0.945128262043 0.25548487901688 0.043152909725904
0.9660496711731 0.25244444608688 0.044489175081253
0.98234778642654 0.25001206994057 0.045527808368206
0.99487864971161 0.24810713529587 0.046320527791977
1.0044143199921 0.24663875997066 0.046922147274017
1.0116131305695 0.24552029371262 0.047376170754433
1.0170148611069 0.24467596411705 0.04771588742733
1.0210493803024 0.24404229223728 0.047968361526728
1.0240521430969 0.24356952309608 0.048156458884478
1.0262813568115 0.24321769177914 0.04829740151763
1.0279331207275 0.24295657873154 0.048400726169348
0.0042941803112626 0.36489376425743 0.0042941803112626
0.0044064824469388 0.36489135026932 0.0042877579107881
0.0050141531974077 0.36487957835197 0.0042822156101465
0.0071550863794982 0.36484697461128 0.0042426926083863
0.015944411978126 0.36477446556091 0.0041586710140109
0.059176649898291 0.36463299393654 0.0040024556219578
0.12624190747738 0.36438190937042 0.0037336936220527
0.18346364796162 0.36396935582161 0.0033307480625808
0.24029648303986 0.36333334445953 0.0028023067861795
0.29933649301529 0.36240449547768 0.0021698328200728
0.36111012101173 0.36111015081406 0.0015304374974221
0.42536842823029 0.3593775331974 0.0040361098945141
0.49138382077217 0.35715422034264 0.0077256658114493
0.55800223350525 0.35441640019417 0.012126807123423
0.62372601032257 0.35118827223778 0.016793278977275
0.68685752153397 0.34755358099937 0.021364443004131
0.74572044610977 0.34365496039391 0.025617243722081
0.7989085316658 0.33967551589012 0.029415477067232
0.84548491239548 0.3358079791069 0.032693050801754
0.88507258892059 0.33222070336342 0.035440631210804
0.91781944036484 0.32903271913528 0.0376868955791
0.94427335262299 0.32630497217178 0.039484620094299
0.96522051095963 0.32404533028603 0.040896326303482
0.98153775930405 0.32222265005112 0.041990004479885
0.99408286809921 0.32078367471695 0.042826674878597
1.0036290884018 0.31966656446457 0.04346202686429
1.010835647583 0.31881064176559 0.043940532952547
1.0162432193756 0.31816130876541 0.044297724962234
1.0202819108963 0.31767225265503 0.044564172625542
1.0232880115509 0.31730616092682 0.044763125479221
1.0255193710327 0.31703308224678 0.044909287244081
1.0271728038788 0.31683030724525 0.045018032193184
0.005016892682761 0.42630553245544 0.005016892682761
0.0051065138541162 0.42630359530449 0.0050130891613662
0.0055780620314181 0.42629414796829 0.005003968719393
0.0071243233978748 0.42626789212227 0.0049795070663095
0.012348793447018 0.42620953917503 0.0049116052687168
0.03530140593648 0.42609572410583 0.0047741420567036
0.10499165952206 0.42589384317398 0.0045536938123405
0.17163154482841 0.42556223273277 0.0042161382734776
0.23238435387611 0.42505121231079 0.0037417537532747
0.29358085989952 0.42430573701859 0.0031382134184241
0.35670852661133 0.42326831817627 0.0024390046019107
0.42188510298729 0.42188510298729 0.0017880112864077
0.48854166269302 0.42011204361916 0.004313153680414
0.55562555789948 0.41793563961983 0.0079005770385265
0.62169337272644 0.41537940502167 0.012104603461921
0.68508207798004 0.41251450777054 0.01649796590209
0.7441383600235 0.40945744514465 0.020733464509249
0.79747205972672 0.40635448694229 0.024597611278296
0.84415793418884 0.40335601568222 0.027978140860796
0.88382798433304 0.40058994293213 0.030833400785923
0.91663652658463 0.39814382791519 0.03317865729332
0.94313645362854 0.39605915546417 0.035057887434959
0.96411800384521 0.39433732628822 0.036535859107971
0.9804607629776 0.39295154809952 0.03768302500248
0.9930248260498 0.39185899496078 0.038560137152672
1.0025850534439 0.39101159572601 0.039227083325386
1.0098021030426 0.39036273956299 0.039730183780193
1.0152173042297 0.38987064361572 0.040103808045387
1.0192617177963 0.3895001411438 0.040384624153376
1.0222719907761 0.38922277092934 0.040593698620796
1.0245065689087 0.38901597261429 0.040747933089733
1.026162147522 0.38886228203773 0.040860526263714
0.0057661272585392 0.48997101187706 0.0057661272585392
0.0058384211733937 0.48996937274933 0.0057612648233771
0.0062230615876615 0.48996162414551 0.0057543572038412
0.0074151274748147 0.48994001746178 0.0057383375242352
0.010967178270221 0.48989197611809 0.0056817354634404
0.023685665801167 0.48979830741882 0.0055689606815577
0.075153738260269 0.48963209986687 0.0053806519135833
0.15465560555458 0.48935925960541 0.0050906450487673
0.22172120213509 0.48893907666206 0.0046679563820362
0.28601318597794 0.48832631111145 0.0041204881854355
0.35099068284035 0.48747438192368 0.0034644645638764
0.41738367080688 0.48633980751038 0.0027402942068875
0.48489040136337 0.48489040136337 0.0020550373010337
0.55257987976074 0.48311233520508 0.0045465817674994
0.61909300088882 0.48102900385857 0.0079446528106928
0.68281328678131 0.47870045900345 0.011822605505586
0.74211812019348 0.47622334957123 0.015790933743119
0.79563862085342 0.473717212677 0.019546937197447
0.84246504306793 0.47130343317986 0.02290390431881
0.88224053382874 0.46908390522003 0.02578379586339
0.91512811183929 0.46712672710419 0.028167018666863
0.94168698787689 0.46546316146851 0.030092099681497
0.96271252632141 0.46409210562706 0.031614005565643
0.97908794879913 0.46299058198929 0.032796803861856
0.99167621135712 0.4621234536171 0.033703215420246
1.0012543201447 0.46145164966583 0.034392036497593
1.0084848403931 0.46093764901161 0.034910533577204
1.0139096975327 0.46054804325104 0.035300672054291
1.0179615020752 0.46025490760803 0.035589937120676
1.0209769010544 0.46003556251526 0.035806432366371
1.0232156515121 0.45987206697464 0.035968150943518
1.0248742103577 0.45975053310394 0.036084841936827
0.0065265325829387 0.55458575487137 0.0065265325829387
0.006589762866497 0.55458438396454 0.0065223546698689
0.0069068023003638 0.55457788705826 0.006515764631331
0.0078681604936719 0.5545597076416 0.0065006264485419
0.010511330328882 0.55451935529709 0.0064597642049193
0.01862314529717 0.55444049835205 0.0063680722378194
0.049584485590458 0.55430084466934 0.0062053329311311
0.13037048280239 0.55407148599625 0.0059503852389753
0.20764183998108 0.55371832847595 0.0055794198997319
0.27638381719589 0.55320340394974 0.0050901514478028
0.34383547306061 0.55248808860779 0.0044700694270432
0.41180050373077 0.55153614282608 0.0037579413037747
0.48037901520729 0.55032122135162 0.0030177866574377
0.54883515834808 0.54883515834808 0.0023260433226824
0.615902364254 0.54709446430206 0.0047409501858056
0.68003338575363 0.54515224695206 0.0078422566875815
0.73964524269104 0.54309022426605 0.011295845732093
0.79339605569839 0.54100805521011 0.014727087691426
0.84039533138275 0.53900676965714 0.01789889857173
0.8803004026413 0.53717005252838 0.020686699077487
0.91328489780426 0.53555339574814 0.023031957447529
0.9399162530899 0.53418135643005 0.024942196905613
0.9609956741333 0.53305202722549 0.02646316960454
0.97741121053696 0.53214567899704 0.027649821713567
0.99002915620804 0.53143274784088 0.028564220294356
0.99962937831879 0.53088092803955 0.029257766902447
1.0068759918213 0.5304588675499 0.029785301536322
1.0123130083084 0.53013908863068 0.030177529901266
1.0163736343384 0.52989852428436 0.030474860221148
1.0193957090378 0.52971857786179 0.030692640691996
1.0216391086578 0.52958446741104 0.030854839831591
1.0233013629913 0.52948480844498 0.030974466353655
0.0072795269079506 0.61857050657272 0.0072795269079506
0.0073322942480445 0.61856937408447 0.0072720712050796
0.0076039447449148 0.61856371164322 0.0072706160135567
0.0084008974954486 0.61854815483093 0.0072610443457961
0.010498463176191 0.61851346492767 0.0072249649092555
0.016282515600324 0.6184458732605 0.007138813380152
0.035416379570961 0.61832594871521 0.0070016197860241
0.10000808537006 0.61812913417816 0.0067833550274372
0.18933765590191 0.61782604455948 0.0064549930393696
