2499DRT/2499log_to_Base.cube
LUT_3D_SIZE 5
DOMAIN_MIN 0.000000 0.000000 0.000000
DOMAIN_MAX 0.903226 0.903226 0.903226
0 0 0
0.20634171366692 0.011146882548928 0.011146882548928
0.62818968296051 0.033935725688934 0.033935725688934
0.94678175449371 0.051146537065506 0.051146537065506
1.0225340127945 0.055238775908947 0.055238775908947
0.0023911076132208 0.20318211615086 0.0023911076132208
0.20107525587082 0.20107525587082 0.00085218652384356
0.62709718942642 0.16907648742199 0.02865270152688
0.94616627693176 0.12330090999603 0.048026323318481
1.0219813585281 0.11717492341995 0.05242195725441
0.0072795269079506 0.61857050657272 0.0072795269079506
0.10000808537006 0.61812913417816 0.0067833550274372
0.61215645074844 0.61215651035309 0.0025944083463401
0.93784815073013 0.60117137432098 0.019998710602522
1.0145200490952 0.59754848480225 0.025397840887308
0.010971400886774 0.93228399753571 0.010971400886774
0.03194871544838 0.9320353269577 0.010693656280637
0.58382731676102 0.92868596315384 0.0074559263885021
0.92261707782745 0.92261707782745 0.0039101871661842
1.0009036064148 0.92063772678375 0.0065388157963753
0.011849224567413 1.0068764686584 0.011849224567413
0.028782732784748 1.0066530704498 0.011603304184973
0.57421404123306 1.0036466121674 0.0086017204448581
0.91760337352753 0.99820727109909 0.0049933269619942
0.99643588066101 0.99643594026566 0.0042230421677232
0.014533909037709 0.014533909037709 0.2069196999073
0.20486660301685 0.0054865055717528 0.20486660301685
0.62787997722626 0.032354082912207 0.17382395267487
0.94660711288452 0.050243102014065 0.12736637890339
1.0223772525787 0.054426036775112 0.12070707976818
0.001139868516475 0.20167453587055 0.20167453587055
0.19954533874989 0.19954533874989 0.19954533874989
0.62678670883179 0.16714824736118 0.16714824736118
0.94599163532257 0.12169559299946 0.12169559299946
1.0218244791031 0.11578577756882 0.11578577756882
0.0069141266867518 0.61825400590897 0.10113484412432
0.097140833735466 0.61781227588654 0.097140833735466
0.61183536052704 0.61183536052704 0.047135278582573
0.93767130374908 0.60084199905396 0.057404428720474
1.0143616199493 0.59721630811691 0.060756757855415
0.010773453861475 0.93210572004318 0.032191425561905
0.031335394829512 0.93185687065125 0.031335394829512
0.58348417282104 0.92850661277771 0.02184721082449
0.92243611812592 0.92243611812592 0.011315510608256
1.0007420778275 0.92045617103577 0.015927087515593
0.011682026088238 1.0067162513733 0.028965335339308
0.028323590755463 1.0064928531647 0.028323590755463
0.57386291027069 1.0034856796265 0.020965835079551
0.91742098331451 0.9980451464653 0.012149773538113
0.99627339839935 0.996273458004 0.010170539841056
0.04424724727869 0.04424724727869 0.62994939088821
0.18334358930588 0.041511751711369 0.62951910495758
0.62369894981384 0.016703195869923 0.62369894981384
0.94425892829895 0.039419293403625 0.6130034327507
1.020269036293 0.044504411518574 0.6094788312912
0.037602066993713 0.17962466180325 0.62886118888855
0.17713321745396 0.17713321745396 0.62842977046967
0.62259536981583 0.13791738450527 0.62259542942047
0.9436411857605 0.10076287388802 0.61187279224396
1.0197147130966 0.097886525094509 0.60833895206451
0.0034702336415648 0.61398082971573 0.61398082971573
0.059691652655602 0.61353480815887 0.61353480815887
0.60749870538712 0.60749870538712 0.60749870538712
0.93529152870178 0.59639286994934 0.59639286994934
1.0122299194336 0.592728972435 0.592728972435
0.0083206770941615 0.92970603704453 0.58577644824982
0.024209812283516 0.92945635318756 0.58529990911484
0.57884669303894 0.92609387636185 0.57884669303894
0.92000102996826 0.92000102996826 0.56693768501282
0.99856972694397 0.91801375150681 0.56299984455109
0.009413868188858 1.0045620203018 0.57620877027512
0.022833433002234 1.0043379068375 0.5757212638855
0.56911492347717 1.001321554184 0.56911492347717
0.9149671792984 0.99586445093155 0.55690932273865
0.99408733844757 0.99408733844757 0.55286931991577
0.066687621176243 0.066687621176243 0.94943386316299
0.15136033296585 0.06512089073658 0.9491913318634
0.61605626344681 0.046864874660969 0.94592690467834
0.94001340866089 0.025174371898174 0.94001340866089
1.0164618492126 0.030714776366949 0.93808525800705
0.062785558402538 0.14793537557125 0.94882082939148
0.14568467438221 0.14568467438221 0.94857823848724
0.61493349075317 0.11548737436533 0.94531059265137
0.93939185142517 0.068199940025806 0.93939185142517
1.0159046649933 0.070158287882805 0.93746185302734
0.026646498590708 0.60616564750671 0.94053566455841
0.074319154024124 0.60571146011353 0.940289914608
0.59956455230713 0.59956461191177 0.93698173761368
0.93098866939545 0.58824616670609 0.93098866939545
1.0083804130554 0.58450984954834 0.92903429269791
0.0052301920950413 0.92536664009094 0.92536664009094
0.015151241794229 0.92511534690857 0.92511534690857
0.57034301757813 0.92173063755035 0.921730697155
0.91559708118439 0.91559708118439 0.91559708118439
0.99464571475983 0.91359639167786 0.91359639167786
0.006374778226018 1.0006709098816 0.92037391662598
0.015468687750399 1.0004454851151 0.92012059688568
0.56040108203888 0.99741274118423 0.91671025753021
0.91052907705307 0.99192547798157 0.91052913665771
0.99013847112656 0.9901385307312 0.90851259231567
0.072023324668407 0.072023324668407 1.0253983736038
0.14642745256424 0.070614270865917 1.0251805782318
0.61354953050613 0.053783256560564 1.0222501754761
0.93863141536713 0.032219737768173 1.0169497728348
1.0152240991592 0.027188582345843 1.0152240991592
0.068504653871059 0.1433310508728 1.0248478651047
0.14130468666553 0.14130468666553 1.0246298313141
0.61242032051086 0.11465005576611 1.0216974020004
0.93800854682922 0.073340877890587 1.016392827034
1.0146658420563 0.062581330537796 1.0146658420563
0.033760361373425 0.6036012172699 1.0174161195755
0.078773617744446 0.60314434766769 1.0171959400177
0.5969603061676 0.5969603061676 1.0142329931259
0.92958784103394 0.58557045459747 1.0088737010956
1.0071287155151 0.58180963993073 1.0071287155151
0.0087770652025938 0.92395389080048 1.0038547515869
0.021275388076901 0.92370194196701 1.003630399704
0.56754720211029 0.92031013965607 1.0006111860275
0.91416311264038 0.91416311264038 0.9951485991478
0.99336969852448 0.91215795278549 0.99336969852448
0.0056486614048481 0.99940550327301 0.99940550327301
0.013625919818878 0.99917978048325 0.99917978048325
0.55753397941589 0.99614173173904 0.99614173173904
0.90908372402191 0.99064457416534 0.99064445495605
0.98885428905487 0.98885428905487 0.98885428905487
