2499DRT/2499log_to_P3.cube
LUT_3D_SIZE 5
DOMAIN_MIN 0.000000 0.000000 0.000000
DOMAIN_MAX 0.903226 0.903226 0.903226
0 0 0
0.22220820188522 0.04591092467308 0.027491202577949
0.60526537895203 0.12505520880222 0.074882343411446
0.87558937072754 0.18090726435184 0.10832634568214
0.93839627504349 0.19388410449028 0.11609670519829
0.10954245179892 0.2348837852478 0.050933569669724
0.23580963909626 0.23580963909626 0.044551625847816
0.60905569791794 0.24694353342056 0.078287534415722
0.87829154729843 0.26700669527054 0.11024444550276
0.94095075130463 0.27322798967361 0.11782417446375
0.29837894439697 0.63979184627533 0.13873618841171
0.3443877696991 0.6399707198143 0.13756307959557
0.64231395721436 0.64231395721436 0.12135284394026
0.8983353972435 0.64532375335693 0.13430082798004
0.95915353298187 0.64644646644592 0.139289483428
0.43164110183716 0.92553615570068 0.20069865882397
0.45844447612762 0.9256329536438 0.20006468892097
0.69151401519775 0.92691999673843 0.19144889712334
0.92918455600739 0.92918455600739 0.17555117607117
0.98731350898743 0.9296503663063 0.17669872939587
0.46260315179825 0.99192571640015 0.21509499847889
0.48668849468231 0.99201202392578 0.21453042328358
0.70624959468842 0.99316108226776 0.20686796307564
0.93829303979874 0.99518817663193 0.19277396798134
0.99583578109741 0.99583578109741 0.18814390897751
0.019989244639874 0.019989244639874 0.23119215667248
0.22181250154972 0.028891544789076 0.23255060613155
0.60926705598831 0.12234977632761 0.22434160113335
0.88109576702118 0.18014398217201 0.21159639954567
0.94395637512207 0.19334001839161 0.2095526009798
0.103585280478 0.23344618082047 0.23501965403557
0.23441904783249 0.23441904783249 0.23441904783249
0.61239552497864 0.24694672226906 0.22604748606682
0.8834627866745 0.26735305786133 0.21329972147942
0.94623297452927 0.27358916401863 0.21119436621666
0.2975280880928 0.64000475406647 0.2518744468689
0.34381026029587 0.64018696546555 0.25133967399597
0.64262622594833 0.64262628555298 0.24392779171467
0.90065515041351 0.64681357145309 0.23174580931664
0.96185994148254 0.64807534217834 0.229168638587
0.4313737154007 0.92606258392334 0.27860981225967
0.45825484395027 0.92616081237793 0.27816563844681
0.69178432226181 0.92747718095779 0.27207738161087
0.92983222007751 0.92983210086823 0.26059958338737
0.98825752735138 0.93051493167877 0.25773018598557
0.46240675449371 0.99248456954956 0.28661346435547
0.48655313253403 0.99257212877274 0.28619381785393
0.70650923252106 0.99374330043793 0.28045606613159
0.93888247013092 0.99583828449249 0.2697129547596
0.99651348590851 0.9965136051178 0.26611402630806
0.054448023438454 0.054448023438454 0.62973654270172
0.19480691850185 0.056147165596485 0.63271427154541
0.6041876077652 0.078696712851524 0.63343673944473
0.87911975383759 0.15335404872894 0.63118124008179
0.94269454479218 0.16966757178307 0.63030517101288
0.074481703341007 0.20878222584724 0.63504350185394
0.21050840616226 0.21050837635994 0.6366600394249
0.60794937610626 0.22527065873146 0.63513839244843
0.88159626722336 0.24927112460136 0.63229584693909
0.94502365589142 0.25659251213074 0.63135641813278
0.28215253353119 0.63587605953217 0.64016199111938
0.3318952023983 0.63606023788452 0.64004892110825
0.63852608203888 0.63852608203888 0.63852608203888
0.89857077598572 0.64293467998505 0.63576328754425
0.96024596691132 0.64435315132141 0.63486325740814
0.42334380745888 0.92389672994614 0.64616966247559
0.45101740956306 0.92399573326111 0.64605832099915
0.68820941448212 0.92532283067703 0.64455914497375
0.92770266532898 0.92770266532898 0.64183980226517
0.98643571138382 0.9284719824791 0.64095401763916
0.45529392361641 0.99060094356537 0.64809739589691
0.48003751039505 0.99068903923035 0.64798665046692
0.70308685302734 0.99187129735947 0.64649486541748
0.93682551383972 0.99399173259735 0.64378929138184
0.99467694759369 0.99467694759369 0.64290809631348
0.078765220940113 0.078765645623207 0.91098964214325
0.15884411334991 0.079814471304417 0.91417932510376
0.5947972536087 0.091027393937111 0.91600042581558
0.87403011322021 0.11384427547455 0.91634267568588
0.938316822052 0.126081392169 0.91618072986603
0.089053355157375 0.17127817869186 0.91637933254242
0.17288970947266 0.17288970947266 0.9190965294838
0.59937781095505 0.18762695789337 0.91944360733032
0.87707889080048 0.21263542771339 0.91832315921783
0.9410445690155 0.22120162844658 0.91786080598831
0.25146687030792 0.62826561927795 0.92272841930389
0.3084574341774 0.62849479913712 0.92272770404816
0.63101422786713 0.63101422786713 0.92190670967102
0.89435321092606 0.63551044464111 0.92041504383087
0.95647275447845 0.63695681095123 0.91993057727814
0.40816748142242 0.91987133026123 0.92607152462006
0.43742272257805 0.91997104883194 0.92601042985916
0.68159645795822 0.92130780220032 0.92518794536591
0.92370498180389 0.92370498180389 0.92370498180389
0.98282885551453 0.92447984218597 0.92322337627411
0.44192481040955 0.98701965808868 0.92712944746017
0.46783512830734 0.98710829019547 0.92706835269928
0.69670939445496 0.98829758167267 0.92624735832214
0.93289279937744 0.99043071269989 0.92476737499237
0.99112015962601 0.99112021923065 0.92428666353226
0.084415569901466 0.084415569901466 0.97633588314056
0.15415504574776 0.085365399718285 0.97936725616455
0.59193927049637 0.095306441187859 0.98159408569336
0.87223744392395 0.11506694555283 0.98208367824554
0.93672513961792 0.12201041728258 0.98207271099091
0.093539200723171 0.16526639461517 0.98148113489151
0.16671144962311 0.1667118370533 0.98416757583618
0.59645038843155 0.18020391464233 0.98513120412827
0.87543892860413 0.20368646085262 0.98435401916504
0.93962681293488 0.21106943488121 0.98403131961823
0.24202233552933 0.62571704387665 0.98846220970154
0.30044996738434 0.62599849700928 0.98855394124985
0.62854623794556 0.62854623794556 0.98784172534943
0.89297872781754 0.63307178020477 0.98651254177094
0.95524489879608 0.63452756404877 0.98608124256134
0.40304118394852 0.91856014728546 0.99155592918396
0.43286055326462 0.91865998506546 0.99150139093399
0.6794291138649 0.92000007629395 0.99076730012894
0.92240273952484 0.9224026799202 0.98944461345673
0.98165547847748 0.92317938804626 0.98901557922363
0.43744578957558 0.9858546257019 0.9924995303154
0.46376523375511 0.98594343662262 0.99244499206543
0.69462090730667 0.98713505268097 0.99171209335327
0.9316121339798 0.98927235603333 0.99039161205292
0.98996311426163 0.98996329307556 0.98996323347092
