2499DRT/Log2_2499log.cube
LUT_3D_SIZE 5
DOMAIN_MIN 0.000000 0.000000 0.000000
DOMAIN_MAX 0.903226 0.903226 0.903226
1.307063435263e-08 1.3070630799916e-08 1.3070635240808e-08
0.046091683208942 0.0020645731128752 0.00017968419706449
0.25165539979935 0.034553542733192 0.0031203432008624
0.53396481275558 0.22186434268951 0.065172180533409
0.81173712015152 0.57232338190079 0.45370134711266
0.002507797209546 0.040260702371597 3.3864087072288e-06
0.062998302280903 0.061105161905289 5.0401695261826e-06
0.26957261562347 0.044099524617195 0.0027101701125503
0.5353040099144 0.22338861227036 0.065342918038368
0.81181597709656 0.57244032621384 0.45382788777351
0.041396677494049 0.23704749345779 0.00026600193814375
0.044999528676271 0.24599406123161 0.00030817539663985
0.28847599029541 0.28466939926147 0.0013777655549347
0.55413997173309 0.25027939677238 0.068235844373703
0.8130539059639 0.57428270578384 0.45581781864166
0.26513075828552 0.51696467399597 0.052062779664993
0.26598799228668 0.51759523153305 0.052584063261747
0.27918022871017 0.52710676193237 0.060934700071812
0.57412326335907 0.56887400150299 0.16917692124844
0.83036679029465 0.60287511348724 0.48503333330154
0.67613977193832 0.78950369358063 0.51128125190735
0.67618846893311 0.78954148292542 0.5113513469696
0.67695689201355 0.79013848304749 0.51245629787445
0.68849086761475 0.79915583133698 0.52903145551682
0.85805803537369 0.85090261697769 0.662129342556
6.6627806518227e-05 0.0047204294241965 0.026237957179546
0.059910625219345 0.011776987463236 0.048271156847477
0.26245474815369 0.039436060935259 0.012217228300869
0.53478866815567 0.22274006903172 0.068597137928009
0.81178498268127 0.57239472866058 0.45386776328087
0.0028311659116298 0.053107213228941 0.053375735878944
0.067203268408775 0.067203275859356 0.067203275859356
0.27989113330841 0.048268835991621 0.011007633060217
0.53612345457077 0.22425536811352 0.068746104836464
0.81186378002167 0.5725114941597 0.45399403572083
0.045036427676678 0.24608743190765 0.00049781531561166
0.048645306378603 0.25460520386696 0.00053073285380378
0.29385721683502 0.28924956917763 0.0015307243447751
0.55490428209305 0.25094172358513 0.071238711476326
0.81310141086578 0.57435309886932 0.45598137378693
0.26599669456482 0.51760149002075 0.052648447453976
0.26685240864754 0.51822954416275 0.053170405328274
0.28002315759659 0.52770394086838 0.061538390815258
0.57448691129684 0.56918627023697 0.16970491409302
0.83041113615036 0.6029326915741 0.48516437411308
0.67618900537491 0.78954195976257 0.51135265827179
0.67623764276505 0.78957974910736 0.51142275333405
0.67700576782227 0.79017663002014 0.51252740621567
0.68853658437729 0.79919171333313 0.52909755706787
0.85807967185974 0.85092234611511 0.66215932369232
0.0012226650724187 0.069677129387856 0.19553574919701
0.011557605117559 0.078969448804855 0.21036842465401
0.28221756219864 0.12915650010109 0.25682643055916
0.54610586166382 0.2372415214777 0.1436171233654
0.81253588199615 0.57351958751678 0.45652669668198
0.00069435028126463 0.083309680223465 0.21758422255516
0.0063145724125206 0.092191033065319 0.23093824088573
0.29011943936348 0.13605093955994 0.26578494906425
0.5473872423172 0.23861320316792 0.14355906844139
0.81261444091797 0.57363569736481 0.45665028691292
0.047285214066505 0.26778477430344 0.26837968826294
0.04938243702054 0.27254962921143 0.27332139015198
0.29675880074501 0.29675877094269 0.29675880074501
0.56553328037262 0.26205930113792 0.14109155535698
0.81384813785553 0.57546579837799 0.45859953761101
0.27933698892593 0.5272114276886 0.063448891043663
0.28017175197601 0.52780270576477 0.063972637057304
0.29299247264862 0.5367266535759 0.07232266664505
0.58009451627731 0.57397782802582 0.17793300747871
0.83110898733139 0.60384297370911 0.48725914955139
0.67696523666382 0.79014503955841 0.5124796628952
0.67701363563538 0.79018259048462 0.51254922151566
0.67777836322784 0.7907772064209 0.51364880800247
0.68925738334656 0.79975843429565 0.53014039993286
0.85842144489288 0.85123324394226 0.6626307964325
0.042760621756315 0.29681807756424 0.47127968072891
0.045814353972673 0.29799512028694 0.47248488664627
0.14257714152336 0.31478697061539 0.48916745185852
0.56264728307724 0.39945632219315 0.54143154621124
0.82263040542603 0.59067523479462 0.50742304325104
0.042864762246609 0.29854592680931 0.47306537628174
0.045815009623766 0.29971170425415 0.47425821423531
0.14090999960899 0.31635677814484 0.49079668521881
0.56318193674088 0.40013864636421 0.54208689928055
0.82270580530167 0.59078049659729 0.50750547647476
0.049121532589197 0.32270264625549 0.49776154756546
0.050852380692959 0.32371008396149 0.49878346920013
0.11425760388374 0.33828485012054 0.51331049203873
0.57095324993134 0.41022253036499 0.55176520347595
0.82389312982559 0.59244096279144 0.50880467891693
0.34223449230194 0.54945951700211 0.55093032121658
0.34276354312897 0.54978382587433 0.55126905441284
0.35083138942719 0.554727435112 0.55643850564957
0.58322530984879 0.58322530984879 0.58322536945343
0.84064126014709 0.61782288551331 0.52793061733246
0.68862652778625 0.79925841093063 0.529625415802
0.68867176771164 0.79929387569427 0.52968990802765
0.68938505649567 0.79985505342484 0.53070783615112
0.70010840892792 0.80833697319031 0.54598790407181
0.86369121074677 0.85601133108139 0.66982984542847
0.44843626022339 0.59751832485199 0.7562353014946
0.44860965013504 0.59760570526123 0.75630927085876
0.45137673616409 0.59898102283478 0.75747275352478
0.50719487667084 0.61894112825394 0.77362394332886
0.8338418006897 0.73332363367081 0.83127617835999
0.44862020015717 0.59764575958252 0.7563448548317
0.44879311323166 0.59773308038712 0.75641876459122
0.45155587792397 0.59910750389099 0.75758141279221
0.50727736949921 0.6190550327301 0.77372288703918
0.83387637138367 0.7333682179451 0.8313159942627
0.45151215791702 0.59964609146118 0.75806349515915
0.45168107748032 0.59973251819611 0.75813657045364
0.45437586307526 0.60109269618988 0.75928640365601
0.50858443975449 0.62084233760834 0.77527517080307
0.83442366123199 0.73407226800919 0.83194398880005
0.49258926510811 0.62752091884613 0.78172481060028
0.4927129149437 0.62759494781494 0.78178697824478
0.49466902017593 0.62876015901566 0.78276306390762
0.53000241518021 0.64575493335724 0.79665493965149
0.84242427349091 0.74438524246216 0.84120786190033
0.7418224811554 0.83241713047028 0.83520299196243
0.74184727668762 0.8324379324913 0.83522439002991
0.74224007129669 0.83276844024658 0.83556360006332
0.74820816516876 0.83780717849731 0.84074276685715
0.87486922740936 0.87486922740936 0.87486922740936
