2499DRT/Log2_2499log.cube
LUT_3D_SIZE 32
1.307063435263e-08 1.3070630799916e-08 1.3070635240808e-08
0.0015607291134074 6.7234810558148e-05 5.8417876971362e-06
0.0038773375563323 0.0001670333876973 1.4513642781822e-05
0.0073158796876669 0.00031516668968834 2.7387734007789e-05
0.012419464997947 0.00053503731032833 4.6503137127729e-05
0.019993999972939 0.00086137605831027 7.4888906965498e-05
0.031133987009525 0.0013457221211866 0.00011704678763635
0.046091683208942 0.0020645731128752 0.00017968419706449
0.064984008669853 0.0031314636580646 0.00027279378264211
0.087955325841904 0.0047149304300547 0.00041130580939353
0.11484797298908 0.0070652072317898 0.00061760016251355
0.14524602890015 0.010553941130638 0.00092538585886359
0.17857921123505 0.015733415260911 0.0013857607264072
0.21423703432083 0.023424953222275 0.002076948992908
0.25165539979935 0.034553542733192 0.0031203432008624
0.29036062955856 0.049308151006699 0.0047076921910048
0.32997995615005 0.068035274744034 0.0071492921561003
0.37023133039474 0.090951539576054 0.010962015017867
0.41090422868729 0.11801420152187 0.017037317156792
0.45183807611465 0.14899608492851 0.026961216703057
0.492899954319 0.18364551663399 0.04250293970108
0.53396481275558 0.22186434268951 0.065172180533409
0.57489949464798 0.26378327608109 0.096863329410553
0.61556112766266 0.30959278345108 0.13870164752007
0.65581625699997 0.35911825299263 0.19036139547825
0.69557440280914 0.4114785194397 0.25010851025581
0.7348068356514 0.46526381373405 0.31549653410912
0.77352446317673 0.51914358139038 0.38407790660858
0.81173712015152 0.57232338190079 0.45370134711266
0.84946095943451 0.62450897693634 0.52246594429016
0.88681316375732 0.67554938793182 0.5885893702507
0.92415434122086 0.72512799501419 0.65039736032486
8.1657941336744e-05 0.0013397003058344 8.5599069166165e-08
0.002275180304423 0.0021893607918173 1.1124793530826e-08
0.0066279661841691 0.0017331230919808 1.6252428167718e-06
0.011437985114753 0.0012909050565213 1.1236501450185e-05
0.017360517755151 0.0010937087936327 3.0451192287728e-05
0.02523235604167 0.0012522417819127 5.9633377532009e-05
0.036159709095955 0.0016768333734944 0.0001024679368129
0.050492577254772 0.0023703265469521 0.00016561050142627
0.068684965372086 0.0034245464485139 0.00025910104159266
0.090946488082409 0.0050009712576866 0.00039791082963347
0.11717603355646 0.0073471036739647 0.00060445687267929
0.14699795842171 0.01083330065012 0.00091248145326972
0.17986072599888 0.016011258587241 0.0013731489889324
0.2151535153389 0.023701934143901 0.0020646925549954
0.25229966640472 0.034811750054359 0.0031085559166968
0.29080778360367 0.04953284189105 0.0046966793015599
0.33028742671013 0.068224027752876 0.0071392906829715
0.37044140696526 0.091104336082935 0.010953540913761
0.41104704141617 0.11813374608755 0.017031010240316
0.4519347846508 0.1490869820118 0.026958107948303
0.49296528100967 0.18371315300465 0.042504660785198
0.53400880098343 0.22191402316093 0.065178602933884
0.57492905855179 0.26381957530975 0.096873566508293
0.61558085680008 0.30961897969246 0.13871359825134
0.65582937002182 0.35913690924644 0.19037294387817
0.69558304548264 0.41149142384529 0.25011855363846
0.73481267690659 0.46527260541916 0.31550490856171
0.77352833747864 0.51914942264557 0.38408401608467
0.81173974275589 0.5723272562027 0.45370578765869
0.84946262836456 0.62451142072678 0.52246874570847
0.88681423664093 0.67555093765259 0.5885910987854
0.92415499687195 0.72512900829315 0.65039855241776
0.00020286811923143 0.0033282553777099 2.1575731068424e-07
0.00044006857206114 0.0054626851342618 1.1785223819061e-07
0.0056523326784372 0.0054391301237047 4.63654465932e-08
0.012567395344377 0.0047441017813981 1.1074158692281e-06
0.020678248256445 0.0038624801672995 1.0090742762259e-05
0.030619081109762 0.0030593082774431 3.4470118407626e-05
0.042387247085571 0.0027125042397529 7.7305907325353e-05
0.056448377668858 0.0030519715510309 0.00014178035780787
0.073869541287422 0.0039676399901509 0.00023655750555918
0.095210060477257 0.0054834014736116 0.00037641820381396
0.12053121626377 0.0077991392463446 0.00058381957933307
0.14954286813736 0.011268583126366 0.00089255603961647
0.18173335492611 0.016436714679003 0.0013538671191782
0.21649867296219 0.024121563881636 0.002046100795269
0.253248244524 0.035198885947466 0.0030908018816262
0.29146766662598 0.049868457019329 0.0046799606643617
0.33074200153351 0.068505100905895 0.0071240542456508
0.37075227499008 0.091331593692303 0.0109405182302
0.41125857830048 0.11831125617027 0.017021188512444
0.45207819342613 0.14922155439854 0.02695294842124
0.49306213855743 0.18381330370903 0.042505986988544
0.53407400846481 0.22198754549026 0.065186455845833
0.57497268915176 0.26387318968773 0.096887119114399
0.61561012268066 0.30965781211853 0.13873021304607
0.65584892034531 0.35916450619698 0.19038979709148
0.69559609889984 0.41151064634323 0.25013348460197
0.73482131958008 0.46528553962708 0.31551668047905
0.77353399991989 0.51915794610977 0.38409242033958
0.81174355745316 0.5723329782486 0.45371189713478
0.849465072155 0.6245151758194 0.52247309684753
0.88681590557098 0.67555344104767 0.58859384059906
0.92415618896484 0.72513067722321 0.65040040016174
0.0003827860346064 0.0062798662111163 4.1525561300659e-07
0.00051820219960064 0.00849873945117 3.2013974760048e-07
0.0026186869945377 0.010588032193482 1.9740238599297e-07
0.010665029287338 0.010262753814459 1.4118604951818e-07
0.021175298839808 0.0092362193390727 1.2214168236824e-06
0.033692970871925 0.0078132003545761 1.1195510523976e-05
0.047577522695065 0.0063346275128424 4.2554191168165e-05
0.063103847205639 0.0052622174844146 0.00010369600204285
0.080590419471264 0.0052784760482609 0.00019979281933047
0.10107358545065 0.0064168185926974 0.00034175024484284
0.12527173757553 0.0085760690271854 0.00055107724620029
0.15319430828094 0.011972137726843 0.00086145021487027
0.18444745242596 0.017101835459471 0.0013241858687252
0.21846196055412 0.024764906615019 0.0020177643746138
0.25463971495628 0.035782888531685 0.003063935553655
0.29243901371956 0.050371274352074 0.004654944408685
0.33141273260117 0.068924680352211 0.0071013579145074
0.3712118268013 0.091669879853725 0.010921038687229
0.41157168149948 0.11857511848211 0.017006501555443
0.45229056477547 0.14942181110382 0.026945469900966
0.49320569634438 0.18396203219891 0.042508315294981
0.53417062759399 0.22209675610065 0.065198734402657
0.57503753900528 0.26395291090012 0.096907705068588
0.61565345525742 0.30971544981003 0.13875462114811
0.65587782859802 0.3592055439949 0.19041416049004
0.69561529159546 0.41153910756111 0.25015512108803
0.73483407497406 0.46530479192734 0.31553342938423
0.77354258298874 0.5191707611084 0.38410547375679
0.81174916028976 0.57234132289886 0.45372104644775
0.84946894645691 0.62452071905136 0.52247905731201
0.88681846857071 0.67555695772171 0.58859819173813
0.9241578578949 0.72513288259506 0.65040278434753
0.00064984051277861 0.010660734958947 7.2670547979214e-07
0.00078514212509617 0.012879943475127 6.4067808125401e-07
0.00099366554059088 0.016142971813679 5.2549194151652e-07
0.0061740991659462 0.017981212586164 3.8940390822972e-07
0.018104985356331 0.017422085627913 3.7304124589355e-07
0.033653423190117 0.015907457098365 1.7396126850144e-06
0.050562232732773 0.013720195740461 1.4159874808684e-05
0.068372569978237 0.011313638649881 5.6307169870706e-05
0.087606750428677 0.0092730252072215 0.00014381419168785
0.10841941833496 0.0087381508201361 0.00028640049276873
0.13169601559639 0.010119802318513 0.00049883872270584
0.15831838548183 0.013197124004364 0.00081237644189969
0.18832865357399 0.018182884901762 0.0012779858661816
0.22130277752876 0.025770364329219 0.0019742038566619
0.25666892528534 0.036672845482826 0.0030230104457587
0.29386329650879 0.051128927618265 0.0046168998815119
0.33239987492561 0.069552786648273 0.0070671960711479
0.37188988924026 0.092174403369427 0.010891951620579
0.41203439235687 0.11896789073944 0.016984771937132
0.45260483026505 0.14971934258938 0.026934221386909
0.49341824650764 0.1841828674078 0.042511358857155
0.53431391716003 0.22225885093212 0.065216884016991
0.57513374090195 0.26407104730606 0.096937403082848
0.61571776866913 0.30980092287064 0.1387911438942
0.65592068433762 0.35926645994186 0.19045083224773
0.69564378261566 0.41158127784729 0.25018686056137
0.7348530292511 0.46533331274986 0.31555899977684
0.77355521917343 0.51918959617615 0.38412466645241
0.81175756454468 0.57235372066498 0.45373439788818
0.84947448968887 0.62452882528305 0.52248841524124
0.88682222366333 0.67556238174438 0.58860397338867
0.92416048049927 0.7251363992691 0.6504065990448
0.0010462220525369 0.017162626609206 1.2219518339407e-06
0.0011812846641988 0.019377848133445 1.149550826085e-06
0.0013826444046572 0.022677276283503 1.04713149085e-06
0.0017975009977818 0.02738550119102 9.3047231075616e-07
0.011469762772322 0.028887569904327 8.1397257645222e-07
0.029103336855769 0.028018558397889 9.2032775000916e-07
0.050020951777697 0.02579927444458 2.882263288484e-06
0.071408145129681 0.022506784647703 1.9544091628632e-05
0.093125984072685 0.018756138160825 7.8239376307465e-05
0.11578727513552 0.015347963199019 0.00020485666755121
0.13954512774944 0.013985437341034 0.00041653017979115
0.16518568992615 0.015669526532292 0.00073466275352985
0.19374758005142 0.020081307739019 0.0012054084800184
0.22535532712936 0.02740129455924 0.0019065688829869
0.2596016228199 0.038054376840591 0.0029601615387946
0.2959391772747 0.052281897515059 0.0045591667294502
0.3338468670845 0.070498056709766 0.0070155248977244
0.37288758158684 0.092929035425186 0.010848299600184
0.41271713376045 0.1195532232523 0.016951773315668
0.45306926965714 0.15016183257103 0.026917262002826
0.49373278021812 0.18451108038425 0.042515981942415
0.53452610969543 0.22249954938889 0.065243303775787
0.5752762556076 0.2642465531826 0.096982389688492
0.61581313610077 0.30992776155472 0.13884496688843
0.65598428249359 0.35935670137405 0.19050517678261
0.69568610191345 0.41164395213127 0.25023439526558
0.73488116264343 0.46537560224533 0.31559681892395
0.77357393503189 0.51921778917313 0.38415288925171
0.81177002191544 0.57237219810486 0.45375424623489
0.8494827747345 0.62454098463058 0.52250182628632
0.88682770729065 0.6755702495575 0.58861285448074
0.92416423559189 0.72514146566391 0.65041208267212
0.0016345562180504 0.026795476675034 2.0302054508647e-06
0.0017693995032459 0.028982948511839 1.9788633380813e-06
0.0019707595929503 0.032183036208153 1.9058600173594e-06
0.0022696191444993 0.036742024123669 1.8200480553787e-06
0.0033316754270345 0.042699135839939 1.7537331586936e-06
0.019330885261297 0.043766193091869 1.7562597349752e-06
0.0440823584795 0.042608615010977 2.1814521460328e-06
0.070399709045887 0.039705414324999 5.2811678870057e-06
0.096264660358429 0.035212472081184 2.8803131499444e-05
0.12160521745682 0.029763834550977 0.00011275619908702
0.14723715186119 0.024430047720671 0.0002980679855682
0.17342878878117 0.02185139246285 0.00061330513563007
0.20095129311085 0.023948395624757 0.0010909698903561
0.23099271953106 0.03025221824646 0.0018005385063589
0.26377803087234 0.040275391191244 0.0028626711573452
0.29893684387207 0.054067842662334 0.0044705192558467
0.33595502376556 0.071933820843697 0.0069368123076856
0.37434989213943 0.094063065946102 0.010781922377646
0.41372162103653 0.12042788416147 0.016902439296246
0.4537545144558 0.15082095563412 0.026891710236669
0.49419778585434 0.18499916791916 0.042522583156824
0.53484004735947 0.22285711765289 0.065283477306366
0.57548731565475 0.26450702548027 0.097048498690128
0.61595445871353 0.31011617183685 0.13892565667629
0.65607845783234 0.35949063301086 0.19058582186699
0.69574880599976 0.41173684597015 0.25030505657196
0.73492288589478 0.46543827652931 0.31565314531326
0.77360165119171 0.51925945281982 0.38419458270073
0.81178849935532 0.57239961624146 0.45378395915031
0.84949511289597 0.62455892562866 0.52252203226089
0.88683605194092 0.67558199167252 0.58862590789795
0.92416977882385 0.72514921426773 0.65042036771774
0.002507797209546 0.040260702371597 3.3864087072288e-06
0.0026424846146256 0.042196817696095 3.3652418096608e-06
0.002843507565558 0.045020759105682 3.3315700420644e-06
0.0031426548957825 0.049085080623627 3.3144433473353e-06
0.0035874808672816 0.054797098040581 3.3276662634307e-06
0.0060767033137381 0.061784200370312 3.4527442949184e-06
0.030891641974449 0.062570706009865 3.8290804695862e-06
0.062998302280903 0.061105161905289 5.0401695261826e-06
0.094829425215721 0.05748512595892 1.0326053597964e-05
0.12485940754414 0.051788654178381 4.4854416046292e-05
0.15333697199821 0.044702008366585 0.00016752086230554
0.18139599263668 0.037408005446196 0.00044160571997054
0.20949260890484 0.033369075506926 0.00091351324226707
0.23844346404076 0.035881847143173 0.0016339680878446
0.26957261562347 0.044099524617195 0.0027101701125503
0.30320054292679 0.056929230690002 0.0043331384658813
0.3389975130558 0.074151501059532 0.0068161068484187
0.37647956609726 0.095782063901424 0.010681249201298
0.41519337892532 0.12174054980278 0.016827924177051
0.45476254820824 0.15180502831936 0.026853365823627
0.49488350749016 0.18572570383549 0.042533233761787
0.5353040099144 0.22338861227036 0.065342918038368
0.57579958438873 0.2648937702179 0.097146943211555
0.61616367101669 0.3103956580162 0.13904511928558
0.65621811151505 0.35968941450119 0.19070522487164
0.69584184885025 0.41187465190887 0.25040984153748
0.73498487472534 0.46553146839142 0.31573647260666
0.77364283800125 0.51932114362717 0.38425660133362
0.81181597709656 0.57244032621384 0.45382788777351
0.84951335191727 0.62458550930023 0.52255171537399
0.88684821128845 0.67559933662415 0.58864545822144
0.92417818307877 0.72516047954559 0.65043270587921
0.003803976578638 0.057535499334335 5.7481584008201e-06
0.0039385724812746 0.059180606156588 5.7768033911998e-06
0.0041392166167498 0.061585262417793 5.8114746934734e-06
0.0044381720945239 0.0650674700737 5.8774307944987e-06
0.0048822378739715 0.070031479001045 6.0256070355535e-06
0.0055463537573814 0.076922513544559 6.3504148783977e-06
0.01050222478807 0.084831669926643 7.0245864662866e-06
0.046386357396841 0.085453078150749 8.4012663137401e-06
0.085993587970734 0.083680249750614 1.1447336873971e-05
0.12305198609829 0.079334296286106 2.0990992197767e-05
0.15669830143452 0.072398819029331 7.3478142439853e-05
0.18773293495178 0.063582338392735 0.00025601487141103
0.21767789125443 0.054227031767368 0.00066572084324434
0.24720354378223 0.048663344234228 0.0013770442456007
0.27719983458519 0.051544014364481 0.0024712197482586
0.30910539627075 0.061826914548874 0.0041185533627868
0.34332114458084 0.077689349651337 0.0066291112452745
0.37955194711685 0.098429217934608 0.010526649653912
0.41733676195145 0.12372620403767 0.01671383716166
0.45623958110809 0.15328003466129 0.026794588193297
0.49589243531227 0.18680939078331 0.042547546327114
0.53598839044571 0.22417923808098 0.065430678427219
0.57626116275787 0.26546850800514 0.097293645143509
0.61647319793701 0.31081059575081 0.13922220468521
0.65642493963242 0.35998430848122 0.19088262319565
0.69597971439362 0.41207918524742 0.25056511163712
0.73507660627365 0.46566963195801 0.31586012244225
0.77370393276215 0.51941281557083 0.38434892892838
0.811856508255 0.57250046730042 0.45389321446419
0.84954041242599 0.62462508678436 0.52259600162506
0.88686633110046 0.67562532424927 0.58867430686951
0.92419040203094 0.72517716884613 0.65045082569122
0.0057280510663986 0.078866668045521 1.0025449228124e-05
0.0058626094833016 0.080212496221066 1.0122490493814e-05
0.0060629677027464 0.082184217870235 1.0247941645503e-05
0.006361439358443 0.085052907466888 1.0456833479111e-05
0.0068056574091315 0.089180387556553 1.0825873687281e-05
0.0074648512527347 0.095014318823814 1.1449363228166e-05
0.0084579046815634 0.10302396118641 1.2592533494171e-05
0.0172756947577 0.11174227297306 1.466768571845e-05
0.065858952701092 0.11226261407137 1.8465927496436e-05
0.11290848255157 0.11020486056805 2.5737335818121e-05
0.15458302199841 0.10517762601376 4.3879372242372e-05
0.19118344783783 0.09705962985754 0.00012639349733945
0.22420021891594 0.086547717452049 0.00040301983244717
0.25555282831192 0.075105048716068 0.0010224741417915
0.28611579537392 0.067953020334244 0.002104559680447
0.31685563921928 0.071239665150642 0.0037831221707165
0.34930136799812 0.083701126277447 0.0063374587334692
0.38391542434692 0.1026321798563 0.010287025943398
0.42042773962021 0.12677454948425 0.016538554802537
0.4583899974823 0.15550681948662 0.026704654097557
0.49737054109573 0.18843184411526 0.042568854987621
0.53699517250061 0.22535765171051 0.065562300384045
0.57694190740585 0.26632285118103 0.097511872649193
0.61693072319031 0.31142663955688 0.1394857019186
0.65673089027405 0.36042177677155 0.19114565849304
0.69618374109268 0.41238245368004 0.25079545378685
0.73521262407303 0.46587452292442 0.31604373455048
0.7737945318222 0.51954865455627 0.38448545336723
0.81191682815552 0.57258993387222 0.45398968458176
0.84958058595657 0.62468385696411 0.52266156673431
0.88689333200455 0.6756637096405 0.58871710300446
0.92420876026154 0.72520214319229 0.65047764778137
0.0085845710709691 0.10421750694513 1.8070213627652e-05
0.0087191602215171 0.10527771711349 1.82547573786e-05
0.0089193722233176 0.10683459043503 1.8530028683017e-05
0.0092173898592591 0.10910895466805 1.8958844520967e-05
0.0096610812470317 0.11240446567535 1.9630966562545e-05
0.010321031324565 0.1171198412776 2.0729368770844e-05
0.011299859732389 0.12373577058315 2.2547865228262e-05
0.012784935534 0.13273304700851 2.5681265469757e-05
0.027410048991442 0.14213348925114 3.1130686693359e-05
0.089403010904789 0.14258815348148 4.0641243685968e-05
0.14332556724548 0.14028403162956 5.7444052799838e-05
0.18882566690445 0.13466194272041 9.3306269263849e-05
0.22771991789341 0.12549524009228 0.00022773741511628
0.26221269369125 0.11344264447689 0.00065536133479327
0.29458317160606 0.10004371404648 0.0016050260746852
0.32587957382202 0.09136863052845 0.0032714046537876
0.35713496804237 0.095092825591564 0.005882955621928
0.38994517922401 0.10971842706203 0.0099139157682657
0.42481577396393 0.13159127533436 0.016267089173198
0.46149054169655 0.15891501307487 0.026565540581942
0.49952211976051 0.19087651371956 0.042599201202393
0.53846997022629 0.22711953520775 0.065758600831032
0.57794326543808 0.26759496331215 0.097837641835213
0.61760556697845 0.31234177947044 0.13987718522549
0.6571831703186 0.36107105016708 0.19153615832329
0.69648575782776 0.41283220052719 0.25113731622696
0.73541390895844 0.46617835760117 0.3163158595562
0.77392876148224 0.5197502374649 0.38468784093857
0.81200623512268 0.57272255420685 0.45413321256638
0.84964025020599 0.62477082014084 0.52275902032852
0.8869332075119 0.67572057247162 0.58878058195114
0.92423582077026 0.72523903846741 0.65051752328873
0.012826317921281 0.13326585292816 3.3750042348402e-05
0.012961016967893 0.1340724080801 3.4079144825228e-05
0.013161190785468 0.13525941967964 3.4571130527183e-05
0.013458978384733 0.13699957728386 3.5299060982652e-05
0.01390212867409 0.13953548669815 3.6441379052121e-05
0.014561644755304 0.14319750666618 3.8207377656363e-05
0.015542332082987 0.14841325581074 4.1071933083003e-05
0.016996454447508 0.15568697452545 4.5725730160484e-05
0.019216099753976 0.16550210118294 5.3583586122841e-05
0.041467420756817 0.17545089125633 6.6860127844848e-05
0.1168210953474 0.17586120963097 8.9386921899859e-05
0.17667339742184 0.17335678637028 0.00012765458086506
0.22517853975296 0.16724765300751 0.00020071509061381
0.26578268408775 0.15721160173416 0.00042838836088777
0.30134063959122 0.14385613799095 0.001104942872189
0.33442828059196 0.12876138091087 0.0025862911716104
0.36623066663742 0.11875452101231 0.0051951771602035
0.39783239364624 0.12295651435852 0.0093355122953653
0.4308750629425 0.13964879512787 0.01584560982883
0.46589025855064 0.16427502036095 0.026349399238825
0.50262343883514 0.19460669159889 0.042643815279007
0.54061627388 0.22976866364479 0.066052824258804
0.57940977811813 0.2694935798645 0.098323002457619
0.61859792470932 0.31370252370834 0.14046034216881
0.65784996747971 0.36203444004059 0.19211652874947
0.69693201780319 0.41349905729294 0.25164386630058
0.73571193218231 0.46662878990173 0.31671923398972
0.77412748336792 0.52004909515381 0.38498812913895
0.81213873624802 0.57291930913925 0.45434582233429
0.84972846508026 0.62489998340607 0.52290332317352
0.88699239492416 0.67580509185791 0.58887499570847
0.92427599430084 0.72529375553131 0.65057682991028
0.019127424806356 0.16548916697502 6.5237196395174e-05
0.019262298941612 0.16608452796936 6.5778556745499e-05
0.019462589174509 0.16696240007877 6.6577224060893e-05
0.019760439172387 0.16825325787067 6.7770211899187e-05
0.020203374326229 0.1701430529356 6.9606248871423e-05
0.020862517878413 0.17289158701897 7.2399881901219e-05
0.021843258291483 0.17685000598431 7.6778174843639e-05
0.023301253095269 0.18246738612652 8.3724968135357e-05
0.025460807606578 0.19026389718056 9.491243690718e-05
0.028739621862769 0.20072065293789 0.00011360777716618
0.059447526931763 0.21109093725681 0.00014469612506218
0.147670596838 0.21147072315216 0.00019675155635923
0.21234175562859 0.20881198346615 0.00028273920179345
0.26310643553734 0.20232604444027 0.0004349461523816
0.30494472384453 0.19161202013493 0.00083636271301657
0.34125113487244 0.17722764611244 0.0019370929803699
0.37483152747154 0.16077695786953 0.0042989091016352
0.40697187185287 0.14973326027393 0.0084720384329557
0.43879243731499 0.15449695289135 0.015198562294245
0.47196239233017 0.17317092418671 0.026015821844339
0.50702285766602 0.20044392347336 0.042710229754448
0.54370927810669 0.23379716277122 0.06649711728096
0.58154380321503 0.27234116196632 0.099051490426064
0.62005120515823 0.31572932004929 0.14132939279079
0.65883076190948 0.36346465349197 0.19297793507576
0.69759005308151 0.41448771953583 0.2523952126503
0.73615217208862 0.46729624271393 0.31731635332108
0.7744215130806 0.52049195766449 0.38543283939362
0.81233489513397 0.57321083545685 0.45466089248657
0.84985935688019 0.62509143352509 0.52311724424362
0.88708007335663 0.67593026161194 0.58901476860046
0.92433559894562 0.72537505626678 0.65066456794739
0.028457153588533 0.20028014481068 0.00013004944776185
0.028589963912964 0.20070895552635 0.00013088424748275
0.028787015005946 0.20134226977825 0.0001321769959759
0.029079487547278 0.20227578282356 0.00013404128549155
0.029513567686081 0.20364730060101 0.00013689650222659
0.030157040804625 0.2056530714035 0.00014120887499303
0.031107354909182 0.20856602489948 0.00014781310164835
0.032505370676517 0.21275255084038 0.00015803605492692
0.034549564123154 0.2186771184206 0.00017432127788197
0.037509448826313 0.22687035799026 0.00020048252190463
0.041909676045179 0.23780901730061 0.00024354641209356
0.081526815891266 0.24849101901054 0.00031485449289903
0.18137453496456 0.24884957075119 0.00043295428622514
0.2497666478157 0.24607756733894 0.00062468118267134
0.30217111110687 0.23931533098221 0.00094680825714022
0.34487515687943 0.22810408473015 0.0016839707968757
0.38169321417809 0.21296578645706 0.0035341496113688
0.41559994220734 0.19553560018539 0.0074034491553903
0.44795143604279 0.18383774161339 0.014261885546148
0.4798886179924 0.18934872746468 0.025520896539092
0.51309090852737 0.210051253438 0.042820863425732
0.54809510707855 0.24006468057632 0.067175932228565
0.58461797237396 0.27665296196938 0.10014870762825
0.62216544151306 0.31875914335251 0.14262615144253
0.66026675701141 0.36558997631073 0.1942577958107
0.69855773448944 0.41595315933228 0.25350815057755
0.73680150508881 0.46828481554985 0.3182013630867
0.77485603094101 0.52114802598953 0.38609176874161
0.81262505054474 0.57364284992218 0.45512741804123
0.85005313158035 0.62537515163422 0.52343422174454
0.88721013069153 0.67611587047577 0.58922171592712
0.92442405223846 0.72549545764923 0.65079486370087
0.041396677494049 0.23704749345779 0.00026600193814375
