2499DRT/STP-2399Log-ClassicReversal.cube
TITLE "Generated by Resolve"
LUT_3D_SIZE 33
0.0621042 0.0381476 0.0262913
0.0703899 0.0381476 0.0262913
0.0800641 0.0381476 0.0262913
0.0924697 0.0381476 0.0262913
0.107988 0.0381476 0.0262913
0.126894 0.0381476 0.0262913
0.149172 0.0381476 0.0262913
0.174624 0.0381476 0.0262913
0.202747 0.0381476 0.0262913
0.232929 0.0381476 0.0262913
0.264469 0.0381476 0.0262913
0.29662 0.0381476 0.0262913
0.32871 0.0381476 0.0262913
0.360189 0.0381476 0.0262913
0.390677 0.0381476 0.0262913
0.419959 0.0381476 0.0262913
0.44799 0.0381476 0.0262913
0.474784 0.0381476 0.0262913
0.500465 0.0381476 0.0262913
0.525154 0.0381476 0.0262913
0.548943 0.0381476 0.0262913
0.571984 0.0381476 0.0262913
0.594385 0.0381476 0.0262913
0.616236 0.0381476 0.0262913
0.637629 0.0381476 0.0262913
0.658625 0.0381476 0.0262913
0.679301 0.0381476 0.0262913
0.699718 0.0381476 0.0262913
0.71989 0.0381476 0.0262913
0.739864 0.0381476 0.0262913
0.759701 0.0381476 0.0262913
0.779385 0.0381476 0.0262913
0.798932 0.0381476 0.0262913
0.0621042 0.047425 0.0262913
0.0703899 0.047425 0.0262913
0.0800641 0.047425 0.0262913
0.0924697 0.047425 0.0262913
0.107988 0.047425 0.0262913
0.126894 0.047425 0.0262913
0.149172 0.047425 0.0262913
0.174624 0.047425 0.0262913
0.202747 0.047425 0.0262913
0.232929 0.047425 0.0262913
0.264469 0.047425 0.0262913
0.29662 0.047425 0.0262913
0.32871 0.047425 0.0262913
0.360189 0.047425 0.0262913
0.390677 0.047425 0.0262913
0.419959 0.047425 0.0262913
0.44799 0.047425 0.0262913
0.474784 0.047425 0.0262913
0.500465 0.047425 0.0262913
0.525154 0.047425 0.0262913
0.548943 0.047425 0.0262913
0.571984 0.047425 0.0262913
0.594385 0.047425 0.0262913
0.616236 0.047425 0.0262913
0.637629 0.047425 0.0262913
0.658625 0.047425 0.0262913
0.679301 0.047425 0.0262913
0.699718 0.047425 0.0262913
0.71989 0.047425 0.0262913
0.739864 0.047425 0.0262913
0.759701 0.047425 0.0262913
0.779385 0.047425 0.0262913
0.798932 0.047425 0.0262913
0.0621042 0.0587778 0.0262913
0.0703899 0.0587778 0.0262913
0.0800641 0.0587778 0.0262913
0.0924697 0.0587778 0.0262913
0.107988 0.0587778 0.0262913
0.126894 0.0587778 0.0262913
0.149172 0.0587778 0.0262913
0.174624 0.0587778 0.0262913
0.202747 0.0587778 0.0262913
0.232929 0.0587778 0.0262913
0.264469 0.0587778 0.0262913
0.29662 0.0587778 0.0262913
0.32871 0.0587778 0.0262913
0.360189 0.0587778 0.0262913
0.390677 0.0587778 0.0262913
0.419959 0.0587778 0.0262913
0.44799 0.0587778 0.0262913
0.474784 0.0587778 0.0262913
0.500465 0.0587778 0.0262913
0.525154 0.0587778 0.0262913
0.548943 0.0587778 0.0262913
0.571984 0.0587778 0.0262913
0.594385 0.0587778 0.0262913
0.616236 0.0587778 0.0262913
0.637629 0.0587778 0.0262913
0.658625 0.0587778 0.0262913
0.679301 0.0587778 0.0262913
0.699718 0.0587778 0.0262913
0.71989 0.0587778 0.0262913
0.739864 0.0587778 0.0262913
0.759701 0.0587778 0.0262913
0.779385 0.0587778 0.0262913
0.798932 0.0587778 0.0262913
0.0621042 0.0738842 0.0262913
0.0703899 0.0738842 0.0262913
0.0800641 0.0738842 0.0262913
0.0924697 0.0738842 0.0262913
0.107988 0.0738842 0.0262913
0.126894 0.0738842 0.0262913
0.149172 0.0738842 0.0262913
0.174624 0.0738842 0.0262913
0.202747 0.0738842 0.0262913
0.232929 0.0738842 0.0262913
0.264469 0.0738842 0.0262913
0.29662 0.0738842 0.0262913
0.32871 0.0738842 0.0262913
0.360189 0.0738842 0.0262913
0.390677 0.0738842 0.0262913
0.419959 0.0738842 0.0262913
0.44799 0.0738842 0.0262913
0.474784 0.0738842 0.0262913
0.500465 0.0738842 0.0262913
0.525154 0.0738842 0.0262913
0.548943 0.0738842 0.0262913
0.571984 0.0738842 0.0262913
0.594385 0.0738842 0.0262913
0.616236 0.0738842 0.0262913
0.637629 0.0738842 0.0262913
0.658625 0.0738842 0.0262913
0.679301 0.0738842 0.0262913
0.699718 0.0738842 0.0262913
0.71989 0.0738842 0.0262913
0.739864 0.0738842 0.0262913
0.759701 0.0738842 0.0262913
0.779385 0.0738842 0.0262913
0.798932 0.0738842 0.0262913
0.0621042 0.0933852 0.0262913
0.0703899 0.0933852 0.0262913
0.0800641 0.0933852 0.0262913
0.0924697 0.0933852 0.0262913
0.107988 0.0933852 0.0262913
0.126894 0.0933852 0.0262913
0.149172 0.0933852 0.0262913
0.174624 0.0933852 0.0262913
0.202747 0.0933852 0.0262913
0.232929 0.0933852 0.0262913
0.264469 0.0933852 0.0262913
0.29662 0.0933852 0.0262913
0.32871 0.0933852 0.0262913
0.360189 0.0933852 0.0262913
0.390677 0.0933852 0.0262913
0.419959 0.0933852 0.0262913
0.44799 0.0933852 0.0262913
0.474784 0.0933852 0.0262913
0.500465 0.0933852 0.0262913
0.525154 0.0933852 0.0262913
0.548943 0.0933852 0.0262913
0.571984 0.0933852 0.0262913
0.594385 0.0933852 0.0262913
0.616236 0.0933852 0.0262913
0.637629 0.0933852 0.0262913
0.658625 0.0933852 0.0262913
0.679301 0.0933852 0.0262913
0.699718 0.0933852 0.0262913
0.71989 0.0933852 0.0262913
0.739864 0.0933852 0.0262913
0.759701 0.0933852 0.0262913
0.779385 0.0933852 0.0262913
0.798932 0.0933852 0.0262913
0.0621042 0.117571 0.0262913
0.0703899 0.117571 0.0262913
0.0800641 0.117571 0.0262913
0.0924697 0.117571 0.0262913
0.107988 0.117571 0.0262913
0.126894 0.117571 0.0262913
0.149172 0.117571 0.0262913
0.174624 0.117571 0.0262913
0.202747 0.117571 0.0262913
0.232929 0.117571 0.0262913
0.264469 0.117571 0.0262913
0.29662 0.117571 0.0262913
0.32871 0.117571 0.0262913
0.360189 0.117571 0.0262913
0.390677 0.117571 0.0262913
0.419959 0.117571 0.0262913
0.44799 0.117571 0.0262913
0.474784 0.117571 0.0262913
0.500465 0.117571 0.0262913
0.525154 0.117571 0.0262913
0.548943 0.117571 0.0262913
0.571984 0.117571 0.0262913
0.594385 0.117571 0.0262913
0.616236 0.117571 0.0262913
0.637629 0.117571 0.0262913
0.658625 0.117571 0.0262913
0.679301 0.117571 0.0262913
0.699718 0.117571 0.0262913
0.71989 0.117571 0.0262913
0.739864 0.117571 0.0262913
0.759701 0.117571 0.0262913
0.77937 0.117571 0.0262913
0.798947 0.117571 0.0262913
0.0621042 0.146258 0.0262913
0.0703899 0.146258 0.0262913
0.0800641 0.146258 0.0262913
0.0924697 0.146258 0.0262913
0.107988 0.146258 0.0262913
0.126894 0.146258 0.0262913
0.149172 0.146258 0.0262913
0.174624 0.146258 0.0262913
0.202747 0.146258 0.0262913
0.232929 0.146258 0.0262913
0.264469 0.146258 0.0262913
0.29662 0.146258 0.0262913
0.32871 0.146258 0.0262913
0.360189 0.146258 0.0262913
0.390677 0.146258 0.0262913
0.419959 0.146258 0.0262913
0.44799 0.146258 0.0262913
0.474784 0.146258 0.0262913
0.500465 0.146258 0.0262913
0.525154 0.146258 0.0262913
0.548943 0.146258 0.0262913
0.571984 0.146258 0.0262913
0.594385 0.146258 0.0262913
0.616236 0.146258 0.0262913
0.637629 0.146258 0.0262913
0.658625 0.146258 0.0262913
0.679301 0.146258 0.0262913
0.699718 0.146258 0.0262913
0.71989 0.146258 0.0262913
0.739864 0.146258 0.0262913
0.759701 0.146258 0.0262913
0.77937 0.146258 0.0262913
0.798947 0.146258 0.0262913
0.0621042 0.17882 0.0262913
0.0703899 0.17882 0.0262913
0.0800641 0.17882 0.0262913
0.0924697 0.17882 0.0262913
0.107988 0.17882 0.0262913
0.126894 0.17882 0.0262913
0.149172 0.17882 0.0262913
0.174624 0.17882 0.0262913
0.202747 0.17882 0.0262913
0.232929 0.17882 0.0262913
0.264469 0.17882 0.0262913
0.29662 0.17882 0.0262913
0.32871 0.17882 0.0262913
0.360189 0.17882 0.0262913
0.390677 0.17882 0.0262913
0.419959 0.17882 0.0262913
0.44799 0.17882 0.0262913
0.474784 0.17882 0.0262913
0.500465 0.17882 0.0262913
0.525154 0.17882 0.0262913
0.548943 0.17882 0.0262913
0.571984 0.17882 0.0262913
0.594385 0.17882 0.0262913
0.616236 0.17882 0.0262913
0.637629 0.17882 0.0262913
0.658625 0.17882 0.0262913
0.679301 0.17882 0.0262913
0.699718 0.17882 0.0262913
0.71989 0.17882 0.0262913
0.739864 0.17882 0.0262913
0.759701 0.17882 0.0262913
0.77937 0.17882 0.0262913
0.798947 0.17882 0.0262913
0.0621042 0.214343 0.0262913
0.0703899 0.214343 0.0262913
0.0800641 0.214343 0.0262913
0.0924697 0.214343 0.0262913
0.107988 0.214343 0.0262913
0.126894 0.214343 0.0262913
0.149172 0.214343 0.0262913
0.174624 0.214343 0.0262913
0.202747 0.214343 0.0262913
0.232929 0.214343 0.0262913
0.264469 0.214343 0.0262913
0.29662 0.214343 0.0262913
0.32871 0.214343 0.0262913
0.360189 0.214343 0.0262913
0.390677 0.214343 0.0262913
0.419959 0.214343 0.0262913
0.44799 0.214343 0.0262913
0.474784 0.214343 0.0262913
0.500465 0.214343 0.0262913
0.525154 0.214343 0.0262913
0.548943 0.214343 0.0262913
0.571984 0.214343 0.0262913
0.594385 0.214343 0.0262913
0.616236 0.214343 0.0262913
0.637629 0.214343 0.0262913
0.658625 0.214343 0.0262913
0.679301 0.214343 0.0262913
0.699718 0.214343 0.0262913
0.71989 0.214343 0.0262913
0.739864 0.214343 0.0262913
0.759701 0.214343 0.0262913
0.77937 0.214343 0.0262913
0.798947 0.214343 0.0262913
0.0621042 0.251774 0.0262913
0.0703899 0.251774 0.0262913
0.0800641 0.251774 0.0262913
0.0924697 0.251774 0.0262913
0.107988 0.251774 0.0262913
0.126894 0.251774 0.0262913
0.149172 0.251774 0.0262913
0.174624 0.251774 0.0262913
0.202747 0.251774 0.0262913
0.232929 0.251774 0.0262913
0.264469 0.251774 0.0262913
0.29662 0.251774 0.0262913
0.32871 0.251774 0.0262913
0.360189 0.251774 0.0262913
0.390677 0.251774 0.0262913
0.419959 0.251774 0.0262913
0.44799 0.251774 0.0262913
0.474784 0.251774 0.0262913
0.500465 0.251774 0.0262913
0.525154 0.251774 0.0262913
0.548943 0.251774 0.0262913
0.571984 0.251774 0.0262913
0.594385 0.251774 0.0262913
0.616236 0.251774 0.0262913
0.637629 0.251774 0.0262913
0.658625 0.251774 0.0262913
0.679301 0.251774 0.0262913
0.699718 0.251774 0.0262913
0.71989 0.251774 0.0262913
0.739864 0.251774 0.0262913
0.759701 0.251774 0.0262913
0.77937 0.251774 0.0262913
0.798947 0.251774 0.0262913
0.0621042 0.289967 0.0262913
0.0703899 0.289967 0.0262913
0.0800641 0.289967 0.0262913
0.0924697 0.289967 0.0262913
0.107988 0.289967 0.0262913
0.126894 0.289967 0.0262913
0.149172 0.289967 0.0262913
0.174624 0.289967 0.0262913
0.202747 0.289967 0.0262913
0.232929 0.289967 0.0262913
0.264469 0.289967 0.0262913
0.29662 0.289967 0.0262913
0.32871 0.289967 0.0262913
0.360189 0.289967 0.0262913
0.390677 0.289967 0.0262913
0.419959 0.289967 0.0262913
0.44799 0.289967 0.0262913
0.474784 0.289967 0.0262913
0.500465 0.289967 0.0262913
0.525154 0.289967 0.0262913
0.548943 0.289967 0.0262913
0.571984 0.289967 0.0262913
0.594385 0.289967 0.0262913
0.616236 0.289967 0.0262913
0.637629 0.289967 0.0262913
0.658625 0.289967 0.0262913
0.679301 0.289967 0.0262913
0.699718 0.289967 0.0262913
0.71989 0.289967 0.0262913
0.739864 0.289967 0.0262913
0.759701 0.289967 0.0262913
0.77937 0.289967 0.0262913
0.798947 0.289967 0.0262913
0.0621042 0.327871 0.0262913
0.0703899 0.327871 0.0262913
0.0800641 0.327871 0.0262913
0.0924697 0.327871 0.0262913
0.107988 0.327871 0.0262913
0.126894 0.327871 0.0262913
0.149172 0.327871 0.0262913
0.174624 0.327871 0.0262913
0.202747 0.327871 0.0262913
0.232929 0.327871 0.0262913
0.264469 0.327871 0.0262913
0.29662 0.327871 0.0262913
0.32871 0.327871 0.0262913
0.360189 0.327871 0.0262913
0.390677 0.327871 0.0262913
0.419959 0.327871 0.0262913
0.44799 0.327871 0.0262913
0.474784 0.327871 0.0262913
0.500465 0.327871 0.0262913
0.525154 0.327871 0.0262913
0.548943 0.327871 0.0262913
0.571984 0.327871 0.0262913
0.594385 0.327871 0.0262913
0.616236 0.327871 0.0262913
0.637629 0.327871 0.0262913
0.658625 0.327871 0.0262913
0.679301 0.327871 0.0262913
0.699718 0.327871 0.0262913
0.71989 0.327871 0.0262913
0.739864 0.327871 0.0262913
0.759701 0.327871 0.0262913
0.77937 0.327871 0.0262913
0.798947 0.327871 0.0262913
0.0621042 0.364614 0.0262913
0.0703899 0.364614 0.0262913
0.0800641 0.364614 0.0262913
0.0924697 0.364614 0.0262913
0.107988 0.364614 0.0262913
0.126894 0.364614 0.0262913
0.149172 0.364614 0.0262913
0.174624 0.364614 0.0262913
0.202747 0.364614 0.0262913
0.232929 0.364614 0.0262913
0.264469 0.364614 0.0262913
0.29662 0.364614 0.0262913
0.32871 0.364614 0.0262913
0.360189 0.364614 0.0262913
0.390677 0.364614 0.0262913
0.419959 0.364614 0.0262913
0.44799 0.364614 0.0262913
0.474784 0.364614 0.0262913
0.500465 0.364614 0.0262913
0.525154 0.364614 0.0262913
0.548943 0.364614 0.0262913
0.571984 0.364614 0.0262913
0.594385 0.364614 0.0262913
0.616236 0.364614 0.0262913
0.637629 0.364614 0.0262913
0.658625 0.364614 0.0262913
0.679301 0.364614 0.0262913
0.699718 0.364614 0.0262913
0.71989 0.364614 0.0262913
0.739864 0.364614 0.0262913
0.759701 0.364614 0.0262913
0.77937 0.364614 0.0262913
0.798947 0.364614 0.0262913
0.0621042 0.399619 0.0262913
0.0703899 0.399619 0.0262913
0.0800641 0.399619 0.0262913
0.0924697 0.399619 0.0262913
0.107988 0.399619 0.0262913
0.126894 0.399619 0.0262913
0.149172 0.399619 0.0262913
0.174624 0.399619 0.0262913
0.202747 0.399619 0.0262913
0.232929 0.399619 0.0262913
0.264469 0.399619 0.0262913
0.29662 0.399619 0.0262913
0.32871 0.399619 0.0262913
0.360189 0.399619 0.0262913
0.390677 0.399619 0.0262913
0.419959 0.399619 0.0262913
0.44799 0.399619 0.0262913
0.474784 0.399619 0.0262913
0.500465 0.399619 0.0262913
0.525154 0.399619 0.0262913
0.548943 0.399619 0.0262913
0.571984 0.399619 0.0262913
0.594385 0.399619 0.0262913
0.616236 0.399619 0.0262913
0.637629 0.399619 0.0262913
0.658625 0.399619 0.0262913
0.679301 0.399619 0.0262913
0.699718 0.399619 0.0262913
0.71989 0.399619 0.0262913
0.739864 0.399619 0.0262913
0.759701 0.399619 0.0262913
0.77937 0.399619 0.0262913
0.798947 0.399619 0.0262913
0.0621042 0.432624 0.0262913
0.0703899 0.432624 0.0262913
0.0800641 0.432624 0.0262913
0.0924697 0.432624 0.0262913
0.107988 0.432624 0.0262913
0.126894 0.432624 0.0262913
0.149172 0.432624 0.0262913
0.174624 0.432624 0.0262913
0.202747 0.432624 0.0262913
0.232929 0.432624 0.0262913
0.264469 0.432624 0.0262913
0.29662 0.432624 0.0262913
0.32871 0.432624 0.0262913
0.360189 0.432624 0.0262913
0.390677 0.432624 0.0262913
0.419959 0.432624 0.0262913
0.44799 0.432624 0.0262913
0.474784 0.432624 0.0262913
0.500465 0.432624 0.0262913
0.525154 0.432624 0.0262913
0.548943 0.432624 0.0262913
0.571984 0.432624 0.0262913
0.594385 0.432624 0.0262913
0.616236 0.432624 0.0262913
0.637629 0.432624 0.0262913
0.658625 0.432624 0.0262913
0.679301 0.432624 0.0262913
0.699718 0.432624 0.0262913
0.71989 0.432624 0.0262913
0.739864 0.432624 0.0262913
0.759701 0.432624 0.0262913
0.77937 0.432624 0.0262913
0.798947 0.432624 0.0262913
0.0621042 0.463554 0.0262913
0.0703899 0.463554 0.0262913
0.0800641 0.463554 0.0262913
0.0924697 0.463554 0.0262913
0.107988 0.463554 0.0262913
0.126894 0.463554 0.0262913
0.149172 0.463554 0.0262913
0.174624 0.463554 0.0262913
0.202747 0.463554 0.0262913
0.232929 0.463554 0.0262913
0.264469 0.463554 0.0262913
0.29662 0.463554 0.0262913
0.32871 0.463554 0.0262913
0.360189 0.463554 0.0262913
0.390677 0.463554 0.0262913
0.419959 0.463554 0.0262913
0.44799 0.463554 0.0262913
0.474784 0.463554 0.0262913
0.500465 0.463554 0.0262913
0.525154 0.463554 0.0262913
0.548943 0.463554 0.0262913
0.571984 0.463554 0.0262913
0.594385 0.463554 0.0262913
0.616236 0.463554 0.0262913
0.637629 0.463554 0.0262913
0.658625 0.463554 0.0262913
0.679301 0.463554 0.0262913
0.699718 0.463554 0.0262913
0.71989 0.463554 0.0262913
0.739864 0.463554 0.0262913
0.759701 0.463554 0.0262913
0.77937 0.463554 0.0262913
0.798947 0.463554 0.0262913
0.0621042 0.492485 0.0262913
0.0703899 0.492485 0.0262913
0.0800641 0.492485 0.0262913
0.0924697 0.492485 0.0262913
0.107988 0.492485 0.0262913
0.126894 0.492485 0.0262913
0.149172 0.492485 0.0262913
0.174624 0.492485 0.0262913
0.202747 0.492485 0.0262913
0.232929 0.492485 0.0262913
0.264469 0.492485 0.0262913
0.29662 0.492485 0.0262913
0.32871 0.492485 0.0262913
0.360189 0.492485 0.0262913
0.390677 0.492485 0.0262913
0.419959 0.492485 0.0262913
0.44799 0.492485 0.0262913
0.474784 0.492485 0.0262913
0.500465 0.492485 0.0262913
0.525154 0.492485 0.0262913
0.548943 0.492485 0.0262913
0.571984 0.492485 0.0262913
0.594385 0.492485 0.0262913
0.616236 0.492485 0.0262913
0.637629 0.492485 0.0262913
0.658625 0.492485 0.0262913
0.679301 0.492485 0.0262913
0.699702 0.492485 0.0262913
0.71989 0.492485 0.0262913
0.739864 0.492485 0.0262913
0.759701 0.492485 0.0262913
0.77937 0.492485 0.0262913
0.798947 0.492485 0.0262913
0.0621042 0.519509 0.0262913
0.0703899 0.519509 0.0262913
0.0800641 0.519509 0.0262913
0.0924697 0.519509 0.0262913
0.107988 0.519509 0.0262913
0.126894 0.519509 0.0262913
0.149172 0.519509 0.0262913
0.174624 0.519509 0.0262913
0.202747 0.519509 0.0262913
0.232929 0.519509 0.0262913
0.264469 0.519509 0.0262913
0.29662 0.519509 0.0262913
0.32871 0.519509 0.0262913
0.360189 0.519509 0.0262913
0.390677 0.519509 0.0262913
0.419959 0.519509 0.0262913
0.44799 0.519509 0.0262913
0.474784 0.519509 0.0262913
0.500465 0.519509 0.0262913
0.525154 0.519509 0.0262913
0.548943 0.519509 0.0262913
0.571984 0.519509 0.0262913
0.594385 0.519509 0.0262913
0.616236 0.519509 0.0262913
0.637629 0.519509 0.0262913
0.658625 0.519509 0.0262913
0.679301 0.519509 0.0262913
0.699718 0.519509 0.0262913
0.71989 0.519509 0.0262913
0.739864 0.519509 0.0262913
0.759701 0.519509 0.0262913
0.77937 0.519509 0.0262913
0.798947 0.519509 0.0262913
0.0621042 0.544747 0.0262913
0.0703899 0.544747 0.0262913
0.0800641 0.544747 0.0262913
0.0924697 0.544747 0.0262913
0.107988 0.544747 0.0262913
0.126894 0.544747 0.0262913
0.149172 0.544747 0.0262913
0.174624 0.544747 0.0262913
0.202747 0.544747 0.0262913
0.232929 0.544747 0.0262913
0.264469 0.544747 0.0262913
0.29662 0.544747 0.0262913
0.32871 0.544747 0.0262913
0.360189 0.544747 0.0262913
0.390677 0.544747 0.0262913
0.419959 0.544747 0.0262913
0.44799 0.544747 0.0262913
0.474784 0.544747 0.0262913
0.500465 0.544747 0.0262913
0.525154 0.544747 0.0262913
0.548943 0.544747 0.0262913
0.571984 0.544747 0.0262913
0.594385 0.544747 0.0262913
0.616236 0.544747 0.0262913
0.637629 0.544747 0.0262913
0.658625 0.544747 0.0262913
0.679301 0.544747 0.0262913
0.699718 0.544747 0.0262913
0.71989 0.544747 0.0262913
0.739864 0.544747 0.0262913
0.759701 0.544747 0.0262913
0.77937 0.544747 0.0262913
0.798947 0.544747 0.0262913
0.0621042 0.568292 0.0262913
0.0703899 0.568292 0.0262913
0.0800641 0.568292 0.0262913
0.0924697 0.568292 0.0262913
0.107988 0.568292 0.0262913
0.126894 0.568292 0.0262913
0.149172 0.568292 0.0262913
0.174624 0.568292 0.0262913
0.202747 0.568292 0.0262913
0.232929 0.568292 0.0262913
0.264469 0.568292 0.0262913
0.29662 0.568292 0.0262913
0.32871 0.568292 0.0262913
0.360189 0.568292 0.0262913
0.390677 0.568292 0.0262913
0.419959 0.568292 0.0262913
0.44799 0.568292 0.0262913
0.474784 0.568292 0.0262913
0.500465 0.568292 0.0262913
0.525154 0.568292 0.0262913
0.548943 0.568292 0.0262913
0.571984 0.568292 0.0262913
0.594385 0.568292 0.0262913
0.616236 0.568292 0.0262913
0.637629 0.568292 0.0262913
0.658625 0.568292 0.0262913
0.679301 0.568292 0.0262913
0.699718 0.568292 0.0262913
0.71989 0.568292 0.0262913
0.739864 0.568292 0.0262913
0.759701 0.568292 0.0262913
0.77937 0.568292 0.0262913
0.798947 0.568292 0.0262913
0.0621042 0.590173 0.0262913
0.0703899 0.590173 0.0262913
0.0800641 0.590173 0.0262913
0.0924697 0.590173 0.0262913
0.107988 0.590173 0.0262913
0.126894 0.590173 0.0262913
0.149172 0.590173 0.0262913
0.174624 0.590173 0.0262913
0.202747 0.590173 0.0262913
0.232929 0.590173 0.0262913
0.264469 0.590173 0.0262913
0.29662 0.590173 0.0262913
0.32871 0.590173 0.0262913
0.360189 0.590173 0.0262913
0.390677 0.590173 0.0262913
0.419959 0.590173 0.0262913
0.44799 0.590173 0.0262913
0.474784 0.590173 0.0262913
0.500465 0.590173 0.0262913
0.525154 0.590173 0.0262913
0.548943 0.590173 0.0262913
0.571984 0.590173 0.0262913
0.594385 0.590173 0.0262913
0.616236 0.590173 0.0262913
0.637629 0.590173 0.0262913
0.658625 0.590173 0.0262913
0.679301 0.590173 0.0262913
0.699718 0.590173 0.0262913
0.71989 0.590173 0.0262913
0.739864 0.590173 0.0262913
0.759701 0.590173 0.0262913
0.77937 0.590173 0.0262913
0.798947 0.590173 0.0262913
0.0621042 0.610452 0.0262913
0.0703899 0.610452 0.0262913
0.0800641 0.610452 0.0262913
0.0924697 0.610452 0.0262913
0.107988 0.610452 0.0262913
0.126894 0.610452 0.0262913
0.149172 0.610452 0.0262913
0.174624 0.610452 0.0262913
0.202747 0.610452 0.0262913
0.232929 0.610452 0.0262913
0.264469 0.610452 0.0262913
0.29662 0.610452 0.0262913
0.32871 0.610452 0.0262913
0.360189 0.610452 0.0262913
0.390677 0.610452 0.0262913
0.419959 0.610452 0.0262913
0.44799 0.610452 0.0262913
0.474784 0.610452 0.0262913
0.500465 0.610452 0.0262913
0.525154 0.610452 0.0262913
0.548943 0.610452 0.0262913
0.571984 0.610452 0.0262913
0.594385 0.610452 0.0262913
0.616236 0.610452 0.0262913
0.637629 0.610452 0.0262913
0.658625 0.610452 0.0262913
0.679301 0.610452 0.0262913
0.699718 0.610452 0.0262913
0.71989 0.610452 0.0262913
0.739864 0.610452 0.0262913
0.759701 0.610452 0.0262913
0.77937 0.610452 0.0262913
0.798947 0.610452 0.0262913
0.0621042 0.629129 0.0262913
0.0703899 0.629129 0.0262913
0.0800641 0.629129 0.0262913
0.0924697 0.629129 0.0262913
0.107988 0.629129 0.0262913
0.126894 0.629129 0.0262913
0.149172 0.629129 0.0262913
0.174624 0.629129 0.0262913
0.202747 0.629129 0.0262913
0.232929 0.629129 0.0262913
0.264469 0.629129 0.0262913
0.29662 0.629129 0.0262913
0.32871 0.629129 0.0262913
0.360189 0.629129 0.0262913
0.390677 0.629129 0.0262913
0.419959 0.629129 0.0262913
0.44799 0.629129 0.0262913
0.474784 0.629129 0.0262913
0.500465 0.629129 0.0262913
0.525154 0.629129 0.0262913
0.548943 0.629129 0.0262913
0.571984 0.629129 0.0262913
0.594385 0.629129 0.0262913
0.616236 0.629129 0.0262913
0.637629 0.629129 0.0262913
0.658625 0.629129 0.0262913
0.679301 0.629129 0.0262913
0.699702 0.629129 0.0262913
0.71989 0.629129 0.0262913
0.739864 0.629129 0.0262913
0.759701 0.629129 0.0262913
0.77937 0.629129 0.0262913
0.798947 0.629129 0.0262913
0.0621042 0.646204 0.0262913
0.0703899 0.646204 0.0262913
0.0800641 0.646204 0.0262913
0.0924697 0.646204 0.0262913
0.107988 0.646204 0.0262913
0.126894 0.646204 0.0262913
0.149172 0.646204 0.0262913
0.174624 0.646204 0.0262913
0.202747 0.646204 0.0262913
0.232929 0.646204 0.0262913
0.264469 0.646204 0.0262913
0.29662 0.646204 0.0262913
0.32871 0.646204 0.0262913
0.360189 0.646204 0.0262913
0.390677 0.646204 0.0262913
0.419959 0.646204 0.0262913
0.44799 0.646204 0.0262913
0.474784 0.646204 0.0262913
0.500465 0.646204 0.0262913
0.525154 0.646204 0.0262913
0.548943 0.646204 0.0262913
0.571984 0.646204 0.0262913
0.594385 0.646204 0.0262913
0.616236 0.646204 0.0262913
0.637629 0.646204 0.0262913
0.658625 0.646204 0.0262913
0.679301 0.646204 0.0262913
0.699702 0.646204 0.0262913
0.71989 0.646204 0.0262913
0.739864 0.646204 0.0262913
0.759701 0.646204 0.0262913
0.77937 0.646204 0.0262913
0.798947 0.646204 0.0262913
0.0621042 0.661662 0.0262913
0.0703899 0.661662 0.0262913
0.0800641 0.661662 0.0262913
0.0924697 0.661662 0.0262913
0.107988 0.661662 0.0262913
0.126894 0.661662 0.0262913
0.149172 0.661662 0.0262913
0.174624 0.661662 0.0262913
0.202747 0.661662 0.0262913
0.232929 0.661662 0.0262913
0.264469 0.661662 0.0262913
0.29662 0.661662 0.0262913
0.32871 0.661662 0.0262913
0.360189 0.661662 0.0262913
0.390677 0.661662 0.0262913
0.419959 0.661662 0.0262913
0.44799 0.661662 0.0262913
0.474784 0.661662 0.0262913
0.500465 0.661662 0.0262913
0.525154 0.661662 0.0262913
0.548943 0.661662 0.0262913
0.571984 0.661662 0.0262913
0.594385 0.661662 0.0262913
0.616236 0.661662 0.0262913
0.637629 0.661662 0.0262913
0.658625 0.661662 0.0262913
0.679301 0.661662 0.0262913
0.699718 0.661662 0.0262913
0.71989 0.661662 0.0262913
0.739864 0.661662 0.0262913
0.759701 0.661662 0.0262913
0.77937 0.661662 0.0262913
0.798947 0.661662 0.0262913
0.0621042 0.675547 0.0262913
0.0703899 0.675547 0.0262913
0.0800641 0.675547 0.0262913
0.0924697 0.675547 0.0262913
0.107988 0.675547 0.0262913
0.126894 0.675547 0.0262913
0.149172 0.675547 0.0262913
0.174624 0.675547 0.0262913
0.202747 0.675547 0.0262913
0.232929 0.675547 0.0262913
0.264469 0.675547 0.0262913
0.29662 0.675547 0.0262913
0.32871 0.675547 0.0262913
0.360189 0.675547 0.0262913
0.390677 0.675547 0.0262913
0.419959 0.675547 0.0262913
0.44799 0.675547 0.0262913
0.474784 0.675547 0.0262913
0.500465 0.675547 0.0262913
0.525154 0.675547 0.0262913
0.548943 0.675547 0.0262913
0.571984 0.675547 0.0262913
0.594385 0.675547 0.0262913
0.616236 0.675547 0.0262913
0.637629 0.675547 0.0262913
0.658625 0.675547 0.0262913
0.679301 0.675547 0.0262913
