2499DRT/STP-2399Log-CrazyNegative.cube
TITLE "Generated by Resolve"
LUT_3D_SIZE 5
0.0194705 0.0210117 0.0189059
0.213535 0.0210117 0.0189059
0.517662 0.0210117 0.0189059
0.766888 0.0210117 0.0189059
1 0.0210117 0.0189059
0.0194705 0.230381 0.0189059
0.213535 0.230381 0.0189059
0.517662 0.230381 0.0189059
0.766888 0.230381 0.0189059
1 0.230381 0.0189059
0.0194705 0.460945 0.0189059
0.213535 0.460945 0.0189059
0.517662 0.460945 0.0189059
0.766888 0.460945 0.0189059
1 0.460945 0.0189059
0.0194705 0.621668 0.0189059
0.213535 0.621668 0.0189059
0.517662 0.621668 0.0189059
0.766888 0.621668 0.0189059
1 0.621668 0.0189059
0.0194705 0.781567 0.0189059
0.213535 0.781567 0.0189059
0.517662 0.781567 0.0189059
0.766888 0.781567 0.0189059
1 0.781567 0.0189059
0.0194705 0.0210117 0.207279
0.213535 0.0210117 0.207279
0.517662 0.0210117 0.207279
0.766888 0.0210117 0.207279
1 0.0210117 0.207279
0.0194705 0.230381 0.207279
0.213535 0.230381 0.207279
0.517662 0.230381 0.207279
0.766888 0.230381 0.207279
1 0.230381 0.207279
0.0194705 0.460945 0.207279
0.213535 0.460945 0.207279
0.517662 0.460945 0.207279
0.766888 0.460945 0.207279
1 0.460945 0.207279
0.0194705 0.621668 0.207279
0.213535 0.621668 0.207279
0.517662 0.621668 0.207279
0.766888 0.621668 0.207279
1 0.621668 0.207279
0.0194705 0.781567 0.207279
0.213535 0.781567 0.207279
0.517662 0.781567 0.207279
0.766888 0.781567 0.207279
1 0.781567 0.207279
0.0194705 0.0210117 0.505394
0.213535 0.0210117 0.505394
0.517662 0.0210117 0.505394
0.766888 0.0210117 0.505394
1 0.0210117 0.505394
0.0194705 0.230381 0.505394
0.213535 0.230381 0.505394
0.517662 0.230381 0.505394
0.766888 0.230381 0.505394
1 0.230381 0.505394
0.0194705 0.460945 0.505394
0.213535 0.460945 0.505394
0.517662 0.460945 0.505394
0.766888 0.460945 0.505394
1 0.460945 0.505394
0.0194705 0.621668 0.505394
0.213535 0.621668 0.505394
0.517662 0.621668 0.505394
0.766888 0.621668 0.505394
1 0.621668 0.505394
0.0194705 0.781567 0.505394
0.213535 0.781567 0.505394
0.517662 0.781567 0.505394
0.766888 0.781567 0.505394
1 0.781567 0.505394
0.0194705 0.0210117 0.724605
0.213535 0.0210117 0.724605
0.517662 0.0210117 0.724605
0.766888 0.0210117 0.724605
1 0.0210117 0.724605
0.0194705 0.230381 0.724605
0.213535 0.230381 0.724605
0.517662 0.230381 0.724605
0.766888 0.230381 0.724605
1 0.230381 0.724605
0.0194705 0.460945 0.724605
0.213535 0.460945 0.724605
0.517662 0.460945 0.724605
0.766888 0.460945 0.724605
1 0.460945 0.724605
0.0194705 0.621668 0.724605
0.213535 0.621668 0.724605
0.517662 0.621668 0.724605
0.766888 0.621668 0.724605
1 0.621668 0.724605
0.0194705 0.781567 0.724605
0.213535 0.781567 0.724605
0.517662 0.781567 0.724605
0.766888 0.781567 0.724605
1 0.781567 0.724605
0.0194705 0.0210117 0.942077
0.213535 0.0210117 0.942077
0.517662 0.0210117 0.942077
0.766888 0.0210117 0.942077
1 0.0210117 0.942077
0.0194705 0.230381 0.942077
0.213535 0.230381 0.942077
0.517662 0.230381 0.942077
0.766888 0.230381 0.942077
1 0.230381 0.942077
0.0194705 0.460945 0.942077
0.213535 0.460945 0.942077
0.517662 0.460945 0.942077
0.766888 0.460945 0.942077
1 0.460945 0.942077
0.0194705 0.621668 0.942077
0.213535 0.621668 0.942077
0.517662 0.621668 0.942077
0.766888 0.621668 0.942077
1 0.621668 0.942077
0.0194705 0.781567 0.942077
0.213535 0.781567 0.942077
0.517662 0.781567 0.942077
0.766888 0.781567 0.942077
1 0.781567 0.942077
