2499DRT/STP-2399Log-CrazyNegative.cube
TITLE "Generated by Resolve"
LUT_3D_SIZE 33
0.0194705 0.0210117 0.0189059
0.0318456 0.0210117 0.0189059
0.0460517 0.0210117 0.0189059
0.0627909 0.0210117 0.0189059
0.0827344 0.0210117 0.0189059
0.106722 0.0210117 0.0189059
0.135698 0.0210117 0.0189059
0.17084 0.0210117 0.0189059
0.213535 0.0210117 0.0189059
0.262058 0.0210117 0.0189059
0.30576 0.0210117 0.0189059
0.345556 0.0210117 0.0189059
0.382757 0.0210117 0.0189059
0.418112 0.0210117 0.0189059
0.452155 0.0210117 0.0189059
0.485252 0.0210117 0.0189059
0.517662 0.0210117 0.0189059
0.549538 0.0210117 0.0189059
0.581064 0.0210117 0.0189059
0.612314 0.0210117 0.0189059
0.643381 0.0210117 0.0189059
0.674327 0.0210117 0.0189059
0.705196 0.0210117 0.0189059
0.736049 0.0210117 0.0189059
0.766888 0.0210117 0.0189059
0.797772 0.0210117 0.0189059
0.828672 0.0210117 0.0189059
0.859648 0.0210117 0.0189059
0.8907 0.0210117 0.0189059
0.921828 0.0210117 0.0189059
0.953033 0.0210117 0.0189059
0.984344 0.0210117 0.0189059
1 0.0210117 0.0189059
0.0194705 0.0343481 0.0189059
0.0318456 0.0343481 0.0189059
0.0460517 0.0343481 0.0189059
0.0627909 0.0343481 0.0189059
0.0827344 0.0343481 0.0189059
0.106722 0.0343481 0.0189059
0.135698 0.0343481 0.0189059
0.17084 0.0343481 0.0189059
0.213535 0.0343481 0.0189059
0.262058 0.0343481 0.0189059
0.30576 0.0343481 0.0189059
0.345556 0.0343481 0.0189059
0.382757 0.0343481 0.0189059
0.418112 0.0343481 0.0189059
0.452155 0.0343481 0.0189059
0.485252 0.0343481 0.0189059
0.517662 0.0343481 0.0189059
0.549538 0.0343481 0.0189059
0.581064 0.0343481 0.0189059
0.612314 0.0343481 0.0189059
0.643381 0.0343481 0.0189059
0.674327 0.0343481 0.0189059
0.705196 0.0343481 0.0189059
0.736049 0.0343481 0.0189059
0.766888 0.0343481 0.0189059
0.797772 0.0343481 0.0189059
0.828672 0.0343481 0.0189059
0.859648 0.0343481 0.0189059
0.8907 0.0343481 0.0189059
0.921828 0.0343481 0.0189059
0.953033 0.0343481 0.0189059
0.984344 0.0343481 0.0189059
1 0.0343481 0.0189059
0.0194705 0.0496834 0.0189059
0.0318456 0.0496834 0.0189059
0.0460517 0.0496834 0.0189059
0.0627909 0.0496834 0.0189059
0.0827344 0.0496834 0.0189059
0.106722 0.0496834 0.0189059
0.135698 0.0496834 0.0189059
0.17084 0.0496834 0.0189059
0.213535 0.0496834 0.0189059
0.262058 0.0496834 0.0189059
0.30576 0.0496834 0.0189059
0.345556 0.0496834 0.0189059
0.382757 0.0496834 0.0189059
0.418112 0.0496834 0.0189059
0.452155 0.0496834 0.0189059
0.485252 0.0496834 0.0189059
0.517662 0.0496834 0.0189059
0.549538 0.0496834 0.0189059
0.581064 0.0496834 0.0189059
0.612314 0.0496834 0.0189059
0.643381 0.0496834 0.0189059
0.674327 0.0496834 0.0189059
0.705196 0.0496834 0.0189059
0.736049 0.0496834 0.0189059
0.766888 0.0496834 0.0189059
0.797772 0.0496834 0.0189059
0.828672 0.0496834 0.0189059
0.859648 0.0496834 0.0189059
0.8907 0.0496834 0.0189059
0.921828 0.0496834 0.0189059
0.953033 0.0496834 0.0189059
0.984344 0.0496834 0.0189059
1 0.0496834 0.0189059
0.0194705 0.0677348 0.0189059
0.0318456 0.0677348 0.0189059
0.0460517 0.0677348 0.0189059
0.0627909 0.0677348 0.0189059
0.0827344 0.0677348 0.0189059
0.106722 0.0677348 0.0189059
0.135698 0.0677348 0.0189059
0.17084 0.0677348 0.0189059
0.213535 0.0677348 0.0189059
0.262058 0.0677348 0.0189059
0.30576 0.0677348 0.0189059
0.345556 0.0677348 0.0189059
0.382757 0.0677348 0.0189059
0.418112 0.0677348 0.0189059
0.452155 0.0677348 0.0189059
0.485252 0.0677348 0.0189059
0.517662 0.0677348 0.0189059
0.549538 0.0677348 0.0189059
0.581064 0.0677348 0.0189059
0.612314 0.0677348 0.0189059
0.643381 0.0677348 0.0189059
0.674327 0.0677348 0.0189059
0.705196 0.0677348 0.0189059
0.736049 0.0677348 0.0189059
0.766888 0.0677348 0.0189059
0.797772 0.0677348 0.0189059
0.828672 0.0677348 0.0189059
0.859648 0.0677348 0.0189059
0.8907 0.0677348 0.0189059
0.921828 0.0677348 0.0189059
0.953033 0.0677348 0.0189059
0.984344 0.0677348 0.0189059
1 0.0677348 0.0189059
0.0194705 0.0892653 0.0189059
0.0318456 0.0892653 0.0189059
0.0460517 0.0892653 0.0189059
0.0627909 0.0892653 0.0189059
0.0827344 0.0892653 0.0189059
0.106722 0.0892653 0.0189059
0.135698 0.0892653 0.0189059
0.17084 0.0892653 0.0189059
0.213535 0.0892653 0.0189059
0.262058 0.0892653 0.0189059
0.30576 0.0892653 0.0189059
0.345556 0.0892653 0.0189059
0.382757 0.0892653 0.0189059
0.418112 0.0892653 0.0189059
0.452155 0.0892653 0.0189059
0.485252 0.0892653 0.0189059
0.517662 0.0892653 0.0189059
0.549538 0.0892653 0.0189059
0.581064 0.0892653 0.0189059
0.612314 0.0892653 0.0189059
0.643381 0.0892653 0.0189059
0.674327 0.0892653 0.0189059
0.705196 0.0892653 0.0189059
0.736049 0.0892653 0.0189059
0.766888 0.0892653 0.0189059
0.797772 0.0892653 0.0189059
0.828672 0.0892653 0.0189059
0.859648 0.0892653 0.0189059
0.8907 0.0892653 0.0189059
0.921828 0.0892653 0.0189059
0.953033 0.0892653 0.0189059
0.984344 0.0892653 0.0189059
1 0.0892653 0.0189059
0.0194705 0.115145 0.0189059
0.0318456 0.115145 0.0189059
0.0460517 0.115145 0.0189059
0.0627909 0.115145 0.0189059
0.0827344 0.115145 0.0189059
0.106722 0.115145 0.0189059
0.135698 0.115145 0.0189059
0.17084 0.115145 0.0189059
0.213535 0.115145 0.0189059
0.262058 0.115145 0.0189059
0.30576 0.115145 0.0189059
0.345556 0.115145 0.0189059
0.382757 0.115145 0.0189059
0.418112 0.115145 0.0189059
0.452155 0.115145 0.0189059
0.485252 0.115145 0.0189059
0.517662 0.115145 0.0189059
0.549538 0.115145 0.0189059
0.581064 0.115145 0.0189059
0.612314 0.115145 0.0189059
0.643381 0.115145 0.0189059
0.674327 0.115145 0.0189059
0.705196 0.115145 0.0189059
0.736049 0.115145 0.0189059
0.766888 0.115145 0.0189059
0.797772 0.115145 0.0189059
0.828672 0.115145 0.0189059
0.859648 0.115145 0.0189059
0.8907 0.115145 0.0189059
0.921828 0.115145 0.0189059
0.953033 0.115145 0.0189059
0.984344 0.115145 0.0189059
1 0.115145 0.0189059
0.0194705 0.14641 0.0189059
0.0318456 0.14641 0.0189059
0.0460517 0.14641 0.0189059
0.0627909 0.14641 0.0189059
0.0827344 0.14641 0.0189059
0.106722 0.14641 0.0189059
0.135698 0.14641 0.0189059
0.17084 0.14641 0.0189059
0.213535 0.14641 0.0189059
0.262058 0.14641 0.0189059
0.30576 0.14641 0.0189059
0.345556 0.14641 0.0189059
0.382757 0.14641 0.0189059
0.418112 0.14641 0.0189059
0.452155 0.14641 0.0189059
0.485252 0.14641 0.0189059
0.517662 0.14641 0.0189059
0.549538 0.14641 0.0189059
0.581064 0.14641 0.0189059
0.612314 0.14641 0.0189059
0.643381 0.14641 0.0189059
0.674327 0.14641 0.0189059
0.705196 0.14641 0.0189059
0.736049 0.14641 0.0189059
0.766888 0.14641 0.0189059
0.797772 0.14641 0.0189059
0.828672 0.14641 0.0189059
0.859648 0.14641 0.0189059
0.8907 0.14641 0.0189059
0.921828 0.14641 0.0189059
0.953033 0.14641 0.0189059
0.984344 0.14641 0.0189059
1 0.14641 0.0189059
0.0194705 0.184314 0.0189059
0.0318456 0.184314 0.0189059
0.0460517 0.184314 0.0189059
0.0627909 0.184314 0.0189059
0.0827344 0.184314 0.0189059
0.106722 0.184314 0.0189059
0.135698 0.184314 0.0189059
0.17084 0.184314 0.0189059
0.213535 0.184314 0.0189059
0.262058 0.184314 0.0189059
0.30576 0.184314 0.0189059
0.345556 0.184314 0.0189059
0.382757 0.184314 0.0189059
0.418112 0.184314 0.0189059
0.452155 0.184314 0.0189059
0.485252 0.184314 0.0189059
0.517662 0.184314 0.0189059
0.549538 0.184314 0.0189059
0.581064 0.184314 0.0189059
0.612314 0.184314 0.0189059
0.643381 0.184314 0.0189059
0.674327 0.184314 0.0189059
0.705196 0.184314 0.0189059
0.736049 0.184314 0.0189059
0.766888 0.184314 0.0189059
0.797772 0.184314 0.0189059
0.828672 0.184314 0.0189059
0.859648 0.184314 0.0189059
0.8907 0.184314 0.0189059
0.921828 0.184314 0.0189059
0.953033 0.184314 0.0189059
0.984344 0.184314 0.0189059
1 0.184314 0.0189059
0.0194705 0.230381 0.0189059
0.0318456 0.230381 0.0189059
0.0460517 0.230381 0.0189059
0.0627909 0.230381 0.0189059
0.0827344 0.230381 0.0189059
0.106722 0.230381 0.0189059
0.135698 0.230381 0.0189059
0.17084 0.230381 0.0189059
0.213535 0.230381 0.0189059
0.262058 0.230381 0.0189059
0.30576 0.230381 0.0189059
0.345556 0.230381 0.0189059
0.382757 0.230381 0.0189059
0.418112 0.230381 0.0189059
0.452155 0.230381 0.0189059
0.485252 0.230381 0.0189059
0.517662 0.230381 0.0189059
0.549538 0.230381 0.0189059
0.581064 0.230381 0.0189059
0.612314 0.230381 0.0189059
0.643381 0.230381 0.0189059
0.674327 0.230381 0.0189059
0.705196 0.230381 0.0189059
0.736049 0.230381 0.0189059
0.766888 0.230381 0.0189059
0.797772 0.230381 0.0189059
0.828672 0.230381 0.0189059
0.859648 0.230381 0.0189059
0.8907 0.230381 0.0189059
0.921828 0.230381 0.0189059
0.953033 0.230381 0.0189059
0.984344 0.230381 0.0189059
1 0.230381 0.0189059
0.0194705 0.277134 0.0189059
0.0318456 0.277134 0.0189059
0.0460517 0.277134 0.0189059
0.0627909 0.277134 0.0189059
0.0827344 0.277134 0.0189059
0.106722 0.277134 0.0189059
0.135698 0.277134 0.0189059
0.17084 0.277134 0.0189059
0.213535 0.277134 0.0189059
0.262058 0.277134 0.0189059
0.30576 0.277134 0.0189059
0.345556 0.277134 0.0189059
0.382757 0.277134 0.0189059
0.418112 0.277134 0.0189059
0.452155 0.277134 0.0189059
0.485252 0.277134 0.0189059
0.517662 0.277134 0.0189059
0.549538 0.277134 0.0189059
0.581064 0.277134 0.0189059
0.612314 0.277134 0.0189059
0.643381 0.277134 0.0189059
0.674327 0.277134 0.0189059
0.705196 0.277134 0.0189059
0.736049 0.277134 0.0189059
0.766888 0.277134 0.0189059
0.797772 0.277134 0.0189059
0.828672 0.277134 0.0189059
0.859648 0.277134 0.0189059
0.8907 0.277134 0.0189059
0.921828 0.277134 0.0189059
0.953033 0.277134 0.0189059
0.984344 0.277134 0.0189059
1 0.277134 0.0189059
0.0194705 0.312978 0.0189059
0.0318456 0.312978 0.0189059
0.0460517 0.312978 0.0189059
0.0627909 0.312978 0.0189059
0.0827344 0.312978 0.0189059
0.106722 0.312978 0.0189059
0.135698 0.312978 0.0189059
0.17084 0.312978 0.0189059
0.213535 0.312978 0.0189059
0.262058 0.312978 0.0189059
0.30576 0.312978 0.0189059
0.345556 0.312978 0.0189059
0.382757 0.312978 0.0189059
0.418112 0.312978 0.0189059
0.452155 0.312978 0.0189059
0.485252 0.312978 0.0189059
0.517662 0.312978 0.0189059
0.549538 0.312978 0.0189059
0.581064 0.312978 0.0189059
0.612314 0.312978 0.0189059
0.643381 0.312978 0.0189059
0.674327 0.312978 0.0189059
0.705196 0.312978 0.0189059
0.736049 0.312978 0.0189059
0.766888 0.312978 0.0189059
0.797772 0.312978 0.0189059
0.828672 0.312978 0.0189059
0.859648 0.312978 0.0189059
0.8907 0.312978 0.0189059
0.921828 0.312978 0.0189059
0.953033 0.312978 0.0189059
0.984344 0.312978 0.0189059
1 0.312978 0.0189059
0.0194705 0.343084 0.0189059
0.0318456 0.343084 0.0189059
0.0460517 0.343084 0.0189059
0.0627909 0.343084 0.0189059
0.0827344 0.343084 0.0189059
0.106722 0.343084 0.0189059
0.135698 0.343084 0.0189059
0.17084 0.343084 0.0189059
0.213535 0.343084 0.0189059
0.262058 0.343084 0.0189059
0.30576 0.343084 0.0189059
0.345556 0.343084 0.0189059
0.382757 0.343084 0.0189059
0.418112 0.343084 0.0189059
0.452155 0.343084 0.0189059
0.485252 0.343084 0.0189059
0.517662 0.343084 0.0189059
0.549538 0.343084 0.0189059
0.581064 0.343084 0.0189059
0.612314 0.343084 0.0189059
0.643381 0.343084 0.0189059
0.674327 0.343084 0.0189059
0.705196 0.343084 0.0189059
0.736049 0.343084 0.0189059
0.766888 0.343084 0.0189059
0.797772 0.343084 0.0189059
0.828672 0.343084 0.0189059
0.859648 0.343084 0.0189059
0.8907 0.343084 0.0189059
0.921828 0.343084 0.0189059
0.953033 0.343084 0.0189059
0.984344 0.343084 0.0189059
1 0.343084 0.0189059
0.0194705 0.369818 0.0189059
0.0318456 0.369818 0.0189059
0.0460517 0.369818 0.0189059
0.0627909 0.369818 0.0189059
0.0827344 0.369818 0.0189059
0.106722 0.369818 0.0189059
0.135698 0.369818 0.0189059
0.17084 0.369818 0.0189059
0.213535 0.369818 0.0189059
0.262058 0.369818 0.0189059
0.30576 0.369818 0.0189059
0.345556 0.369818 0.0189059
0.382757 0.369818 0.0189059
0.418112 0.369818 0.0189059
0.452155 0.369818 0.0189059
0.485252 0.369818 0.0189059
0.517662 0.369818 0.0189059
0.549538 0.369818 0.0189059
0.581064 0.369818 0.0189059
0.612314 0.369818 0.0189059
0.643381 0.369818 0.0189059
0.674327 0.369818 0.0189059
0.705196 0.369818 0.0189059
0.736049 0.369818 0.0189059
0.766888 0.369818 0.0189059
0.797772 0.369818 0.0189059
0.828672 0.369818 0.0189059
0.859648 0.369818 0.0189059
0.8907 0.369818 0.0189059
0.921828 0.369818 0.0189059
0.953033 0.369818 0.0189059
0.984344 0.369818 0.0189059
1 0.369818 0.0189059
0.0194705 0.394385 0.0189059
0.0318456 0.394385 0.0189059
0.0460517 0.394385 0.0189059
0.0627909 0.394385 0.0189059
0.0827344 0.394385 0.0189059
0.106722 0.394385 0.0189059
0.135698 0.394385 0.0189059
0.17084 0.394385 0.0189059
0.213535 0.394385 0.0189059
0.262058 0.394385 0.0189059
0.30576 0.394385 0.0189059
0.345556 0.394385 0.0189059
0.382757 0.394385 0.0189059
0.418112 0.394385 0.0189059
0.452155 0.394385 0.0189059
0.485252 0.394385 0.0189059
0.517662 0.394385 0.0189059
0.549538 0.394385 0.0189059
0.581064 0.394385 0.0189059
0.612314 0.394385 0.0189059
0.643381 0.394385 0.0189059
0.674327 0.394385 0.0189059
0.705196 0.394385 0.0189059
0.736049 0.394385 0.0189059
0.766888 0.394385 0.0189059
0.797772 0.394385 0.0189059
0.828672 0.394385 0.0189059
0.859648 0.394385 0.0189059
0.8907 0.394385 0.0189059
0.921828 0.394385 0.0189059
0.953033 0.394385 0.0189059
0.984344 0.394385 0.0189059
1 0.394385 0.0189059
0.0194705 0.417502 0.0189059
0.0318456 0.417502 0.0189059
0.0460517 0.417502 0.0189059
0.0627909 0.417502 0.0189059
0.0827344 0.417502 0.0189059
0.106722 0.417502 0.0189059
0.135698 0.417502 0.0189059
0.17084 0.417502 0.0189059
0.213535 0.417502 0.0189059
0.262058 0.417502 0.0189059
0.30576 0.417502 0.0189059
0.345556 0.417502 0.0189059
0.382757 0.417502 0.0189059
0.418112 0.417502 0.0189059
0.452155 0.417502 0.0189059
0.485252 0.417502 0.0189059
0.517662 0.417502 0.0189059
0.549538 0.417502 0.0189059
0.581064 0.417502 0.0189059
0.612314 0.417502 0.0189059
0.643381 0.417502 0.0189059
0.674327 0.417502 0.0189059
0.705196 0.417502 0.0189059
0.736049 0.417502 0.0189059
0.766888 0.417502 0.0189059
0.797772 0.417502 0.0189059
0.828672 0.417502 0.0189059
0.859648 0.417502 0.0189059
0.8907 0.417502 0.0189059
0.921828 0.417502 0.0189059
0.953033 0.417502 0.0189059
0.984344 0.417502 0.0189059
1 0.417502 0.0189059
0.0194705 0.439582 0.0189059
0.0318456 0.439582 0.0189059
0.0460517 0.439582 0.0189059
0.0627909 0.439582 0.0189059
0.0827344 0.439582 0.0189059
0.106722 0.439582 0.0189059
0.135698 0.439582 0.0189059
0.17084 0.439582 0.0189059
0.213535 0.439582 0.0189059
0.262058 0.439582 0.0189059
0.30576 0.439582 0.0189059
0.345556 0.439582 0.0189059
0.382757 0.439582 0.0189059
0.418112 0.439582 0.0189059
0.452155 0.439582 0.0189059
0.485252 0.439582 0.0189059
0.517662 0.439582 0.0189059
0.549538 0.439582 0.0189059
0.581064 0.439582 0.0189059
0.612314 0.439582 0.0189059
0.643381 0.439582 0.0189059
0.674327 0.439582 0.0189059
0.705196 0.439582 0.0189059
0.736049 0.439582 0.0189059
0.766888 0.439582 0.0189059
0.797772 0.439582 0.0189059
0.828687 0.439582 0.0189059
0.859648 0.439582 0.0189059
0.8907 0.439582 0.0189059
0.921828 0.439582 0.0189059
0.953033 0.439582 0.0189059
0.984344 0.439582 0.0189059
1 0.439582 0.0189059
0.0194705 0.460945 0.0189059
0.0318456 0.460945 0.0189059
0.0460517 0.460945 0.0189059
0.0627909 0.460945 0.0189059
0.0827344 0.460945 0.0189059
0.106722 0.460945 0.0189059
0.135698 0.460945 0.0189059
0.17084 0.460945 0.0189059
0.213535 0.460945 0.0189059
0.262058 0.460945 0.0189059
0.30576 0.460945 0.0189059
0.345556 0.460945 0.0189059
0.382757 0.460945 0.0189059
0.418112 0.460945 0.0189059
0.452155 0.460945 0.0189059
0.485252 0.460945 0.0189059
0.517662 0.460945 0.0189059
0.549538 0.460945 0.0189059
0.581064 0.460945 0.0189059
0.612314 0.460945 0.0189059
0.643381 0.460945 0.0189059
0.674327 0.460945 0.0189059
0.705196 0.460945 0.0189059
0.736049 0.460945 0.0189059
0.766888 0.460945 0.0189059
0.797772 0.460945 0.0189059
0.828687 0.460945 0.0189059
0.859648 0.460945 0.0189059
0.8907 0.460945 0.0189059
0.921828 0.460945 0.0189059
0.953033 0.460945 0.0189059
0.984344 0.460945 0.0189059
1 0.460945 0.0189059
0.0194705 0.481788 0.0189059
0.0318456 0.481788 0.0189059
0.0460517 0.481788 0.0189059
0.0627909 0.481788 0.0189059
0.0827344 0.481788 0.0189059
0.106722 0.481788 0.0189059
0.135698 0.481788 0.0189059
0.17084 0.481788 0.0189059
0.213535 0.481788 0.0189059
0.262058 0.481788 0.0189059
0.30576 0.481788 0.0189059
0.345556 0.481788 0.0189059
0.382757 0.481788 0.0189059
0.418112 0.481788 0.0189059
0.452155 0.481788 0.0189059
0.485252 0.481788 0.0189059
0.517662 0.481788 0.0189059
0.549538 0.481788 0.0189059
0.581064 0.481788 0.0189059
0.612314 0.481788 0.0189059
0.643381 0.481788 0.0189059
0.674327 0.481788 0.0189059
0.705196 0.481788 0.0189059
0.736049 0.481788 0.0189059
0.766888 0.481788 0.0189059
0.797772 0.481788 0.0189059
0.828672 0.481788 0.0189059
0.859648 0.481788 0.0189059
0.8907 0.481788 0.0189059
0.921828 0.481788 0.0189059
0.953033 0.481788 0.0189059
0.984344 0.481788 0.0189059
1 0.481788 0.0189059
0.0194705 0.502251 0.0189059
0.0318456 0.502251 0.0189059
0.0460517 0.502251 0.0189059
0.0627909 0.502251 0.0189059
0.0827344 0.502251 0.0189059
0.106722 0.502251 0.0189059
0.135698 0.502251 0.0189059
0.17084 0.502251 0.0189059
0.213535 0.502251 0.0189059
0.262058 0.502251 0.0189059
0.30576 0.502251 0.0189059
0.345556 0.502251 0.0189059
0.382757 0.502251 0.0189059
0.418112 0.502251 0.0189059
0.452155 0.502251 0.0189059
0.485252 0.502251 0.0189059
0.517662 0.502251 0.0189059
0.549538 0.502251 0.0189059
0.581064 0.502251 0.0189059
0.612314 0.502251 0.0189059
0.643381 0.502251 0.0189059
0.674327 0.502251 0.0189059
0.705196 0.502251 0.0189059
0.736049 0.502251 0.0189059
0.766888 0.502251 0.0189059
0.797772 0.502251 0.0189059
0.828672 0.502251 0.0189059
0.859648 0.502251 0.0189059
0.8907 0.502251 0.0189059
0.921828 0.502251 0.0189059
0.953033 0.502251 0.0189059
0.984344 0.502251 0.0189059
1 0.502251 0.0189059
0.0194705 0.522438 0.0189059
0.0318456 0.522438 0.0189059
0.0460517 0.522438 0.0189059
0.0627909 0.522438 0.0189059
0.0827344 0.522438 0.0189059
0.106722 0.522438 0.0189059
0.135698 0.522438 0.0189059
0.17084 0.522438 0.0189059
0.213535 0.522438 0.0189059
0.262058 0.522438 0.0189059
0.30576 0.522438 0.0189059
0.345556 0.522438 0.0189059
0.382757 0.522438 0.0189059
0.418112 0.522438 0.0189059
0.452155 0.522438 0.0189059
0.485252 0.522438 0.0189059
0.517662 0.522438 0.0189059
0.549538 0.522438 0.0189059
0.581064 0.522438 0.0189059
0.612314 0.522438 0.0189059
0.643381 0.522438 0.0189059
0.674327 0.522438 0.0189059
0.705196 0.522438 0.0189059
0.736049 0.522438 0.0189059
0.766888 0.522438 0.0189059
0.797772 0.522438 0.0189059
0.828687 0.522438 0.0189059
0.859648 0.522438 0.0189059
0.8907 0.522438 0.0189059
0.921828 0.522438 0.0189059
0.953033 0.522438 0.0189059
0.984344 0.522438 0.0189059
1 0.522438 0.0189059
0.0194705 0.542443 0.0189059
0.0318456 0.542443 0.0189059
0.0460517 0.542443 0.0189059
0.0627909 0.542443 0.0189059
0.0827344 0.542443 0.0189059
0.106722 0.542443 0.0189059
0.135698 0.542443 0.0189059
0.17084 0.542443 0.0189059
0.213535 0.542443 0.0189059
0.262058 0.542443 0.0189059
0.30576 0.542443 0.0189059
0.345556 0.542443 0.0189059
0.382757 0.542443 0.0189059
0.418112 0.542443 0.0189059
0.452155 0.542443 0.0189059
0.485252 0.542443 0.0189059
0.517662 0.542443 0.0189059
0.549538 0.542443 0.0189059
0.581064 0.542443 0.0189059
0.612314 0.542443 0.0189059
0.643381 0.542443 0.0189059
0.674327 0.542443 0.0189059
0.705196 0.542443 0.0189059
0.736049 0.542443 0.0189059
0.766888 0.542443 0.0189059
0.797772 0.542443 0.0189059
0.828672 0.542443 0.0189059
0.859648 0.542443 0.0189059
0.8907 0.542443 0.0189059
0.921828 0.542443 0.0189059
0.953033 0.542443 0.0189059
0.984344 0.542443 0.0189059
1 0.542443 0.0189059
0.0194705 0.562325 0.0189059
0.0318456 0.562325 0.0189059
0.0460517 0.562325 0.0189059
0.0627909 0.562325 0.0189059
0.0827344 0.562325 0.0189059
0.106722 0.562325 0.0189059
0.135698 0.562325 0.0189059
0.17084 0.562325 0.0189059
0.213535 0.562325 0.0189059
0.262058 0.562325 0.0189059
0.30576 0.562325 0.0189059
0.345556 0.562325 0.0189059
0.382757 0.562325 0.0189059
0.418112 0.562325 0.0189059
0.452155 0.562325 0.0189059
0.485252 0.562325 0.0189059
0.517662 0.562325 0.0189059
0.549538 0.562325 0.0189059
0.581064 0.562325 0.0189059
0.612314 0.562325 0.0189059
0.643381 0.562325 0.0189059
0.674327 0.562325 0.0189059
0.705196 0.562325 0.0189059
0.736049 0.562325 0.0189059
0.766888 0.562325 0.0189059
0.797772 0.562325 0.0189059
0.828672 0.562325 0.0189059
0.859648 0.562325 0.0189059
0.8907 0.562325 0.0189059
0.921828 0.562325 0.0189059
0.953033 0.562325 0.0189059
0.984344 0.562325 0.0189059
1 0.562325 0.0189059
0.0194705 0.582132 0.0189059
0.0318456 0.582132 0.0189059
0.0460517 0.582132 0.0189059
0.0627909 0.582132 0.0189059
0.0827344 0.582132 0.0189059
0.106722 0.582132 0.0189059
0.135698 0.582132 0.0189059
0.17084 0.582132 0.0189059
0.213535 0.582132 0.0189059
0.262058 0.582132 0.0189059
0.30576 0.582132 0.0189059
0.345556 0.582132 0.0189059
0.382757 0.582132 0.0189059
0.418112 0.582132 0.0189059
0.452155 0.582132 0.0189059
0.485252 0.582132 0.0189059
0.517662 0.582132 0.0189059
0.549538 0.582132 0.0189059
0.581064 0.582132 0.0189059
0.612314 0.582132 0.0189059
0.643381 0.582132 0.0189059
0.674327 0.582132 0.0189059
0.705196 0.582132 0.0189059
0.736049 0.582132 0.0189059
0.766888 0.582132 0.0189059
0.797772 0.582132 0.0189059
0.828687 0.582132 0.0189059
0.859648 0.582132 0.0189059
0.8907 0.582132 0.0189059
0.921828 0.582132 0.0189059
0.953033 0.582132 0.0189059
0.984344 0.582132 0.0189059
1 0.582132 0.0189059
0.0194705 0.601907 0.0189059
0.0318456 0.601907 0.0189059
0.0460517 0.601907 0.0189059
0.0627909 0.601907 0.0189059
0.0827344 0.601907 0.0189059
0.106722 0.601907 0.0189059
0.135698 0.601907 0.0189059
0.17084 0.601907 0.0189059
0.213535 0.601907 0.0189059
0.262058 0.601907 0.0189059
0.30576 0.601907 0.0189059
0.345556 0.601907 0.0189059
0.382757 0.601907 0.0189059
0.418112 0.601907 0.0189059
0.452155 0.601907 0.0189059
0.485252 0.601907 0.0189059
0.517662 0.601907 0.0189059
0.549538 0.601907 0.0189059
0.581064 0.601907 0.0189059
0.612314 0.601907 0.0189059
0.643381 0.601907 0.0189059
0.674327 0.601907 0.0189059
0.705196 0.601907 0.0189059
0.736049 0.601907 0.0189059
0.766888 0.601907 0.0189059
0.797772 0.601907 0.0189059
0.828687 0.601907 0.0189059
0.859648 0.601907 0.0189059
0.8907 0.601907 0.0189059
0.921828 0.601907 0.0189059
0.953033 0.601907 0.0189059
0.984344 0.601907 0.0189059
1 0.601907 0.0189059
0.0194705 0.621668 0.0189059
0.0318456 0.621668 0.0189059
0.0460517 0.621668 0.0189059
0.0627909 0.621668 0.0189059
0.0827344 0.621668 0.0189059
0.106722 0.621668 0.0189059
0.135698 0.621668 0.0189059
0.17084 0.621668 0.0189059
0.213535 0.621668 0.0189059
0.262058 0.621668 0.0189059
0.30576 0.621668 0.0189059
0.345556 0.621668 0.0189059
0.382757 0.621668 0.0189059
0.418112 0.621668 0.0189059
0.452155 0.621668 0.0189059
0.485252 0.621668 0.0189059
0.517662 0.621668 0.0189059
0.549538 0.621668 0.0189059
0.581064 0.621668 0.0189059
0.612314 0.621668 0.0189059
0.643381 0.621668 0.0189059
0.674327 0.621668 0.0189059
0.705196 0.621668 0.0189059
0.736049 0.621668 0.0189059
0.766888 0.621668 0.0189059
0.797772 0.621668 0.0189059
0.828672 0.621668 0.0189059
0.859648 0.621668 0.0189059
0.8907 0.621668 0.0189059
0.921828 0.621668 0.0189059
0.953033 0.621668 0.0189059
0.984344 0.621668 0.0189059
1 0.621668 0.0189059
0.0194705 0.641459 0.0189059
0.0318456 0.641459 0.0189059
0.0460517 0.641459 0.0189059
0.0627909 0.641459 0.0189059
0.0827344 0.641459 0.0189059
0.106722 0.641459 0.0189059
0.135698 0.641459 0.0189059
0.17084 0.641459 0.0189059
0.213535 0.641459 0.0189059
0.262058 0.641459 0.0189059
0.30576 0.641459 0.0189059
0.345556 0.641459 0.0189059
0.382757 0.641459 0.0189059
0.418112 0.641459 0.0189059
0.452155 0.641459 0.0189059
0.485252 0.641459 0.0189059
0.517662 0.641459 0.0189059
0.549538 0.641459 0.0189059
0.581064 0.641459 0.0189059
0.612314 0.641459 0.0189059
0.643381 0.641459 0.0189059
0.674327 0.641459 0.0189059
0.705196 0.641459 0.0189059
0.736049 0.641459 0.0189059
0.766888 0.641459 0.0189059
0.797772 0.641459 0.0189059
0.828672 0.641459 0.0189059
0.859648 0.641459 0.0189059
0.8907 0.641459 0.0189059
0.921828 0.641459 0.0189059
0.953033 0.641459 0.0189059
