2499DRT/STP-2399Log-BnWX.cube
TITLE "Generated by Resolve"
LUT_3D_SIZE 5
0.0730144 0.0730144 0.0730144
0.0773022 0.0773022 0.0773022
0.081651 0.081651 0.081651
0.0860761 0.0860761 0.0860761
0.0905776 0.0905776 0.0905776
0.148043 0.148043 0.148043
0.154406 0.154406 0.154406
0.161074 0.161074 0.161074
0.168093 0.168093 0.168093
0.175525 0.175525 0.175525
0.33579 0.33579 0.33579
0.356435 0.356435 0.356435
0.376608 0.376608 0.376608
0.396506 0.396506 0.396506
0.416297 0.416297 0.416297
0.621851 0.621851 0.621851
0.634485 0.634485 0.634485
0.646342 0.646342 0.646342
0.657526 0.657526 0.657526
0.668132 0.668132 0.668132
0.760891 0.760891 0.760891
0.768032 0.768032 0.768032
0.775036 0.775036 0.775036
0.781918 0.781918 0.781918
0.788724 0.788724 0.788724
0.114519 0.114519 0.114519
0.119677 0.119677 0.119677
0.124971 0.124971 0.124971
0.130434 0.130434 0.130434
0.136095 0.136095 0.136095
0.222278 0.222278 0.222278
0.234958 0.234958 0.234958
0.249882 0.249882 0.249882
0.269047 0.269047 0.269047
0.292348 0.292348 0.292348
0.520897 0.520897 0.520897
0.541665 0.541665 0.541665
0.560586 0.560586 0.560586
0.577859 0.577859 0.577859
0.593698 0.593698 0.593698
0.714488 0.714488 0.714488
0.722759 0.722759 0.722759
0.730785 0.730785 0.730785
0.738598 0.738598 0.738598
0.746197 0.746197 0.746197
0.821744 0.821744 0.821744
0.828229 0.828229 0.828229
0.834699 0.834699 0.834699
0.841169 0.841169 0.841169
0.847639 0.847639 0.847639
0.168109 0.168109 0.168109
0.175525 0.175525 0.175525
0.183429 0.183429 0.183429
0.191913 0.191913 0.191913
0.201083 0.201083 0.201083
0.39649 0.39649 0.39649
0.416281 0.416281 0.416281
0.436164 0.436164 0.436164
0.456336 0.456336 0.456336
0.477073 0.477073 0.477073
0.657526 0.657526 0.657526
0.668116 0.668116 0.668116
0.678203 0.678203 0.678203
0.687831 0.687831 0.687831
0.697063 0.697063 0.697063
0.781918 0.781918 0.781918
0.788724 0.788724 0.788724
0.795438 0.795438 0.795438
0.80209 0.80209 0.80209
0.808682 0.808682 0.808682
0.880507 0.880507 0.880507
0.887266 0.887266 0.887266
0.894118 0.894118 0.894118
0.901076 0.901076 0.901076
0.908171 0.908171 0.908171
0.269078 0.269078 0.269078
0.292363 0.292363 0.292363
0.314519 0.314519 0.314519
0.335805 0.335805 0.335805
0.356435 0.356435 0.356435
0.577859 0.577859 0.577859
0.593698 0.593698 0.593698
0.608301 0.608301 0.608301
0.621836 0.621836 0.621836
0.634485 0.634485 0.634485
0.738598 0.738598 0.738598
0.746197 0.746197 0.746197
0.753628 0.753628 0.753628
0.760891 0.760891 0.760891
0.768017 0.768017 0.768017
0.841169 0.841169 0.841169
0.847639 0.847639 0.847639
0.854139 0.854139 0.854139
0.860655 0.860655 0.860655
0.867216 0.867216 0.867216
0.946212 0.946212 0.946212
0.954528 0.954528 0.954528
0.96318 0.96318 0.96318
0.972198 0.972198 0.972198
0.981643 0.981643 0.981643
0.456367 0.456367 0.456367
0.477089 0.477089 0.477089
0.498665 0.498665 0.498665
0.520928 0.520928 0.520928
0.54168 0.54168 0.54168
0.687831 0.687831 0.687831
0.697063 0.697063 0.697063
0.705928 0.705928 0.705928
0.714488 0.714488 0.714488
0.722759 0.722759 0.722759
0.80209 0.80209 0.80209
0.808682 0.808682 0.808682
0.815229 0.815229 0.815229
0.821744 0.821744 0.821744
0.828229 0.828229 0.828229
0.901076 0.901076 0.901076
0.908171 0.908171 0.908171
0.915389 0.915389 0.915389
0.922789 0.922789 0.922789
0.930373 0.930373 0.930373
1 1 1
1 1 1
1 1 1
1 1 1
1 1 1
