2499DRT/STP-2399Log-PrintV3.cube
TITLE "Generated by Resolve"
LUT_3D_SIZE 33
0.0321965 0.0289464 0.0326543
0.0426032 0.0289464 0.0326543
0.0547799 0.0289464 0.0326543
0.0703899 0.0289464 0.0326543
0.0898299 0.0289464 0.0326543
0.113359 0.0289464 0.0326543
0.141009 0.0289464 0.0326543
0.172625 0.0289464 0.0326543
0.207858 0.0289464 0.0326543
0.246189 0.0289464 0.0326543
0.286854 0.0289464 0.0326543
0.328771 0.0289464 0.0326543
0.370718 0.0289464 0.0326543
0.411597 0.0289464 0.0326543
0.450568 0.0289464 0.0326543
0.487129 0.0289464 0.0326543
0.520958 0.0289464 0.0326543
0.551797 0.0289464 0.0326543
0.579461 0.0289464 0.0326543
0.60383 0.0289464 0.0326543
0.624781 0.0289464 0.0326543
0.64239 0.0289464 0.0326543
0.656794 0.0289464 0.0326543
0.668299 0.0289464 0.0326543
0.677272 0.0289464 0.0326543
0.684138 0.0289464 0.0326543
0.689311 0.0289464 0.0326543
0.693156 0.0289464 0.0326543
0.695994 0.0289464 0.0326543
0.698054 0.0289464 0.0326543
0.69955 0.0289464 0.0326543
0.700633 0.0289464 0.0326543
0.701411 0.0289464 0.0326543
0.0321965 0.0444648 0.0326543
0.0426032 0.0444648 0.0326543
0.0547799 0.0444648 0.0326543
0.0703899 0.0444648 0.0326543
0.0898299 0.0444648 0.0326543
0.113359 0.0444648 0.0326543
0.141009 0.0444648 0.0326543
0.172625 0.0444648 0.0326543
0.207858 0.0444648 0.0326543
0.246189 0.0444648 0.0326543
0.286854 0.0444648 0.0326543
0.328771 0.0444648 0.0326543
0.370718 0.0444648 0.0326543
0.411597 0.0444648 0.0326543
0.450568 0.0444648 0.0326543
0.487129 0.0444648 0.0326543
0.520958 0.0444648 0.0326543
0.551797 0.0444648 0.0326543
0.579461 0.0444648 0.0326543
0.60383 0.0444648 0.0326543
0.624781 0.0444648 0.0326543
0.64239 0.0444648 0.0326543
0.656794 0.0444648 0.0326543
0.668299 0.0444648 0.0326543
0.677272 0.0444648 0.0326543
0.684138 0.0444648 0.0326543
0.689311 0.0444648 0.0326543
0.693156 0.0444648 0.0326543
0.695994 0.0444648 0.0326543
0.698054 0.0444648 0.0326543
0.69955 0.0444648 0.0326543
0.700633 0.0444648 0.0326543
0.701411 0.0444648 0.0326543
0.0321965 0.0609598 0.0326543
0.0426032 0.0609598 0.0326543
0.0547799 0.0609598 0.0326543
0.0703899 0.0609598 0.0326543
0.0898299 0.0609598 0.0326543
0.113359 0.0609598 0.0326543
0.141009 0.0609598 0.0326543
0.172625 0.0609598 0.0326543
0.207858 0.0609598 0.0326543
0.246189 0.0609598 0.0326543
0.286854 0.0609598 0.0326543
0.328771 0.0609598 0.0326543
0.370718 0.0609598 0.0326543
0.411597 0.0609598 0.0326543
0.450568 0.0609598 0.0326543
0.487129 0.0609598 0.0326543
0.520958 0.0609598 0.0326543
0.551797 0.0609598 0.0326543
0.579461 0.0609598 0.0326543
0.60383 0.0609598 0.0326543
0.624781 0.0609598 0.0326543
0.64239 0.0609598 0.0326543
0.656794 0.0609598 0.0326543
0.668299 0.0609598 0.0326543
0.677272 0.0609598 0.0326543
0.684138 0.0609598 0.0326543
0.689311 0.0609598 0.0326543
0.693156 0.0609598 0.0326543
0.695994 0.0609598 0.0326543
0.698054 0.0609598 0.0326543
0.69955 0.0609598 0.0326543
0.700633 0.0609598 0.0326543
0.701411 0.0609598 0.0326543
0.0321965 0.0802777 0.0326543
0.0426032 0.0802777 0.0326543
0.0547799 0.0802777 0.0326543
0.0703899 0.0802777 0.0326543
0.0898299 0.0802777 0.0326543
0.113359 0.0802777 0.0326543
0.141009 0.0802777 0.0326543
0.172625 0.0802777 0.0326543
0.207858 0.0802777 0.0326543
0.246189 0.0802777 0.0326543
0.286854 0.0802777 0.0326543
0.328771 0.0802777 0.0326543
0.370718 0.0802777 0.0326543
0.411597 0.0802777 0.0326543
0.450568 0.0802777 0.0326543
0.487129 0.0802777 0.0326543
0.520958 0.0802777 0.0326543
0.551797 0.0802777 0.0326543
0.579461 0.0802777 0.0326543
0.60383 0.0802777 0.0326543
0.624781 0.0802777 0.0326543
0.64239 0.0802777 0.0326543
0.656794 0.0802777 0.0326543
0.668299 0.0802777 0.0326543
0.677272 0.0802777 0.0326543
0.684138 0.0802777 0.0326543
0.689311 0.0802777 0.0326543
0.693156 0.0802777 0.0326543
0.695994 0.0802777 0.0326543
0.698054 0.0802777 0.0326543
0.69955 0.0802777 0.0326543
0.700633 0.0802777 0.0326543
0.701411 0.0802777 0.0326543
0.0321965 0.102525 0.0326543
0.0426032 0.102525 0.0326543
0.0547799 0.102525 0.0326543
0.0703899 0.102525 0.0326543
0.0898299 0.102525 0.0326543
0.113359 0.102525 0.0326543
0.141009 0.102525 0.0326543
0.172625 0.102525 0.0326543
0.207858 0.102525 0.0326543
0.246189 0.102525 0.0326543
0.286854 0.102525 0.0326543
0.328771 0.102525 0.0326543
0.370718 0.102525 0.0326543
0.411597 0.102525 0.0326543
0.450568 0.102525 0.0326543
0.487129 0.102525 0.0326543
0.520958 0.102525 0.0326543
0.551797 0.102525 0.0326543
0.579461 0.102525 0.0326543
0.60383 0.102525 0.0326543
0.624781 0.102525 0.0326543
0.64239 0.102525 0.0326543
0.656794 0.102525 0.0326543
0.668299 0.102525 0.0326543
0.677272 0.102525 0.0326543
0.684138 0.102525 0.0326543
0.689311 0.102525 0.0326543
0.693156 0.102525 0.0326543
0.695994 0.102525 0.0326543
0.698054 0.102525 0.0326543
0.69955 0.102525 0.0326543
0.700633 0.102525 0.0326543
0.701411 0.102525 0.0326543
0.0321965 0.127794 0.0326543
0.0426032 0.127794 0.0326543
0.0547799 0.127794 0.0326543
0.0703899 0.127794 0.0326543
0.0898299 0.127794 0.0326543
0.113359 0.127794 0.0326543
0.141009 0.127794 0.0326543
0.172625 0.127794 0.0326543
0.207858 0.127794 0.0326543
0.246189 0.127794 0.0326543
0.286854 0.127794 0.0326543
0.328771 0.127794 0.0326543
0.370718 0.127794 0.0326543
0.411597 0.127794 0.0326543
0.450568 0.127794 0.0326543
0.487129 0.127794 0.0326543
0.520958 0.127794 0.0326543
0.551797 0.127794 0.0326543
0.579461 0.127794 0.0326543
0.60383 0.127794 0.0326543
0.624781 0.127794 0.0326543
0.64239 0.127794 0.0326543
0.656794 0.127794 0.0326543
0.668299 0.127794 0.0326543
0.677272 0.127794 0.0326543
0.684138 0.127794 0.0326543
0.689311 0.127794 0.0326543
0.693156 0.127794 0.0326543
0.695994 0.127794 0.0326543
0.698054 0.127794 0.0326543
0.69955 0.127794 0.0326543
0.700633 0.127794 0.0326543
0.701411 0.127794 0.0326543
0.0321965 0.15613 0.0326543
0.0426032 0.15613 0.0326543
0.0547799 0.15613 0.0326543
0.0703899 0.15613 0.0326543
0.0898299 0.15613 0.0326543
0.113359 0.15613 0.0326543
0.141009 0.15613 0.0326543
0.172625 0.15613 0.0326543
0.207858 0.15613 0.0326543
0.246189 0.15613 0.0326543
0.286854 0.15613 0.0326543
0.328771 0.15613 0.0326543
0.370718 0.15613 0.0326543
0.411597 0.15613 0.0326543
0.450568 0.15613 0.0326543
0.487129 0.15613 0.0326543
0.520958 0.15613 0.0326543
0.551797 0.15613 0.0326543
0.579461 0.15613 0.0326543
0.60383 0.15613 0.0326543
0.624781 0.15613 0.0326543
0.64239 0.15613 0.0326543
0.656794 0.15613 0.0326543
0.668299 0.15613 0.0326543
0.677272 0.15613 0.0326543
0.684138 0.15613 0.0326543
0.689311 0.15613 0.0326543
0.693156 0.15613 0.0326543
0.695994 0.15613 0.0326543
0.698054 0.15613 0.0326543
0.69955 0.15613 0.0326543
0.700633 0.15613 0.0326543
0.701411 0.15613 0.0326543
0.0321965 0.18761 0.0326543
0.0426032 0.18761 0.0326543
0.0547799 0.18761 0.0326543
0.0703899 0.18761 0.0326543
0.0898299 0.18761 0.0326543
0.113359 0.18761 0.0326543
0.141009 0.18761 0.0326543
0.172625 0.18761 0.0326543
0.207858 0.18761 0.0326543
0.246189 0.18761 0.0326543
0.286854 0.18761 0.0326543
0.328771 0.18761 0.0326543
0.370718 0.18761 0.0326543
0.411597 0.18761 0.0326543
0.450568 0.18761 0.0326543
0.487129 0.18761 0.0326543
0.520958 0.18761 0.0326543
0.551797 0.18761 0.0326543
0.579461 0.18761 0.0326543
0.60383 0.18761 0.0326543
0.624781 0.18761 0.0326543
0.64239 0.18761 0.0326543
0.656794 0.18761 0.0326543
0.668299 0.18761 0.0326543
0.677272 0.18761 0.0326543
0.684138 0.18761 0.0326543
0.689311 0.18761 0.0326543
0.693156 0.18761 0.0326543
0.695994 0.18761 0.0326543
0.698054 0.18761 0.0326543
0.69955 0.18761 0.0326543
0.700633 0.18761 0.0326543
0.701411 0.18761 0.0326543
0.0321965 0.222263 0.0326543
0.0426032 0.222263 0.0326543
0.0547799 0.222263 0.0326543
0.0703899 0.222263 0.0326543
0.0898299 0.222263 0.0326543
0.113359 0.222263 0.0326543
0.141009 0.222263 0.0326543
0.172625 0.222263 0.0326543
0.207858 0.222263 0.0326543
0.246189 0.222263 0.0326543
0.286854 0.222263 0.0326543
0.328771 0.222263 0.0326543
0.370718 0.222263 0.0326543
0.411597 0.222263 0.0326543
0.450568 0.222263 0.0326543
0.487129 0.222263 0.0326543
0.520958 0.222263 0.0326543
0.551797 0.222263 0.0326543
0.579461 0.222263 0.0326543
0.60383 0.222263 0.0326543
0.624781 0.222263 0.0326543
0.64239 0.222263 0.0326543
0.656794 0.222263 0.0326543
0.668299 0.222263 0.0326543
0.677272 0.222263 0.0326543
0.684138 0.222263 0.0326543
0.689311 0.222263 0.0326543
0.693156 0.222263 0.0326543
0.695994 0.222263 0.0326543
0.698054 0.222263 0.0326543
0.69955 0.222263 0.0326543
0.700633 0.222263 0.0326543
0.701411 0.222263 0.0326543
0.0321965 0.260044 0.0326543
0.0426032 0.260044 0.0326543
0.0547799 0.260044 0.0326543
0.0703899 0.260044 0.0326543
0.0898299 0.260044 0.0326543
0.113359 0.260044 0.0326543
0.141009 0.260044 0.0326543
0.172625 0.260044 0.0326543
0.207858 0.260044 0.0326543
0.246189 0.260044 0.0326543
0.286854 0.260044 0.0326543
0.328771 0.260044 0.0326543
0.370718 0.260044 0.0326543
0.411597 0.260044 0.0326543
0.450568 0.260044 0.0326543
0.487129 0.260044 0.0326543
0.520958 0.260044 0.0326543
0.551797 0.260044 0.0326543
0.579461 0.260044 0.0326543
0.60383 0.260044 0.0326543
0.624781 0.260044 0.0326543
0.64239 0.260044 0.0326543
0.656794 0.260044 0.0326543
0.668299 0.260044 0.0326543
0.677272 0.260044 0.0326543
0.684138 0.260044 0.0326543
0.689311 0.260044 0.0326543
0.693156 0.260044 0.0326543
0.695994 0.260044 0.0326543
0.698054 0.260044 0.0326543
0.69955 0.260044 0.0326543
0.700633 0.260044 0.0326543
0.701411 0.260044 0.0326543
0.0321965 0.300603 0.0326543
0.0426032 0.300603 0.0326543
0.0547799 0.300603 0.0326543
0.0703899 0.300603 0.0326543
0.0898299 0.300603 0.0326543
0.113359 0.300603 0.0326543
0.141009 0.300603 0.0326543
0.172625 0.300603 0.0326543
0.207858 0.300603 0.0326543
0.246189 0.300603 0.0326543
0.286854 0.300603 0.0326543
0.328771 0.300603 0.0326543
0.370718 0.300603 0.0326543
0.411597 0.300603 0.0326543
0.450568 0.300603 0.0326543
0.487129 0.300603 0.0326543
0.520958 0.300603 0.0326543
0.551797 0.300603 0.0326543
0.579461 0.300603 0.0326543
0.60383 0.300603 0.0326543
0.624781 0.300603 0.0326543
0.64239 0.300603 0.0326543
0.656794 0.300603 0.0326543
0.668299 0.300603 0.0326543
0.677272 0.300603 0.0326543
0.684138 0.300603 0.0326543
0.689311 0.300603 0.0326543
0.693156 0.300603 0.0326543
0.695994 0.300603 0.0326543
0.698054 0.300603 0.0326543
0.69955 0.300603 0.0326543
0.700633 0.300603 0.0326543
0.701411 0.300603 0.0326543
0.0321965 0.343252 0.0326543
0.0426032 0.343252 0.0326543
0.0547799 0.343252 0.0326543
0.0703899 0.343252 0.0326543
0.0898299 0.343252 0.0326543
0.113359 0.343252 0.0326543
0.141009 0.343252 0.0326543
0.172625 0.343252 0.0326543
0.207858 0.343252 0.0326543
0.246189 0.343252 0.0326543
0.286854 0.343252 0.0326543
0.328771 0.343252 0.0326543
0.370718 0.343252 0.0326543
0.411597 0.343252 0.0326543
0.450568 0.343252 0.0326543
0.487129 0.343252 0.0326543
0.520958 0.343252 0.0326543
0.551797 0.343252 0.0326543
0.579461 0.343252 0.0326543
0.60383 0.343252 0.0326543
0.624781 0.343252 0.0326543
0.64239 0.343252 0.0326543
0.656794 0.343252 0.0326543
0.668299 0.343252 0.0326543
0.677272 0.343252 0.0326543
0.684138 0.343252 0.0326543
0.689311 0.343252 0.0326543
0.693156 0.343252 0.0326543
0.695994 0.343252 0.0326543
0.698054 0.343252 0.0326543
0.69955 0.343252 0.0326543
0.700633 0.343252 0.0326543
0.701411 0.343252 0.0326543
0.0321965 0.386969 0.0326543
0.0426032 0.386969 0.0326543
0.0547799 0.386969 0.0326543
0.0703899 0.386969 0.0326543
0.0898299 0.386969 0.0326543
0.113359 0.386969 0.0326543
0.141009 0.386969 0.0326543
0.172625 0.386969 0.0326543
0.207858 0.386969 0.0326543
0.246189 0.386969 0.0326543
0.286854 0.386969 0.0326543
0.328771 0.386969 0.0326543
0.370718 0.386969 0.0326543
0.411597 0.386969 0.0326543
0.450568 0.386969 0.0326543
0.487129 0.386969 0.0326543
0.520958 0.386969 0.0326543
0.551797 0.386969 0.0326543
0.579461 0.386969 0.0326543
0.60383 0.386969 0.0326543
0.624781 0.386969 0.0326543
0.64239 0.386969 0.0326543
0.656794 0.386969 0.0326543
0.668299 0.386969 0.0326543
0.677272 0.386969 0.0326543
0.684138 0.386969 0.0326543
0.689311 0.386969 0.0326543
0.693156 0.386969 0.0326543
0.695994 0.386969 0.0326543
0.698054 0.386969 0.0326543
0.69955 0.386969 0.0326543
0.700633 0.386969 0.0326543
0.701411 0.386969 0.0326543
0.0321965 0.430625 0.0326543
0.0426032 0.430625 0.0326543
0.0547799 0.430625 0.0326543
0.0703899 0.430625 0.0326543
0.0898299 0.430625 0.0326543
0.113359 0.430625 0.0326543
0.141009 0.430625 0.0326543
0.172625 0.430625 0.0326543
0.207858 0.430625 0.0326543
0.246189 0.430625 0.0326543
0.286854 0.430625 0.0326543
0.328771 0.430625 0.0326543
0.370718 0.430625 0.0326543
0.411597 0.430625 0.0326543
0.450568 0.430625 0.0326543
0.487129 0.430625 0.0326543
0.520958 0.430625 0.0326543
0.551797 0.430625 0.0326543
0.579461 0.430625 0.0326543
0.60383 0.430625 0.0326543
0.624781 0.430625 0.0326543
0.64239 0.430625 0.0326543
0.656794 0.430625 0.0326543
0.668299 0.430625 0.0326543
0.677272 0.430625 0.0326543
0.684138 0.430625 0.0326543
0.689311 0.430625 0.0326543
0.693156 0.430625 0.0326543
0.695994 0.430625 0.0326543
0.698054 0.430625 0.0326543
0.69955 0.430625 0.0326543
0.700633 0.430625 0.0326543
0.701411 0.430625 0.0326543
0.0321965 0.473152 0.0326543
0.0426032 0.473152 0.0326543
0.0547799 0.473152 0.0326543
0.0703899 0.473152 0.0326543
0.0898299 0.473152 0.0326543
0.113359 0.473152 0.0326543
0.141009 0.473152 0.0326543
0.172625 0.473152 0.0326543
0.207858 0.473152 0.0326543
0.246189 0.473152 0.0326543
0.286854 0.473152 0.0326543
0.328771 0.473152 0.0326543
0.370718 0.473152 0.0326543
0.411597 0.473152 0.0326543
0.450568 0.473152 0.0326543
0.487129 0.473152 0.0326543
0.520958 0.473152 0.0326543
0.551797 0.473152 0.0326543
0.579461 0.473152 0.0326543
0.60383 0.473152 0.0326543
0.624781 0.473152 0.0326543
0.64239 0.473152 0.0326543
0.656794 0.473152 0.0326543
0.668299 0.473152 0.0326543
0.677272 0.473152 0.0326543
0.684138 0.473152 0.0326543
0.689311 0.473152 0.0326543
0.693156 0.473152 0.0326543
0.695994 0.473152 0.0326543
0.698054 0.473152 0.0326543
0.69955 0.473152 0.0326543
0.700633 0.473152 0.0326543
0.701411 0.473152 0.0326543
0.0321965 0.513726 0.0326543
0.0426032 0.513726 0.0326543
0.0547799 0.513726 0.0326543
0.0703899 0.513726 0.0326543
0.0898299 0.513726 0.0326543
0.113359 0.513726 0.0326543
0.141009 0.513726 0.0326543
0.172625 0.513726 0.0326543
0.207858 0.513726 0.0326543
0.246189 0.513726 0.0326543
0.286854 0.513726 0.0326543
0.328771 0.513726 0.0326543
0.370718 0.513726 0.0326543
0.411597 0.513726 0.0326543
0.450568 0.513726 0.0326543
0.487129 0.513726 0.0326543
0.520958 0.513726 0.0326543
0.551797 0.513726 0.0326543
0.579461 0.513726 0.0326543
0.60383 0.513726 0.0326543
0.624781 0.513726 0.0326543
0.64239 0.513726 0.0326543
0.656794 0.513726 0.0326543
0.668299 0.513726 0.0326543
0.677272 0.513726 0.0326543
0.684138 0.513726 0.0326543
0.689311 0.513726 0.0326543
0.693156 0.513726 0.0326543
0.695994 0.513726 0.0326543
0.698054 0.513726 0.0326543
0.69955 0.513726 0.0326543
0.700633 0.513726 0.0326543
0.701411 0.513726 0.0326543
0.0321965 0.551583 0.0326543
0.0426032 0.551583 0.0326543
0.0547799 0.551583 0.0326543
0.0703899 0.551583 0.0326543
0.0898299 0.551583 0.0326543
0.113359 0.551583 0.0326543
0.141009 0.551583 0.0326543
0.172625 0.551583 0.0326543
0.207858 0.551583 0.0326543
0.246189 0.551583 0.0326543
0.286854 0.551583 0.0326543
0.328771 0.551583 0.0326543
0.370718 0.551583 0.0326543
0.411597 0.551583 0.0326543
0.450568 0.551583 0.0326543
0.487129 0.551583 0.0326543
0.520958 0.551583 0.0326543
0.551797 0.551583 0.0326543
0.579461 0.551583 0.0326543
0.60383 0.551583 0.0326543
0.624781 0.551583 0.0326543
0.64239 0.551583 0.0326543
0.656794 0.551583 0.0326543
0.668299 0.551583 0.0326543
0.677272 0.551583 0.0326543
0.684138 0.551583 0.0326543
0.689311 0.551583 0.0326543
0.693156 0.551583 0.0326543
0.695994 0.551583 0.0326543
0.698054 0.551583 0.0326543
0.69955 0.551583 0.0326543
0.700633 0.551583 0.0326543
0.701411 0.551583 0.0326543
0.0321965 0.586038 0.0326543
0.0426032 0.586038 0.0326543
0.0547799 0.586038 0.0326543
0.0703899 0.586038 0.0326543
0.0898299 0.586038 0.0326543
0.113359 0.586038 0.0326543
0.141009 0.586038 0.0326543
0.172625 0.586038 0.0326543
0.207858 0.586038 0.0326543
0.246189 0.586038 0.0326543
0.286854 0.586038 0.0326543
0.328771 0.586038 0.0326543
0.370718 0.586038 0.0326543
0.411597 0.586038 0.0326543
0.450568 0.586038 0.0326543
0.487129 0.586038 0.0326543
0.520958 0.586038 0.0326543
0.551797 0.586038 0.0326543
0.579461 0.586038 0.0326543
0.60383 0.586038 0.0326543
0.624781 0.586038 0.0326543
0.64239 0.586038 0.0326543
0.656794 0.586038 0.0326543
0.668299 0.586038 0.0326543
0.677272 0.586038 0.0326543
0.684138 0.586038 0.0326543
0.689311 0.586038 0.0326543
0.693156 0.586038 0.0326543
0.695994 0.586038 0.0326543
0.698054 0.586038 0.0326543
0.69955 0.586038 0.0326543
0.700633 0.586038 0.0326543
0.701411 0.586038 0.0326543
0.0321965 0.61651 0.0326543
0.0426032 0.61651 0.0326543
0.0547799 0.61651 0.0326543
0.0703899 0.61651 0.0326543
0.0898299 0.61651 0.0326543
0.113359 0.61651 0.0326543
0.141009 0.61651 0.0326543
0.172625 0.61651 0.0326543
0.207858 0.61651 0.0326543
0.246189 0.61651 0.0326543
0.286854 0.61651 0.0326543
0.328771 0.61651 0.0326543
0.370718 0.61651 0.0326543
0.411597 0.61651 0.0326543
0.450568 0.61651 0.0326543
0.487129 0.61651 0.0326543
0.520958 0.61651 0.0326543
0.551797 0.61651 0.0326543
0.579461 0.61651 0.0326543
0.60383 0.61651 0.0326543
0.624781 0.61651 0.0326543
0.64239 0.61651 0.0326543
0.656794 0.61651 0.0326543
0.668299 0.61651 0.0326543
0.677272 0.61651 0.0326543
0.684138 0.61651 0.0326543
0.689311 0.61651 0.0326543
0.693156 0.61651 0.0326543
0.695994 0.61651 0.0326543
0.698054 0.61651 0.0326543
0.69955 0.61651 0.0326543
0.700633 0.61651 0.0326543
0.701411 0.61651 0.0326543
0.0321965 0.642512 0.0326543
0.0426032 0.642512 0.0326543
0.0547799 0.642512 0.0326543
0.0703899 0.642512 0.0326543
0.0898299 0.642512 0.0326543
0.113359 0.642512 0.0326543
0.141009 0.642512 0.0326543
0.172625 0.642512 0.0326543
0.207858 0.642512 0.0326543
0.246189 0.642512 0.0326543
0.286854 0.642512 0.0326543
0.328771 0.642512 0.0326543
0.370718 0.642512 0.0326543
0.411597 0.642512 0.0326543
0.450568 0.642512 0.0326543
0.487129 0.642512 0.0326543
0.520958 0.642512 0.0326543
0.551797 0.642512 0.0326543
0.579461 0.642512 0.0326543
0.60383 0.642512 0.0326543
0.624781 0.642512 0.0326543
0.64239 0.642512 0.0326543
0.656794 0.642512 0.0326543
0.668299 0.642512 0.0326543
0.677272 0.642512 0.0326543
0.684138 0.642512 0.0326543
0.689311 0.642512 0.0326543
0.693156 0.642512 0.0326543
0.695994 0.642512 0.0326543
0.698054 0.642512 0.0326543
0.69955 0.642512 0.0326543
0.700633 0.642512 0.0326543
0.701411 0.642512 0.0326543
0.0321965 0.663874 0.0326543
0.0426032 0.663874 0.0326543
0.0547799 0.663874 0.0326543
0.0703899 0.663874 0.0326543
0.0898299 0.663874 0.0326543
0.113359 0.663874 0.0326543
0.141009 0.663874 0.0326543
0.172625 0.663874 0.0326543
0.207858 0.663874 0.0326543
0.246189 0.663874 0.0326543
0.286854 0.663874 0.0326543
0.328771 0.663874 0.0326543
0.370718 0.663874 0.0326543
0.411597 0.663874 0.0326543
0.450568 0.663874 0.0326543
0.487129 0.663874 0.0326543
0.520958 0.663874 0.0326543
0.551797 0.663874 0.0326543
0.579461 0.663874 0.0326543
0.60383 0.663874 0.0326543
0.624781 0.663874 0.0326543
0.64239 0.663874 0.0326543
0.656794 0.663874 0.0326543
0.668299 0.663874 0.0326543
0.677272 0.663874 0.0326543
0.684138 0.663874 0.0326543
0.689311 0.663874 0.0326543
0.693156 0.663874 0.0326543
0.695994 0.663874 0.0326543
0.698054 0.663874 0.0326543
0.69955 0.663874 0.0326543
0.700633 0.663874 0.0326543
0.701411 0.663874 0.0326543
0.0321965 0.680705 0.0326543
0.0426032 0.680705 0.0326543
0.0547799 0.680705 0.0326543
0.0703899 0.680705 0.0326543
0.0898299 0.680705 0.0326543
0.113359 0.680705 0.0326543
0.141009 0.680705 0.0326543
0.172625 0.680705 0.0326543
0.207858 0.680705 0.0326543
0.246189 0.680705 0.0326543
0.286854 0.680705 0.0326543
0.328771 0.680705 0.0326543
0.370718 0.680705 0.0326543
0.411597 0.680705 0.0326543
0.450568 0.680705 0.0326543
0.487129 0.680705 0.0326543
0.520958 0.680705 0.0326543
0.551797 0.680705 0.0326543
0.579461 0.680705 0.0326543
0.60383 0.680705 0.0326543
0.624781 0.680705 0.0326543
0.64239 0.680705 0.0326543
0.656794 0.680705 0.0326543
0.668299 0.680705 0.0326543
0.677272 0.680705 0.0326543
0.684138 0.680705 0.0326543
0.689311 0.680705 0.0326543
0.693156 0.680705 0.0326543
0.695994 0.680705 0.0326543
0.698054 0.680705 0.0326543
0.69955 0.680705 0.0326543
0.700633 0.680705 0.0326543
0.701411 0.680705 0.0326543
0.0321965 0.693492 0.0326543
0.0426032 0.693492 0.0326543
0.0547799 0.693492 0.0326543
0.0703899 0.693492 0.0326543
0.0898299 0.693492 0.0326543
0.113359 0.693492 0.0326543
0.141009 0.693492 0.0326543
0.172625 0.693492 0.0326543
0.207858 0.693492 0.0326543
0.246189 0.693492 0.0326543
0.286854 0.693492 0.0326543
0.328771 0.693492 0.0326543
0.370718 0.693492 0.0326543
0.411597 0.693492 0.0326543
0.450568 0.693492 0.0326543
0.487129 0.693492 0.0326543
0.520958 0.693492 0.0326543
0.551797 0.693492 0.0326543
0.579461 0.693492 0.0326543
0.60383 0.693492 0.0326543
0.624781 0.693492 0.0326543
0.64239 0.693492 0.0326543
0.656794 0.693492 0.0326543
0.668299 0.693492 0.0326543
0.677272 0.693492 0.0326543
0.684138 0.693492 0.0326543
0.689311 0.693492 0.0326543
0.693156 0.693492 0.0326543
0.695994 0.693492 0.0326543
0.698054 0.693492 0.0326543
0.69955 0.693492 0.0326543
0.700633 0.693492 0.0326543
0.701411 0.693492 0.0326543
0.0321965 0.702861 0.0326543
0.0426032 0.702861 0.0326543
0.0547799 0.702861 0.0326543
0.0703899 0.702861 0.0326543
0.0898299 0.702861 0.0326543
0.113359 0.702861 0.0326543
0.141009 0.702861 0.0326543
0.172625 0.702861 0.0326543
0.207858 0.702861 0.0326543
0.246189 0.702861 0.0326543
0.286854 0.702861 0.0326543
0.328771 0.702861 0.0326543
0.370718 0.702861 0.0326543
0.411597 0.702861 0.0326543
0.450568 0.702861 0.0326543
0.487129 0.702861 0.0326543
0.520958 0.702861 0.0326543
0.551797 0.702861 0.0326543
0.579461 0.702861 0.0326543
0.60383 0.702861 0.0326543
0.624781 0.702861 0.0326543
0.64239 0.702861 0.0326543
0.656794 0.702861 0.0326543
0.668299 0.702861 0.0326543
0.677272 0.702861 0.0326543
0.684138 0.702861 0.0326543
0.689311 0.702861 0.0326543
0.693156 0.702861 0.0326543
0.695994 0.702861 0.0326543
0.698054 0.702861 0.0326543
0.69955 0.702861 0.0326543
0.700633 0.702861 0.0326543
0.701411 0.702861 0.0326543
0.0321965 0.709545 0.0326543
0.0426032 0.709545 0.0326543
0.0547799 0.709545 0.0326543
0.0703899 0.709545 0.0326543
0.0898299 0.709545 0.0326543
0.113359 0.709545 0.0326543
0.141009 0.709545 0.0326543
0.172625 0.709545 0.0326543
0.207858 0.709545 0.0326543
0.246189 0.709545 0.0326543
0.286854 0.709545 0.0326543
0.328771 0.709545 0.0326543
0.370718 0.709545 0.0326543
0.411597 0.709545 0.0326543
0.450568 0.709545 0.0326543
0.487129 0.709545 0.0326543
0.520958 0.709545 0.0326543
0.551797 0.709545 0.0326543
0.579461 0.709545 0.0326543
0.60383 0.709545 0.0326543
0.624781 0.709545 0.0326543
0.64239 0.709545 0.0326543
0.656794 0.709545 0.0326543
0.668299 0.709545 0.0326543
0.677272 0.709545 0.0326543
0.684138 0.709545 0.0326543
0.689311 0.709545 0.0326543
0.693156 0.709545 0.0326543
0.695994 0.709545 0.0326543
0.698054 0.709545 0.0326543
0.69955 0.709545 0.0326543
0.700633 0.709545 0.0326543
0.701411 0.709545 0.0326543
0.0321965 0.714229 0.0326543
0.0426032 0.714229 0.0326543
0.0547799 0.714229 0.0326543
0.0703899 0.714229 0.0326543
0.0898299 0.714229 0.0326543
0.113359 0.714229 0.0326543
0.141009 0.714229 0.0326543
0.172625 0.714229 0.0326543
0.207858 0.714229 0.0326543
0.246189 0.714229 0.0326543
0.286854 0.714229 0.0326543
0.328771 0.714229 0.0326543
0.370718 0.714229 0.0326543
0.411597 0.714229 0.0326543
0.450568 0.714229 0.0326543
0.487129 0.714229 0.0326543
0.520958 0.714229 0.0326543
0.551797 0.714229 0.0326543
0.579461 0.714229 0.0326543
0.60383 0.714229 0.0326543
0.624781 0.714229 0.0326543
0.64239 0.714229 0.0326543
0.656794 0.714229 0.0326543
0.668299 0.714229 0.0326543
0.677272 0.714229 0.0326543
0.684138 0.714229 0.0326543
0.689311 0.714229 0.0326543
