2499DRT/STP-2399Log-PrintV1.cube
TITLE "Generated by Resolve"
LUT_3D_SIZE 5
0.0738842 0.0978256 0.119829
0.282597 0.0978256 0.119829
0.562081 0.0978256 0.119829
0.690044 0.0978256 0.119829
0.716396 0.0978256 0.119829
0.0738842 0.277028 0.119829
0.282597 0.277028 0.119829
0.562081 0.277028 0.119829
0.690044 0.277028 0.119829
0.716396 0.277028 0.119829
0.0738842 0.563043 0.119829
0.282597 0.563043 0.119829
0.562081 0.563043 0.119829
0.690044 0.563043 0.119829
0.716396 0.563043 0.119829
0.0738842 0.642634 0.119829
0.282597 0.642634 0.119829
0.562081 0.642634 0.119829
0.690044 0.642634 0.119829
0.716396 0.642634 0.119829
0.0738842 0.6486 0.119829
0.282597 0.6486 0.119829
0.562081 0.6486 0.119829
0.690044 0.6486 0.119829
0.716396 0.6486 0.119829
0.0738842 0.0978256 0.288243
0.282597 0.0978256 0.288243
0.562081 0.0978256 0.288243
0.690044 0.0978256 0.288243
0.716396 0.0978256 0.288243
0.0738842 0.277028 0.288243
0.282597 0.277028 0.288243
0.562081 0.277028 0.288243
0.690044 0.277028 0.288243
0.716396 0.277028 0.288243
0.0738842 0.563043 0.288243
0.282597 0.563043 0.288243
0.562081 0.563043 0.288243
0.690044 0.563043 0.288243
0.716396 0.563043 0.288243
0.0738842 0.642634 0.288243
0.282597 0.642634 0.288243
0.562081 0.642634 0.288243
0.690044 0.642634 0.288243
0.716396 0.642634 0.288243
0.0738842 0.6486 0.288243
0.282597 0.6486 0.288243
0.562081 0.6486 0.288243
0.690044 0.6486 0.288243
0.716396 0.6486 0.288243
0.0738842 0.0978256 0.510475
0.282597 0.0978256 0.510475
0.562081 0.0978256 0.510475
0.690044 0.0978256 0.510475
0.716396 0.0978256 0.510475
0.0738842 0.277028 0.510475
0.282597 0.277028 0.510475
0.562081 0.277028 0.510475
0.690044 0.277028 0.510475
0.716396 0.277028 0.510475
0.0738842 0.563043 0.510475
0.282597 0.563043 0.510475
0.562081 0.563043 0.510475
0.690044 0.563043 0.510475
0.716396 0.563043 0.510475
0.0738842 0.642634 0.510475
0.282597 0.642634 0.510475
0.562081 0.642634 0.510475
0.690044 0.642634 0.510475
0.716396 0.642634 0.510475
0.0738842 0.6486 0.510475
0.282597 0.6486 0.510475
0.562081 0.6486 0.510475
0.690044 0.6486 0.510475
0.716396 0.6486 0.510475
0.0738842 0.0978256 0.551919
0.282597 0.0978256 0.551919
0.562081 0.0978256 0.551919
0.690044 0.0978256 0.551919
0.716396 0.0978256 0.551919
0.0738842 0.277028 0.551919
0.282597 0.277028 0.551919
0.562081 0.277028 0.551919
0.690044 0.277028 0.551919
0.716396 0.277028 0.551919
0.0738842 0.563043 0.551919
0.282597 0.563043 0.551919
0.562081 0.563043 0.551919
0.690044 0.563043 0.551919
0.716396 0.563043 0.551919
0.0738842 0.642634 0.551919
0.282597 0.642634 0.551919
0.562081 0.642634 0.551919
0.690044 0.642634 0.551919
0.716396 0.642634 0.551919
0.0738842 0.6486 0.551919
0.282597 0.6486 0.551919
0.562081 0.6486 0.551919
0.690044 0.6486 0.551919
0.716396 0.6486 0.551919
0.0738842 0.0978256 0.553994
0.282597 0.0978256 0.553994
0.562081 0.0978256 0.553994
0.690044 0.0978256 0.553994
0.716396 0.0978256 0.553994
0.0738842 0.277028 0.553994
0.282597 0.277028 0.553994
0.562081 0.277028 0.553994
0.690044 0.277028 0.553994
0.716396 0.277028 0.553994
0.0738842 0.563043 0.553994
0.282597 0.563043 0.553994
0.562081 0.563043 0.553994
0.690044 0.563043 0.553994
0.716396 0.563043 0.553994
0.0738842 0.642634 0.553994
0.282597 0.642634 0.553994
0.562081 0.642634 0.553994
0.690044 0.642634 0.553994
0.716396 0.642634 0.553994
0.0738842 0.6486 0.553994
0.282597 0.6486 0.553994
0.562081 0.6486 0.553994
0.690044 0.6486 0.553994
0.716396 0.6486 0.553994
