2499DRT/STP-2399Log-InstantFilm.cube
TITLE "Generated by Resolve"
LUT_3D_SIZE 9
0.0179599 0.0644999 0.0641489
0.119066 0.0644999 0.0641489
0.232563 0.0644999 0.0641489
0.359609 0.0644999 0.0641489
0.483742 0.0644999 0.0641489
0.590494 0.0644999 0.0641489
0.674754 0.0644999 0.0641489
0.732143 0.0644999 0.0641489
0.76379 0.0644999 0.0641489
0.0179599 0.146181 0.0641489
0.119066 0.146181 0.0641489
0.232563 0.146181 0.0641489
0.359609 0.146181 0.0641489
0.483742 0.146181 0.0641489
0.590494 0.146181 0.0641489
0.674754 0.146181 0.0641489
0.732143 0.146181 0.0641489
0.76379 0.146181 0.0641489
0.0179599 0.242359 0.0641489
0.119066 0.242359 0.0641489
0.232563 0.242359 0.0641489
0.359609 0.242359 0.0641489
0.483742 0.242359 0.0641489
0.590494 0.242359 0.0641489
0.674754 0.242359 0.0641489
0.732143 0.242359 0.0641489
0.76379 0.242359 0.0641489
0.0179599 0.347906 0.0641489
0.119066 0.347906 0.0641489
0.232563 0.347906 0.0641489
0.359609 0.347906 0.0641489
0.483742 0.347906 0.0641489
0.590494 0.347906 0.0641489
0.674754 0.347906 0.0641489
0.732143 0.347906 0.0641489
0.76379 0.347906 0.0641489
0.0179599 0.449577 0.0641489
0.119066 0.449577 0.0641489
0.232563 0.449577 0.0641489
0.359609 0.449577 0.0641489
0.483742 0.449577 0.0641489
0.590494 0.449577 0.0641489
0.674754 0.449577 0.0641489
0.732143 0.449577 0.0641489
0.76379 0.449577 0.0641489
0.0179599 0.539376 0.0641489
0.119066 0.539376 0.0641489
0.232563 0.539376 0.0641489
0.359609 0.539376 0.0641489
0.483742 0.539376 0.0641489
0.590494 0.539376 0.0641489
0.674754 0.539376 0.0641489
0.732143 0.539376 0.0641489
0.76379 0.539376 0.0641489
0.0179599 0.615457 0.0641489
0.119066 0.615457 0.0641489
0.232563 0.615457 0.0641489
0.359609 0.615457 0.0641489
0.483742 0.615457 0.0641489
0.590494 0.615457 0.0641489
0.674754 0.615457 0.0641489
0.732143 0.615457 0.0641489
0.76379 0.615457 0.0641489
0.0179599 0.675975 0.0641489
0.119066 0.675975 0.0641489
0.232563 0.675975 0.0641489
0.359609 0.675975 0.0641489
0.483742 0.675975 0.0641489
0.590494 0.675975 0.0641489
0.674754 0.675975 0.0641489
0.732143 0.675975 0.0641489
0.76379 0.675975 0.0641489
0.0179599 0.719066 0.0641489
0.119066 0.719066 0.0641489
0.232563 0.719066 0.0641489
0.359609 0.719066 0.0641489
0.483742 0.719066 0.0641489
0.590494 0.719066 0.0641489
0.674754 0.719066 0.0641489
0.732143 0.719066 0.0641489
0.76379 0.719066 0.0641489
0.0179599 0.0644999 0.138231
0.119066 0.0644999 0.138231
0.232563 0.0644999 0.138231
0.359609 0.0644999 0.138231
0.483742 0.0644999 0.138231
0.590494 0.0644999 0.138231
0.674754 0.0644999 0.138231
0.732143 0.0644999 0.138231
0.76379 0.0644999 0.138231
0.0179599 0.146181 0.138231
0.119066 0.146181 0.138231
0.232563 0.146181 0.138231
0.359609 0.146181 0.138231
0.483742 0.146181 0.138231
0.590494 0.146181 0.138231
0.674754 0.146181 0.138231
0.732143 0.146181 0.138231
0.76379 0.146181 0.138231
0.0179599 0.242359 0.138231
0.119066 0.242359 0.138231
0.232563 0.242359 0.138231
0.359609 0.242359 0.138231
0.483742 0.242359 0.138231
0.590494 0.242359 0.138231
0.674754 0.242359 0.138231
0.732143 0.242359 0.138231
0.76379 0.242359 0.138231
0.0179599 0.347906 0.138231
0.119066 0.347906 0.138231
0.232563 0.347906 0.138231
0.359609 0.347906 0.138231
0.483742 0.347906 0.138231
0.590494 0.347906 0.138231
0.674754 0.347906 0.138231
0.732143 0.347906 0.138231
0.76379 0.347906 0.138231
0.0179599 0.449577 0.138231
0.119066 0.449577 0.138231
0.232563 0.449577 0.138231
0.359609 0.449577 0.138231
0.483742 0.449577 0.138231
0.590494 0.449577 0.138231
0.674754 0.449577 0.138231
0.732143 0.449577 0.138231
0.76379 0.449577 0.138231
0.0179599 0.539376 0.138231
0.119066 0.539376 0.138231
0.232563 0.539376 0.138231
0.359609 0.539376 0.138231
0.483742 0.539376 0.138231
0.590494 0.539376 0.138231
0.674754 0.539376 0.138231
0.732143 0.539376 0.138231
0.76379 0.539376 0.138231
0.0179599 0.615457 0.138231
0.119066 0.615457 0.138231
0.232563 0.615457 0.138231
0.359609 0.615457 0.138231
0.483742 0.615457 0.138231
0.590494 0.615457 0.138231
0.674754 0.615457 0.138231
0.732143 0.615457 0.138231
0.76379 0.615457 0.138231
0.0179599 0.675975 0.138231
0.119066 0.675975 0.138231
0.232563 0.675975 0.138231
0.359609 0.675975 0.138231
0.483742 0.675975 0.138231
0.590494 0.675975 0.138231
0.674754 0.675975 0.138231
0.732143 0.675975 0.138231
0.76379 0.675975 0.138231
0.0179599 0.719066 0.138231
0.119066 0.719066 0.138231
0.232563 0.719066 0.138231
0.359609 0.719066 0.138231
0.483742 0.719066 0.138231
0.590494 0.719066 0.138231
0.674754 0.719066 0.138231
0.732143 0.719066 0.138231
0.76379 0.719066 0.138231
0.0179599 0.0644999 0.235996
0.119066 0.0644999 0.235996
0.232563 0.0644999 0.235996
0.359609 0.0644999 0.235996
0.483742 0.0644999 0.235996
0.590494 0.0644999 0.235996
0.674754 0.0644999 0.235996
0.732143 0.0644999 0.235996
0.76379 0.0644999 0.235996
0.0179599 0.146181 0.235996
0.119066 0.146181 0.235996
0.232563 0.146181 0.235996
0.359609 0.146181 0.235996
0.483742 0.146181 0.235996
0.590494 0.146181 0.235996
0.674754 0.146181 0.235996
0.732143 0.146181 0.235996
0.76379 0.146181 0.235996
0.0179599 0.242359 0.235996
0.119066 0.242359 0.235996
0.232563 0.242359 0.235996
0.359609 0.242359 0.235996
0.483742 0.242359 0.235996
0.590494 0.242359 0.235996
0.674754 0.242359 0.235996
0.732143 0.242359 0.235996
0.76379 0.242359 0.235996
0.0179599 0.347906 0.235996
0.119066 0.347906 0.235996
0.232563 0.347906 0.235996
0.359609 0.347906 0.235996
0.483742 0.347906 0.235996
0.590494 0.347906 0.235996
0.674754 0.347906 0.235996
0.732143 0.347906 0.235996
0.76379 0.347906 0.235996
0.0179599 0.449577 0.235996
0.119066 0.449577 0.235996
0.232563 0.449577 0.235996
0.359609 0.449577 0.235996
0.483742 0.449577 0.235996
0.590494 0.449577 0.235996
0.674754 0.449577 0.235996
0.732143 0.449577 0.235996
0.76379 0.449577 0.235996
0.0179599 0.539376 0.235996
0.119066 0.539376 0.235996
0.232563 0.539376 0.235996
0.359609 0.539376 0.235996
0.483742 0.539376 0.235996
0.590494 0.539376 0.235996
0.674754 0.539376 0.235996
0.732143 0.539376 0.235996
0.76379 0.539376 0.235996
0.0179599 0.615457 0.235996
0.119066 0.615457 0.235996
0.232563 0.615457 0.235996
0.359609 0.615457 0.235996
0.483742 0.615457 0.235996
0.590494 0.615457 0.235996
0.674754 0.615457 0.235996
0.732143 0.615457 0.235996
0.76379 0.615457 0.235996
0.0179599 0.675975 0.235996
0.119066 0.675975 0.235996
0.232563 0.675975 0.235996
0.359609 0.675975 0.235996
0.483742 0.675975 0.235996
0.590494 0.675975 0.235996
0.674754 0.675975 0.235996
0.732143 0.675975 0.235996
0.76379 0.675975 0.235996
0.0179599 0.719066 0.235996
0.119066 0.719066 0.235996
0.232563 0.719066 0.235996
0.359609 0.719066 0.235996
0.483742 0.719066 0.235996
0.590494 0.719066 0.235996
0.674754 0.719066 0.235996
0.732143 0.719066 0.235996
0.76379 0.719066 0.235996
0.0179599 0.0644999 0.357305
0.119066 0.0644999 0.357305
0.232563 0.0644999 0.357305
0.359609 0.0644999 0.357305
0.483742 0.0644999 0.357305
0.590494 0.0644999 0.357305
0.674754 0.0644999 0.357305
0.732143 0.0644999 0.357305
0.76379 0.0644999 0.357305
0.0179599 0.146181 0.357305
0.119066 0.146181 0.357305
0.232563 0.146181 0.357305
0.359609 0.146181 0.357305
0.483742 0.146181 0.357305
0.590494 0.146181 0.357305
0.674754 0.146181 0.357305
0.732143 0.146181 0.357305
0.76379 0.146181 0.357305
0.0179599 0.242359 0.357305
0.119066 0.242359 0.357305
0.232563 0.242359 0.357305
0.359609 0.242359 0.357305
0.483742 0.242359 0.357305
0.590494 0.242359 0.357305
0.674754 0.242359 0.357305
0.732143 0.242359 0.357305
0.76379 0.242359 0.357305
0.0179599 0.347906 0.357305
0.119066 0.347906 0.357305
0.232563 0.347906 0.357305
0.359609 0.347906 0.357305
0.483742 0.347906 0.357305
0.590494 0.347906 0.357305
0.674754 0.347906 0.357305
0.732143 0.347906 0.357305
0.76379 0.347906 0.357305
0.0179599 0.449577 0.357305
0.119066 0.449577 0.357305
0.232563 0.449577 0.357305
0.359609 0.449577 0.357305
0.483742 0.449577 0.357305
0.590494 0.449577 0.357305
0.674754 0.449577 0.357305
0.732143 0.449577 0.357305
0.76379 0.449577 0.357305
0.0179599 0.539376 0.357305
0.119066 0.539376 0.357305
0.232563 0.539376 0.357305
0.359609 0.539376 0.357305
0.483742 0.539376 0.357305
0.590494 0.539376 0.357305
0.674754 0.539376 0.357305
0.732143 0.539376 0.357305
0.76379 0.539376 0.357305
0.0179599 0.615457 0.357305
0.119066 0.615457 0.357305
0.232563 0.615457 0.357305
0.359609 0.615457 0.357305
0.483742 0.615457 0.357305
0.590494 0.615457 0.357305
0.674754 0.615457 0.357305
0.732143 0.615457 0.357305
0.76379 0.615457 0.357305
0.0179599 0.675975 0.357305
0.119066 0.675975 0.357305
0.232563 0.675975 0.357305
0.359609 0.675975 0.357305
0.483742 0.675975 0.357305
0.590494 0.675975 0.357305
0.674754 0.675975 0.357305
0.732143 0.675975 0.357305
0.76379 0.675975 0.357305
0.0179599 0.719066 0.357305
0.119066 0.719066 0.357305
0.232563 0.719066 0.357305
0.359609 0.719066 0.357305
0.483742 0.719066 0.357305
0.590494 0.719066 0.357305
0.674754 0.719066 0.357305
0.732143 0.719066 0.357305
0.76379 0.719066 0.357305
0.0179599 0.0644999 0.484825
0.119066 0.0644999 0.484825
0.232563 0.0644999 0.484825
0.359609 0.0644999 0.484825
0.483742 0.0644999 0.484825
0.590494 0.0644999 0.484825
0.674754 0.0644999 0.484825
0.732143 0.0644999 0.484825
0.76379 0.0644999 0.484825
0.0179599 0.146181 0.484825
0.119066 0.146181 0.484825
0.232563 0.146181 0.484825
0.359609 0.146181 0.484825
0.483742 0.146181 0.484825
0.590494 0.146181 0.484825
0.674754 0.146181 0.484825
0.732143 0.146181 0.484825
0.76379 0.146181 0.484825
0.0179599 0.242359 0.484825
0.119066 0.242359 0.484825
0.232563 0.242359 0.484825
0.359609 0.242359 0.484825
0.483742 0.242359 0.484825
0.590494 0.242359 0.484825
0.674754 0.242359 0.484825
0.732143 0.242359 0.484825
0.76379 0.242359 0.484825
0.0179599 0.347906 0.484825
0.119066 0.347906 0.484825
0.232563 0.347906 0.484825
0.359609 0.347906 0.484825
0.483742 0.347906 0.484825
0.590494 0.347906 0.484825
0.674754 0.347906 0.484825
0.732143 0.347906 0.484825
0.76379 0.347906 0.484825
0.0179599 0.449577 0.484825
0.119066 0.449577 0.484825
0.232563 0.449577 0.484825
0.359609 0.449577 0.484825
0.483742 0.449577 0.484825
0.590494 0.449577 0.484825
0.674754 0.449577 0.484825
0.732143 0.449577 0.484825
0.76379 0.449577 0.484825
0.0179599 0.539376 0.484825
0.119066 0.539376 0.484825
0.232563 0.539376 0.484825
0.359609 0.539376 0.484825
0.483742 0.539376 0.484825
0.590494 0.539376 0.484825
0.674754 0.539376 0.484825
0.732143 0.539376 0.484825
0.76379 0.539376 0.484825
0.0179599 0.615457 0.484825
0.119066 0.615457 0.484825
0.232563 0.615457 0.484825
0.359609 0.615457 0.484825
0.483742 0.615457 0.484825
0.590494 0.615457 0.484825
0.674754 0.615457 0.484825
0.732143 0.615457 0.484825
0.76379 0.615457 0.484825
0.0179599 0.675975 0.484825
0.119066 0.675975 0.484825
0.232563 0.675975 0.484825
0.359609 0.675975 0.484825
0.483742 0.675975 0.484825
0.590494 0.675975 0.484825
0.674754 0.675975 0.484825
0.732143 0.675975 0.484825
0.76379 0.675975 0.484825
0.0179599 0.719066 0.484825
0.119066 0.719066 0.484825
0.232563 0.719066 0.484825
0.359609 0.719066 0.484825
0.483742 0.719066 0.484825
0.590494 0.719066 0.484825
0.674754 0.719066 0.484825
0.732143 0.719066 0.484825
0.76379 0.719066 0.484825
0.0179599 0.0644999 0.6047
0.119066 0.0644999 0.6047
0.232563 0.0644999 0.6047
0.359609 0.0644999 0.6047
0.483742 0.0644999 0.6047
0.590494 0.0644999 0.6047
0.674754 0.0644999 0.6047
0.732143 0.0644999 0.6047
0.76379 0.0644999 0.6047
0.0179599 0.146181 0.6047
0.119066 0.146181 0.6047
0.232563 0.146181 0.6047
0.359609 0.146181 0.6047
0.483742 0.146181 0.6047
0.590494 0.146181 0.6047
0.674754 0.146181 0.6047
0.732143 0.146181 0.6047
0.76379 0.146181 0.6047
0.0179599 0.242359 0.6047
0.119066 0.242359 0.6047
0.232563 0.242359 0.6047
0.359609 0.242359 0.6047
0.483742 0.242359 0.6047
0.590494 0.242359 0.6047
0.674754 0.242359 0.6047
0.732143 0.242359 0.6047
0.76379 0.242359 0.6047
0.0179599 0.347906 0.6047
0.119066 0.347906 0.6047
0.232563 0.347906 0.6047
0.359609 0.347906 0.6047
0.483742 0.347906 0.6047
0.590494 0.347906 0.6047
0.674754 0.347906 0.6047
0.732143 0.347906 0.6047
0.76379 0.347906 0.6047
0.0179599 0.449577 0.6047
0.119066 0.449577 0.6047
0.232563 0.449577 0.6047
0.359609 0.449577 0.6047
0.483742 0.449577 0.6047
0.590494 0.449577 0.6047
0.674754 0.449577 0.6047
0.732143 0.449577 0.6047
0.76379 0.449577 0.6047
0.0179599 0.539376 0.6047
0.119066 0.539376 0.6047
0.232563 0.539376 0.6047
0.359609 0.539376 0.6047
0.483742 0.539376 0.6047
0.590494 0.539376 0.6047
0.674754 0.539376 0.6047
0.732143 0.539376 0.6047
0.76379 0.539376 0.6047
0.0179599 0.615457 0.6047
0.119066 0.615457 0.6047
0.232563 0.615457 0.6047
0.359609 0.615457 0.6047
0.483742 0.615457 0.6047
0.590494 0.615457 0.6047
0.674754 0.615457 0.6047
0.732143 0.615457 0.6047
0.76379 0.615457 0.6047
0.0179599 0.675975 0.6047
0.119066 0.675975 0.6047
0.232563 0.675975 0.6047
0.359609 0.675975 0.6047
0.483742 0.675975 0.6047
0.590494 0.675975 0.6047
0.674754 0.675975 0.6047
0.732143 0.675975 0.6047
0.76379 0.675975 0.6047
0.0179599 0.719066 0.6047
0.119066 0.719066 0.6047
0.232563 0.719066 0.6047
0.359609 0.719066 0.6047
0.483742 0.719066 0.6047
0.590494 0.719066 0.6047
0.674754 0.719066 0.6047
0.732143 0.719066 0.6047
0.76379 0.719066 0.6047
0.0179599 0.0644999 0.706752
0.119066 0.0644999 0.706752
0.232563 0.0644999 0.706752
0.359609 0.0644999 0.706752
0.483742 0.0644999 0.706752
0.590494 0.0644999 0.706752
0.674754 0.0644999 0.706752
0.732143 0.0644999 0.706752
0.76379 0.0644999 0.706752
0.0179599 0.146181 0.706752
0.119066 0.146181 0.706752
0.232563 0.146181 0.706752
0.359609 0.146181 0.706752
0.483742 0.146181 0.706752
0.590494 0.146181 0.706752
0.674754 0.146181 0.706752
0.732143 0.146181 0.706752
0.76379 0.146181 0.706752
0.0179599 0.242359 0.706752
0.119066 0.242359 0.706752
0.232563 0.242359 0.706752
0.359609 0.242359 0.706752
0.483742 0.242359 0.706752
0.590494 0.242359 0.706752
0.674754 0.242359 0.706752
0.732143 0.242359 0.706752
0.76379 0.242359 0.706752
0.0179599 0.347906 0.706752
0.119066 0.347906 0.706752
0.232563 0.347906 0.706752
0.359609 0.347906 0.706752
0.483742 0.347906 0.706752
0.590494 0.347906 0.706752
0.674754 0.347906 0.706752
0.732143 0.347906 0.706752
0.76379 0.347906 0.706752
0.0179599 0.449577 0.706752
0.119066 0.449577 0.706752
0.232563 0.449577 0.706752
0.359609 0.449577 0.706752
0.483742 0.449577 0.706752
0.590494 0.449577 0.706752
0.674754 0.449577 0.706752
0.732143 0.449577 0.706752
0.76379 0.449577 0.706752
0.0179599 0.539376 0.706752
0.119066 0.539376 0.706752
0.232563 0.539376 0.706752
0.359609 0.539376 0.706752
0.483742 0.539376 0.706752
0.590494 0.539376 0.706752
0.674754 0.539376 0.706752
0.732143 0.539376 0.706752
0.76379 0.539376 0.706752
0.0179599 0.615457 0.706752
0.119066 0.615457 0.706752
0.232563 0.615457 0.706752
0.359609 0.615457 0.706752
0.483742 0.615457 0.706752
0.590494 0.615457 0.706752
0.674754 0.615457 0.706752
0.732143 0.615457 0.706752
0.76379 0.615457 0.706752
0.0179599 0.675975 0.706752
0.119066 0.675975 0.706752
0.232563 0.675975 0.706752
0.359609 0.675975 0.706752
0.483742 0.675975 0.706752
0.590494 0.675975 0.706752
0.674754 0.675975 0.706752
0.732143 0.675975 0.706752
0.76379 0.675975 0.706752
0.0179599 0.719066 0.706752
0.119066 0.719066 0.706752
0.232563 0.719066 0.706752
0.359609 0.719066 0.706752
0.483742 0.719066 0.706752
0.590494 0.719066 0.706752
0.674754 0.719066 0.706752
0.732143 0.719066 0.706752
0.76379 0.719066 0.706752
0.0179599 0.0644999 0.777615
0.119066 0.0644999 0.777615
0.232563 0.0644999 0.777615
0.359609 0.0644999 0.777615
0.483742 0.0644999 0.777615
0.590494 0.0644999 0.777615
0.674754 0.0644999 0.777615
0.732143 0.0644999 0.777615
0.76379 0.0644999 0.777615
0.0179599 0.146181 0.777615
0.119066 0.146181 0.777615
0.232563 0.146181 0.777615
0.359609 0.146181 0.777615
0.483742 0.146181 0.777615
0.590494 0.146181 0.777615
0.674754 0.146181 0.777615
0.732143 0.146181 0.777615
0.76379 0.146181 0.777615
0.0179599 0.242359 0.777615
0.119066 0.242359 0.777615
0.232563 0.242359 0.777615
0.359609 0.242359 0.777615
0.483742 0.242359 0.777615
0.590494 0.242359 0.777615
0.674754 0.242359 0.777615
0.732143 0.242359 0.777615
0.76379 0.242359 0.777615
0.0179599 0.347906 0.777615
0.119066 0.347906 0.777615
0.232563 0.347906 0.777615
0.359609 0.347906 0.777615
0.483742 0.347906 0.777615
0.590494 0.347906 0.777615
0.674754 0.347906 0.777615
0.732143 0.347906 0.777615
0.76379 0.347906 0.777615
0.0179599 0.449577 0.777615
0.119066 0.449577 0.777615
0.232563 0.449577 0.777615
0.359609 0.449577 0.777615
0.483742 0.449577 0.777615
0.590494 0.449577 0.777615
0.674754 0.449577 0.777615
0.732143 0.449577 0.777615
0.76379 0.449577 0.777615
0.0179599 0.539376 0.777615
0.119066 0.539376 0.777615
0.232563 0.539376 0.777615
0.359609 0.539376 0.777615
0.483742 0.539376 0.777615
0.590494 0.539376 0.777615
0.674754 0.539376 0.777615
0.732143 0.539376 0.777615
0.76379 0.539376 0.777615
0.0179599 0.615457 0.777615
0.119066 0.615457 0.777615
0.232563 0.615457 0.777615
0.359609 0.615457 0.777615
0.483742 0.615457 0.777615
0.590494 0.615457 0.777615
0.674754 0.615457 0.777615
0.732143 0.615457 0.777615
0.76379 0.615457 0.777615
0.0179599 0.675975 0.777615
0.119066 0.675975 0.777615
0.232563 0.675975 0.777615
0.359609 0.675975 0.777615
0.483742 0.675975 0.777615
0.590494 0.675975 0.777615
0.674754 0.675975 0.777615
0.732143 0.675975 0.777615
0.76379 0.675975 0.777615
0.0179599 0.719066 0.777615
0.119066 0.719066 0.777615
0.232563 0.719066 0.777615
0.359609 0.719066 0.777615
0.483742 0.719066 0.777615
0.590494 0.719066 0.777615
0.674754 0.719066 0.777615
0.732143 0.719066 0.777615
0.76379 0.719066 0.777615
0.0179599 0.0644999 0.813764
0.119066 0.0644999 0.813764
0.232563 0.0644999 0.813764
0.359609 0.0644999 0.813764
0.483742 0.0644999 0.813764
0.590494 0.0644999 0.813764
0.674754 0.0644999 0.813764
0.732143 0.0644999 0.813764
0.76379 0.0644999 0.813764
0.0179599 0.146181 0.813764
0.119066 0.146181 0.813764
0.232563 0.146181 0.813764
0.359609 0.146181 0.813764
0.483742 0.146181 0.813764
0.590494 0.146181 0.813764
0.674754 0.146181 0.813764
0.732143 0.146181 0.813764
0.76379 0.146181 0.813764
0.0179599 0.242359 0.813764
0.119066 0.242359 0.813764
0.232563 0.242359 0.813764
0.359609 0.242359 0.813764
0.483742 0.242359 0.813764
0.590494 0.242359 0.813764
0.674754 0.242359 0.813764
0.732143 0.242359 0.813764
0.76379 0.242359 0.813764
0.0179599 0.347906 0.813764
0.119066 0.347906 0.813764
0.232563 0.347906 0.813764
0.359609 0.347906 0.813764
0.483742 0.347906 0.813764
0.590494 0.347906 0.813764
0.674754 0.347906 0.813764
0.732143 0.347906 0.813764
0.76379 0.347906 0.813764
0.0179599 0.449577 0.813764
0.119066 0.449577 0.813764
0.232563 0.449577 0.813764
0.359609 0.449577 0.813764
0.483742 0.449577 0.813764
0.590494 0.449577 0.813764
0.674754 0.449577 0.813764
0.732143 0.449577 0.813764
0.76379 0.449577 0.813764
0.0179599 0.539376 0.813764
0.119066 0.539376 0.813764
0.232563 0.539376 0.813764
0.359609 0.539376 0.813764
0.483742 0.539376 0.813764
0.590494 0.539376 0.813764
0.674754 0.539376 0.813764
0.732143 0.539376 0.813764
0.76379 0.539376 0.813764
0.0179599 0.615457 0.813764
0.119066 0.615457 0.813764
0.232563 0.615457 0.813764
0.359609 0.615457 0.813764
0.483742 0.615457 0.813764
0.590494 0.615457 0.813764
0.674754 0.615457 0.813764
0.732143 0.615457 0.813764
0.76379 0.615457 0.813764
0.0179599 0.675975 0.813764
0.119066 0.675975 0.813764
0.232563 0.675975 0.813764
0.359609 0.675975 0.813764
0.483742 0.675975 0.813764
0.590494 0.675975 0.813764
0.674754 0.675975 0.813764
0.732143 0.675975 0.813764
0.76379 0.675975 0.813764
0.0179599 0.719066 0.813764
0.119066 0.719066 0.813764
0.232563 0.719066 0.813764
0.359609 0.719066 0.813764
0.483742 0.719066 0.813764
0.590494 0.719066 0.813764
0.674754 0.719066 0.813764
0.732143 0.719066 0.813764
0.76379 0.719066 0.813764
