2499DRT/STP-2399Log-InstantFilm.cube
TITLE "Generated by Resolve"
LUT_3D_SIZE 5
0.0179599 0.0644999 0.0641489
0.232563 0.0644999 0.0641489
0.483742 0.0644999 0.0641489
0.674754 0.0644999 0.0641489
0.76379 0.0644999 0.0641489
0.0179599 0.242359 0.0641489
0.232563 0.242359 0.0641489
0.483742 0.242359 0.0641489
0.674754 0.242359 0.0641489
0.76379 0.242359 0.0641489
0.0179599 0.449577 0.0641489
0.232563 0.449577 0.0641489
0.483742 0.449577 0.0641489
0.674754 0.449577 0.0641489
0.76379 0.449577 0.0641489
0.0179599 0.615457 0.0641489
0.232563 0.615457 0.0641489
0.483742 0.615457 0.0641489
0.674754 0.615457 0.0641489
0.76379 0.615457 0.0641489
0.0179599 0.719066 0.0641489
0.232563 0.719066 0.0641489
0.483742 0.719066 0.0641489
0.674754 0.719066 0.0641489
0.76379 0.719066 0.0641489
0.0179599 0.0644999 0.235996
0.232563 0.0644999 0.235996
0.483742 0.0644999 0.235996
0.674754 0.0644999 0.235996
0.76379 0.0644999 0.235996
0.0179599 0.242359 0.235996
0.232563 0.242359 0.235996
0.483742 0.242359 0.235996
0.674754 0.242359 0.235996
0.76379 0.242359 0.235996
0.0179599 0.449577 0.235996
0.232563 0.449577 0.235996
0.483742 0.449577 0.235996
0.674754 0.449577 0.235996
0.76379 0.449577 0.235996
0.0179599 0.615457 0.235996
0.232563 0.615457 0.235996
0.483742 0.615457 0.235996
0.674754 0.615457 0.235996
0.76379 0.615457 0.235996
0.0179599 0.719066 0.235996
0.232563 0.719066 0.235996
0.483742 0.719066 0.235996
0.674754 0.719066 0.235996
0.76379 0.719066 0.235996
0.0179599 0.0644999 0.484825
0.232563 0.0644999 0.484825
0.483742 0.0644999 0.484825
0.674754 0.0644999 0.484825
0.76379 0.0644999 0.484825
0.0179599 0.242359 0.484825
0.232563 0.242359 0.484825
0.483742 0.242359 0.484825
0.674754 0.242359 0.484825
0.76379 0.242359 0.484825
0.0179599 0.449577 0.484825
0.232563 0.449577 0.484825
0.483742 0.449577 0.484825
0.674754 0.449577 0.484825
0.76379 0.449577 0.484825
0.0179599 0.615457 0.484825
0.232563 0.615457 0.484825
0.483742 0.615457 0.484825
0.674754 0.615457 0.484825
0.76379 0.615457 0.484825
0.0179599 0.719066 0.484825
0.232563 0.719066 0.484825
0.483742 0.719066 0.484825
0.674754 0.719066 0.484825
0.76379 0.719066 0.484825
0.0179599 0.0644999 0.706752
0.232563 0.0644999 0.706752
0.483742 0.0644999 0.706752
0.674754 0.0644999 0.706752
0.76379 0.0644999 0.706752
0.0179599 0.242359 0.706752
0.232563 0.242359 0.706752
0.483742 0.242359 0.706752
0.674754 0.242359 0.706752
0.76379 0.242359 0.706752
0.0179599 0.449577 0.706752
0.232563 0.449577 0.706752
0.483742 0.449577 0.706752
0.674754 0.449577 0.706752
0.76379 0.449577 0.706752
0.0179599 0.615457 0.706752
0.232563 0.615457 0.706752
0.483742 0.615457 0.706752
0.674754 0.615457 0.706752
0.76379 0.615457 0.706752
0.0179599 0.719066 0.706752
0.232563 0.719066 0.706752
0.483742 0.719066 0.706752
0.674754 0.719066 0.706752
0.76379 0.719066 0.706752
0.0179599 0.0644999 0.813764
0.232563 0.0644999 0.813764
0.483742 0.0644999 0.813764
0.674754 0.0644999 0.813764
0.76379 0.0644999 0.813764
0.0179599 0.242359 0.813764
0.232563 0.242359 0.813764
0.483742 0.242359 0.813764
0.674754 0.242359 0.813764
0.76379 0.242359 0.813764
0.0179599 0.449577 0.813764
0.232563 0.449577 0.813764
0.483742 0.449577 0.813764
0.674754 0.449577 0.813764
0.76379 0.449577 0.813764
0.0179599 0.615457 0.813764
0.232563 0.615457 0.813764
0.483742 0.615457 0.813764
0.674754 0.615457 0.813764
0.76379 0.615457 0.813764
0.0179599 0.719066 0.813764
0.232563 0.719066 0.813764
0.483742 0.719066 0.813764
0.674754 0.719066 0.813764
0.76379 0.719066 0.813764
