2499DRT/STP-2399Log-PrintV2.cube
TITLE "Generated by Resolve"
LUT_3D_SIZE 33
0.0605631 0.0765698 0.0667277
0.0703441 0.0765698 0.0667277
0.0819715 0.0765698 0.0667277
0.0970932 0.0765698 0.0667277
0.116274 0.0765698 0.0667277
0.139849 0.0765698 0.0667277
0.167758 0.0765698 0.0667277
0.199588 0.0765698 0.0667277
0.234577 0.0765698 0.0667277
0.271656 0.0765698 0.0667277
0.309636 0.0765698 0.0667277
0.347326 0.0765698 0.0667277
0.383825 0.0765698 0.0667277
0.418479 0.0765698 0.0667277
0.450996 0.0765698 0.0667277
0.48127 0.0765698 0.0667277
0.5093 0.0765698 0.0667277
0.535164 0.0765698 0.0667277
0.558877 0.0765698 0.0667277
0.580514 0.0765698 0.0667277
0.600076 0.0765698 0.0667277
0.617594 0.0765698 0.0667277
0.633097 0.0765698 0.0667277
0.646647 0.0765698 0.0667277
0.658366 0.0765698 0.0667277
0.668345 0.0765698 0.0667277
0.676753 0.0765698 0.0667277
0.683772 0.0765698 0.0667277
0.689525 0.0765698 0.0667277
0.69424 0.0765698 0.0667277
0.698039 0.0765698 0.0667277
0.701091 0.0765698 0.0667277
0.703548 0.0765698 0.0667277
0.0605631 0.0903334 0.0667277
0.0703441 0.0903334 0.0667277
0.0819715 0.0903334 0.0667277
0.0970932 0.0903334 0.0667277
0.116274 0.0903334 0.0667277
0.139849 0.0903334 0.0667277
0.167758 0.0903334 0.0667277
0.199588 0.0903334 0.0667277
0.234577 0.0903334 0.0667277
0.271656 0.0903334 0.0667277
0.309636 0.0903334 0.0667277
0.347326 0.0903334 0.0667277
0.383825 0.0903334 0.0667277
0.418479 0.0903334 0.0667277
0.450996 0.0903334 0.0667277
0.48127 0.0903334 0.0667277
0.5093 0.0903334 0.0667277
0.535164 0.0903334 0.0667277
0.558877 0.0903334 0.0667277
0.580514 0.0903334 0.0667277
0.600076 0.0903334 0.0667277
0.617594 0.0903334 0.0667277
0.633097 0.0903334 0.0667277
0.646647 0.0903334 0.0667277
0.658366 0.0903334 0.0667277
0.668345 0.0903334 0.0667277
0.676753 0.0903334 0.0667277
0.683772 0.0903334 0.0667277
0.689525 0.0903334 0.0667277
0.69424 0.0903334 0.0667277
0.698039 0.0903334 0.0667277
0.701091 0.0903334 0.0667277
0.703548 0.0903334 0.0667277
0.0605631 0.105501 0.0667277
0.0703441 0.105501 0.0667277
0.0819715 0.105501 0.0667277
0.0970932 0.105501 0.0667277
0.116274 0.105501 0.0667277
0.139849 0.105501 0.0667277
0.167758 0.105501 0.0667277
0.199588 0.105501 0.0667277
0.234577 0.105501 0.0667277
0.271656 0.105501 0.0667277
0.309636 0.105501 0.0667277
0.347326 0.105501 0.0667277
0.383825 0.105501 0.0667277
0.418479 0.105501 0.0667277
0.450996 0.105501 0.0667277
0.48127 0.105501 0.0667277
0.5093 0.105501 0.0667277
0.535164 0.105501 0.0667277
0.558877 0.105501 0.0667277
0.580514 0.105501 0.0667277
0.600076 0.105501 0.0667277
0.617594 0.105501 0.0667277
0.633097 0.105501 0.0667277
0.646647 0.105501 0.0667277
0.658366 0.105501 0.0667277
0.668345 0.105501 0.0667277
0.676753 0.105501 0.0667277
0.683772 0.105501 0.0667277
0.689525 0.105501 0.0667277
0.69424 0.105501 0.0667277
0.698039 0.105501 0.0667277
0.701091 0.105501 0.0667277
0.703548 0.105501 0.0667277
0.0605631 0.123812 0.0667277
0.0703441 0.123812 0.0667277
0.0819715 0.123812 0.0667277
0.0970932 0.123812 0.0667277
0.116274 0.123812 0.0667277
0.139849 0.123812 0.0667277
0.167758 0.123812 0.0667277
0.199588 0.123812 0.0667277
0.234577 0.123812 0.0667277
0.271656 0.123812 0.0667277
0.309636 0.123812 0.0667277
0.347326 0.123812 0.0667277
0.383825 0.123812 0.0667277
0.418479 0.123812 0.0667277
0.450996 0.123812 0.0667277
0.48127 0.123812 0.0667277
0.5093 0.123812 0.0667277
0.535164 0.123812 0.0667277
0.558877 0.123812 0.0667277
0.580514 0.123812 0.0667277
0.600076 0.123812 0.0667277
0.617594 0.123812 0.0667277
0.633097 0.123812 0.0667277
0.646647 0.123812 0.0667277
0.658366 0.123812 0.0667277
0.668345 0.123812 0.0667277
0.676753 0.123812 0.0667277
0.683772 0.123812 0.0667277
0.689525 0.123812 0.0667277
0.69424 0.123812 0.0667277
0.698039 0.123812 0.0667277
0.701091 0.123812 0.0667277
0.703548 0.123812 0.0667277
0.0605631 0.145357 0.0667277
0.0703441 0.145357 0.0667277
0.0819715 0.145357 0.0667277
0.0970932 0.145357 0.0667277
0.116274 0.145357 0.0667277
0.139849 0.145357 0.0667277
0.167758 0.145357 0.0667277
0.199588 0.145357 0.0667277
0.234577 0.145357 0.0667277
0.271656 0.145357 0.0667277
0.309636 0.145357 0.0667277
0.347326 0.145357 0.0667277
0.383825 0.145357 0.0667277
0.418479 0.145357 0.0667277
0.450996 0.145357 0.0667277
0.48127 0.145357 0.0667277
0.5093 0.145357 0.0667277
0.535164 0.145357 0.0667277
0.558877 0.145357 0.0667277
0.580514 0.145357 0.0667277
0.600076 0.145357 0.0667277
0.617594 0.145357 0.0667277
0.633097 0.145357 0.0667277
0.646647 0.145357 0.0667277
0.658366 0.145357 0.0667277
0.668345 0.145357 0.0667277
0.676753 0.145357 0.0667277
0.683772 0.145357 0.0667277
0.689525 0.145357 0.0667277
0.69424 0.145357 0.0667277
0.698039 0.145357 0.0667277
0.701091 0.145357 0.0667277
0.703548 0.145357 0.0667277
0.0605631 0.170047 0.0667277
0.0703441 0.170047 0.0667277
0.0819715 0.170047 0.0667277
0.0970932 0.170047 0.0667277
0.116274 0.170047 0.0667277
0.139849 0.170047 0.0667277
0.167758 0.170047 0.0667277
0.199588 0.170047 0.0667277
0.234577 0.170047 0.0667277
0.271656 0.170047 0.0667277
0.309636 0.170047 0.0667277
0.347326 0.170047 0.0667277
0.383825 0.170047 0.0667277
0.418479 0.170047 0.0667277
0.450996 0.170047 0.0667277
0.48127 0.170047 0.0667277
0.5093 0.170047 0.0667277
0.535164 0.170047 0.0667277
0.558877 0.170047 0.0667277
0.580514 0.170047 0.0667277
0.600076 0.170047 0.0667277
0.617594 0.170047 0.0667277
0.633097 0.170047 0.0667277
0.646647 0.170047 0.0667277
0.658366 0.170047 0.0667277
0.668345 0.170047 0.0667277
0.676753 0.170047 0.0667277
0.683772 0.170047 0.0667277
0.689525 0.170047 0.0667277
0.69424 0.170047 0.0667277
0.698039 0.170047 0.0667277
0.701091 0.170047 0.0667277
0.703548 0.170047 0.0667277
0.0605631 0.197665 0.0667277
0.0703441 0.197665 0.0667277
0.0819715 0.197665 0.0667277
0.0970932 0.197665 0.0667277
0.116274 0.197665 0.0667277
0.139849 0.197665 0.0667277
0.167758 0.197665 0.0667277
0.199588 0.197665 0.0667277
0.234577 0.197665 0.0667277
0.271656 0.197665 0.0667277
0.309636 0.197665 0.0667277
0.347326 0.197665 0.0667277
0.383825 0.197665 0.0667277
0.418479 0.197665 0.0667277
0.450996 0.197665 0.0667277
0.48127 0.197665 0.0667277
0.5093 0.197665 0.0667277
0.535164 0.197665 0.0667277
0.558877 0.197665 0.0667277
0.580514 0.197665 0.0667277
0.600076 0.197665 0.0667277
0.617594 0.197665 0.0667277
0.633097 0.197665 0.0667277
0.646647 0.197665 0.0667277
0.658366 0.197665 0.0667277
0.668345 0.197665 0.0667277
0.676753 0.197665 0.0667277
0.683772 0.197665 0.0667277
0.689525 0.197665 0.0667277
0.69424 0.197665 0.0667277
0.698039 0.197665 0.0667277
0.701091 0.197665 0.0667277
0.703548 0.197665 0.0667277
0.0605631 0.227817 0.0667277
0.0703441 0.227817 0.0667277
0.0819715 0.227817 0.0667277
0.0970932 0.227817 0.0667277
0.116274 0.227817 0.0667277
0.139849 0.227817 0.0667277
0.167758 0.227817 0.0667277
0.199588 0.227817 0.0667277
0.234577 0.227817 0.0667277
0.271656 0.227817 0.0667277
0.309636 0.227817 0.0667277
0.347326 0.227817 0.0667277
0.383825 0.227817 0.0667277
0.418479 0.227817 0.0667277
0.450996 0.227817 0.0667277
0.48127 0.227817 0.0667277
0.5093 0.227817 0.0667277
0.535164 0.227817 0.0667277
0.558877 0.227817 0.0667277
0.580514 0.227817 0.0667277
0.600076 0.227817 0.0667277
0.617594 0.227817 0.0667277
0.633097 0.227817 0.0667277
0.646647 0.227817 0.0667277
0.658366 0.227817 0.0667277
0.668345 0.227817 0.0667277
0.676753 0.227817 0.0667277
0.683772 0.227817 0.0667277
0.689525 0.227817 0.0667277
0.69424 0.227817 0.0667277
0.698039 0.227817 0.0667277
0.701091 0.227817 0.0667277
0.703548 0.227817 0.0667277
0.0605631 0.259968 0.0667277
0.0703441 0.259968 0.0667277
0.0819715 0.259968 0.0667277
0.0970932 0.259968 0.0667277
0.116274 0.259968 0.0667277
0.139849 0.259968 0.0667277
0.167758 0.259968 0.0667277
0.199588 0.259968 0.0667277
0.234577 0.259968 0.0667277
0.271656 0.259968 0.0667277
0.309636 0.259968 0.0667277
0.347326 0.259968 0.0667277
0.383825 0.259968 0.0667277
0.418479 0.259968 0.0667277
0.450996 0.259968 0.0667277
0.48127 0.259968 0.0667277
0.5093 0.259968 0.0667277
0.535164 0.259968 0.0667277
0.558877 0.259968 0.0667277
0.580514 0.259968 0.0667277
0.600076 0.259968 0.0667277
0.617594 0.259968 0.0667277
0.633097 0.259968 0.0667277
0.646647 0.259968 0.0667277
0.658366 0.259968 0.0667277
0.668345 0.259968 0.0667277
0.676753 0.259968 0.0667277
0.683772 0.259968 0.0667277
0.689525 0.259968 0.0667277
0.69424 0.259968 0.0667277
0.698039 0.259968 0.0667277
0.701091 0.259968 0.0667277
0.703548 0.259968 0.0667277
0.0605631 0.293477 0.0667277
0.0703441 0.293477 0.0667277
0.0819715 0.293477 0.0667277
0.0970932 0.293477 0.0667277
0.116274 0.293477 0.0667277
0.139849 0.293477 0.0667277
0.167758 0.293477 0.0667277
0.199588 0.293477 0.0667277
0.234577 0.293477 0.0667277
0.271656 0.293477 0.0667277
0.309636 0.293477 0.0667277
0.347326 0.293477 0.0667277
0.383825 0.293477 0.0667277
0.418479 0.293477 0.0667277
0.450996 0.293477 0.0667277
0.48127 0.293477 0.0667277
0.5093 0.293477 0.0667277
0.535164 0.293477 0.0667277
0.558877 0.293477 0.0667277
0.580514 0.293477 0.0667277
0.600076 0.293477 0.0667277
0.617594 0.293477 0.0667277
0.633097 0.293477 0.0667277
0.646647 0.293477 0.0667277
0.658366 0.293477 0.0667277
0.668345 0.293477 0.0667277
0.676753 0.293477 0.0667277
0.683772 0.293477 0.0667277
0.689525 0.293477 0.0667277
0.69424 0.293477 0.0667277
0.698039 0.293477 0.0667277
0.701091 0.293477 0.0667277
0.703548 0.293477 0.0667277
0.0605631 0.327581 0.0667277
0.0703441 0.327581 0.0667277
0.0819715 0.327581 0.0667277
0.0970932 0.327581 0.0667277
0.116274 0.327581 0.0667277
0.139849 0.327581 0.0667277
0.167758 0.327581 0.0667277
0.199588 0.327581 0.0667277
0.234577 0.327581 0.0667277
0.271656 0.327581 0.0667277
0.309636 0.327581 0.0667277
0.347326 0.327581 0.0667277
0.383825 0.327581 0.0667277
0.418479 0.327581 0.0667277
0.450996 0.327581 0.0667277
0.48127 0.327581 0.0667277
0.5093 0.327581 0.0667277
0.535164 0.327581 0.0667277
0.558877 0.327581 0.0667277
0.580514 0.327581 0.0667277
0.600076 0.327581 0.0667277
0.617594 0.327581 0.0667277
0.633097 0.327581 0.0667277
0.646647 0.327581 0.0667277
0.658366 0.327581 0.0667277
0.668345 0.327581 0.0667277
0.676753 0.327581 0.0667277
0.683772 0.327581 0.0667277
0.689525 0.327581 0.0667277
0.69424 0.327581 0.0667277
0.698039 0.327581 0.0667277
0.701091 0.327581 0.0667277
0.703548 0.327581 0.0667277
0.0605631 0.361547 0.0667277
0.0703441 0.361547 0.0667277
0.0819715 0.361547 0.0667277
0.0970932 0.361547 0.0667277
0.116274 0.361547 0.0667277
0.139849 0.361547 0.0667277
0.167758 0.361547 0.0667277
0.199588 0.361547 0.0667277
0.234577 0.361547 0.0667277
0.271656 0.361547 0.0667277
0.309636 0.361547 0.0667277
0.347326 0.361547 0.0667277
0.383825 0.361547 0.0667277
0.418479 0.361547 0.0667277
0.450996 0.361547 0.0667277
0.48127 0.361547 0.0667277
0.5093 0.361547 0.0667277
0.535164 0.361547 0.0667277
0.558877 0.361547 0.0667277
0.580514 0.361547 0.0667277
0.600076 0.361547 0.0667277
0.617594 0.361547 0.0667277
0.633097 0.361547 0.0667277
0.646647 0.361547 0.0667277
0.658366 0.361547 0.0667277
0.668345 0.361547 0.0667277
0.676753 0.361547 0.0667277
0.683772 0.361547 0.0667277
0.689525 0.361547 0.0667277
0.69424 0.361547 0.0667277
0.698039 0.361547 0.0667277
0.701091 0.361547 0.0667277
0.703548 0.361547 0.0667277
0.0605631 0.394766 0.0667277
0.0703441 0.394766 0.0667277
0.0819715 0.394766 0.0667277
0.0970932 0.394766 0.0667277
0.116274 0.394766 0.0667277
0.139849 0.394766 0.0667277
0.167758 0.394766 0.0667277
0.199588 0.394766 0.0667277
0.234577 0.394766 0.0667277
0.271656 0.394766 0.0667277
0.309636 0.394766 0.0667277
0.347326 0.394766 0.0667277
0.383825 0.394766 0.0667277
0.418479 0.394766 0.0667277
0.450996 0.394766 0.0667277
0.48127 0.394766 0.0667277
0.5093 0.394766 0.0667277
0.535164 0.394766 0.0667277
0.558877 0.394766 0.0667277
0.580514 0.394766 0.0667277
0.600076 0.394766 0.0667277
0.617594 0.394766 0.0667277
0.633097 0.394766 0.0667277
0.646647 0.394766 0.0667277
0.658366 0.394766 0.0667277
0.668345 0.394766 0.0667277
0.676753 0.394766 0.0667277
0.683772 0.394766 0.0667277
0.689525 0.394766 0.0667277
0.69424 0.394766 0.0667277
0.698039 0.394766 0.0667277
0.701091 0.394766 0.0667277
0.703548 0.394766 0.0667277
0.0605631 0.426749 0.0667277
0.0703441 0.426749 0.0667277
0.0819715 0.426749 0.0667277
0.0970932 0.426749 0.0667277
0.116274 0.426749 0.0667277
0.139849 0.426749 0.0667277
0.167758 0.426749 0.0667277
0.199588 0.426749 0.0667277
0.234577 0.426749 0.0667277
0.271656 0.426749 0.0667277
0.309636 0.426749 0.0667277
0.347326 0.426749 0.0667277
0.383825 0.426749 0.0667277
0.418479 0.426749 0.0667277
0.450996 0.426749 0.0667277
0.48127 0.426749 0.0667277
0.5093 0.426749 0.0667277
0.535164 0.426749 0.0667277
0.558877 0.426749 0.0667277
0.580514 0.426749 0.0667277
0.600076 0.426749 0.0667277
0.617594 0.426749 0.0667277
0.633097 0.426749 0.0667277
0.646647 0.426749 0.0667277
0.658366 0.426749 0.0667277
0.668345 0.426749 0.0667277
0.676753 0.426749 0.0667277
0.683772 0.426749 0.0667277
0.689525 0.426749 0.0667277
0.69424 0.426749 0.0667277
0.698039 0.426749 0.0667277
0.701091 0.426749 0.0667277
0.703548 0.426749 0.0667277
0.0605631 0.457237 0.0667277
0.0703441 0.457237 0.0667277
0.0819715 0.457237 0.0667277
0.0970932 0.457237 0.0667277
0.116274 0.457237 0.0667277
0.139849 0.457237 0.0667277
0.167758 0.457237 0.0667277
0.199588 0.457237 0.0667277
0.234577 0.457237 0.0667277
0.271656 0.457237 0.0667277
0.309636 0.457237 0.0667277
0.347326 0.457237 0.0667277
0.383825 0.457237 0.0667277
0.418479 0.457237 0.0667277
0.450996 0.457237 0.0667277
0.48127 0.457237 0.0667277
0.5093 0.457237 0.0667277
0.535164 0.457237 0.0667277
0.558877 0.457237 0.0667277
0.580514 0.457237 0.0667277
0.600076 0.457237 0.0667277
0.617594 0.457237 0.0667277
0.633097 0.457237 0.0667277
0.646647 0.457237 0.0667277
0.658366 0.457237 0.0667277
0.668345 0.457237 0.0667277
0.676753 0.457237 0.0667277
0.683772 0.457237 0.0667277
0.689525 0.457237 0.0667277
0.69424 0.457237 0.0667277
0.698039 0.457237 0.0667277
0.701091 0.457237 0.0667277
0.703548 0.457237 0.0667277
0.0605631 0.486076 0.0667277
0.0703441 0.486076 0.0667277
0.0819715 0.486076 0.0667277
0.0970932 0.486076 0.0667277
0.116274 0.486076 0.0667277
0.139849 0.486076 0.0667277
0.167758 0.486076 0.0667277
0.199588 0.486076 0.0667277
0.234577 0.486076 0.0667277
0.271656 0.486076 0.0667277
0.309636 0.486076 0.0667277
0.347326 0.486076 0.0667277
0.383825 0.486076 0.0667277
0.418479 0.486076 0.0667277
0.450996 0.486076 0.0667277
0.48127 0.486076 0.0667277
0.5093 0.486076 0.0667277
0.535164 0.486076 0.0667277
0.558877 0.486076 0.0667277
0.580514 0.486076 0.0667277
0.600076 0.486076 0.0667277
0.617594 0.486076 0.0667277
0.633097 0.486076 0.0667277
0.646647 0.486076 0.0667277
0.658366 0.486076 0.0667277
0.668345 0.486076 0.0667277
0.676753 0.486076 0.0667277
0.683772 0.486076 0.0667277
0.689525 0.486076 0.0667277
0.69424 0.486076 0.0667277
0.698039 0.486076 0.0667277
0.701091 0.486076 0.0667277
0.703548 0.486076 0.0667277
0.0605631 0.513161 0.0667277
0.0703441 0.513161 0.0667277
0.0819715 0.513161 0.0667277
0.0970932 0.513161 0.0667277
0.116274 0.513161 0.0667277
0.139849 0.513161 0.0667277
0.167758 0.513161 0.0667277
0.199588 0.513161 0.0667277
0.234577 0.513161 0.0667277
0.271656 0.513161 0.0667277
0.309636 0.513161 0.0667277
0.347326 0.513161 0.0667277
0.383825 0.513161 0.0667277
0.418479 0.513161 0.0667277
0.450996 0.513161 0.0667277
0.48127 0.513161 0.0667277
0.5093 0.513161 0.0667277
0.535164 0.513161 0.0667277
0.558877 0.513161 0.0667277
0.580514 0.513161 0.0667277
0.600076 0.513161 0.0667277
0.617594 0.513161 0.0667277
0.633097 0.513161 0.0667277
0.646647 0.513161 0.0667277
0.658366 0.513161 0.0667277
0.668345 0.513161 0.0667277
0.676753 0.513161 0.0667277
0.683772 0.513161 0.0667277
0.689525 0.513161 0.0667277
0.69424 0.513161 0.0667277
0.698039 0.513161 0.0667277
0.701091 0.513161 0.0667277
0.703548 0.513161 0.0667277
0.0605631 0.53846 0.0667277
0.0703441 0.53846 0.0667277
0.0819715 0.53846 0.0667277
0.0970932 0.53846 0.0667277
0.116274 0.53846 0.0667277
0.139849 0.53846 0.0667277
0.167758 0.53846 0.0667277
0.199588 0.53846 0.0667277
0.234577 0.53846 0.0667277
0.271656 0.53846 0.0667277
0.309636 0.53846 0.0667277
0.347326 0.53846 0.0667277
0.383825 0.53846 0.0667277
0.418479 0.53846 0.0667277
0.450996 0.53846 0.0667277
0.48127 0.53846 0.0667277
0.5093 0.53846 0.0667277
0.535164 0.53846 0.0667277
0.558877 0.53846 0.0667277
0.580514 0.53846 0.0667277
0.600076 0.53846 0.0667277
0.617594 0.53846 0.0667277
0.633097 0.53846 0.0667277
0.646647 0.53846 0.0667277
0.658366 0.53846 0.0667277
0.668345 0.53846 0.0667277
0.676753 0.53846 0.0667277
0.683772 0.53846 0.0667277
0.689525 0.53846 0.0667277
0.69424 0.53846 0.0667277
0.698039 0.53846 0.0667277
0.701091 0.53846 0.0667277
0.703548 0.53846 0.0667277
0.0605631 0.561929 0.0667277
0.0703441 0.561929 0.0667277
0.0819715 0.561929 0.0667277
0.0970932 0.561929 0.0667277
0.116274 0.561929 0.0667277
0.139849 0.561929 0.0667277
0.167758 0.561929 0.0667277
0.199588 0.561929 0.0667277
0.234577 0.561929 0.0667277
0.271656 0.561929 0.0667277
0.309636 0.561929 0.0667277
0.347326 0.561929 0.0667277
0.383825 0.561929 0.0667277
0.418479 0.561929 0.0667277
0.450996 0.561929 0.0667277
0.48127 0.561929 0.0667277
0.5093 0.561929 0.0667277
0.535164 0.561929 0.0667277
0.558877 0.561929 0.0667277
0.580514 0.561929 0.0667277
0.600076 0.561929 0.0667277
0.617594 0.561929 0.0667277
0.633097 0.561929 0.0667277
0.646647 0.561929 0.0667277
0.658366 0.561929 0.0667277
0.668345 0.561929 0.0667277
0.676753 0.561929 0.0667277
0.683772 0.561929 0.0667277
0.689525 0.561929 0.0667277
0.69424 0.561929 0.0667277
0.698039 0.561929 0.0667277
0.701091 0.561929 0.0667277
0.703548 0.561929 0.0667277
0.0605631 0.583535 0.0667277
0.0703441 0.583535 0.0667277
0.0819715 0.583535 0.0667277
0.0970932 0.583535 0.0667277
0.116274 0.583535 0.0667277
0.139849 0.583535 0.0667277
0.167758 0.583535 0.0667277
0.199588 0.583535 0.0667277
0.234577 0.583535 0.0667277
0.271656 0.583535 0.0667277
0.309636 0.583535 0.0667277
0.347326 0.583535 0.0667277
0.383825 0.583535 0.0667277
0.418479 0.583535 0.0667277
0.450996 0.583535 0.0667277
0.48127 0.583535 0.0667277
0.5093 0.583535 0.0667277
0.535164 0.583535 0.0667277
0.558877 0.583535 0.0667277
0.580514 0.583535 0.0667277
0.600076 0.583535 0.0667277
0.617594 0.583535 0.0667277
0.633097 0.583535 0.0667277
0.646647 0.583535 0.0667277
0.658366 0.583535 0.0667277
0.668345 0.583535 0.0667277
0.676753 0.583535 0.0667277
0.683772 0.583535 0.0667277
0.689525 0.583535 0.0667277
0.69424 0.583535 0.0667277
0.698039 0.583535 0.0667277
0.701091 0.583535 0.0667277
0.703548 0.583535 0.0667277
0.0605631 0.603235 0.0667277
0.0703441 0.603235 0.0667277
0.0819715 0.603235 0.0667277
0.0970932 0.603235 0.0667277
0.116274 0.603235 0.0667277
0.139849 0.603235 0.0667277
0.167758 0.603235 0.0667277
0.199588 0.603235 0.0667277
0.234577 0.603235 0.0667277
0.271656 0.603235 0.0667277
0.309636 0.603235 0.0667277
0.347326 0.603235 0.0667277
0.383825 0.603235 0.0667277
0.418479 0.603235 0.0667277
0.450996 0.603235 0.0667277
0.48127 0.603235 0.0667277
0.5093 0.603235 0.0667277
0.535164 0.603235 0.0667277
0.558877 0.603235 0.0667277
0.580514 0.603235 0.0667277
0.600076 0.603235 0.0667277
0.617594 0.603235 0.0667277
0.633097 0.603235 0.0667277
0.646647 0.603235 0.0667277
0.658366 0.603235 0.0667277
0.668345 0.603235 0.0667277
0.676753 0.603235 0.0667277
0.683772 0.603235 0.0667277
0.689525 0.603235 0.0667277
0.69424 0.603235 0.0667277
0.698039 0.603235 0.0667277
0.701091 0.603235 0.0667277
0.703548 0.603235 0.0667277
0.0605631 0.620981 0.0667277
0.0703441 0.620981 0.0667277
0.0819715 0.620981 0.0667277
0.0970932 0.620981 0.0667277
0.116274 0.620981 0.0667277
0.139849 0.620981 0.0667277
0.167758 0.620981 0.0667277
0.199588 0.620981 0.0667277
0.234577 0.620981 0.0667277
0.271656 0.620981 0.0667277
0.309636 0.620981 0.0667277
0.347326 0.620981 0.0667277
0.383825 0.620981 0.0667277
0.418479 0.620981 0.0667277
0.450996 0.620981 0.0667277
0.48127 0.620981 0.0667277
0.5093 0.620981 0.0667277
0.535164 0.620981 0.0667277
0.558877 0.620981 0.0667277
0.580514 0.620981 0.0667277
0.600076 0.620981 0.0667277
0.617594 0.620981 0.0667277
0.633097 0.620981 0.0667277
0.646647 0.620981 0.0667277
0.658366 0.620981 0.0667277
0.668345 0.620981 0.0667277
0.676753 0.620981 0.0667277
0.683772 0.620981 0.0667277
0.689525 0.620981 0.0667277
0.69424 0.620981 0.0667277
0.698039 0.620981 0.0667277
0.701091 0.620981 0.0667277
0.703548 0.620981 0.0667277
0.0605631 0.63679 0.0667277
0.0703441 0.63679 0.0667277
0.0819715 0.63679 0.0667277
0.0970932 0.63679 0.0667277
0.116274 0.63679 0.0667277
0.139849 0.63679 0.0667277
0.167758 0.63679 0.0667277
0.199588 0.63679 0.0667277
0.234577 0.63679 0.0667277
0.271656 0.63679 0.0667277
0.309636 0.63679 0.0667277
0.347326 0.63679 0.0667277
0.383825 0.63679 0.0667277
0.418479 0.63679 0.0667277
0.450996 0.63679 0.0667277
0.48127 0.63679 0.0667277
0.5093 0.63679 0.0667277
0.535164 0.63679 0.0667277
0.558877 0.63679 0.0667277
0.580514 0.63679 0.0667277
0.600076 0.63679 0.0667277
0.617594 0.63679 0.0667277
0.633097 0.63679 0.0667277
0.646647 0.63679 0.0667277
0.658366 0.63679 0.0667277
0.668345 0.63679 0.0667277
0.676753 0.63679 0.0667277
0.683772 0.63679 0.0667277
0.689525 0.63679 0.0667277
0.69424 0.63679 0.0667277
0.698039 0.63679 0.0667277
0.701091 0.63679 0.0667277
0.703548 0.63679 0.0667277
0.0605631 0.650675 0.0667277
0.0703441 0.650675 0.0667277
0.0819715 0.650675 0.0667277
0.0970932 0.650675 0.0667277
0.116274 0.650675 0.0667277
0.139849 0.650675 0.0667277
0.167758 0.650675 0.0667277
0.199588 0.650675 0.0667277
0.234577 0.650675 0.0667277
0.271656 0.650675 0.0667277
0.309636 0.650675 0.0667277
0.347326 0.650675 0.0667277
0.383825 0.650675 0.0667277
0.418479 0.650675 0.0667277
0.450996 0.650675 0.0667277
0.48127 0.650675 0.0667277
0.5093 0.650675 0.0667277
0.535164 0.650675 0.0667277
0.558877 0.650675 0.0667277
0.580514 0.650675 0.0667277
0.600076 0.650675 0.0667277
0.617594 0.650675 0.0667277
0.633097 0.650675 0.0667277
0.646647 0.650675 0.0667277
0.658366 0.650675 0.0667277
0.668345 0.650675 0.0667277
0.676753 0.650675 0.0667277
0.683772 0.650675 0.0667277
0.689525 0.650675 0.0667277
0.69424 0.650675 0.0667277
0.698039 0.650675 0.0667277
0.701091 0.650675 0.0667277
0.703548 0.650675 0.0667277
0.0605631 0.662715 0.0667277
0.0703441 0.662715 0.0667277
0.0819715 0.662715 0.0667277
0.0970932 0.662715 0.0667277
0.116274 0.662715 0.0667277
0.139849 0.662715 0.0667277
0.167758 0.662715 0.0667277
0.199588 0.662715 0.0667277
0.234577 0.662715 0.0667277
0.271656 0.662715 0.0667277
0.309636 0.662715 0.0667277
0.347326 0.662715 0.0667277
0.383825 0.662715 0.0667277
0.418479 0.662715 0.0667277
0.450996 0.662715 0.0667277
0.48127 0.662715 0.0667277
0.5093 0.662715 0.0667277
0.535164 0.662715 0.0667277
0.558877 0.662715 0.0667277
0.580514 0.662715 0.0667277
0.600076 0.662715 0.0667277
0.617594 0.662715 0.0667277
0.633097 0.662715 0.0667277
0.646647 0.662715 0.0667277
0.658366 0.662715 0.0667277
0.668345 0.662715 0.0667277
0.676753 0.662715 0.0667277
0.683772 0.662715 0.0667277
0.689525 0.662715 0.0667277
0.69424 0.662715 0.0667277
0.698039 0.662715 0.0667277
0.701091 0.662715 0.0667277
0.703548 0.662715 0.0667277
0.0605631 0.672999 0.0667277
0.0703441 0.672999 0.0667277
0.0819715 0.672999 0.0667277
0.0970932 0.672999 0.0667277
0.116274 0.672999 0.0667277
0.139849 0.672999 0.0667277
0.167758 0.672999 0.0667277
0.199588 0.672999 0.0667277
0.234577 0.672999 0.0667277
0.271656 0.672999 0.0667277
0.309636 0.672999 0.0667277
0.347326 0.672999 0.0667277
0.383825 0.672999 0.0667277
0.418479 0.672999 0.0667277
0.450996 0.672999 0.0667277
0.48127 0.672999 0.0667277
0.5093 0.672999 0.0667277
0.535164 0.672999 0.0667277
0.558877 0.672999 0.0667277
0.580514 0.672999 0.0667277
0.600076 0.672999 0.0667277
0.617594 0.672999 0.0667277
0.633097 0.672999 0.0667277
0.646647 0.672999 0.0667277
0.658366 0.672999 0.0667277
0.668345 0.672999 0.0667277
0.676753 0.672999 0.0667277
0.683772 0.672999 0.0667277
0.689525 0.672999 0.0667277
0.69424 0.672999 0.0667277
