2499DRT/STP-2399Log-PrintV1.cube
TITLE "Generated by Resolve"
LUT_3D_SIZE 33
0.0738842 0.0978256 0.119829
0.0867018 0.0978256 0.119829
0.101732 0.0978256 0.119829
0.120943 0.0978256 0.119829
0.144823 0.0978256 0.119829
0.173449 0.0978256 0.119829
0.206531 0.0978256 0.119829
0.24329 0.0978256 0.119829
0.282597 0.0978256 0.119829
0.323064 0.0978256 0.119829
0.363317 0.0978256 0.119829
0.402228 0.0978256 0.119829
0.439094 0.0978256 0.119829
0.473579 0.0978256 0.119829
0.505592 0.0978256 0.119829
0.535073 0.0978256 0.119829
0.562081 0.0978256 0.119829
0.586542 0.0978256 0.119829
0.608515 0.0978256 0.119829
0.627955 0.0978256 0.119829
0.644892 0.0978256 0.119829
0.659434 0.0978256 0.119829
0.671656 0.0978256 0.119829
0.681804 0.0978256 0.119829
0.690044 0.0978256 0.119829
0.696696 0.0978256 0.119829
0.701961 0.0978256 0.119829
0.706111 0.0978256 0.119829
0.709346 0.0978256 0.119829
0.711818 0.0978256 0.119829
0.713756 0.0978256 0.119829
0.715251 0.0978256 0.119829
0.716396 0.0978256 0.119829
0.0738842 0.107866 0.119829
0.0867018 0.107866 0.119829
0.101732 0.107866 0.119829
0.120943 0.107866 0.119829
0.144823 0.107866 0.119829
0.173449 0.107866 0.119829
0.206531 0.107866 0.119829
0.24329 0.107866 0.119829
0.282597 0.107866 0.119829
0.323064 0.107866 0.119829
0.363317 0.107866 0.119829
0.402228 0.107866 0.119829
0.439094 0.107866 0.119829
0.473579 0.107866 0.119829
0.505592 0.107866 0.119829
0.535073 0.107866 0.119829
0.562081 0.107866 0.119829
0.586542 0.107866 0.119829
0.608515 0.107866 0.119829
0.627955 0.107866 0.119829
0.644892 0.107866 0.119829
0.659434 0.107866 0.119829
0.671656 0.107866 0.119829
0.681804 0.107866 0.119829
0.690044 0.107866 0.119829
0.696696 0.107866 0.119829
0.701961 0.107866 0.119829
0.706111 0.107866 0.119829
0.709346 0.107866 0.119829
0.711818 0.107866 0.119829
0.713756 0.107866 0.119829
0.715251 0.107866 0.119829
0.716396 0.107866 0.119829
0.0738842 0.1196 0.119829
0.0867018 0.1196 0.119829
0.101732 0.1196 0.119829
0.120943 0.1196 0.119829
0.144823 0.1196 0.119829
0.173449 0.1196 0.119829
0.206531 0.1196 0.119829
0.24329 0.1196 0.119829
0.282597 0.1196 0.119829
0.323064 0.1196 0.119829
0.363317 0.1196 0.119829
0.402228 0.1196 0.119829
0.439094 0.1196 0.119829
0.473579 0.1196 0.119829
0.505592 0.1196 0.119829
0.535073 0.1196 0.119829
0.562081 0.1196 0.119829
0.586542 0.1196 0.119829
0.608515 0.1196 0.119829
0.627955 0.1196 0.119829
0.644892 0.1196 0.119829
0.659434 0.1196 0.119829
0.671656 0.1196 0.119829
0.681804 0.1196 0.119829
0.690044 0.1196 0.119829
0.696696 0.1196 0.119829
0.701961 0.1196 0.119829
0.706111 0.1196 0.119829
0.709346 0.1196 0.119829
0.711818 0.1196 0.119829
0.713756 0.1196 0.119829
0.715251 0.1196 0.119829
0.716396 0.1196 0.119829
0.0738842 0.134737 0.119829
0.0867018 0.134737 0.119829
0.101732 0.134737 0.119829
0.120943 0.134737 0.119829
0.144823 0.134737 0.119829
0.173449 0.134737 0.119829
0.206531 0.134737 0.119829
0.24329 0.134737 0.119829
0.282597 0.134737 0.119829
0.323064 0.134737 0.119829
0.363317 0.134737 0.119829
0.402228 0.134737 0.119829
0.439094 0.134737 0.119829
0.473579 0.134737 0.119829
0.505592 0.134737 0.119829
0.535073 0.134737 0.119829
0.562081 0.134737 0.119829
0.586542 0.134737 0.119829
0.608515 0.134737 0.119829
0.627955 0.134737 0.119829
0.644892 0.134737 0.119829
0.659434 0.134737 0.119829
0.671656 0.134737 0.119829
0.681804 0.134737 0.119829
0.690044 0.134737 0.119829
0.696696 0.134737 0.119829
0.701961 0.134737 0.119829
0.706111 0.134737 0.119829
0.709346 0.134737 0.119829
0.711818 0.134737 0.119829
0.713756 0.134737 0.119829
0.715251 0.134737 0.119829
0.716396 0.134737 0.119829
0.0738842 0.153918 0.119829
0.0867018 0.153918 0.119829
0.101732 0.153918 0.119829
0.120943 0.153918 0.119829
0.144823 0.153918 0.119829
0.173449 0.153918 0.119829
0.206531 0.153918 0.119829
0.24329 0.153918 0.119829
0.282597 0.153918 0.119829
0.323064 0.153918 0.119829
0.363317 0.153918 0.119829
0.402228 0.153918 0.119829
0.439094 0.153918 0.119829
0.473579 0.153918 0.119829
0.505592 0.153918 0.119829
0.535073 0.153918 0.119829
0.562081 0.153918 0.119829
0.586542 0.153918 0.119829
0.608515 0.153918 0.119829
0.627955 0.153918 0.119829
0.644892 0.153918 0.119829
0.659434 0.153918 0.119829
0.671656 0.153918 0.119829
0.681804 0.153918 0.119829
0.690044 0.153918 0.119829
0.696696 0.153918 0.119829
0.701961 0.153918 0.119829
0.706111 0.153918 0.119829
0.709346 0.153918 0.119829
0.711818 0.153918 0.119829
0.713756 0.153918 0.119829
0.715251 0.153918 0.119829
0.716396 0.153918 0.119829
0.0738842 0.177661 0.119829
0.0867018 0.177661 0.119829
0.101732 0.177661 0.119829
0.120943 0.177661 0.119829
0.144823 0.177661 0.119829
0.173449 0.177661 0.119829
0.206531 0.177661 0.119829
0.24329 0.177661 0.119829
0.282597 0.177661 0.119829
0.323064 0.177661 0.119829
0.363317 0.177661 0.119829
0.402228 0.177661 0.119829
0.439094 0.177661 0.119829
0.473579 0.177661 0.119829
0.505592 0.177661 0.119829
0.535073 0.177661 0.119829
0.562081 0.177661 0.119829
0.586542 0.177661 0.119829
0.608515 0.177661 0.119829
0.627955 0.177661 0.119829
0.644892 0.177661 0.119829
0.659434 0.177661 0.119829
0.671656 0.177661 0.119829
0.681804 0.177661 0.119829
0.690044 0.177661 0.119829
0.696696 0.177661 0.119829
0.701961 0.177661 0.119829
0.706111 0.177661 0.119829
0.709346 0.177661 0.119829
0.711818 0.177661 0.119829
0.713756 0.177661 0.119829
0.715251 0.177661 0.119829
0.716396 0.177661 0.119829
0.0738842 0.206256 0.119829
0.0867018 0.206256 0.119829
0.101732 0.206256 0.119829
0.120943 0.206256 0.119829
0.144823 0.206256 0.119829
0.173449 0.206256 0.119829
0.206531 0.206256 0.119829
0.24329 0.206256 0.119829
0.282597 0.206256 0.119829
0.323064 0.206256 0.119829
0.363317 0.206256 0.119829
0.402228 0.206256 0.119829
0.439094 0.206256 0.119829
0.473579 0.206256 0.119829
0.505592 0.206256 0.119829
0.535073 0.206256 0.119829
0.562081 0.206256 0.119829
0.586542 0.206256 0.119829
0.608515 0.206256 0.119829
0.627955 0.206256 0.119829
0.644892 0.206256 0.119829
0.659434 0.206256 0.119829
0.671656 0.206256 0.119829
0.681804 0.206256 0.119829
0.690044 0.206256 0.119829
0.696696 0.206256 0.119829
0.701961 0.206256 0.119829
0.706111 0.206256 0.119829
0.709346 0.206256 0.119829
0.711818 0.206256 0.119829
0.713756 0.206256 0.119829
0.715251 0.206256 0.119829
0.716396 0.206256 0.119829
0.0738842 0.239582 0.119829
0.0867018 0.239582 0.119829
0.101732 0.239582 0.119829
0.120943 0.239582 0.119829
0.144823 0.239582 0.119829
0.173449 0.239582 0.119829
0.206531 0.239582 0.119829
0.24329 0.239582 0.119829
0.282597 0.239582 0.119829
0.323064 0.239582 0.119829
0.363317 0.239582 0.119829
0.402228 0.239582 0.119829
0.439094 0.239582 0.119829
0.473579 0.239582 0.119829
0.505592 0.239582 0.119829
0.535073 0.239582 0.119829
0.562081 0.239582 0.119829
0.586542 0.239582 0.119829
0.608515 0.239582 0.119829
0.627955 0.239582 0.119829
0.644892 0.239582 0.119829
0.659434 0.239582 0.119829
0.671656 0.239582 0.119829
0.681804 0.239582 0.119829
0.690044 0.239582 0.119829
0.696696 0.239582 0.119829
0.701961 0.239582 0.119829
0.706111 0.239582 0.119829
0.709346 0.239582 0.119829
0.711818 0.239582 0.119829
0.713756 0.239582 0.119829
0.715251 0.239582 0.119829
0.716396 0.239582 0.119829
0.0738842 0.277028 0.119829
0.0867018 0.277028 0.119829
0.101732 0.277028 0.119829
0.120943 0.277028 0.119829
0.144823 0.277028 0.119829
0.173449 0.277028 0.119829
0.206531 0.277028 0.119829
0.24329 0.277028 0.119829
0.282597 0.277028 0.119829
0.323064 0.277028 0.119829
0.363317 0.277028 0.119829
0.402228 0.277028 0.119829
0.439094 0.277028 0.119829
0.473579 0.277028 0.119829
0.505592 0.277028 0.119829
0.535073 0.277028 0.119829
0.562081 0.277028 0.119829
0.586542 0.277028 0.119829
0.608515 0.277028 0.119829
0.627955 0.277028 0.119829
0.644892 0.277028 0.119829
0.659434 0.277028 0.119829
0.671656 0.277028 0.119829
0.681804 0.277028 0.119829
0.690044 0.277028 0.119829
0.696696 0.277028 0.119829
0.701961 0.277028 0.119829
0.706111 0.277028 0.119829
0.709346 0.277028 0.119829
0.711818 0.277028 0.119829
0.713756 0.277028 0.119829
0.715251 0.277028 0.119829
0.716396 0.277028 0.119829
0.0738842 0.317418 0.119829
0.0867018 0.317418 0.119829
0.101732 0.317418 0.119829
0.120943 0.317418 0.119829
0.144823 0.317418 0.119829
0.173449 0.317418 0.119829
0.206531 0.317418 0.119829
0.24329 0.317418 0.119829
0.282597 0.317418 0.119829
0.323064 0.317418 0.119829
0.363317 0.317418 0.119829
0.402228 0.317418 0.119829
0.439094 0.317418 0.119829
0.473579 0.317418 0.119829
0.505592 0.317418 0.119829
0.535073 0.317418 0.119829
0.562081 0.317418 0.119829
0.586542 0.317418 0.119829
0.608515 0.317418 0.119829
0.627955 0.317418 0.119829
0.644892 0.317418 0.119829
0.659434 0.317418 0.119829
0.671656 0.317418 0.119829
0.681804 0.317418 0.119829
0.690044 0.317418 0.119829
0.696696 0.317418 0.119829
0.701961 0.317418 0.119829
0.706111 0.317418 0.119829
0.709346 0.317418 0.119829
0.711818 0.317418 0.119829
0.713756 0.317418 0.119829
0.715251 0.317418 0.119829
0.716396 0.317418 0.119829
0.0738842 0.359075 0.119829
0.0867018 0.359075 0.119829
0.101732 0.359075 0.119829
0.120943 0.359075 0.119829
0.144823 0.359075 0.119829
0.173449 0.359075 0.119829
0.206531 0.359075 0.119829
0.24329 0.359075 0.119829
0.282597 0.359075 0.119829
0.323064 0.359075 0.119829
0.363317 0.359075 0.119829
0.402228 0.359075 0.119829
0.439094 0.359075 0.119829
0.473579 0.359075 0.119829
0.505592 0.359075 0.119829
0.535073 0.359075 0.119829
0.562081 0.359075 0.119829
0.586542 0.359075 0.119829
0.608515 0.359075 0.119829
0.627955 0.359075 0.119829
0.644892 0.359075 0.119829
0.659434 0.359075 0.119829
0.671656 0.359075 0.119829
0.681804 0.359075 0.119829
0.690044 0.359075 0.119829
0.696696 0.359075 0.119829
0.701961 0.359075 0.119829
0.706111 0.359075 0.119829
0.709346 0.359075 0.119829
0.711818 0.359075 0.119829
0.713756 0.359075 0.119829
0.715251 0.359075 0.119829
0.716396 0.359075 0.119829
0.0738842 0.400305 0.119829
0.0867018 0.400305 0.119829
0.101732 0.400305 0.119829
0.120943 0.400305 0.119829
0.144823 0.400305 0.119829
0.173449 0.400305 0.119829
0.206531 0.400305 0.119829
0.24329 0.400305 0.119829
0.282597 0.400305 0.119829
0.323064 0.400305 0.119829
0.363317 0.400305 0.119829
0.402228 0.400305 0.119829
0.439094 0.400305 0.119829
0.473579 0.400305 0.119829
0.505592 0.400305 0.119829
0.535073 0.400305 0.119829
0.562081 0.400305 0.119829
0.586542 0.400305 0.119829
0.608515 0.400305 0.119829
0.627955 0.400305 0.119829
0.644892 0.400305 0.119829
0.659434 0.400305 0.119829
0.671656 0.400305 0.119829
0.681804 0.400305 0.119829
0.690044 0.400305 0.119829
0.696696 0.400305 0.119829
0.701961 0.400305 0.119829
0.706111 0.400305 0.119829
0.709346 0.400305 0.119829
0.711818 0.400305 0.119829
0.713756 0.400305 0.119829
0.715251 0.400305 0.119829
0.716396 0.400305 0.119829
0.0738842 0.439689 0.119829
0.0867018 0.439689 0.119829
0.101732 0.439689 0.119829
0.120943 0.439689 0.119829
0.144823 0.439689 0.119829
0.173449 0.439689 0.119829
0.206531 0.439689 0.119829
0.24329 0.439689 0.119829
0.282597 0.439689 0.119829
0.323064 0.439689 0.119829
0.363317 0.439689 0.119829
0.402228 0.439689 0.119829
0.439094 0.439689 0.119829
0.473579 0.439689 0.119829
0.505592 0.439689 0.119829
0.535073 0.439689 0.119829
0.562081 0.439689 0.119829
0.586542 0.439689 0.119829
0.608515 0.439689 0.119829
0.627955 0.439689 0.119829
0.644892 0.439689 0.119829
0.659434 0.439689 0.119829
0.671656 0.439689 0.119829
0.681804 0.439689 0.119829
0.690044 0.439689 0.119829
0.696696 0.439689 0.119829
0.701961 0.439689 0.119829
0.706111 0.439689 0.119829
0.709346 0.439689 0.119829
0.711818 0.439689 0.119829
0.713756 0.439689 0.119829
0.715251 0.439689 0.119829
0.716396 0.439689 0.119829
0.0738842 0.476188 0.119829
0.0867018 0.476188 0.119829
0.101732 0.476188 0.119829
0.120943 0.476188 0.119829
0.144823 0.476188 0.119829
0.173449 0.476188 0.119829
0.206531 0.476188 0.119829
0.24329 0.476188 0.119829
0.282597 0.476188 0.119829
0.323064 0.476188 0.119829
0.363317 0.476188 0.119829
0.402228 0.476188 0.119829
0.439094 0.476188 0.119829
0.473579 0.476188 0.119829
0.505592 0.476188 0.119829
0.535073 0.476188 0.119829
0.562081 0.476188 0.119829
0.586542 0.476188 0.119829
0.608515 0.476188 0.119829
0.627955 0.476188 0.119829
0.644892 0.476188 0.119829
0.659434 0.476188 0.119829
0.671656 0.476188 0.119829
0.681804 0.476188 0.119829
0.690044 0.476188 0.119829
0.696696 0.476188 0.119829
0.701961 0.476188 0.119829
0.706111 0.476188 0.119829
0.709346 0.476188 0.119829
0.711818 0.476188 0.119829
0.713756 0.476188 0.119829
0.715251 0.476188 0.119829
0.716396 0.476188 0.119829
0.0738842 0.509148 0.119829
0.0867018 0.509148 0.119829
0.101732 0.509148 0.119829
0.120943 0.509148 0.119829
0.144823 0.509148 0.119829
0.173449 0.509148 0.119829
0.206531 0.509148 0.119829
0.24329 0.509148 0.119829
0.282597 0.509148 0.119829
0.323064 0.509148 0.119829
0.363317 0.509148 0.119829
0.402228 0.509148 0.119829
0.439094 0.509148 0.119829
0.473579 0.509148 0.119829
0.505592 0.509148 0.119829
0.535073 0.509148 0.119829
0.562081 0.509148 0.119829
0.586542 0.509148 0.119829
0.608515 0.509148 0.119829
0.627955 0.509148 0.119829
0.644892 0.509148 0.119829
0.659434 0.509148 0.119829
0.671656 0.509148 0.119829
0.681804 0.509148 0.119829
0.690044 0.509148 0.119829
0.696696 0.509148 0.119829
0.701961 0.509148 0.119829
0.706111 0.509148 0.119829
0.709346 0.509148 0.119829
0.711818 0.509148 0.119829
0.713756 0.509148 0.119829
0.715251 0.509148 0.119829
0.716396 0.509148 0.119829
0.0738842 0.53817 0.119829
0.0867018 0.53817 0.119829
0.101732 0.53817 0.119829
0.120943 0.53817 0.119829
0.144823 0.53817 0.119829
0.173449 0.53817 0.119829
0.206531 0.53817 0.119829
0.24329 0.53817 0.119829
0.282597 0.53817 0.119829
0.323064 0.53817 0.119829
0.363317 0.53817 0.119829
0.402228 0.53817 0.119829
0.439094 0.53817 0.119829
0.473579 0.53817 0.119829
0.505592 0.53817 0.119829
0.535073 0.53817 0.119829
0.562081 0.53817 0.119829
0.586542 0.53817 0.119829
0.608515 0.53817 0.119829
0.627955 0.53817 0.119829
0.644892 0.53817 0.119829
0.659434 0.53817 0.119829
0.671656 0.53817 0.119829
0.681804 0.53817 0.119829
0.690044 0.53817 0.119829
0.696696 0.53817 0.119829
0.701961 0.53817 0.119829
0.706111 0.53817 0.119829
0.709346 0.53817 0.119829
0.711818 0.53817 0.119829
0.713756 0.53817 0.119829
0.715251 0.53817 0.119829
0.716396 0.53817 0.119829
0.0738842 0.563043 0.119829
0.0867018 0.563043 0.119829
0.101732 0.563043 0.119829
0.120943 0.563043 0.119829
0.144823 0.563043 0.119829
0.173449 0.563043 0.119829
0.206531 0.563043 0.119829
0.24329 0.563043 0.119829
0.282597 0.563043 0.119829
0.323064 0.563043 0.119829
0.363317 0.563043 0.119829
0.402228 0.563043 0.119829
0.439094 0.563043 0.119829
0.473579 0.563043 0.119829
0.505592 0.563043 0.119829
0.535073 0.563043 0.119829
0.562081 0.563043 0.119829
0.586542 0.563043 0.119829
0.608515 0.563043 0.119829
0.627955 0.563043 0.119829
0.644892 0.563043 0.119829
0.659434 0.563043 0.119829
0.671656 0.563043 0.119829
0.681804 0.563043 0.119829
0.690044 0.563043 0.119829
0.696696 0.563043 0.119829
0.701961 0.563043 0.119829
0.706111 0.563043 0.119829
0.709346 0.563043 0.119829
0.711818 0.563043 0.119829
0.713756 0.563043 0.119829
0.715251 0.563043 0.119829
0.716396 0.563043 0.119829
0.0738842 0.583703 0.119829
0.0867018 0.583703 0.119829
0.101732 0.583703 0.119829
0.120943 0.583703 0.119829
0.144823 0.583703 0.119829
0.173449 0.583703 0.119829
0.206531 0.583703 0.119829
0.24329 0.583703 0.119829
0.282597 0.583703 0.119829
0.323064 0.583703 0.119829
0.363317 0.583703 0.119829
0.402228 0.583703 0.119829
0.439094 0.583703 0.119829
0.473579 0.583703 0.119829
0.505592 0.583703 0.119829
0.535073 0.583703 0.119829
0.562081 0.583703 0.119829
0.586542 0.583703 0.119829
0.608515 0.583703 0.119829
0.627955 0.583703 0.119829
0.644892 0.583703 0.119829
0.659434 0.583703 0.119829
0.671656 0.583703 0.119829
0.681804 0.583703 0.119829
0.690044 0.583703 0.119829
0.696696 0.583703 0.119829
0.701961 0.583703 0.119829
0.706111 0.583703 0.119829
0.709346 0.583703 0.119829
0.711818 0.583703 0.119829
0.713756 0.583703 0.119829
0.715251 0.583703 0.119829
0.716396 0.583703 0.119829
0.0738842 0.600366 0.119829
0.0867018 0.600366 0.119829
0.101732 0.600366 0.119829
0.120943 0.600366 0.119829
0.144823 0.600366 0.119829
0.173449 0.600366 0.119829
0.206531 0.600366 0.119829
0.24329 0.600366 0.119829
0.282597 0.600366 0.119829
0.323064 0.600366 0.119829
0.363317 0.600366 0.119829
0.402228 0.600366 0.119829
0.439094 0.600366 0.119829
0.473579 0.600366 0.119829
0.505592 0.600366 0.119829
0.535073 0.600366 0.119829
0.562081 0.600366 0.119829
0.586542 0.600366 0.119829
0.608515 0.600366 0.119829
0.627955 0.600366 0.119829
0.644892 0.600366 0.119829
0.659434 0.600366 0.119829
0.671656 0.600366 0.119829
0.681804 0.600366 0.119829
0.690044 0.600366 0.119829
0.696696 0.600366 0.119829
0.701961 0.600366 0.119829
0.706111 0.600366 0.119829
0.709346 0.600366 0.119829
0.711818 0.600366 0.119829
0.713756 0.600366 0.119829
0.715251 0.600366 0.119829
0.716396 0.600366 0.119829
0.0738842 0.613413 0.119829
0.0867018 0.613413 0.119829
0.101732 0.613413 0.119829
0.120943 0.613413 0.119829
0.144823 0.613413 0.119829
0.173449 0.613413 0.119829
0.206531 0.613413 0.119829
0.24329 0.613413 0.119829
0.282597 0.613413 0.119829
0.323064 0.613413 0.119829
0.363317 0.613413 0.119829
0.402228 0.613413 0.119829
0.439094 0.613413 0.119829
0.473579 0.613413 0.119829
0.505592 0.613413 0.119829
0.535073 0.613413 0.119829
0.562081 0.613413 0.119829
0.586542 0.613413 0.119829
0.608515 0.613413 0.119829
0.627955 0.613413 0.119829
0.644892 0.613413 0.119829
0.659434 0.613413 0.119829
0.671656 0.613413 0.119829
0.681804 0.613413 0.119829
0.690044 0.613413 0.119829
0.696696 0.613413 0.119829
0.701961 0.613413 0.119829
0.706111 0.613413 0.119829
0.709346 0.613413 0.119829
0.711818 0.613413 0.119829
0.713756 0.613413 0.119829
0.715251 0.613413 0.119829
0.716396 0.613413 0.119829
0.0738842 0.623316 0.119829
0.0867018 0.623316 0.119829
0.101732 0.623316 0.119829
0.120943 0.623316 0.119829
0.144823 0.623316 0.119829
0.173449 0.623316 0.119829
0.206531 0.623316 0.119829
0.24329 0.623316 0.119829
0.282597 0.623316 0.119829
0.323064 0.623316 0.119829
0.363317 0.623316 0.119829
0.402228 0.623316 0.119829
0.439094 0.623316 0.119829
0.473579 0.623316 0.119829
0.505592 0.623316 0.119829
0.535073 0.623316 0.119829
0.562081 0.623316 0.119829
0.586542 0.623316 0.119829
0.608515 0.623316 0.119829
0.627955 0.623316 0.119829
0.644892 0.623316 0.119829
0.659434 0.623316 0.119829
0.671656 0.623316 0.119829
0.681804 0.623316 0.119829
0.690044 0.623316 0.119829
0.696696 0.623316 0.119829
0.701961 0.623316 0.119829
0.706111 0.623316 0.119829
0.709346 0.623316 0.119829
0.711818 0.623316 0.119829
0.713756 0.623316 0.119829
0.715251 0.623316 0.119829
0.716396 0.623316 0.119829
0.0738842 0.630686 0.119829
0.0867018 0.630686 0.119829
0.101732 0.630686 0.119829
0.120943 0.630686 0.119829
0.144823 0.630686 0.119829
0.173449 0.630686 0.119829
0.206531 0.630686 0.119829
0.24329 0.630686 0.119829
0.282597 0.630686 0.119829
0.323064 0.630686 0.119829
0.363317 0.630686 0.119829
0.402228 0.630686 0.119829
0.439094 0.630686 0.119829
0.473579 0.630686 0.119829
0.505592 0.630686 0.119829
0.535073 0.630686 0.119829
0.562081 0.630686 0.119829
0.586542 0.630686 0.119829
0.608515 0.630686 0.119829
0.627955 0.630686 0.119829
0.644892 0.630686 0.119829
0.659434 0.630686 0.119829
0.671656 0.630686 0.119829
0.681804 0.630686 0.119829
0.690044 0.630686 0.119829
0.696696 0.630686 0.119829
0.701961 0.630686 0.119829
0.706111 0.630686 0.119829
0.709346 0.630686 0.119829
0.711818 0.630686 0.119829
0.713756 0.630686 0.119829
0.715251 0.630686 0.119829
0.716396 0.630686 0.119829
0.0738842 0.636057 0.119829
0.0867018 0.636057 0.119829
0.101732 0.636057 0.119829
0.120943 0.636057 0.119829
0.144823 0.636057 0.119829
0.173449 0.636057 0.119829
0.206531 0.636057 0.119829
0.24329 0.636057 0.119829
0.282597 0.636057 0.119829
0.323064 0.636057 0.119829
0.363317 0.636057 0.119829
0.402228 0.636057 0.119829
0.439094 0.636057 0.119829
0.473579 0.636057 0.119829
0.505592 0.636057 0.119829
0.535073 0.636057 0.119829
0.562081 0.636057 0.119829
0.586542 0.636057 0.119829
0.608515 0.636057 0.119829
0.627955 0.636057 0.119829
0.644892 0.636057 0.119829
0.659434 0.636057 0.119829
0.671656 0.636057 0.119829
0.681804 0.636057 0.119829
0.690044 0.636057 0.119829
0.696696 0.636057 0.119829
0.701961 0.636057 0.119829
0.706111 0.636057 0.119829
0.709346 0.636057 0.119829
0.711818 0.636057 0.119829
0.713756 0.636057 0.119829
0.715251 0.636057 0.119829
0.716396 0.636057 0.119829
0.0738842 0.639902 0.119829
0.0867018 0.639902 0.119829
0.101732 0.639902 0.119829
0.120943 0.639902 0.119829
0.144823 0.639902 0.119829
0.173449 0.639902 0.119829
0.206531 0.639902 0.119829
0.24329 0.639902 0.119829
0.282597 0.639902 0.119829
0.323064 0.639902 0.119829
0.363317 0.639902 0.119829
0.402228 0.639902 0.119829
0.439094 0.639902 0.119829
0.473579 0.639902 0.119829
0.505592 0.639902 0.119829
0.535073 0.639902 0.119829
0.562081 0.639902 0.119829
0.586542 0.639902 0.119829
0.608515 0.639902 0.119829
0.627955 0.639902 0.119829
0.644892 0.639902 0.119829
0.659434 0.639902 0.119829
0.671656 0.639902 0.119829
0.681804 0.639902 0.119829
0.690044 0.639902 0.119829
0.696696 0.639902 0.119829
0.701961 0.639902 0.119829
0.706111 0.639902 0.119829
0.709346 0.639902 0.119829
0.711818 0.639902 0.119829
0.713756 0.639902 0.119829
0.715251 0.639902 0.119829
0.716396 0.639902 0.119829
0.0738842 0.642634 0.119829
0.0867018 0.642634 0.119829
0.101732 0.642634 0.119829
0.120943 0.642634 0.119829
0.144823 0.642634 0.119829
0.173449 0.642634 0.119829
0.206531 0.642634 0.119829
0.24329 0.642634 0.119829
0.282597 0.642634 0.119829
0.323064 0.642634 0.119829
0.363317 0.642634 0.119829
0.402228 0.642634 0.119829
0.439094 0.642634 0.119829
0.473579 0.642634 0.119829
0.505592 0.642634 0.119829
0.535073 0.642634 0.119829
0.562081 0.642634 0.119829
0.586542 0.642634 0.119829
0.608515 0.642634 0.119829
0.627955 0.642634 0.119829
0.644892 0.642634 0.119829
0.659434 0.642634 0.119829
0.671656 0.642634 0.119829
0.681804 0.642634 0.119829
0.690044 0.642634 0.119829
0.696696 0.642634 0.119829
0.701961 0.642634 0.119829
0.706111 0.642634 0.119829
0.709346 0.642634 0.119829
0.711818 0.642634 0.119829
0.713756 0.642634 0.119829
0.715251 0.642634 0.119829
0.716396 0.642634 0.119829
0.0738842 0.644556 0.119829
0.0867018 0.644556 0.119829
0.101732 0.644556 0.119829
0.120943 0.644556 0.119829
0.144823 0.644556 0.119829
0.173449 0.644556 0.119829
0.206531 0.644556 0.119829
0.24329 0.644556 0.119829
0.282597 0.644556 0.119829
0.323064 0.644556 0.119829
0.363317 0.644556 0.119829
0.402228 0.644556 0.119829
0.439094 0.644556 0.119829
0.473579 0.644556 0.119829
0.505592 0.644556 0.119829
0.535073 0.644556 0.119829
0.562081 0.644556 0.119829
0.586542 0.644556 0.119829
0.608515 0.644556 0.119829
0.627955 0.644556 0.119829
0.644892 0.644556 0.119829
0.659434 0.644556 0.119829
0.671656 0.644556 0.119829
0.681804 0.644556 0.119829
0.690044 0.644556 0.119829
0.696696 0.644556 0.119829
0.701961 0.644556 0.119829
0.706111 0.644556 0.119829
0.709346 0.644556 0.119829
0.711818 0.644556 0.119829
0.713756 0.644556 0.119829
0.715251 0.644556 0.119829
0.716396 0.644556 0.119829
0.0738842 0.645899 0.119829
0.0867018 0.645899 0.119829
0.101732 0.645899 0.119829
0.120943 0.645899 0.119829
0.144823 0.645899 0.119829
0.173449 0.645899 0.119829
0.206531 0.645899 0.119829
0.24329 0.645899 0.119829
0.282597 0.645899 0.119829
0.323064 0.645899 0.119829
0.363317 0.645899 0.119829
0.402228 0.645899 0.119829
0.439094 0.645899 0.119829
0.473579 0.645899 0.119829
0.505592 0.645899 0.119829
0.535073 0.645899 0.119829
0.562081 0.645899 0.119829
0.586542 0.645899 0.119829
0.608515 0.645899 0.119829
0.627955 0.645899 0.119829
0.644892 0.645899 0.119829
0.659434 0.645899 0.119829
0.671656 0.645899 0.119829
0.681804 0.645899 0.119829
0.690044 0.645899 0.119829
0.696696 0.645899 0.119829
0.701961 0.645899 0.119829
0.706111 0.645899 0.119829
0.709346 0.645899 0.119829
0.711818 0.645899 0.119829
