2499DRT/STP-2399Log-ClassicCinemaNegative.cube
TITLE "Generated by Resolve"
LUT_3D_SIZE 5
0.00344854 0.024445 0.0399634
0.237491 0.024445 0.0399634
0.515389 0.024445 0.0399634
0.746944 0.024445 0.0399634
0.872145 0.024445 0.0399634
0.00344854 0.241688 0.0399634
0.237491 0.241688 0.0399634
0.515389 0.241688 0.0399634
0.746944 0.241688 0.0399634
0.872145 0.241688 0.0399634
0.00344854 0.513375 0.0399634
0.237491 0.513375 0.0399634
0.515389 0.513375 0.0399634
0.746944 0.513375 0.0399634
0.872145 0.513375 0.0399634
0.00344854 0.743023 0.0399634
0.237491 0.743023 0.0399634
0.515389 0.743023 0.0399634
0.746944 0.743023 0.0399634
0.872145 0.743023 0.0399634
0.00344854 0.908049 0.0399634
0.237491 0.908049 0.0399634
0.515389 0.908049 0.0399634
0.746944 0.908049 0.0399634
0.872145 0.908049 0.0399634
0.00344854 0.024445 0.236866
0.237491 0.024445 0.236866
0.515389 0.024445 0.236866
0.746944 0.024445 0.236866
0.872145 0.024445 0.236866
0.00344854 0.241688 0.236866
0.237491 0.241688 0.236866
0.515389 0.241688 0.236866
0.746944 0.241688 0.236866
0.872145 0.241688 0.236866
0.00344854 0.513375 0.236866
0.237491 0.513375 0.236866
0.515389 0.513375 0.236866
0.746944 0.513375 0.236866
0.872145 0.513375 0.236866
0.00344854 0.743023 0.236866
0.237491 0.743023 0.236866
0.515389 0.743023 0.236866
0.746944 0.743023 0.236866
0.872145 0.743023 0.236866
0.00344854 0.908049 0.236866
0.237491 0.908049 0.236866
0.515389 0.908049 0.236866
0.746944 0.908049 0.236866
0.872145 0.908049 0.236866
0.00344854 0.024445 0.50045
0.237491 0.024445 0.50045
0.515389 0.024445 0.50045
0.746944 0.024445 0.50045
0.872145 0.024445 0.50045
0.00344854 0.241688 0.50045
0.237491 0.241688 0.50045
0.515389 0.241688 0.50045
0.746944 0.241688 0.50045
0.872145 0.241688 0.50045
0.00344854 0.513375 0.50045
0.237491 0.513375 0.50045
0.515389 0.513375 0.50045
0.746944 0.513375 0.50045
0.872145 0.513375 0.50045
0.00344854 0.743023 0.50045
0.237491 0.743023 0.50045
0.515389 0.743023 0.50045
0.746944 0.743023 0.50045
0.872145 0.743023 0.50045
0.00344854 0.908049 0.50045
0.237491 0.908049 0.50045
0.515389 0.908049 0.50045
0.746944 0.908049 0.50045
0.872145 0.908049 0.50045
0.00344854 0.024445 0.704753
0.237491 0.024445 0.704753
0.515389 0.024445 0.704753
0.746944 0.024445 0.704753
0.872145 0.024445 0.704753
0.00344854 0.241688 0.704753
0.237491 0.241688 0.704753
0.515389 0.241688 0.704753
0.746944 0.241688 0.704753
0.872145 0.241688 0.704753
0.00344854 0.513375 0.704753
0.237491 0.513375 0.704753
0.515389 0.513375 0.704753
0.746944 0.513375 0.704753
0.872145 0.513375 0.704753
0.00344854 0.743023 0.704753
0.237491 0.743023 0.704753
0.515389 0.743023 0.704753
0.746944 0.743023 0.704753
0.872145 0.743023 0.704753
0.00344854 0.908049 0.704753
0.237491 0.908049 0.704753
0.515389 0.908049 0.704753
0.746944 0.908049 0.704753
0.872145 0.908049 0.704753
0.00344854 0.024445 0.846525
0.237491 0.024445 0.846525
0.515389 0.024445 0.846525
0.746944 0.024445 0.846525
0.872145 0.024445 0.846525
0.00344854 0.241688 0.846525
0.237491 0.241688 0.846525
0.515389 0.241688 0.846525
0.746944 0.241688 0.846525
0.872145 0.241688 0.846525
0.00344854 0.513375 0.846525
0.237491 0.513375 0.846525
0.515389 0.513375 0.846525
0.746944 0.513375 0.846525
0.872145 0.513375 0.846525
0.00344854 0.743023 0.846525
0.237491 0.743023 0.846525
0.515389 0.743023 0.846525
0.746944 0.743023 0.846525
0.872145 0.743023 0.846525
0.00344854 0.908049 0.846525
0.237491 0.908049 0.846525
0.515389 0.908049 0.846525
0.746944 0.908049 0.846525
0.872145 0.908049 0.846525
