2499DRT/STP-2399Log-ClassicNegative.cube
TITLE "Generated by Resolve"
LUT_3D_SIZE 33
0 0 0
0.0168765 0 0
0.0335699 0 0
0.0542153 0 0
0.0802319 0 0
0.113359 0 0
0.15465 0 0
0.195544 0 0
0.23444 0 0
0.272023 0 0
0.308751 0 0
0.344915 0 0
0.380713 0 0
0.416297 0 0
0.451774 0 0
0.487221 0 0
0.522683 0 0
0.558221 0 0
0.593835 0 0
0.629572 0 0
0.665446 0 0
0.701442 0 0
0.737591 0 0
0.773907 0 0
0.810361 0 0
0.846998 0 0
0.883772 0 0
0.920729 0 0
0.957824 0 0
0.995102 0 0
1 0 0
1 0 0
1 0 0
0 0.0180362 0
0.0168765 0.0180362 0
0.0335699 0.0180362 0
0.0542153 0.0180362 0
0.0802319 0.0180362 0
0.113359 0.0180362 0
0.15465 0.0180362 0
0.195544 0.0180362 0
0.23444 0.0180362 0
0.272023 0.0180362 0
0.308751 0.0180362 0
0.344915 0.0180362 0
0.380713 0.0180362 0
0.416297 0.0180362 0
0.451774 0.0180362 0
0.487221 0.0180362 0
0.522683 0.0180362 0
0.558221 0.0180362 0
0.593835 0.0180362 0
0.629572 0.0180362 0
0.665446 0.0180362 0
0.701442 0.0180362 0
0.737591 0.0180362 0
0.773907 0.0180362 0
0.810361 0.0180362 0
0.846998 0.0180362 0
0.883772 0.0180362 0
0.920729 0.0180362 0
0.957824 0.0180362 0
0.995102 0.0180362 0
1 0.0180362 0
1 0.0180362 0
1 0.0180362 0
0 0.0358892 0
0.0168765 0.0358892 0
0.0335699 0.0358892 0
0.0542153 0.0358892 0
0.0802319 0.0358892 0
0.113359 0.0358892 0
0.15465 0.0358892 0
0.195544 0.0358892 0
0.23444 0.0358892 0
0.272023 0.0358892 0
0.308751 0.0358892 0
0.344915 0.0358892 0
0.380713 0.0358892 0
0.416297 0.0358892 0
0.451774 0.0358892 0
0.487221 0.0358892 0
0.522683 0.0358892 0
0.558221 0.0358892 0
0.593835 0.0358892 0
0.629572 0.0358892 0
0.665446 0.0358892 0
0.701442 0.0358892 0
0.737591 0.0358892 0
0.773907 0.0358892 0
0.810361 0.0358892 0
0.846998 0.0358892 0
0.883772 0.0358892 0
0.920729 0.0358892 0
0.957824 0.0358892 0
0.995102 0.0358892 0
1 0.0358892 0
1 0.0358892 0
1 0.0358892 0
0 0.0579538 0
0.0168765 0.0579538 0
0.0335699 0.0579538 0
0.0542153 0.0579538 0
0.0802319 0.0579538 0
0.113359 0.0579538 0
0.15465 0.0579538 0
0.195544 0.0579538 0
0.23444 0.0579538 0
0.272023 0.0579538 0
0.308751 0.0579538 0
0.344915 0.0579538 0
0.380713 0.0579538 0
0.416297 0.0579538 0
0.451774 0.0579538 0
0.487221 0.0579538 0
0.522683 0.0579538 0
0.558221 0.0579538 0
0.593835 0.0579538 0
0.629572 0.0579538 0
0.665446 0.0579538 0
0.701442 0.0579538 0
0.737591 0.0579538 0
0.773907 0.0579538 0
0.810361 0.0579538 0
0.846998 0.0579538 0
0.883772 0.0579538 0
0.920729 0.0579538 0
0.957824 0.0579538 0
0.995102 0.0579538 0
1 0.0579538 0
1 0.0579538 0
1 0.0579538 0
0 0.085771 0
0.0168765 0.085771 0
0.0335699 0.085771 0
0.0542153 0.085771 0
0.0802319 0.085771 0
0.113359 0.085771 0
0.15465 0.085771 0
0.195544 0.085771 0
0.23444 0.085771 0
0.272023 0.085771 0
0.308751 0.085771 0
0.344915 0.085771 0
0.380713 0.085771 0
0.416297 0.085771 0
0.451774 0.085771 0
0.487221 0.085771 0
0.522683 0.085771 0
0.558221 0.085771 0
0.593835 0.085771 0
0.629572 0.085771 0
0.665446 0.085771 0
0.701442 0.085771 0
0.737591 0.085771 0
0.773907 0.085771 0
0.810361 0.085771 0
0.846998 0.085771 0
0.883772 0.085771 0
0.920729 0.085771 0
0.957824 0.085771 0
0.995102 0.085771 0
1 0.085771 0
1 0.085771 0
1 0.085771 0
0 0.121187 0
0.0168765 0.121187 0
0.0335699 0.121187 0
0.0542153 0.121187 0
0.0802319 0.121187 0
0.113359 0.121187 0
0.15465 0.121187 0
0.195544 0.121187 0
0.23444 0.121187 0
0.272023 0.121187 0
0.308751 0.121187 0
0.344915 0.121187 0
0.380713 0.121187 0
0.416297 0.121187 0
0.451774 0.121187 0
0.487221 0.121187 0
0.522683 0.121187 0
0.558221 0.121187 0
0.593835 0.121187 0
0.629572 0.121187 0
0.665446 0.121187 0
0.701442 0.121187 0
0.737591 0.121187 0
0.773907 0.121187 0
0.810361 0.121187 0
0.846998 0.121187 0
0.883772 0.121187 0
0.920729 0.121187 0
0.957824 0.121187 0
0.995102 0.121187 0
1 0.121187 0
1 0.121187 0
1 0.121187 0
0 0.164126 0
0.0168765 0.164126 0
0.0335699 0.164126 0
0.0542153 0.164126 0
0.0802319 0.164126 0
0.113359 0.164126 0
0.15465 0.164126 0
0.195544 0.164126 0
0.23444 0.164126 0
0.272023 0.164126 0
0.308751 0.164126 0
0.344915 0.164126 0
0.380713 0.164126 0
0.416297 0.164126 0
0.451774 0.164126 0
0.487221 0.164126 0
0.522683 0.164126 0
0.558221 0.164126 0
0.593835 0.164126 0
0.629572 0.164126 0
0.665446 0.164126 0
0.701442 0.164126 0
0.737591 0.164126 0
0.773907 0.164126 0
0.810361 0.164126 0
0.846998 0.164126 0
0.883772 0.164126 0
0.920729 0.164126 0
0.957824 0.164126 0
0.995102 0.164126 0
1 0.164126 0
1 0.164126 0
1 0.164126 0
0 0.204242 0
0.0168765 0.204242 0
0.0335699 0.204242 0
0.0542153 0.204242 0
0.0802319 0.204242 0
0.113359 0.204242 0
0.15465 0.204242 0
0.195544 0.204242 0
0.23444 0.204242 0
0.272023 0.204242 0
0.308751 0.204242 0
0.344915 0.204242 0
0.380713 0.204242 0
0.416297 0.204242 0
0.451774 0.204242 0
0.487221 0.204242 0
0.522683 0.204242 0
0.558221 0.204242 0
0.593835 0.204242 0
0.629572 0.204242 0
0.665446 0.204242 0
0.701442 0.204242 0
0.737591 0.204242 0
0.773907 0.204242 0
0.810361 0.204242 0
0.846998 0.204242 0
0.883772 0.204242 0
0.920729 0.204242 0
0.957824 0.204242 0
0.995102 0.204242 0
1 0.204242 0
1 0.204242 0
1 0.204242 0
0 0.241413 0
0.0168765 0.241413 0
0.0335699 0.241413 0
0.0542153 0.241413 0
0.0802319 0.241413 0
0.113359 0.241413 0
0.15465 0.241413 0
0.195544 0.241413 0
0.23444 0.241413 0
0.272023 0.241413 0
0.308751 0.241413 0
0.344915 0.241413 0
0.380713 0.241413 0
0.416297 0.241413 0
0.451774 0.241413 0
0.487221 0.241413 0
0.522683 0.241413 0
0.558221 0.241413 0
0.593835 0.241413 0
0.629572 0.241413 0
0.665446 0.241413 0
0.701442 0.241413 0
0.737591 0.241413 0
0.773907 0.241413 0
0.810361 0.241413 0
0.846998 0.241413 0
0.883772 0.241413 0
0.920729 0.241413 0
0.957824 0.241413 0
0.995102 0.241413 0
1 0.241413 0
1 0.241413 0
1 0.241413 0
0 0.276738 0
0.0168765 0.276738 0
0.0335699 0.276738 0
0.0542153 0.276738 0
0.0802319 0.276738 0
0.113359 0.276738 0
0.15465 0.276738 0
0.195544 0.276738 0
0.23444 0.276738 0
0.272023 0.276738 0
0.308751 0.276738 0
0.344915 0.276738 0
0.380713 0.276738 0
0.416297 0.276738 0
0.451774 0.276738 0
0.487221 0.276738 0
0.522683 0.276738 0
0.558221 0.276738 0
0.593835 0.276738 0
0.629572 0.276738 0
0.665446 0.276738 0
0.701442 0.276738 0
0.737591 0.276738 0
0.773907 0.276738 0
0.810361 0.276738 0
0.846998 0.276738 0
0.883772 0.276738 0
0.920729 0.276738 0
0.957824 0.276738 0
0.995102 0.276738 0
1 0.276738 0
1 0.276738 0
1 0.276738 0
0 0.310857 0
0.0168765 0.310857 0
0.0335699 0.310857 0
0.0542153 0.310857 0
0.0802319 0.310857 0
0.113359 0.310857 0
0.15465 0.310857 0
0.195544 0.310857 0
0.23444 0.310857 0
0.272023 0.310857 0
0.308751 0.310857 0
0.344915 0.310857 0
0.380713 0.310857 0
0.416297 0.310857 0
0.451774 0.310857 0
0.487221 0.310857 0
0.522683 0.310857 0
0.558221 0.310857 0
0.593835 0.310857 0
0.629572 0.310857 0
0.665446 0.310857 0
0.701442 0.310857 0
0.737591 0.310857 0
0.773907 0.310857 0
0.810361 0.310857 0
0.846998 0.310857 0
0.883772 0.310857 0
0.920729 0.310857 0
0.957824 0.310857 0
0.995102 0.310857 0
1 0.310857 0
1 0.310857 0
1 0.310857 0
0 0.344198 0
0.0168765 0.344198 0
0.0335699 0.344198 0
0.0542153 0.344198 0
0.0802319 0.344198 0
0.113359 0.344198 0
0.15465 0.344198 0
0.195544 0.344198 0
0.23444 0.344198 0
0.272023 0.344198 0
0.308751 0.344198 0
0.344915 0.344198 0
0.380713 0.344198 0
0.416297 0.344198 0
0.451774 0.344198 0
0.487221 0.344198 0
0.522683 0.344198 0
0.558221 0.344198 0
0.593835 0.344198 0
0.629572 0.344198 0
0.665446 0.344198 0
0.701442 0.344198 0
0.737591 0.344198 0
0.773907 0.344198 0
0.810361 0.344198 0
0.846998 0.344198 0
0.883772 0.344198 0
0.920729 0.344198 0
0.957824 0.344198 0
0.995102 0.344198 0
1 0.344198 0
1 0.344198 0
1 0.344198 0
0 0.377066 0
0.0168765 0.377066 0
0.0335699 0.377066 0
0.0542153 0.377066 0
0.0802319 0.377066 0
0.113359 0.377066 0
0.15465 0.377066 0
0.195544 0.377066 0
0.23444 0.377066 0
0.272023 0.377066 0
0.308751 0.377066 0
0.344915 0.377066 0
0.380713 0.377066 0
0.416297 0.377066 0
0.451774 0.377066 0
0.487221 0.377066 0
0.522683 0.377066 0
0.558221 0.377066 0
0.593835 0.377066 0
0.629572 0.377066 0
0.665446 0.377066 0
0.701442 0.377066 0
0.737591 0.377066 0
0.773907 0.377066 0
0.810361 0.377066 0
0.846998 0.377066 0
0.883772 0.377066 0
0.920729 0.377066 0
0.957824 0.377066 0
0.995102 0.377066 0
1 0.377066 0
1 0.377066 0
1 0.377066 0
0 0.409628 0
0.0168765 0.409628 0
0.0335699 0.409628 0
0.0542153 0.409628 0
0.0802319 0.409628 0
0.113359 0.409628 0
0.15465 0.409628 0
0.195544 0.409628 0
0.23444 0.409628 0
0.272023 0.409628 0
0.308751 0.409628 0
0.344915 0.409628 0
0.380713 0.409628 0
0.416297 0.409628 0
0.451774 0.409628 0
0.487221 0.409628 0
0.522683 0.409628 0
0.558221 0.409628 0
0.593835 0.409628 0
0.629572 0.409628 0
0.665446 0.409628 0
0.701442 0.409628 0
0.737591 0.409628 0
0.773907 0.409628 0
0.810361 0.409628 0
0.846998 0.409628 0
0.883772 0.409628 0
0.920729 0.409628 0
0.957824 0.409628 0
0.995102 0.409628 0
1 0.409628 0
1 0.409628 0
1 0.409628 0
0 0.442039 0
0.0168765 0.442039 0
0.0335699 0.442039 0
0.0542153 0.442039 0
0.0802319 0.442039 0
0.113359 0.442039 0
0.15465 0.442039 0
0.195544 0.442039 0
0.23444 0.442039 0
0.272023 0.442039 0
0.308751 0.442039 0
0.344915 0.442039 0
0.380713 0.442039 0
0.416297 0.442039 0
0.451774 0.442039 0
0.487221 0.442039 0
0.522683 0.442039 0
0.558221 0.442039 0
0.593835 0.442039 0
0.629572 0.442039 0
0.665446 0.442039 0
0.701442 0.442039 0
0.737591 0.442039 0
0.773907 0.442039 0
0.810361 0.442039 0
0.846998 0.442039 0
0.883772 0.442039 0
0.920729 0.442039 0
0.957824 0.442039 0
0.995102 0.442039 0
1 0.442039 0
1 0.442039 0
1 0.442039 0
0 0.474388 0
0.0168765 0.474388 0
0.0335699 0.474388 0
0.0542153 0.474388 0
0.0802319 0.474388 0
0.113359 0.474388 0
0.15465 0.474388 0
0.195544 0.474388 0
0.23444 0.474388 0
0.272023 0.474388 0
0.308751 0.474388 0
0.344915 0.474388 0
0.380713 0.474388 0
0.416297 0.474388 0
0.451774 0.474388 0
0.487221 0.474388 0
0.522683 0.474388 0
0.558221 0.474388 0
0.593835 0.474388 0
0.629572 0.474388 0
0.665446 0.474388 0
0.701442 0.474388 0
0.737591 0.474388 0
0.773907 0.474388 0
0.810361 0.474388 0
0.846998 0.474388 0
0.883772 0.474388 0
0.920729 0.474388 0
0.957824 0.474388 0
0.995102 0.474388 0
1 0.474388 0
1 0.474388 0
1 0.474388 0
0 0.506767 0
0.0168765 0.506767 0
0.0335699 0.506767 0
0.0542153 0.506767 0
0.0802319 0.506767 0
0.113359 0.506767 0
0.15465 0.506767 0
0.195544 0.506767 0
0.23444 0.506767 0
0.272023 0.506767 0
0.308751 0.506767 0
0.344915 0.506767 0
0.380713 0.506767 0
0.416297 0.506767 0
0.451774 0.506767 0
0.487221 0.506767 0
0.522683 0.506767 0
0.558221 0.506767 0
0.593835 0.506767 0
0.629572 0.506767 0
0.665446 0.506767 0
0.701442 0.506767 0
0.737591 0.506767 0
0.773907 0.506767 0
0.810361 0.506767 0
0.846998 0.506767 0
0.883772 0.506767 0
0.920729 0.506767 0
0.957824 0.506767 0
0.995102 0.506767 0
1 0.506767 0
1 0.506767 0
1 0.506767 0
0 0.539223 0
0.0168765 0.539223 0
0.0335699 0.539223 0
0.0542153 0.539223 0
0.0802319 0.539223 0
0.113359 0.539223 0
0.15465 0.539223 0
0.195544 0.539223 0
0.23444 0.539223 0
0.272023 0.539223 0
0.308751 0.539223 0
0.344915 0.539223 0
0.380713 0.539223 0
0.416297 0.539223 0
0.451774 0.539223 0
0.487221 0.539223 0
0.522683 0.539223 0
0.558221 0.539223 0
0.593835 0.539223 0
0.629572 0.539223 0
0.665446 0.539223 0
0.701442 0.539223 0
0.737591 0.539223 0
0.773907 0.539223 0
0.810361 0.539223 0
0.846998 0.539223 0
0.883772 0.539223 0
0.920729 0.539223 0
0.957824 0.539223 0
0.995102 0.539223 0
1 0.539223 0
1 0.539223 0
1 0.539223 0
0 0.571786 0
0.0168765 0.571786 0
0.0335699 0.571786 0
0.0542153 0.571786 0
0.0802319 0.571786 0
0.113359 0.571786 0
0.15465 0.571786 0
0.195544 0.571786 0
0.23444 0.571786 0
0.272023 0.571786 0
0.308751 0.571786 0
0.344915 0.571786 0
0.380713 0.571786 0
0.416297 0.571786 0
0.451774 0.571786 0
0.487221 0.571786 0
0.522683 0.571786 0
0.558221 0.571786 0
0.593835 0.571786 0
0.629572 0.571786 0
0.665446 0.571786 0
0.701442 0.571786 0
0.737591 0.571786 0
0.773907 0.571786 0
0.810361 0.571786 0
0.846998 0.571786 0
0.883772 0.571786 0
0.920729 0.571786 0
0.957824 0.571786 0
0.995102 0.571786 0
1 0.571786 0
1 0.571786 0
1 0.571786 0
0 0.604501 0
0.0168765 0.604501 0
0.0335699 0.604501 0
0.0542153 0.604501 0
0.0802319 0.604501 0
0.113359 0.604501 0
0.15465 0.604501 0
0.195544 0.604501 0
0.23444 0.604501 0
0.272023 0.604501 0
0.308751 0.604501 0
0.344915 0.604501 0
0.380713 0.604501 0
0.416297 0.604501 0
0.451774 0.604501 0
0.487221 0.604501 0
0.522683 0.604501 0
0.558221 0.604501 0
0.593835 0.604501 0
0.629572 0.604501 0
0.665446 0.604501 0
0.701442 0.604501 0
0.737591 0.604501 0
0.773907 0.604501 0
0.810361 0.604501 0
0.846998 0.604501 0
0.883772 0.604501 0
0.920729 0.604501 0
0.957824 0.604501 0
0.995102 0.604501 0
1 0.604501 0
1 0.604501 0
1 0.604501 0
0 0.637369 0
0.0168765 0.637369 0
0.0335699 0.637369 0
0.0542153 0.637369 0
0.0802319 0.637369 0
0.113359 0.637369 0
0.15465 0.637369 0
0.195544 0.637369 0
0.23444 0.637369 0
0.272023 0.637369 0
0.308751 0.637369 0
0.344915 0.637369 0
0.380713 0.637369 0
0.416297 0.637369 0
0.451774 0.637369 0
0.487221 0.637369 0
0.522683 0.637369 0
0.558221 0.637369 0
0.593835 0.637369 0
0.629572 0.637369 0
0.665446 0.637369 0
0.701442 0.637369 0
0.737591 0.637369 0
0.773907 0.637369 0
0.810361 0.637369 0
0.846998 0.637369 0
0.883772 0.637369 0
0.920729 0.637369 0
0.957824 0.637369 0
0.995102 0.637369 0
1 0.637369 0
1 0.637369 0
1 0.637369 0
0 0.67042 0
0.0168765 0.67042 0
0.0335699 0.67042 0
0.0542153 0.67042 0
0.0802319 0.67042 0
0.113359 0.67042 0
0.15465 0.67042 0
0.195544 0.67042 0
0.23444 0.67042 0
0.272023 0.67042 0
0.308751 0.67042 0
0.344915 0.67042 0
0.380713 0.67042 0
0.416297 0.67042 0
0.451774 0.67042 0
0.487221 0.67042 0
0.522683 0.67042 0
0.558221 0.67042 0
0.593835 0.67042 0
0.629572 0.67042 0
0.665446 0.67042 0
0.701442 0.67042 0
0.737591 0.67042 0
0.773907 0.67042 0
0.810361 0.67042 0
0.846998 0.67042 0
0.883772 0.67042 0
0.920729 0.67042 0
0.957824 0.67042 0
0.995102 0.67042 0
1 0.67042 0
1 0.67042 0
1 0.67042 0
0 0.703655 0
0.0168765 0.703655 0
0.0335699 0.703655 0
0.0542153 0.703655 0
0.0802319 0.703655 0
0.113359 0.703655 0
0.15465 0.703655 0
0.195544 0.703655 0
0.23444 0.703655 0
0.272023 0.703655 0
0.308751 0.703655 0
0.344915 0.703655 0
0.380713 0.703655 0
0.416297 0.703655 0
0.451774 0.703655 0
0.487221 0.703655 0
0.522683 0.703655 0
0.558221 0.703655 0
0.593835 0.703655 0
0.629572 0.703655 0
0.665446 0.703655 0
0.701442 0.703655 0
0.737591 0.703655 0
0.773907 0.703655 0
0.810361 0.703655 0
0.846998 0.703655 0
0.883772 0.703655 0
0.920729 0.703655 0
0.957824 0.703655 0
0.995102 0.703655 0
1 0.703655 0
1 0.703655 0
1 0.703655 0
0 0.737102 0
0.0168765 0.737102 0
0.0335699 0.737102 0
0.0542153 0.737102 0
0.0802319 0.737102 0
0.113359 0.737102 0
0.15465 0.737102 0
0.195544 0.737102 0
0.23444 0.737102 0
0.272023 0.737102 0
0.308751 0.737102 0
0.344915 0.737102 0
0.380713 0.737102 0
0.416297 0.737102 0
0.451774 0.737102 0
0.487221 0.737102 0
0.522683 0.737102 0
0.558221 0.737102 0
0.593835 0.737102 0
0.629572 0.737102 0
0.665446 0.737102 0
0.701442 0.737102 0
0.737591 0.737102 0
0.773907 0.737102 0
0.810361 0.737102 0
0.846998 0.737102 0
0.883772 0.737102 0
0.920729 0.737102 0
0.957824 0.737102 0
0.995102 0.737102 0
1 0.737102 0
1 0.737102 0
1 0.737102 0
0 0.770733 0
0.0168765 0.770733 0
0.0335699 0.770733 0
0.0542153 0.770733 0
0.0802319 0.770733 0
0.113359 0.770733 0
0.15465 0.770733 0
0.195544 0.770733 0
0.23444 0.770733 0
0.272023 0.770733 0
0.308751 0.770733 0
0.344915 0.770733 0
0.380713 0.770733 0
0.416297 0.770733 0
0.451774 0.770733 0
0.487221 0.770733 0
0.522683 0.770733 0
0.558221 0.770733 0
0.593835 0.770733 0
0.629572 0.770733 0
0.665446 0.770733 0
0.701442 0.770733 0
0.737591 0.770733 0
0.773907 0.770733 0
0.810361 0.770733 0
0.846998 0.770733 0
0.883772 0.770733 0
0.920729 0.770733 0
0.957824 0.770733 0
0.995102 0.770733 0
1 0.770733 0
1 0.770733 0
1 0.770733 0
0 0.804593 0
0.0168765 0.804593 0
0.0335699 0.804593 0
0.0542153 0.804593 0
0.0802319 0.804593 0
0.113359 0.804593 0
0.15465 0.804593 0
0.195544 0.804593 0
0.23444 0.804593 0
0.272023 0.804593 0
0.308751 0.804593 0
0.344915 0.804593 0
0.380713 0.804593 0
0.416297 0.804593 0
0.451774 0.804593 0
0.487221 0.804593 0
0.522683 0.804593 0
0.558221 0.804593 0
0.593835 0.804593 0
0.629572 0.804593 0
0.665446 0.804593 0
0.701442 0.804593 0
0.737591 0.804593 0
0.773907 0.804593 0
0.810361 0.804593 0
0.846998 0.804593 0
0.883772 0.804593 0
0.920729 0.804593 0
0.957824 0.804593 0
0.995102 0.804593 0
1 0.804593 0
1 0.804593 0
1 0.804593 0
0 0.838636 0
0.0168765 0.838636 0
0.0335699 0.838636 0
0.0542153 0.838636 0
0.0802319 0.838636 0
0.113359 0.838636 0
0.15465 0.838636 0
0.195544 0.838636 0
0.23444 0.838636 0
0.272023 0.838636 0
0.308751 0.838636 0
0.344915 0.838636 0
0.380713 0.838636 0
0.416297 0.838636 0
0.451774 0.838636 0
0.487221 0.838636 0
0.522683 0.838636 0
0.558221 0.838636 0
0.593835 0.838636 0
0.629572 0.838636 0
0.665446 0.838636 0
0.701442 0.838636 0
0.737591 0.838636 0
0.773907 0.838636 0
0.810361 0.838636 0
0.846998 0.838636 0
0.883772 0.838636 0
0.920729 0.838636 0
0.957824 0.838636 0
0.995102 0.838636 0
1 0.838636 0
1 0.838636 0
1 0.838636 0
0 0.872908 0
0.0168765 0.872908 0
0.0335699 0.872908 0
0.0542153 0.872908 0
0.0802319 0.872908 0
0.113359 0.872908 0
0.15465 0.872908 0
0.195544 0.872908 0
0.23444 0.872908 0
