2499DRT/STP-2399Log-PrintV3.cube
TITLE "Generated by Resolve"
LUT_3D_SIZE 9
0.0321965 0.0289464 0.0326543
0.0898299 0.0289464 0.0326543
0.207858 0.0289464 0.0326543
0.370718 0.0289464 0.0326543
0.520958 0.0289464 0.0326543
0.624781 0.0289464 0.0326543
0.677272 0.0289464 0.0326543
0.695994 0.0289464 0.0326543
0.701411 0.0289464 0.0326543
0.0321965 0.102525 0.0326543
0.0898299 0.102525 0.0326543
0.207858 0.102525 0.0326543
0.370718 0.102525 0.0326543
0.520958 0.102525 0.0326543
0.624781 0.102525 0.0326543
0.677272 0.102525 0.0326543
0.695994 0.102525 0.0326543
0.701411 0.102525 0.0326543
0.0321965 0.222263 0.0326543
0.0898299 0.222263 0.0326543
0.207858 0.222263 0.0326543
0.370718 0.222263 0.0326543
0.520958 0.222263 0.0326543
0.624781 0.222263 0.0326543
0.677272 0.222263 0.0326543
0.695994 0.222263 0.0326543
0.701411 0.222263 0.0326543
0.0321965 0.386969 0.0326543
0.0898299 0.386969 0.0326543
0.207858 0.386969 0.0326543
0.370718 0.386969 0.0326543
0.520958 0.386969 0.0326543
0.624781 0.386969 0.0326543
0.677272 0.386969 0.0326543
0.695994 0.386969 0.0326543
0.701411 0.386969 0.0326543
0.0321965 0.551583 0.0326543
0.0898299 0.551583 0.0326543
0.207858 0.551583 0.0326543
0.370718 0.551583 0.0326543
0.520958 0.551583 0.0326543
0.624781 0.551583 0.0326543
0.677272 0.551583 0.0326543
0.695994 0.551583 0.0326543
0.701411 0.551583 0.0326543
0.0321965 0.663874 0.0326543
0.0898299 0.663874 0.0326543
0.207858 0.663874 0.0326543
0.370718 0.663874 0.0326543
0.520958 0.663874 0.0326543
0.624781 0.663874 0.0326543
0.677272 0.663874 0.0326543
0.695994 0.663874 0.0326543
0.701411 0.663874 0.0326543
0.0321965 0.709545 0.0326543
0.0898299 0.709545 0.0326543
0.207858 0.709545 0.0326543
0.370718 0.709545 0.0326543
0.520958 0.709545 0.0326543
0.624781 0.709545 0.0326543
0.677272 0.709545 0.0326543
0.695994 0.709545 0.0326543
0.701411 0.709545 0.0326543
0.0321965 0.721096 0.0326543
0.0898299 0.721096 0.0326543
0.207858 0.721096 0.0326543
0.370718 0.721096 0.0326543
0.520958 0.721096 0.0326543
0.624781 0.721096 0.0326543
0.677272 0.721096 0.0326543
0.695994 0.721096 0.0326543
0.701411 0.721096 0.0326543
0.0321965 0.723461 0.0326543
0.0898299 0.723461 0.0326543
0.207858 0.723461 0.0326543
0.370718 0.723461 0.0326543
0.520958 0.723461 0.0326543
0.624781 0.723461 0.0326543
0.677272 0.723461 0.0326543
0.695994 0.723461 0.0326543
0.701411 0.723461 0.0326543
0.0321965 0.0289464 0.11545
0.0898299 0.0289464 0.11545
0.207858 0.0289464 0.11545
0.370718 0.0289464 0.11545
0.520958 0.0289464 0.11545
0.624781 0.0289464 0.11545
0.677272 0.0289464 0.11545
0.695994 0.0289464 0.11545
0.701411 0.0289464 0.11545
0.0321965 0.102525 0.11545
0.0898299 0.102525 0.11545
0.207858 0.102525 0.11545
0.370718 0.102525 0.11545
0.520958 0.102525 0.11545
0.624781 0.102525 0.11545
0.677272 0.102525 0.11545
0.695994 0.102525 0.11545
0.701411 0.102525 0.11545
0.0321965 0.222263 0.11545
0.0898299 0.222263 0.11545
0.207858 0.222263 0.11545
0.370718 0.222263 0.11545
0.520958 0.222263 0.11545
0.624781 0.222263 0.11545
0.677272 0.222263 0.11545
0.695994 0.222263 0.11545
0.701411 0.222263 0.11545
0.0321965 0.386969 0.11545
0.0898299 0.386969 0.11545
0.207858 0.386969 0.11545
0.370718 0.386969 0.11545
0.520958 0.386969 0.11545
0.624781 0.386969 0.11545
0.677272 0.386969 0.11545
0.695994 0.386969 0.11545
0.701411 0.386969 0.11545
0.0321965 0.551583 0.11545
0.0898299 0.551583 0.11545
0.207858 0.551583 0.11545
0.370718 0.551583 0.11545
0.520958 0.551583 0.11545
0.624781 0.551583 0.11545
0.677272 0.551583 0.11545
0.695994 0.551583 0.11545
0.701411 0.551583 0.11545
0.0321965 0.663874 0.11545
0.0898299 0.663874 0.11545
0.207858 0.663874 0.11545
0.370718 0.663874 0.11545
0.520958 0.663874 0.11545
0.624781 0.663874 0.11545
0.677272 0.663874 0.11545
0.695994 0.663874 0.11545
0.701411 0.663874 0.11545
0.0321965 0.709545 0.11545
0.0898299 0.709545 0.11545
0.207858 0.709545 0.11545
0.370718 0.709545 0.11545
0.520958 0.709545 0.11545
0.624781 0.709545 0.11545
0.677272 0.709545 0.11545
0.695994 0.709545 0.11545
0.701411 0.709545 0.11545
0.0321965 0.721096 0.11545
0.0898299 0.721096 0.11545
0.207858 0.721096 0.11545
0.370718 0.721096 0.11545
0.520958 0.721096 0.11545
0.624781 0.721096 0.11545
0.677272 0.721096 0.11545
0.695994 0.721096 0.11545
0.701411 0.721096 0.11545
0.0321965 0.723461 0.11545
0.0898299 0.723461 0.11545
0.207858 0.723461 0.11545
0.370718 0.723461 0.11545
0.520958 0.723461 0.11545
0.624781 0.723461 0.11545
0.677272 0.723461 0.11545
0.695994 0.723461 0.11545
0.701411 0.723461 0.11545
0.0321965 0.0289464 0.238178
0.0898299 0.0289464 0.238178
0.207858 0.0289464 0.238178
0.370718 0.0289464 0.238178
0.520958 0.0289464 0.238178
0.624781 0.0289464 0.238178
0.677272 0.0289464 0.238178
0.695994 0.0289464 0.238178
0.701411 0.0289464 0.238178
0.0321965 0.102525 0.238178
0.0898299 0.102525 0.238178
0.207858 0.102525 0.238178
0.370718 0.102525 0.238178
0.520958 0.102525 0.238178
0.624781 0.102525 0.238178
0.677272 0.102525 0.238178
0.695994 0.102525 0.238178
0.701411 0.102525 0.238178
0.0321965 0.222263 0.238178
0.0898299 0.222263 0.238178
0.207858 0.222263 0.238178
0.370718 0.222263 0.238178
0.520958 0.222263 0.238178
0.624781 0.222263 0.238178
0.677272 0.222263 0.238178
0.695994 0.222263 0.238178
0.701411 0.222263 0.238178
0.0321965 0.386969 0.238178
0.0898299 0.386969 0.238178
0.207858 0.386969 0.238178
0.370718 0.386969 0.238178
0.520958 0.386969 0.238178
0.624781 0.386969 0.238178
0.677272 0.386969 0.238178
0.695994 0.386969 0.238178
0.701411 0.386969 0.238178
0.0321965 0.551583 0.238178
0.0898299 0.551583 0.238178
0.207858 0.551583 0.238178
0.370718 0.551583 0.238178
0.520958 0.551583 0.238178
0.624781 0.551583 0.238178
0.677272 0.551583 0.238178
0.695994 0.551583 0.238178
0.701411 0.551583 0.238178
0.0321965 0.663874 0.238178
0.0898299 0.663874 0.238178
0.207858 0.663874 0.238178
0.370718 0.663874 0.238178
0.520958 0.663874 0.238178
0.624781 0.663874 0.238178
0.677272 0.663874 0.238178
0.695994 0.663874 0.238178
0.701411 0.663874 0.238178
0.0321965 0.709545 0.238178
0.0898299 0.709545 0.238178
0.207858 0.709545 0.238178
0.370718 0.709545 0.238178
0.520958 0.709545 0.238178
0.624781 0.709545 0.238178
0.677272 0.709545 0.238178
0.695994 0.709545 0.238178
0.701411 0.709545 0.238178
0.0321965 0.721096 0.238178
0.0898299 0.721096 0.238178
0.207858 0.721096 0.238178
0.370718 0.721096 0.238178
0.520958 0.721096 0.238178
0.624781 0.721096 0.238178
0.677272 0.721096 0.238178
0.695994 0.721096 0.238178
0.701411 0.721096 0.238178
0.0321965 0.723461 0.238178
0.0898299 0.723461 0.238178
0.207858 0.723461 0.238178
0.370718 0.723461 0.238178
0.520958 0.723461 0.238178
0.624781 0.723461 0.238178
0.677272 0.723461 0.238178
0.695994 0.723461 0.238178
0.701411 0.723461 0.238178
0.0321965 0.0289464 0.388434
0.0898299 0.0289464 0.388434
0.207858 0.0289464 0.388434
0.370718 0.0289464 0.388434
0.520958 0.0289464 0.388434
0.624781 0.0289464 0.388434
0.677272 0.0289464 0.388434
0.695994 0.0289464 0.388434
0.701411 0.0289464 0.388434
0.0321965 0.102525 0.388434
0.0898299 0.102525 0.388434
0.207858 0.102525 0.388434
0.370718 0.102525 0.388434
0.520958 0.102525 0.388434
0.624781 0.102525 0.388434
0.677272 0.102525 0.388434
0.695994 0.102525 0.388434
0.701411 0.102525 0.388434
0.0321965 0.222263 0.388434
0.0898299 0.222263 0.388434
0.207858 0.222263 0.388434
0.370718 0.222263 0.388434
0.520958 0.222263 0.388434
0.624781 0.222263 0.388434
0.677272 0.222263 0.388434
0.695994 0.222263 0.388434
0.701411 0.222263 0.388434
0.0321965 0.386969 0.388434
0.0898299 0.386969 0.388434
0.207858 0.386969 0.388434
0.370718 0.386969 0.388434
0.520958 0.386969 0.388434
0.624781 0.386969 0.388434
0.677272 0.386969 0.388434
0.695994 0.386969 0.388434
0.701411 0.386969 0.388434
0.0321965 0.551583 0.388434
0.0898299 0.551583 0.388434
0.207858 0.551583 0.388434
0.370718 0.551583 0.388434
0.520958 0.551583 0.388434
0.624781 0.551583 0.388434
0.677272 0.551583 0.388434
0.695994 0.551583 0.388434
0.701411 0.551583 0.388434
0.0321965 0.663874 0.388434
0.0898299 0.663874 0.388434
0.207858 0.663874 0.388434
0.370718 0.663874 0.388434
0.520958 0.663874 0.388434
0.624781 0.663874 0.388434
0.677272 0.663874 0.388434
0.695994 0.663874 0.388434
0.701411 0.663874 0.388434
0.0321965 0.709545 0.388434
0.0898299 0.709545 0.388434
0.207858 0.709545 0.388434
0.370718 0.709545 0.388434
0.520958 0.709545 0.388434
0.624781 0.709545 0.388434
0.677272 0.709545 0.388434
0.695994 0.709545 0.388434
0.701411 0.709545 0.388434
0.0321965 0.721096 0.388434
0.0898299 0.721096 0.388434
0.207858 0.721096 0.388434
0.370718 0.721096 0.388434
0.520958 0.721096 0.388434
0.624781 0.721096 0.388434
0.677272 0.721096 0.388434
0.695994 0.721096 0.388434
0.701411 0.721096 0.388434
0.0321965 0.723461 0.388434
0.0898299 0.723461 0.388434
0.207858 0.723461 0.388434
0.370718 0.723461 0.388434
0.520958 0.723461 0.388434
0.624781 0.723461 0.388434
0.677272 0.723461 0.388434
0.695994 0.723461 0.388434
0.701411 0.723461 0.388434
0.0321965 0.0289464 0.52314
0.0898299 0.0289464 0.52314
0.207858 0.0289464 0.52314
0.370718 0.0289464 0.52314
0.520958 0.0289464 0.52314
0.624781 0.0289464 0.52314
0.677272 0.0289464 0.52314
0.695994 0.0289464 0.52314
0.701411 0.0289464 0.52314
0.0321965 0.102525 0.52314
0.0898299 0.102525 0.52314
0.207858 0.102525 0.52314
0.370718 0.102525 0.52314
0.520958 0.102525 0.52314
0.624781 0.102525 0.52314
0.677272 0.102525 0.52314
0.695994 0.102525 0.52314
0.701411 0.102525 0.52314
0.0321965 0.222263 0.52314
0.0898299 0.222263 0.52314
0.207858 0.222263 0.52314
0.370718 0.222263 0.52314
0.520958 0.222263 0.52314
0.624781 0.222263 0.52314
0.677272 0.222263 0.52314
0.695994 0.222263 0.52314
0.701411 0.222263 0.52314
0.0321965 0.386969 0.52314
0.0898299 0.386969 0.52314
0.207858 0.386969 0.52314
0.370718 0.386969 0.52314
0.520958 0.386969 0.52314
0.624781 0.386969 0.52314
0.677272 0.386969 0.52314
0.695994 0.386969 0.52314
0.701411 0.386969 0.52314
0.0321965 0.551583 0.52314
0.0898299 0.551583 0.52314
0.207858 0.551583 0.52314
0.370718 0.551583 0.52314
0.520958 0.551583 0.52314
0.624781 0.551583 0.52314
0.677272 0.551583 0.52314
0.695994 0.551583 0.52314
0.701411 0.551583 0.52314
0.0321965 0.663874 0.52314
0.0898299 0.663874 0.52314
0.207858 0.663874 0.52314
0.370718 0.663874 0.52314
0.520958 0.663874 0.52314
0.624781 0.663874 0.52314
0.677272 0.663874 0.52314
0.695994 0.663874 0.52314
0.701411 0.663874 0.52314
0.0321965 0.709545 0.52314
0.0898299 0.709545 0.52314
0.207858 0.709545 0.52314
0.370718 0.709545 0.52314
0.520958 0.709545 0.52314
0.624781 0.709545 0.52314
0.677272 0.709545 0.52314
0.695994 0.709545 0.52314
0.701411 0.709545 0.52314
0.0321965 0.721096 0.52314
0.0898299 0.721096 0.52314
0.207858 0.721096 0.52314
0.370718 0.721096 0.52314
0.520958 0.721096 0.52314
0.624781 0.721096 0.52314
0.677272 0.721096 0.52314
0.695994 0.721096 0.52314
0.701411 0.721096 0.52314
0.0321965 0.723461 0.52314
0.0898299 0.723461 0.52314
0.207858 0.723461 0.52314
0.370718 0.723461 0.52314
0.520958 0.723461 0.52314
0.624781 0.723461 0.52314
0.677272 0.723461 0.52314
0.695994 0.723461 0.52314
0.701411 0.723461 0.52314
0.0321965 0.0289464 0.610864
0.0898299 0.0289464 0.610864
0.207858 0.0289464 0.610864
0.370718 0.0289464 0.610864
0.520958 0.0289464 0.610864
0.624781 0.0289464 0.610864
0.677272 0.0289464 0.610864
0.695994 0.0289464 0.610864
0.701411 0.0289464 0.610864
0.0321965 0.102525 0.610864
0.0898299 0.102525 0.610864
0.207858 0.102525 0.610864
0.370718 0.102525 0.610864
0.520958 0.102525 0.610864
0.624781 0.102525 0.610864
0.677272 0.102525 0.610864
0.695994 0.102525 0.610864
0.701411 0.102525 0.610864
0.0321965 0.222263 0.610864
0.0898299 0.222263 0.610864
0.207858 0.222263 0.610864
0.370718 0.222263 0.610864
0.520958 0.222263 0.610864
0.624781 0.222263 0.610864
0.677272 0.222263 0.610864
0.695994 0.222263 0.610864
0.701411 0.222263 0.610864
0.0321965 0.386969 0.610864
0.0898299 0.386969 0.610864
0.207858 0.386969 0.610864
0.370718 0.386969 0.610864
0.520958 0.386969 0.610864
0.624781 0.386969 0.610864
0.677272 0.386969 0.610864
0.695994 0.386969 0.610864
0.701411 0.386969 0.610864
0.0321965 0.551583 0.610864
0.0898299 0.551583 0.610864
0.207858 0.551583 0.610864
0.370718 0.551583 0.610864
0.520958 0.551583 0.610864
0.624781 0.551583 0.610864
0.677272 0.551583 0.610864
0.695994 0.551583 0.610864
0.701411 0.551583 0.610864
0.0321965 0.663874 0.610864
0.0898299 0.663874 0.610864
0.207858 0.663874 0.610864
0.370718 0.663874 0.610864
0.520958 0.663874 0.610864
0.624781 0.663874 0.610864
0.677272 0.663874 0.610864
0.695994 0.663874 0.610864
0.701411 0.663874 0.610864
0.0321965 0.709545 0.610864
0.0898299 0.709545 0.610864
0.207858 0.709545 0.610864
0.370718 0.709545 0.610864
0.520958 0.709545 0.610864
0.624781 0.709545 0.610864
0.677272 0.709545 0.610864
0.695994 0.709545 0.610864
0.701411 0.709545 0.610864
0.0321965 0.721096 0.610864
0.0898299 0.721096 0.610864
0.207858 0.721096 0.610864
0.370718 0.721096 0.610864
0.520958 0.721096 0.610864
0.624781 0.721096 0.610864
0.677272 0.721096 0.610864
0.695994 0.721096 0.610864
0.701411 0.721096 0.610864
0.0321965 0.723461 0.610864
0.0898299 0.723461 0.610864
0.207858 0.723461 0.610864
0.370718 0.723461 0.610864
0.520958 0.723461 0.610864
0.624781 0.723461 0.610864
0.677272 0.723461 0.610864
0.695994 0.723461 0.610864
0.701411 0.723461 0.610864
0.0321965 0.0289464 0.650294
0.0898299 0.0289464 0.650294
0.207858 0.0289464 0.650294
0.370718 0.0289464 0.650294
0.520958 0.0289464 0.650294
0.624781 0.0289464 0.650294
0.677272 0.0289464 0.650294
0.695994 0.0289464 0.650294
0.701411 0.0289464 0.650294
0.0321965 0.102525 0.650294
0.0898299 0.102525 0.650294
0.207858 0.102525 0.650294
0.370718 0.102525 0.650294
0.520958 0.102525 0.650294
0.624781 0.102525 0.650294
0.677272 0.102525 0.650294
0.695994 0.102525 0.650294
0.701411 0.102525 0.650294
0.0321965 0.222263 0.650294
0.0898299 0.222263 0.650294
0.207858 0.222263 0.650294
0.370718 0.222263 0.650294
0.520958 0.222263 0.650294
0.624781 0.222263 0.650294
0.677272 0.222263 0.650294
0.695994 0.222263 0.650294
0.701411 0.222263 0.650294
0.0321965 0.386969 0.650294
0.0898299 0.386969 0.650294
0.207858 0.386969 0.650294
0.370718 0.386969 0.650294
0.520958 0.386969 0.650294
0.624781 0.386969 0.650294
0.677272 0.386969 0.650294
0.695994 0.386969 0.650294
0.701411 0.386969 0.650294
0.0321965 0.551583 0.650294
0.0898299 0.551583 0.650294
0.207858 0.551583 0.650294
0.370718 0.551583 0.650294
0.520958 0.551583 0.650294
0.624781 0.551583 0.650294
0.677272 0.551583 0.650294
0.695994 0.551583 0.650294
0.701411 0.551583 0.650294
0.0321965 0.663874 0.650294
0.0898299 0.663874 0.650294
0.207858 0.663874 0.650294
0.370718 0.663874 0.650294
0.520958 0.663874 0.650294
0.624781 0.663874 0.650294
0.677272 0.663874 0.650294
0.695994 0.663874 0.650294
0.701411 0.663874 0.650294
0.0321965 0.709545 0.650294
0.0898299 0.709545 0.650294
0.207858 0.709545 0.650294
0.370718 0.709545 0.650294
0.520958 0.709545 0.650294
0.624781 0.709545 0.650294
0.677272 0.709545 0.650294
0.695994 0.709545 0.650294
0.701411 0.709545 0.650294
0.0321965 0.721096 0.650294
0.0898299 0.721096 0.650294
0.207858 0.721096 0.650294
0.370718 0.721096 0.650294
0.520958 0.721096 0.650294
0.624781 0.721096 0.650294
0.677272 0.721096 0.650294
0.695994 0.721096 0.650294
0.701411 0.721096 0.650294
0.0321965 0.723461 0.650294
0.0898299 0.723461 0.650294
0.207858 0.723461 0.650294
0.370718 0.723461 0.650294
0.520958 0.723461 0.650294
0.624781 0.723461 0.650294
0.677272 0.723461 0.650294
0.695994 0.723461 0.650294
0.701411 0.723461 0.650294
0.0321965 0.0289464 0.663096
0.0898299 0.0289464 0.663096
0.207858 0.0289464 0.663096
0.370718 0.0289464 0.663096
0.520958 0.0289464 0.663096
0.624781 0.0289464 0.663096
0.677272 0.0289464 0.663096
0.695994 0.0289464 0.663096
0.701411 0.0289464 0.663096
0.0321965 0.102525 0.663096
0.0898299 0.102525 0.663096
0.207858 0.102525 0.663096
0.370718 0.102525 0.663096
0.520958 0.102525 0.663096
0.624781 0.102525 0.663096
0.677272 0.102525 0.663096
0.695994 0.102525 0.663096
0.701411 0.102525 0.663096
0.0321965 0.222263 0.663096
0.0898299 0.222263 0.663096
0.207858 0.222263 0.663096
0.370718 0.222263 0.663096
0.520958 0.222263 0.663096
0.624781 0.222263 0.663096
0.677272 0.222263 0.663096
0.695994 0.222263 0.663096
0.701411 0.222263 0.663096
0.0321965 0.386969 0.663096
0.0898299 0.386969 0.663096
0.207858 0.386969 0.663096
0.370718 0.386969 0.663096
0.520958 0.386969 0.663096
0.624781 0.386969 0.663096
0.677272 0.386969 0.663096
0.695994 0.386969 0.663096
0.701411 0.386969 0.663096
0.0321965 0.551583 0.663096
0.0898299 0.551583 0.663096
0.207858 0.551583 0.663096
0.370718 0.551583 0.663096
0.520958 0.551583 0.663096
0.624781 0.551583 0.663096
0.677272 0.551583 0.663096
0.695994 0.551583 0.663096
0.701411 0.551583 0.663096
0.0321965 0.663874 0.663096
0.0898299 0.663874 0.663096
0.207858 0.663874 0.663096
0.370718 0.663874 0.663096
0.520958 0.663874 0.663096
0.624781 0.663874 0.663096
0.677272 0.663874 0.663096
0.695994 0.663874 0.663096
0.701411 0.663874 0.663096
0.0321965 0.709545 0.663096
0.0898299 0.709545 0.663096
0.207858 0.709545 0.663096
0.370718 0.709545 0.663096
0.520958 0.709545 0.663096
0.624781 0.709545 0.663096
0.677272 0.709545 0.663096
0.695994 0.709545 0.663096
0.701411 0.709545 0.663096
0.0321965 0.721096 0.663096
0.0898299 0.721096 0.663096
0.207858 0.721096 0.663096
0.370718 0.721096 0.663096
0.520958 0.721096 0.663096
0.624781 0.721096 0.663096
0.677272 0.721096 0.663096
0.695994 0.721096 0.663096
0.701411 0.721096 0.663096
0.0321965 0.723461 0.663096
0.0898299 0.723461 0.663096
0.207858 0.723461 0.663096
0.370718 0.723461 0.663096
0.520958 0.723461 0.663096
0.624781 0.723461 0.663096
0.677272 0.723461 0.663096
0.695994 0.723461 0.663096
0.701411 0.723461 0.663096
0.0321965 0.0289464 0.666636
0.0898299 0.0289464 0.666636
0.207858 0.0289464 0.666636
0.370718 0.0289464 0.666636
0.520958 0.0289464 0.666636
0.624781 0.0289464 0.666636
0.677272 0.0289464 0.666636
0.695994 0.0289464 0.666636
0.701411 0.0289464 0.666636
0.0321965 0.102525 0.666636
0.0898299 0.102525 0.666636
0.207858 0.102525 0.666636
0.370718 0.102525 0.666636
0.520958 0.102525 0.666636
0.624781 0.102525 0.666636
0.677272 0.102525 0.666636
0.695994 0.102525 0.666636
0.701411 0.102525 0.666636
0.0321965 0.222263 0.666636
0.0898299 0.222263 0.666636
0.207858 0.222263 0.666636
0.370718 0.222263 0.666636
0.520958 0.222263 0.666636
0.624781 0.222263 0.666636
0.677272 0.222263 0.666636
0.695994 0.222263 0.666636
0.701411 0.222263 0.666636
0.0321965 0.386969 0.666636
0.0898299 0.386969 0.666636
0.207858 0.386969 0.666636
0.370718 0.386969 0.666636
0.520958 0.386969 0.666636
0.624781 0.386969 0.666636
0.677272 0.386969 0.666636
0.695994 0.386969 0.666636
0.701411 0.386969 0.666636
0.0321965 0.551583 0.666636
0.0898299 0.551583 0.666636
0.207858 0.551583 0.666636
0.370718 0.551583 0.666636
0.520958 0.551583 0.666636
0.624781 0.551583 0.666636
0.677272 0.551583 0.666636
0.695994 0.551583 0.666636
0.701411 0.551583 0.666636
0.0321965 0.663874 0.666636
0.0898299 0.663874 0.666636
0.207858 0.663874 0.666636
0.370718 0.663874 0.666636
0.520958 0.663874 0.666636
0.624781 0.663874 0.666636
0.677272 0.663874 0.666636
0.695994 0.663874 0.666636
0.701411 0.663874 0.666636
0.0321965 0.709545 0.666636
0.0898299 0.709545 0.666636
0.207858 0.709545 0.666636
0.370718 0.709545 0.666636
0.520958 0.709545 0.666636
0.624781 0.709545 0.666636
0.677272 0.709545 0.666636
0.695994 0.709545 0.666636
0.701411 0.709545 0.666636
0.0321965 0.721096 0.666636
0.0898299 0.721096 0.666636
0.207858 0.721096 0.666636
0.370718 0.721096 0.666636
0.520958 0.721096 0.666636
0.624781 0.721096 0.666636
0.677272 0.721096 0.666636
0.695994 0.721096 0.666636
0.701411 0.721096 0.666636
0.0321965 0.723461 0.666636
0.0898299 0.723461 0.666636
0.207858 0.723461 0.666636
0.370718 0.723461 0.666636
0.520958 0.723461 0.666636
0.624781 0.723461 0.666636
0.677272 0.723461 0.666636
0.695994 0.723461 0.666636
0.701411 0.723461 0.666636
