2499DRT/STP-2399Log-BnWX.cube
TITLE "Generated by Resolve"
LUT_3D_SIZE 9
0.0730144 0.0730144 0.0730144
0.0751507 0.0751507 0.0751507
0.0773022 0.0773022 0.0773022
0.079469 0.079469 0.079469
0.081651 0.081651 0.081651
0.0838636 0.0838636 0.0838636
0.0860761 0.0860761 0.0860761
0.0883192 0.0883192 0.0883192
0.0905776 0.0905776 0.0905776
0.107057 0.107057 0.107057
0.109514 0.109514 0.109514
0.112001 0.112001 0.112001
0.114519 0.114519 0.114519
0.117082 0.117082 0.117082
0.119677 0.119677 0.119677
0.122301 0.122301 0.122301
0.124971 0.124971 0.124971
0.127687 0.127687 0.127687
0.148043 0.148043 0.148043
0.151202 0.151202 0.151202
0.154406 0.154406 0.154406
0.157702 0.157702 0.157702
0.161074 0.161074 0.161074
0.164538 0.164538 0.164538
0.168093 0.168093 0.168093
0.171756 0.171756 0.171756
0.175525 0.175525 0.175525
0.205982 0.205982 0.205982
0.211124 0.211124 0.211124
0.216541 0.216541 0.216541
0.222278 0.222278 0.222278
0.228397 0.228397 0.228397
0.234958 0.234958 0.234958
0.242069 0.242069 0.242069
0.249897 0.249897 0.249897
0.258671 0.258671 0.258671
0.33579 0.33579 0.33579
0.346181 0.346181 0.346181
0.356435 0.356435 0.356435
0.366567 0.366567 0.366567
0.376608 0.376608 0.376608
0.386572 0.386572 0.386572
0.396506 0.396506 0.396506
0.406394 0.406394 0.406394
0.416297 0.416297 0.416297
0.487739 0.487739 0.487739
0.498665 0.498665 0.498665
0.509865 0.509865 0.509865
0.520912 0.520912 0.520912
0.531533 0.531533 0.531533
0.54168 0.54168 0.54168
0.551354 0.551354 0.551354
0.560601 0.560601 0.560601
0.569436 0.569436 0.569436
0.621851 0.621851 0.621851
0.628275 0.628275 0.628275
0.634485 0.634485 0.634485
0.640513 0.640513 0.640513
0.646342 0.646342 0.646342
0.652018 0.652018 0.652018
0.657526 0.657526 0.657526
0.662898 0.662898 0.662898
0.668132 0.668132 0.668132
0.701534 0.701534 0.701534
0.705928 0.705928 0.705928
0.710246 0.710246 0.710246
0.714488 0.714488 0.714488
0.718654 0.718654 0.718654
0.722759 0.722759 0.722759
0.726802 0.726802 0.726802
0.730785 0.730785 0.730785
0.734722 0.734722 0.734722
0.760891 0.760891 0.760891
0.764477 0.764477 0.764477
0.768032 0.768032 0.768032
0.771542 0.771542 0.771542
0.775036 0.775036 0.775036
0.778485 0.778485 0.778485
0.781918 0.781918 0.781918
0.785336 0.785336 0.785336
0.788724 0.788724 0.788724
0.0928664 0.0928664 0.0928664
0.0951705 0.0951705 0.0951705
0.0974899 0.0974899 0.0974899
0.0998398 0.0998398 0.0998398
0.10222 0.10222 0.10222
0.104616 0.104616 0.104616
0.107057 0.107057 0.107057
0.109514 0.109514 0.109514
0.112001 0.112001 0.112001
0.130434 0.130434 0.130434
0.133242 0.133242 0.133242
0.13608 0.13608 0.13608
0.138994 0.138994 0.138994
0.141955 0.141955 0.141955
0.144961 0.144961 0.144961
0.148043 0.148043 0.148043
0.151186 0.151186 0.151186
0.154406 0.154406 0.154406
0.179416 0.179416 0.179416
0.183429 0.183429 0.183429
0.187579 0.187579 0.187579
0.191897 0.191897 0.191897
0.196384 0.196384 0.196384
0.201068 0.201068 0.201068
0.205966 0.205966 0.205966
0.211109 0.211109 0.211109
0.216541 0.216541 0.216541
0.269047 0.269047 0.269047
0.280858 0.280858 0.280858
0.292348 0.292348 0.292348
0.303548 0.303548 0.303548
0.314504 0.314504 0.314504
0.325231 0.325231 0.325231
0.33579 0.33579 0.33579
0.346166 0.346166 0.346166
0.35642 0.35642 0.35642
0.4262 0.4262 0.4262
0.436164 0.436164 0.436164
0.446204 0.446204 0.446204
0.456336 0.456336 0.456336
0.466621 0.466621 0.466621
0.477073 0.477073 0.477073
0.487724 0.487724 0.487724
0.49865 0.49865 0.49865
0.509865 0.509865 0.509865
0.577859 0.577859 0.577859
0.585946 0.585946 0.585946
0.593698 0.593698 0.593698
0.601129 0.601129 0.601129
0.608301 0.608301 0.608301
0.615183 0.615183 0.615183
0.621836 0.621836 0.621836
0.62826 0.62826 0.62826
0.634485 0.634485 0.634485
0.673228 0.673228 0.673228
0.678203 0.678203 0.678203
0.68307 0.68307 0.68307
0.687831 0.687831 0.687831
0.692485 0.692485 0.692485
0.697063 0.697063 0.697063
0.701534 0.701534 0.701534
0.705928 0.705928 0.705928
0.710246 0.710246 0.710246
0.738598 0.738598 0.738598
0.742412 0.742412 0.742412
0.746197 0.746197 0.746197
0.749935 0.749935 0.749935
0.753628 0.753628 0.753628
0.757275 0.757275 0.757275
0.760891 0.760891 0.760891
0.764477 0.764477 0.764477
0.768017 0.768017 0.768017
0.792096 0.792096 0.792096
0.795438 0.795438 0.795438
0.798779 0.798779 0.798779
0.80209 0.80209 0.80209
0.805386 0.805386 0.805386
0.808682 0.808682 0.808682
0.811963 0.811963 0.811963
0.815229 0.815229 0.815229
0.818494 0.818494 0.818494
0.114519 0.114519 0.114519
0.117082 0.117082 0.117082
0.119677 0.119677 0.119677
0.122301 0.122301 0.122301
0.124971 0.124971 0.124971
0.127687 0.127687 0.127687
0.130434 0.130434 0.130434
0.133242 0.133242 0.133242
0.136095 0.136095 0.136095
0.157702 0.157702 0.157702
0.161074 0.161074 0.161074
0.164538 0.164538 0.164538
0.168093 0.168093 0.168093
0.171756 0.171756 0.171756
0.175525 0.175525 0.175525
0.1794 0.1794 0.1794
0.183429 0.183429 0.183429
0.187579 0.187579 0.187579
0.222278 0.222278 0.222278
0.228397 0.228397 0.228397
0.234958 0.234958 0.234958
0.242069 0.242069 0.242069
0.249882 0.249882 0.249882
0.258656 0.258656 0.258656
0.269047 0.269047 0.269047
0.280858 0.280858 0.280858
0.292348 0.292348 0.292348
0.366552 0.366552 0.366552
0.376593 0.376593 0.376593
0.386572 0.386572 0.386572
0.39649 0.39649 0.39649
0.406394 0.406394 0.406394
0.416281 0.416281 0.416281
0.4262 0.4262 0.4262
0.436164 0.436164 0.436164
0.446204 0.446204 0.446204
0.520897 0.520897 0.520897
0.531518 0.531518 0.531518
0.541665 0.541665 0.541665
0.551354 0.551354 0.551354
0.560586 0.560586 0.560586
0.569421 0.569421 0.569421
0.577859 0.577859 0.577859
0.585946 0.585946 0.585946
0.593698 0.593698 0.593698
0.640497 0.640497 0.640497
0.646342 0.646342 0.646342
0.652018 0.652018 0.652018
0.657526 0.657526 0.657526
0.662898 0.662898 0.662898
0.668116 0.668116 0.668116
0.673228 0.673228 0.673228
0.678203 0.678203 0.678203
0.68307 0.68307 0.68307
0.714488 0.714488 0.714488
0.718654 0.718654 0.718654
0.722759 0.722759 0.722759
0.726802 0.726802 0.726802
0.730785 0.730785 0.730785
0.734722 0.734722 0.734722
0.738598 0.738598 0.738598
0.742412 0.742412 0.742412
0.746197 0.746197 0.746197
0.771542 0.771542 0.771542
0.775021 0.775021 0.775021
0.778485 0.778485 0.778485
0.781918 0.781918 0.781918
0.785336 0.785336 0.785336
0.788724 0.788724 0.788724
0.792096 0.792096 0.792096
0.795438 0.795438 0.795438
0.798779 0.798779 0.798779
0.821744 0.821744 0.821744
0.824979 0.824979 0.824979
0.828229 0.828229 0.828229
0.831464 0.831464 0.831464
0.834699 0.834699 0.834699
0.837934 0.837934 0.837934
0.841169 0.841169 0.841169
0.844404 0.844404 0.844404
0.847639 0.847639 0.847639
0.138994 0.138994 0.138994
0.141955 0.141955 0.141955
0.144976 0.144976 0.144976
0.148058 0.148058 0.148058
0.151202 0.151202 0.151202
0.154421 0.154421 0.154421
0.157702 0.157702 0.157702
0.161089 0.161089 0.161089
0.164538 0.164538 0.164538
0.191897 0.191897 0.191897
0.196384 0.196384 0.196384
0.201068 0.201068 0.201068
0.205966 0.205966 0.205966
0.211109 0.211109 0.211109
0.216541 0.216541 0.216541
0.222278 0.222278 0.222278
0.228397 0.228397 0.228397
0.234958 0.234958 0.234958
0.303548 0.303548 0.303548
0.314504 0.314504 0.314504
0.325231 0.325231 0.325231
0.33579 0.33579 0.33579
0.346166 0.346166 0.346166
0.35642 0.35642 0.35642
0.366552 0.366552 0.366552
0.376593 0.376593 0.376593
0.386572 0.386572 0.386572
0.456352 0.456352 0.456352
0.466621 0.466621 0.466621
0.477073 0.477073 0.477073
0.487724 0.487724 0.487724
0.49865 0.49865 0.49865
0.509865 0.509865 0.509865
0.520897 0.520897 0.520897
0.531518 0.531518 0.531518
0.541665 0.541665 0.541665
0.601144 0.601144 0.601144
0.608301 0.608301 0.608301
0.615183 0.615183 0.615183
0.621836 0.621836 0.621836
0.62826 0.62826 0.62826
0.634485 0.634485 0.634485
0.640497 0.640497 0.640497
0.646342 0.646342 0.646342
0.652018 0.652018 0.652018
0.687831 0.687831 0.687831
0.692485 0.692485 0.692485
0.697063 0.697063 0.697063
0.701534 0.701534 0.701534
0.705928 0.705928 0.705928
0.710246 0.710246 0.710246
0.714488 0.714488 0.714488
0.718654 0.718654 0.718654
0.722759 0.722759 0.722759
0.749935 0.749935 0.749935
0.753628 0.753628 0.753628
0.757275 0.757275 0.757275
0.760891 0.760891 0.760891
0.764477 0.764477 0.764477
0.768017 0.768017 0.768017
0.771542 0.771542 0.771542
0.775021 0.775021 0.775021
0.778485 0.778485 0.778485
0.80209 0.80209 0.80209
0.805386 0.805386 0.805386
0.808682 0.808682 0.808682
0.811963 0.811963 0.811963
0.815229 0.815229 0.815229
0.818494 0.818494 0.818494
0.821744 0.821744 0.821744
0.824979 0.824979 0.824979
0.828229 0.828229 0.828229
0.850889 0.850889 0.850889
0.854139 0.854139 0.854139
0.857389 0.857389 0.857389
0.860655 0.860655 0.860655
0.863935 0.863935 0.863935
0.867216 0.867216 0.867216
0.870512 0.870512 0.870512
0.873838 0.873838 0.873838
0.877165 0.877165 0.877165
0.168109 0.168109 0.168109
0.171756 0.171756 0.171756
0.175525 0.175525 0.175525
0.179416 0.179416 0.179416
0.183429 0.183429 0.183429
0.187594 0.187594 0.187594
0.191913 0.191913 0.191913
0.196399 0.196399 0.196399
0.201083 0.201083 0.201083
0.242069 0.242069 0.242069
0.249882 0.249882 0.249882
0.258656 0.258656 0.258656
0.269047 0.269047 0.269047
0.280858 0.280858 0.280858
0.292348 0.292348 0.292348
0.303548 0.303548 0.303548
0.314504 0.314504 0.314504
0.325231 0.325231 0.325231
0.39649 0.39649 0.39649
0.406394 0.406394 0.406394
0.416281 0.416281 0.416281
0.4262 0.4262 0.4262
0.436164 0.436164 0.436164
0.446204 0.446204 0.446204
0.456336 0.456336 0.456336
0.466621 0.466621 0.466621
0.477073 0.477073 0.477073
0.551354 0.551354 0.551354
0.560586 0.560586 0.560586
0.569421 0.569421 0.569421
0.577859 0.577859 0.577859
0.585946 0.585946 0.585946
0.593698 0.593698 0.593698
0.601129 0.601129 0.601129
0.608301 0.608301 0.608301
0.615183 0.615183 0.615183
0.657526 0.657526 0.657526
0.662898 0.662898 0.662898
0.668116 0.668116 0.668116
0.673228 0.673228 0.673228
0.678203 0.678203 0.678203
0.68307 0.68307 0.68307
0.687831 0.687831 0.687831
0.692485 0.692485 0.692485
0.697063 0.697063 0.697063
0.726802 0.726802 0.726802
0.730785 0.730785 0.730785
0.734722 0.734722 0.734722
0.738598 0.738598 0.738598
0.742412 0.742412 0.742412
0.746197 0.746197 0.746197
0.749935 0.749935 0.749935
0.753628 0.753628 0.753628
0.757275 0.757275 0.757275
0.781918 0.781918 0.781918
0.785336 0.785336 0.785336
0.788724 0.788724 0.788724
0.792096 0.792096 0.792096
0.795438 0.795438 0.795438
0.798779 0.798779 0.798779
0.80209 0.80209 0.80209
0.805386 0.805386 0.805386
0.808682 0.808682 0.808682
0.831464 0.831464 0.831464
0.834699 0.834699 0.834699
0.837934 0.837934 0.837934
0.841169 0.841169 0.841169
0.844404 0.844404 0.844404
0.847639 0.847639 0.847639
0.850889 0.850889 0.850889
0.854139 0.854139 0.854139
0.857389 0.857389 0.857389
0.880507 0.880507 0.880507
0.883879 0.883879 0.883879
0.887266 0.887266 0.887266
0.890684 0.890684 0.890684
0.894118 0.894118 0.894118
0.897581 0.897581 0.897581
0.901076 0.901076 0.901076
0.904601 0.904601 0.904601
0.908171 0.908171 0.908171
0.205982 0.205982 0.205982
0.211124 0.211124 0.211124
0.216541 0.216541 0.216541
0.222278 0.222278 0.222278
0.228397 0.228397 0.228397
0.234974 0.234974 0.234974
0.242084 0.242084 0.242084
0.249897 0.249897 0.249897
0.258671 0.258671 0.258671
0.33579 0.33579 0.33579
0.346166 0.346166 0.346166
0.35642 0.35642 0.35642
0.366552 0.366552 0.366552
0.376593 0.376593 0.376593
0.386572 0.386572 0.386572
0.39649 0.39649 0.39649
0.406394 0.406394 0.406394
0.416281 0.416281 0.416281
0.487724 0.487724 0.487724
0.49865 0.49865 0.49865
0.509865 0.509865 0.509865
0.520897 0.520897 0.520897
0.531518 0.531518 0.531518
0.541665 0.541665 0.541665
0.551354 0.551354 0.551354
0.560586 0.560586 0.560586
0.569421 0.569421 0.569421
0.621836 0.621836 0.621836
0.62826 0.62826 0.62826
0.634485 0.634485 0.634485
0.640497 0.640497 0.640497
0.646342 0.646342 0.646342
0.652018 0.652018 0.652018
0.657526 0.657526 0.657526
0.662898 0.662898 0.662898
0.668116 0.668116 0.668116
0.701534 0.701534 0.701534
0.705928 0.705928 0.705928
0.710246 0.710246 0.710246
0.714488 0.714488 0.714488
0.718654 0.718654 0.718654
0.722759 0.722759 0.722759
0.726802 0.726802 0.726802
0.730785 0.730785 0.730785
0.734722 0.734722 0.734722
0.760891 0.760891 0.760891
0.764477 0.764477 0.764477
0.768017 0.768017 0.768017
0.771542 0.771542 0.771542
0.775021 0.775021 0.775021
0.778485 0.778485 0.778485
0.781918 0.781918 0.781918
0.785336 0.785336 0.785336
0.788724 0.788724 0.788724
0.811963 0.811963 0.811963
0.815229 0.815229 0.815229
0.818494 0.818494 0.818494
0.821744 0.821744 0.821744
0.824979 0.824979 0.824979
0.828229 0.828229 0.828229
0.831464 0.831464 0.831464
0.834699 0.834699 0.834699
0.837934 0.837934 0.837934
0.860655 0.860655 0.860655
0.863935 0.863935 0.863935
0.867216 0.867216 0.867216
0.870512 0.870512 0.870512
0.873838 0.873838 0.873838
0.877165 0.877165 0.877165
0.880507 0.880507 0.880507
0.883879 0.883879 0.883879
0.887266 0.887266 0.887266
0.911757 0.911757 0.911757
0.915389 0.915389 0.915389
0.919066 0.919066 0.919066
0.922789 0.922789 0.922789
0.926558 0.926558 0.926558
0.930373 0.930373 0.930373
0.934234 0.934234 0.934234
0.93817 0.93817 0.93817
0.942153 0.942153 0.942153
0.269078 0.269078 0.269078
0.280888 0.280888 0.280888
0.292363 0.292363 0.292363
0.303563 0.303563 0.303563
0.314519 0.314519 0.314519
0.325261 0.325261 0.325261
0.335805 0.335805 0.335805
0.346181 0.346181 0.346181
0.356435 0.356435 0.356435
0.4262 0.4262 0.4262
0.436164 0.436164 0.436164
0.446204 0.446204 0.446204
0.456336 0.456336 0.456336
0.466621 0.466621 0.466621
0.477073 0.477073 0.477073
0.487724 0.487724 0.487724
0.49865 0.49865 0.49865
0.509865 0.509865 0.509865
0.577859 0.577859 0.577859
0.585946 0.585946 0.585946
0.593698 0.593698 0.593698
0.601129 0.601129 0.601129
0.608301 0.608301 0.608301
0.615183 0.615183 0.615183
0.621836 0.621836 0.621836
0.62826 0.62826 0.62826
0.634485 0.634485 0.634485
0.673228 0.673228 0.673228
0.678203 0.678203 0.678203
0.68307 0.68307 0.68307
0.687831 0.687831 0.687831
0.692485 0.692485 0.692485
0.697063 0.697063 0.697063
0.701534 0.701534 0.701534
0.705928 0.705928 0.705928
0.710246 0.710246 0.710246
0.738598 0.738598 0.738598
0.742412 0.742412 0.742412
0.746197 0.746197 0.746197
0.749935 0.749935 0.749935
0.753628 0.753628 0.753628
0.757275 0.757275 0.757275
0.760891 0.760891 0.760891
0.764477 0.764477 0.764477
0.768017 0.768017 0.768017
0.792096 0.792096 0.792096
0.795438 0.795438 0.795438
0.798779 0.798779 0.798779
0.80209 0.80209 0.80209
0.805386 0.805386 0.805386
0.808682 0.808682 0.808682
0.811963 0.811963 0.811963
0.815229 0.815229 0.815229
0.818494 0.818494 0.818494
0.841169 0.841169 0.841169
0.844404 0.844404 0.844404
0.847639 0.847639 0.847639
0.850889 0.850889 0.850889
0.854139 0.854139 0.854139
0.857389 0.857389 0.857389
0.860655 0.860655 0.860655
0.863935 0.863935 0.863935
0.867216 0.867216 0.867216
0.890684 0.890684 0.890684
0.894118 0.894118 0.894118
0.897581 0.897581 0.897581
0.901076 0.901076 0.901076
0.904601 0.904601 0.904601
0.908171 0.908171 0.908171
0.911757 0.911757 0.911757
0.915389 0.915389 0.915389
0.919066 0.919066 0.919066
0.946212 0.946212 0.946212
0.950332 0.950332 0.950332
0.954528 0.954528 0.954528
0.958816 0.958816 0.958816
0.96318 0.96318 0.96318
0.967636 0.967636 0.967636
0.972198 0.972198 0.972198
0.976867 0.976867 0.976867
0.981643 0.981643 0.981643
0.366567 0.366567 0.366567
0.376608 0.376608 0.376608
0.386587 0.386587 0.386587
0.396506 0.396506 0.396506
0.406409 0.406409 0.406409
0.416297 0.416297 0.416297
0.426215 0.426215 0.426215
0.436179 0.436179 0.436179
0.44622 0.44622 0.44622
0.520897 0.520897 0.520897
0.531518 0.531518 0.531518
0.541665 0.541665 0.541665
0.551354 0.551354 0.551354
0.560586 0.560586 0.560586
0.569421 0.569421 0.569421
0.577859 0.577859 0.577859
0.585946 0.585946 0.585946
0.593698 0.593698 0.593698
0.640497 0.640497 0.640497
0.646342 0.646342 0.646342
0.652018 0.652018 0.652018
0.657526 0.657526 0.657526
0.662898 0.662898 0.662898
0.668116 0.668116 0.668116
0.673228 0.673228 0.673228
0.678203 0.678203 0.678203
0.68307 0.68307 0.68307
0.714488 0.714488 0.714488
0.718654 0.718654 0.718654
0.722759 0.722759 0.722759
0.726802 0.726802 0.726802
0.730785 0.730785 0.730785
0.734722 0.734722 0.734722
0.738598 0.738598 0.738598
0.742412 0.742412 0.742412
0.746197 0.746197 0.746197
0.771542 0.771542 0.771542
0.775021 0.775021 0.775021
0.778485 0.778485 0.778485
0.781918 0.781918 0.781918
0.785336 0.785336 0.785336
0.788724 0.788724 0.788724
0.792096 0.792096 0.792096
0.795438 0.795438 0.795438
0.798779 0.798779 0.798779
0.821744 0.821744 0.821744
0.824979 0.824979 0.824979
0.828229 0.828229 0.828229
0.831464 0.831464 0.831464
0.834699 0.834699 0.834699
0.837934 0.837934 0.837934
0.841169 0.841169 0.841169
0.844404 0.844404 0.844404
0.847639 0.847639 0.847639
0.870512 0.870512 0.870512
0.873838 0.873838 0.873838
0.877165 0.877165 0.877165
0.880507 0.880507 0.880507
0.883879 0.883879 0.883879
0.887266 0.887266 0.887266
0.890684 0.890684 0.890684
0.894118 0.894118 0.894118
0.897581 0.897581 0.897581
0.922789 0.922789 0.922789
0.926558 0.926558 0.926558
0.930373 0.930373 0.930373
0.934234 0.934234 0.934234
0.93817 0.93817 0.93817
0.942153 0.942153 0.942153
0.946212 0.946212 0.946212
0.950332 0.950332 0.950332
0.954528 0.954528 0.954528
0.986557 0.986557 0.986557
0.991592 0.991592 0.991592
0.99678 0.99678 0.99678
1 1 1
1 1 1
1 1 1
1 1 1
1 1 1
1 1 1
0.456367 0.456367 0.456367
0.466636 0.466636 0.466636
0.477089 0.477089 0.477089
0.487755 0.487755 0.487755
0.498665 0.498665 0.498665
0.50988 0.50988 0.50988
0.520928 0.520928 0.520928
0.531533 0.531533 0.531533
0.54168 0.54168 0.54168
0.601144 0.601144 0.601144
0.608301 0.608301 0.608301
0.615183 0.615183 0.615183
0.621836 0.621836 0.621836
0.62826 0.62826 0.62826
0.634485 0.634485 0.634485
0.640497 0.640497 0.640497
0.646342 0.646342 0.646342
0.652018 0.652018 0.652018
0.687831 0.687831 0.687831
0.692485 0.692485 0.692485
0.697063 0.697063 0.697063
0.701534 0.701534 0.701534
0.705928 0.705928 0.705928
0.710246 0.710246 0.710246
0.714488 0.714488 0.714488
0.718654 0.718654 0.718654
0.722759 0.722759 0.722759
0.749935 0.749935 0.749935
0.753628 0.753628 0.753628
0.757275 0.757275 0.757275
0.760891 0.760891 0.760891
0.764477 0.764477 0.764477
0.768017 0.768017 0.768017
0.771542 0.771542 0.771542
0.775021 0.775021 0.775021
0.778485 0.778485 0.778485
0.80209 0.80209 0.80209
0.805386 0.805386 0.805386
0.808682 0.808682 0.808682
0.811963 0.811963 0.811963
0.815229 0.815229 0.815229
0.818494 0.818494 0.818494
0.821744 0.821744 0.821744
0.824979 0.824979 0.824979
0.828229 0.828229 0.828229
0.850889 0.850889 0.850889
0.854139 0.854139 0.854139
0.857389 0.857389 0.857389
0.860655 0.860655 0.860655
0.863935 0.863935 0.863935
0.867216 0.867216 0.867216
0.870512 0.870512 0.870512
0.873838 0.873838 0.873838
0.877165 0.877165 0.877165
0.901076 0.901076 0.901076
0.904601 0.904601 0.904601
0.908171 0.908171 0.908171
0.911757 0.911757 0.911757
0.915389 0.915389 0.915389
0.919066 0.919066 0.919066
0.922789 0.922789 0.922789
0.926558 0.926558 0.926558
0.930373 0.930373 0.930373
0.958816 0.958816 0.958816
0.96318 0.96318 0.96318
0.967636 0.967636 0.967636
0.972198 0.972198 0.972198
0.976867 0.976867 0.976867
0.981643 0.981643 0.981643
0.986557 0.986557 0.986557
0.991592 0.991592 0.991592
0.99678 0.99678 0.99678
1 1 1
1 1 1
1 1 1
1 1 1
1 1 1
1 1 1
1 1 1
1 1 1
1 1 1
