2499DRT/STP-2399Log-ClassicReversal.cube
TITLE "Generated by Resolve"
LUT_3D_SIZE 5
0.0621042 0.0381476 0.0262913
0.202747 0.0381476 0.0262913
0.44799 0.0381476 0.0262913
0.637629 0.0381476 0.0262913
0.798932 0.0381476 0.0262913
0.0621042 0.214343 0.0262913
0.202747 0.214343 0.0262913
0.44799 0.214343 0.0262913
0.637629 0.214343 0.0262913
0.798947 0.214343 0.0262913
0.0621042 0.492485 0.0262913
0.202747 0.492485 0.0262913
0.44799 0.492485 0.0262913
0.637629 0.492485 0.0262913
0.798947 0.492485 0.0262913
0.0621042 0.661662 0.0262913
0.202747 0.661662 0.0262913
0.44799 0.661662 0.0262913
0.637629 0.661662 0.0262913
0.798947 0.661662 0.0262913
0.0621042 0.733669 0.0262913
0.202747 0.733669 0.0262913
0.44799 0.733669 0.0262913
0.637629 0.733669 0.0262913
0.798947 0.733669 0.0262913
0.0621042 0.0381476 0.236194
0.202747 0.0381476 0.236194
0.44799 0.0381476 0.236194
0.637629 0.0381476 0.236194
0.798947 0.0381476 0.236194
0.0621042 0.214343 0.236194
0.202747 0.214343 0.236194
0.44799 0.214343 0.236194
0.637629 0.214343 0.236194
0.798947 0.214343 0.236194
0.0621042 0.492485 0.236194
0.202747 0.492485 0.236194
0.44799 0.492485 0.236194
0.637629 0.492485 0.236194
0.798947 0.492485 0.236194
0.0621042 0.661662 0.236194
0.202747 0.661662 0.236194
0.44799 0.661662 0.236194
0.637629 0.661662 0.236194
0.798947 0.661662 0.236194
0.0621042 0.733669 0.236194
0.202747 0.733669 0.236194
0.44799 0.733669 0.236194
0.637629 0.733669 0.236194
0.798947 0.733669 0.236194
0.0621042 0.0381476 0.514733
0.202747 0.0381476 0.514733
0.44799 0.0381476 0.514733
0.637629 0.0381476 0.514733
0.798947 0.0381476 0.514733
0.0621042 0.214343 0.514733
0.202747 0.214343 0.514733
0.44799 0.214343 0.514733
0.637629 0.214343 0.514733
0.798947 0.214343 0.514733
0.0621042 0.492485 0.514733
0.202747 0.492485 0.514733
0.44799 0.492485 0.514733
0.637629 0.492485 0.514733
0.798947 0.492485 0.514733
0.0621042 0.661662 0.514733
0.202747 0.661662 0.514733
0.44799 0.661662 0.514733
0.637629 0.661662 0.514733
0.798947 0.661662 0.514733
0.0621042 0.733669 0.514733
0.202747 0.733669 0.514733
0.44799 0.733669 0.514733
0.637629 0.733669 0.514733
0.798947 0.733669 0.514733
0.0621042 0.0381476 0.638773
0.202747 0.0381476 0.638773
0.44799 0.0381476 0.638773
0.637629 0.0381476 0.638773
0.798947 0.0381476 0.638773
0.0621042 0.214343 0.638773
0.202747 0.214343 0.638773
0.44799 0.214343 0.638773
0.637629 0.214343 0.638773
0.798947 0.214343 0.638773
0.0621042 0.492485 0.638773
0.202747 0.492485 0.638773
0.44799 0.492485 0.638773
0.637629 0.492485 0.638773
0.798947 0.492485 0.638773
0.0621042 0.661662 0.638773
0.202747 0.661662 0.638773
0.44799 0.661662 0.638773
0.637629 0.661662 0.638773
0.798947 0.661662 0.638773
0.0621042 0.733669 0.638773
0.202747 0.733669 0.638773
0.44799 0.733669 0.638773
0.637629 0.733669 0.638773
0.798947 0.733669 0.638773
0.0621042 0.0381476 0.663417
0.202747 0.0381476 0.663417
0.44799 0.0381476 0.663417
0.637629 0.0381476 0.663417
0.798947 0.0381476 0.663417
0.0621042 0.214343 0.663417
0.202747 0.214343 0.663417
0.44799 0.214343 0.663417
0.637629 0.214343 0.663417
0.798947 0.214343 0.663417
0.0621042 0.492485 0.663417
0.202747 0.492485 0.663417
0.44799 0.492485 0.663417
0.637629 0.492485 0.663417
0.798947 0.492485 0.663417
0.0621042 0.661662 0.663417
0.202747 0.661662 0.663417
0.44799 0.661662 0.663417
0.637629 0.661662 0.663417
0.798947 0.661662 0.663417
0.0621042 0.733669 0.663417
0.202747 0.733669 0.663417
0.44799 0.733669 0.663417
0.637629 0.733669 0.663417
0.798947 0.733669 0.663417
