2499DRT/STP-2399Log-ClassicNegative.cube
TITLE "Generated by Resolve"
LUT_3D_SIZE 5
0 0 0
0.23444 0 0
0.522683 0 0
0.810361 0 0
1 0 0
0 0.241413 0
0.23444 0.241413 0
0.522683 0.241413 0
0.810361 0.241413 0
1 0.241413 0
0 0.506767 0
0.23444 0.506767 0
0.522683 0.506767 0
0.810361 0.506767 0
1 0.506767 0
0 0.770733 0
0.23444 0.770733 0
0.522683 0.770733 0
0.810361 0.770733 0
1 0.770733 0
0 1 0
0.23444 1 0
0.522683 1 0
0.810361 1 0
1 1 0
0 0 0.228824
0.23444 0 0.228824
0.522683 0 0.228824
0.810361 0 0.228824
1 0 0.228824
0 0.241413 0.228824
0.23444 0.241413 0.228824
0.522683 0.241413 0.228824
0.810361 0.241413 0.228824
1 0.241413 0.228824
0 0.506767 0.228824
0.23444 0.506767 0.228824
0.522683 0.506767 0.228824
0.810361 0.506767 0.228824
1 0.506767 0.228824
0 0.770733 0.228824
0.23444 0.770733 0.228824
0.522683 0.770733 0.228824
0.810361 0.770733 0.228824
1 0.770733 0.228824
0 1 0.228824
0.23444 1 0.228824
0.522683 1 0.228824
0.810361 1 0.228824
1 1 0.228824
0 0 0.536171
0.23444 0 0.536171
0.522683 0 0.536171
0.810361 0 0.536171
1 0 0.536171
0 0.241413 0.536171
0.23444 0.241413 0.536171
0.522683 0.241413 0.536171
0.810361 0.241413 0.536171
1 0.241413 0.536171
0 0.506767 0.536171
0.23444 0.506767 0.536171
0.522683 0.506767 0.536171
0.810361 0.506767 0.536171
1 0.506767 0.536171
0 0.770733 0.536171
0.23444 0.770733 0.536171
0.522683 0.770733 0.536171
0.810361 0.770733 0.536171
1 0.770733 0.536171
0 1 0.536171
0.23444 1 0.536171
0.522683 1 0.536171
0.810361 1 0.536171
1 1 0.536171
0 0 0.858442
0.23444 0 0.858442
0.522683 0 0.858442
0.810361 0 0.858442
1 0 0.858442
0 0.241413 0.858442
0.23444 0.241413 0.858442
0.522683 0.241413 0.858442
0.810361 0.241413 0.858442
1 0.241413 0.858442
0 0.506767 0.858442
0.23444 0.506767 0.858442
0.522683 0.506767 0.858442
0.810361 0.506767 0.858442
1 0.506767 0.858442
0 0.770733 0.858442
0.23444 0.770733 0.858442
0.522683 0.770733 0.858442
0.810361 0.770733 0.858442
1 0.770733 0.858442
0 1 0.858442
0.23444 1 0.858442
0.522683 1 0.858442
0.810361 1 0.858442
1 1 0.858442
0 0 1
0.23444 0 1
0.522683 0 1
0.810361 0 1
1 0 1
0 0.241413 1
0.23444 0.241413 1
0.522683 0.241413 1
0.810361 0.241413 1
1 0.241413 1
0 0.506767 1
0.23444 0.506767 1
0.522683 0.506767 1
0.810361 0.506767 1
1 0.506767 1
0 0.770733 1
0.23444 0.770733 1
0.522683 0.770733 1
0.810361 0.770733 1
1 0.770733 1
0 1 1
0.23444 1 1
0.522683 1 1
0.810361 1 1
1 1 1
