2499DRT/STP-2399Log-BnWX.cube
TITLE "Generated by Resolve"
LUT_3D_SIZE 33
0.0730144 0.0730144 0.0730144
0.0735485 0.0735485 0.0735485
0.0740826 0.0740826 0.0740826
0.0746166 0.0746166 0.0746166
0.0751507 0.0751507 0.0751507
0.0756847 0.0756847 0.0756847
0.0762341 0.0762341 0.0762341
0.0767681 0.0767681 0.0767681
0.0773022 0.0773022 0.0773022
0.0778515 0.0778515 0.0778515
0.0783856 0.0783856 0.0783856
0.0789349 0.0789349 0.0789349
0.079469 0.079469 0.079469
0.0800183 0.0800183 0.0800183
0.0805676 0.0805676 0.0805676
0.081117 0.081117 0.081117
0.081651 0.081651 0.081651
0.0822003 0.0822003 0.0822003
0.0827649 0.0827649 0.0827649
0.0833143 0.0833143 0.0833143
0.0838636 0.0838636 0.0838636
0.0844129 0.0844129 0.0844129
0.0849622 0.0849622 0.0849622
0.0855268 0.0855268 0.0855268
0.0860761 0.0860761 0.0860761
0.0866407 0.0866407 0.0866407
0.0872053 0.0872053 0.0872053
0.0877546 0.0877546 0.0877546
0.0883192 0.0883192 0.0883192
0.0888838 0.0888838 0.0888838
0.0894484 0.0894484 0.0894484
0.090013 0.090013 0.090013
0.0905776 0.0905776 0.0905776
0.0811017 0.0811017 0.0811017
0.081651 0.081651 0.081651
0.0822003 0.0822003 0.0822003
0.0827497 0.0827497 0.0827497
0.083299 0.083299 0.083299
0.0838636 0.0838636 0.0838636
0.0844129 0.0844129 0.0844129
0.0849622 0.0849622 0.0849622
0.0855268 0.0855268 0.0855268
0.0860761 0.0860761 0.0860761
0.0866407 0.0866407 0.0866407
0.0871901 0.0871901 0.0871901
0.0877546 0.0877546 0.0877546
0.0883192 0.0883192 0.0883192
0.0888838 0.0888838 0.0888838
0.0894484 0.0894484 0.0894484
0.090013 0.090013 0.090013
0.0905776 0.0905776 0.0905776
0.0911421 0.0911421 0.0911421
0.091722 0.091722 0.091722
0.0922866 0.0922866 0.0922866
0.0928664 0.0928664 0.0928664
0.093431 0.093431 0.093431
0.0940108 0.0940108 0.0940108
0.0945907 0.0945907 0.0945907
0.0951553 0.0951553 0.0951553
0.0957351 0.0957351 0.0957351
0.0963302 0.0963302 0.0963302
0.09691 0.09691 0.09691
0.0974899 0.0974899 0.0974899
0.0980697 0.0980697 0.0980697
0.0986648 0.0986648 0.0986648
0.0992447 0.0992447 0.0992447
0.0894484 0.0894484 0.0894484
0.090013 0.090013 0.090013
0.0905776 0.0905776 0.0905776
0.0911421 0.0911421 0.0911421
0.091722 0.091722 0.091722
0.0922866 0.0922866 0.0922866
0.0928664 0.0928664 0.0928664
0.093431 0.093431 0.093431
0.0940108 0.0940108 0.0940108
0.0945907 0.0945907 0.0945907
0.0951553 0.0951553 0.0951553
0.0957351 0.0957351 0.0957351
0.0963302 0.0963302 0.0963302
0.09691 0.09691 0.09691
0.0974899 0.0974899 0.0974899
0.0980697 0.0980697 0.0980697
0.0986648 0.0986648 0.0986648
0.0992447 0.0992447 0.0992447
0.0998398 0.0998398 0.0998398
0.100435 0.100435 0.100435
0.10103 0.10103 0.10103
0.101625 0.101625 0.101625
0.10222 0.10222 0.10222
0.102815 0.102815 0.102815
0.10341 0.10341 0.10341
0.104021 0.104021 0.104021
0.104616 0.104616 0.104616
0.105226 0.105226 0.105226
0.105837 0.105837 0.105837
0.106432 0.106432 0.106432
0.107042 0.107042 0.107042
0.107668 0.107668 0.107668
0.108278 0.108278 0.108278
0.0980697 0.0980697 0.0980697
0.0986648 0.0986648 0.0986648
0.0992447 0.0992447 0.0992447
0.0998398 0.0998398 0.0998398
0.100435 0.100435 0.100435
0.10103 0.10103 0.10103
0.101625 0.101625 0.101625
0.10222 0.10222 0.10222
0.102815 0.102815 0.102815
0.10341 0.10341 0.10341
0.104021 0.104021 0.104021
0.104616 0.104616 0.104616
0.105226 0.105226 0.105226
0.105837 0.105837 0.105837
0.106432 0.106432 0.106432
0.107042 0.107042 0.107042
0.107668 0.107668 0.107668
0.108278 0.108278 0.108278
0.108888 0.108888 0.108888
0.109514 0.109514 0.109514
0.110124 0.110124 0.110124
0.11075 0.11075 0.11075
0.111376 0.111376 0.111376
0.112001 0.112001 0.112001
0.112627 0.112627 0.112627
0.113252 0.113252 0.113252
0.113893 0.113893 0.113893
0.114519 0.114519 0.114519
0.11516 0.11516 0.11516
0.115801 0.115801 0.115801
0.116442 0.116442 0.116442
0.117082 0.117082 0.117082
0.117723 0.117723 0.117723
0.107057 0.107057 0.107057
0.107668 0.107668 0.107668
0.108278 0.108278 0.108278
0.108888 0.108888 0.108888
0.109514 0.109514 0.109514
0.110124 0.110124 0.110124
0.11075 0.11075 0.11075
0.111376 0.111376 0.111376
0.112001 0.112001 0.112001
0.112627 0.112627 0.112627
0.113252 0.113252 0.113252
0.113893 0.113893 0.113893
0.114519 0.114519 0.114519
0.11516 0.11516 0.11516
0.115801 0.115801 0.115801
0.116442 0.116442 0.116442
0.117082 0.117082 0.117082
0.117723 0.117723 0.117723
0.118364 0.118364 0.118364
0.11902 0.11902 0.11902
0.119677 0.119677 0.119677
0.120333 0.120333 0.120333
0.120989 0.120989 0.120989
0.121645 0.121645 0.121645
0.122301 0.122301 0.122301
0.122972 0.122972 0.122972
0.123629 0.123629 0.123629
0.1243 0.1243 0.1243
0.124971 0.124971 0.124971
0.125643 0.125643 0.125643
0.126314 0.126314 0.126314
0.127001 0.127001 0.127001
0.127687 0.127687 0.127687
0.116442 0.116442 0.116442
0.117082 0.117082 0.117082
0.117723 0.117723 0.117723
0.118364 0.118364 0.118364
0.11902 0.11902 0.11902
0.119677 0.119677 0.119677
0.120333 0.120333 0.120333
0.120989 0.120989 0.120989
0.121645 0.121645 0.121645
0.122301 0.122301 0.122301
0.122972 0.122972 0.122972
0.123629 0.123629 0.123629
0.1243 0.1243 0.1243
0.124971 0.124971 0.124971
0.125643 0.125643 0.125643
0.126314 0.126314 0.126314
0.127001 0.127001 0.127001
0.127687 0.127687 0.127687
0.128374 0.128374 0.128374
0.129061 0.129061 0.129061
0.129747 0.129747 0.129747
0.130434 0.130434 0.130434
0.131136 0.131136 0.131136
0.131838 0.131838 0.131838
0.13254 0.13254 0.13254
0.133242 0.133242 0.133242
0.133944 0.133944 0.133944
0.134661 0.134661 0.134661
0.135378 0.135378 0.135378
0.136095 0.136095 0.136095
0.136812 0.136812 0.136812
0.13753 0.13753 0.13753
0.138262 0.138262 0.138262
0.126314 0.126314 0.126314
0.127001 0.127001 0.127001
0.127687 0.127687 0.127687
0.128374 0.128374 0.128374
0.129061 0.129061 0.129061
0.129747 0.129747 0.129747
0.130434 0.130434 0.130434
0.131136 0.131136 0.131136
0.131838 0.131838 0.131838
0.13254 0.13254 0.13254
0.133242 0.133242 0.133242
0.133944 0.133944 0.133944
0.134661 0.134661 0.134661
0.135378 0.135378 0.135378
0.136095 0.136095 0.136095
0.136812 0.136812 0.136812
0.13753 0.13753 0.13753
0.138262 0.138262 0.138262
0.138994 0.138994 0.138994
0.139727 0.139727 0.139727
0.140459 0.140459 0.140459
0.141207 0.141207 0.141207
0.141955 0.141955 0.141955
0.142702 0.142702 0.142702
0.14345 0.14345 0.14345
0.144213 0.144213 0.144213
0.144976 0.144976 0.144976
0.145739 0.145739 0.145739
0.146502 0.146502 0.146502
0.14728 0.14728 0.14728
0.148043 0.148043 0.148043
0.148836 0.148836 0.148836
0.149615 0.149615 0.149615
0.136812 0.136812 0.136812
0.13753 0.13753 0.13753
0.138262 0.138262 0.138262
0.138994 0.138994 0.138994
0.139727 0.139727 0.139727
0.140459 0.140459 0.140459
0.141207 0.141207 0.141207
0.141955 0.141955 0.141955
0.142702 0.142702 0.142702
0.14345 0.14345 0.14345
0.144213 0.144213 0.144213
0.144976 0.144976 0.144976
0.145739 0.145739 0.145739
0.146502 0.146502 0.146502
0.14728 0.14728 0.14728
0.148043 0.148043 0.148043
0.148836 0.148836 0.148836
0.149615 0.149615 0.149615
0.150408 0.150408 0.150408
0.151202 0.151202 0.151202
0.151995 0.151995 0.151995
0.152789 0.152789 0.152789
0.153597 0.153597 0.153597
0.154406 0.154406 0.154406
0.15523 0.15523 0.15523
0.156054 0.156054 0.156054
0.156878 0.156878 0.156878
0.157702 0.157702 0.157702
0.158541 0.158541 0.158541
0.15938 0.15938 0.15938
0.160235 0.160235 0.160235
0.161074 0.161074 0.161074
0.161944 0.161944 0.161944
0.148043 0.148043 0.148043
0.148836 0.148836 0.148836
0.149615 0.149615 0.149615
0.150408 0.150408 0.150408
0.151202 0.151202 0.151202
0.151995 0.151995 0.151995
0.152789 0.152789 0.152789
0.153597 0.153597 0.153597
0.154406 0.154406 0.154406
0.15523 0.15523 0.15523
0.156054 0.156054 0.156054
0.156878 0.156878 0.156878
0.157702 0.157702 0.157702
0.158541 0.158541 0.158541
0.15938 0.15938 0.15938
0.160235 0.160235 0.160235
0.161074 0.161074 0.161074
0.161944 0.161944 0.161944
0.162799 0.162799 0.162799
0.163668 0.163668 0.163668
0.164538 0.164538 0.164538
0.165423 0.165423 0.165423
0.166308 0.166308 0.166308
0.167208 0.167208 0.167208
0.168093 0.168093 0.168093
0.169009 0.169009 0.169009
0.169909 0.169909 0.169909
0.17084 0.17084 0.17084
0.171756 0.171756 0.171756
0.172686 0.172686 0.172686
0.173632 0.173632 0.173632
0.174578 0.174578 0.174578
0.175525 0.175525 0.175525
0.160235 0.160235 0.160235
0.161074 0.161074 0.161074
0.161944 0.161944 0.161944
0.162799 0.162799 0.162799
0.163668 0.163668 0.163668
0.164538 0.164538 0.164538
0.165423 0.165423 0.165423
0.166308 0.166308 0.166308
0.167208 0.167208 0.167208
0.168093 0.168093 0.168093
0.169009 0.169009 0.169009
0.169909 0.169909 0.169909
0.17084 0.17084 0.17084
0.171756 0.171756 0.171756
0.172686 0.172686 0.172686
0.173632 0.173632 0.173632
0.174578 0.174578 0.174578
0.175525 0.175525 0.175525
0.176486 0.176486 0.176486
0.177447 0.177447 0.177447
0.178424 0.178424 0.178424
0.179416 0.179416 0.179416
0.180407 0.180407 0.180407
0.181399 0.181399 0.181399
0.182406 0.182406 0.182406
0.183429 0.183429 0.183429
0.184451 0.184451 0.184451
0.185489 0.185489 0.185489
0.186542 0.186542 0.186542
0.187594 0.187594 0.187594
0.188647 0.188647 0.188647
0.189731 0.189731 0.189731
0.190814 0.190814 0.190814
0.173632 0.173632 0.173632
0.174578 0.174578 0.174578
0.175525 0.175525 0.175525
0.176486 0.176486 0.176486
0.177447 0.177447 0.177447
0.178424 0.178424 0.178424
0.179416 0.179416 0.179416
0.180407 0.180407 0.180407
0.181399 0.181399 0.181399
0.182406 0.182406 0.182406
0.183429 0.183429 0.183429
0.184451 0.184451 0.184451
0.185489 0.185489 0.185489
0.186542 0.186542 0.186542
0.187594 0.187594 0.187594
0.188647 0.188647 0.188647
0.189731 0.189731 0.189731
0.190814 0.190814 0.190814
0.191913 0.191913 0.191913
0.193011 0.193011 0.193011
0.194125 0.194125 0.194125
0.195254 0.195254 0.195254
0.196399 0.196399 0.196399
0.197543 0.197543 0.197543
0.198718 0.198718 0.198718
0.199893 0.199893 0.199893
0.201083 0.201083 0.201083
0.202289 0.202289 0.202289
0.203494 0.203494 0.203494
0.20473 0.20473 0.20473
0.205982 0.205982 0.205982
0.207233 0.207233 0.207233
0.208515 0.208515 0.208515
0.188647 0.188647 0.188647
0.189731 0.189731 0.189731
0.190814 0.190814 0.190814
0.191913 0.191913 0.191913
0.193011 0.193011 0.193011
0.194125 0.194125 0.194125
0.195254 0.195254 0.195254
0.196399 0.196399 0.196399
0.197543 0.197543 0.197543
0.198718 0.198718 0.198718
0.199893 0.199893 0.199893
0.201083 0.201083 0.201083
0.202289 0.202289 0.202289
0.203494 0.203494 0.203494
0.20473 0.20473 0.20473
0.205982 0.205982 0.205982
0.207233 0.207233 0.207233
0.208515 0.208515 0.208515
0.209812 0.209812 0.209812
0.211124 0.211124 0.211124
0.212451 0.212451 0.212451
0.213794 0.213794 0.213794
0.215152 0.215152 0.215152
0.216541 0.216541 0.216541
0.217945 0.217945 0.217945
0.219364 0.219364 0.219364
0.220813 0.220813 0.220813
0.222278 0.222278 0.222278
0.223774 0.223774 0.223774
0.225284 0.225284 0.225284
0.226825 0.226825 0.226825
0.228397 0.228397 0.228397
0.229999 0.229999 0.229999
0.205982 0.205982 0.205982
0.207233 0.207233 0.207233
0.208515 0.208515 0.208515
0.209812 0.209812 0.209812
0.211124 0.211124 0.211124
0.212451 0.212451 0.212451
0.213794 0.213794 0.213794
0.215152 0.215152 0.215152
0.216541 0.216541 0.216541
0.217945 0.217945 0.217945
0.219364 0.219364 0.219364
0.220813 0.220813 0.220813
0.222278 0.222278 0.222278
0.223774 0.223774 0.223774
0.225284 0.225284 0.225284
0.226825 0.226825 0.226825
0.228397 0.228397 0.228397
0.229999 0.229999 0.229999
0.231617 0.231617 0.231617
0.23328 0.23328 0.23328
0.234958 0.234958 0.234958
0.236683 0.236683 0.236683
0.238437 0.238437 0.238437
0.240238 0.240238 0.240238
0.242069 0.242069 0.242069
0.243961 0.243961 0.243961
0.245884 0.245884 0.245884
0.247868 0.247868 0.247868
0.249897 0.249897 0.249897
0.251987 0.251987 0.251987
0.254139 0.254139 0.254139
0.256367 0.256367 0.256367
0.258671 0.258671 0.258671
0.226825 0.226825 0.226825
0.228397 0.228397 0.228397
0.229999 0.229999 0.229999
0.231617 0.231617 0.231617
0.23328 0.23328 0.23328
0.234958 0.234958 0.234958
0.236683 0.236683 0.236683
0.238437 0.238437 0.238437
0.240238 0.240238 0.240238
0.242069 0.242069 0.242069
0.243961 0.243961 0.243961
0.245884 0.245884 0.245884
0.247868 0.247868 0.247868
0.249897 0.249897 0.249897
0.251987 0.251987 0.251987
0.254139 0.254139 0.254139
0.256367 0.256367 0.256367
0.258671 0.258671 0.258671
0.261067 0.261067 0.261067
0.263584 0.263584 0.263584
0.266224 0.266224 0.266224
0.269062 0.269062 0.269062
0.272053 0.272053 0.272053
0.275013 0.275013 0.275013
0.277958 0.277958 0.277958
0.280873 0.280873 0.280873
0.283772 0.283772 0.283772
0.286656 0.286656 0.286656
0.289509 0.289509 0.289509
0.292363 0.292363 0.292363
0.295186 0.295186 0.295186
0.297993 0.297993 0.297993
0.300786 0.300786 0.300786
0.254139 0.254139 0.254139
0.256367 0.256367 0.256367
0.258671 0.258671 0.258671
0.261067 0.261067 0.261067
0.263584 0.263584 0.263584
0.266224 0.266224 0.266224
0.269062 0.269062 0.269062
0.272053 0.272053 0.272053
0.275013 0.275013 0.275013
0.277958 0.277958 0.277958
0.280873 0.280873 0.280873
0.283772 0.283772 0.283772
0.286656 0.286656 0.286656
0.289509 0.289509 0.289509
0.292363 0.292363 0.292363
0.295186 0.295186 0.295186
0.297993 0.297993 0.297993
0.300786 0.300786 0.300786
0.303563 0.303563 0.303563
0.306325 0.306325 0.306325
0.309071 0.309071 0.309071
0.311788 0.311788 0.311788
0.314504 0.314504 0.314504
0.31722 0.31722 0.31722
0.319905 0.319905 0.319905
0.322576 0.322576 0.322576
0.325246 0.325246 0.325246
0.327901 0.327901 0.327901
0.330541 0.330541 0.330541
0.333181 0.333181 0.333181
0.33579 0.33579 0.33579
0.338399 0.338399 0.338399
0.341009 0.341009 0.341009
0.295186 0.295186 0.295186
0.297993 0.297993 0.297993
0.300786 0.300786 0.300786
0.303563 0.303563 0.303563
0.306325 0.306325 0.306325
0.309071 0.309071 0.309071
0.311788 0.311788 0.311788
0.314504 0.314504 0.314504
0.31722 0.31722 0.31722
0.319905 0.319905 0.319905
0.322576 0.322576 0.322576
0.325246 0.325246 0.325246
0.327901 0.327901 0.327901
0.330541 0.330541 0.330541
0.333181 0.333181 0.333181
0.33579 0.33579 0.33579
0.338399 0.338399 0.338399
0.341009 0.341009 0.341009
0.343603 0.343603 0.343603
0.346181 0.346181 0.346181
0.34876 0.34876 0.34876
0.351324 0.351324 0.351324
0.353872 0.353872 0.353872
0.356435 0.356435 0.356435
0.358968 0.358968 0.358968
0.361517 0.361517 0.361517
0.364034 0.364034 0.364034
0.366567 0.366567 0.366567
0.369085 0.369085 0.369085
0.371588 0.371588 0.371588
0.374105 0.374105 0.374105
0.376608 0.376608 0.376608
0.37911 0.37911 0.37911
0.33579 0.33579 0.33579
0.338399 0.338399 0.338399
0.341009 0.341009 0.341009
0.343603 0.343603 0.343603
0.346181 0.346181 0.346181
0.34876 0.34876 0.34876
0.351324 0.351324 0.351324
0.353872 0.353872 0.353872
0.356435 0.356435 0.356435
0.358968 0.358968 0.358968
0.361517 0.361517 0.361517
0.364034 0.364034 0.364034
0.366567 0.366567 0.366567
0.369085 0.369085 0.369085
0.371588 0.371588 0.371588
0.374105 0.374105 0.374105
0.376608 0.376608 0.376608
0.37911 0.37911 0.37911
0.381598 0.381598 0.381598
0.384085 0.384085 0.384085
0.386572 0.386572 0.386572
0.389059 0.389059 0.389059
0.391546 0.391546 0.391546
0.394018 0.394018 0.394018
0.396506 0.396506 0.396506
0.398978 0.398978 0.398978
0.40145 0.40145 0.40145
0.403922 0.403922 0.403922
0.406394 0.406394 0.406394
0.408881 0.408881 0.408881
0.411353 0.411353 0.411353
0.413825 0.413825 0.413825
0.416297 0.416297 0.416297
0.374105 0.374105 0.374105
0.376608 0.376608 0.376608
0.37911 0.37911 0.37911
0.381598 0.381598 0.381598
0.384085 0.384085 0.384085
0.386572 0.386572 0.386572
0.389059 0.389059 0.389059
0.391546 0.391546 0.391546
0.394018 0.394018 0.394018
0.396506 0.396506 0.396506
0.398978 0.398978 0.398978
0.40145 0.40145 0.40145
0.403922 0.403922 0.403922
0.406394 0.406394 0.406394
0.408881 0.408881 0.408881
0.411353 0.411353 0.411353
0.413825 0.413825 0.413825
0.416297 0.416297 0.416297
0.418769 0.418769 0.418769
0.421256 0.421256 0.421256
0.423728 0.423728 0.423728
0.426215 0.426215 0.426215
0.428702 0.428702 0.428702
0.431189 0.431189 0.431189
0.433677 0.433677 0.433677
0.436179 0.436179 0.436179
0.438682 0.438682 0.438682
0.441184 0.441184 0.441184
0.443702 0.443702 0.443702
0.44622 0.44622 0.44622
0.448737 0.448737 0.448737
0.45127 0.45127 0.45127
0.453803 0.453803 0.453803
0.411353 0.411353 0.411353
0.413825 0.413825 0.413825
0.416297 0.416297 0.416297
0.418769 0.418769 0.418769
0.421256 0.421256 0.421256
0.423728 0.423728 0.423728
0.426215 0.426215 0.426215
0.428702 0.428702 0.428702
0.431189 0.431189 0.431189
0.433677 0.433677 0.433677
0.436179 0.436179 0.436179
0.438682 0.438682 0.438682
0.441184 0.441184 0.441184
0.443702 0.443702 0.443702
0.44622 0.44622 0.44622
0.448737 0.448737 0.448737
0.45127 0.45127 0.45127
0.453803 0.453803 0.453803
0.456352 0.456352 0.456352
0.458915 0.458915 0.458915
0.461479 0.461479 0.461479
0.464042 0.464042 0.464042
0.466636 0.466636 0.466636
0.46923 0.46923 0.46923
0.471824 0.471824 0.471824
0.474449 0.474449 0.474449
0.477073 0.477073 0.477073
0.479728 0.479728 0.479728
0.482383 0.482383 0.482383
0.485054 0.485054 0.485054
0.487739 0.487739 0.487739
0.49044 0.49044 0.49044
0.493172 0.493172 0.493172
0.448737 0.448737 0.448737
0.45127 0.45127 0.45127
0.453803 0.453803 0.453803
0.456352 0.456352 0.456352
0.458915 0.458915 0.458915
0.461479 0.461479 0.461479
0.464042 0.464042 0.464042
0.466636 0.466636 0.466636
0.46923 0.46923 0.46923
0.471824 0.471824 0.471824
0.474449 0.474449 0.474449
0.477073 0.477073 0.477073
0.479728 0.479728 0.479728
0.482383 0.482383 0.482383
0.485054 0.485054 0.485054
0.487739 0.487739 0.487739
0.49044 0.49044 0.49044
0.493172 0.493172 0.493172
0.495903 0.495903 0.495903
0.498665 0.498665 0.498665
0.501442 0.501442 0.501442
0.504234 0.504234 0.504234
0.507057 0.507057 0.507057
0.509865 0.509865 0.509865
0.512673 0.512673 0.512673
0.515435 0.515435 0.515435
0.518196 0.518196 0.518196
0.520912 0.520912 0.520912
0.523613 0.523613 0.523613
0.526284 0.526284 0.526284
0.528923 0.528923 0.528923
0.531533 0.531533 0.531533
0.534112 0.534112 0.534112
0.487739 0.487739 0.487739
0.49044 0.49044 0.49044
0.493172 0.493172 0.493172
0.495903 0.495903 0.495903
0.498665 0.498665 0.498665
0.501442 0.501442 0.501442
0.504234 0.504234 0.504234
0.507057 0.507057 0.507057
0.509865 0.509865 0.509865
0.512673 0.512673 0.512673
0.515435 0.515435 0.515435
0.518196 0.518196 0.518196
0.520912 0.520912 0.520912
0.523613 0.523613 0.523613
0.526284 0.526284 0.526284
0.528923 0.528923 0.528923
0.531533 0.531533 0.531533
0.534112 0.534112 0.534112
0.53666 0.53666 0.53666
0.539178 0.539178 0.539178
0.54168 0.54168 0.54168
0.544137 0.544137 0.544137
0.546578 0.546578 0.546578
0.548974 0.548974 0.548974
0.551354 0.551354 0.551354
0.553704 0.553704 0.553704
0.556039 0.556039 0.556039
0.558328 0.558328 0.558328
0.560601 0.560601 0.560601
0.562844 0.562844 0.562844
0.565072 0.565072 0.565072
0.567254 0.567254 0.567254
0.569436 0.569436 0.569436
0.528923 0.528923 0.528923
0.531533 0.531533 0.531533
0.534112 0.534112 0.534112
0.53666 0.53666 0.53666
0.539178 0.539178 0.539178
0.54168 0.54168 0.54168
0.544137 0.544137 0.544137
0.546578 0.546578 0.546578
0.548974 0.548974 0.548974
0.551354 0.551354 0.551354
0.553704 0.553704 0.553704
0.556039 0.556039 0.556039
0.558328 0.558328 0.558328
0.560601 0.560601 0.560601
0.562844 0.562844 0.562844
0.565072 0.565072 0.565072
0.567254 0.567254 0.567254
0.569436 0.569436 0.569436
0.571572 0.571572 0.571572
0.573693 0.573693 0.573693
0.575799 0.575799 0.575799
0.577874 0.577874 0.577874
0.579919 0.579919 0.579919
0.581949 0.581949 0.581949
0.583963 0.583963 0.583963
0.585946 0.585946 0.585946
0.587915 0.587915 0.587915
0.589868 0.589868 0.589868
0.591791 0.591791 0.591791
0.593698 0.593698 0.593698
0.59559 0.59559 0.59559
0.597467 0.597467 0.597467
0.599313 0.599313 0.599313
0.565072 0.565072 0.565072
0.567254 0.567254 0.567254
0.569436 0.569436 0.569436
0.571572 0.571572 0.571572
0.573693 0.573693 0.573693
0.575799 0.575799 0.575799
0.577874 0.577874 0.577874
0.579919 0.579919 0.579919
0.581949 0.581949 0.581949
0.583963 0.583963 0.583963
0.585946 0.585946 0.585946
0.587915 0.587915 0.587915
0.589868 0.589868 0.589868
0.591791 0.591791 0.591791
0.593698 0.593698 0.593698
0.59559 0.59559 0.59559
0.597467 0.597467 0.597467
0.599313 0.599313 0.599313
0.601144 0.601144 0.601144
0.60296 0.60296 0.60296
0.604761 0.604761 0.604761
0.606531 0.606531 0.606531
0.608301 0.608301 0.608301
0.610056 0.610056 0.610056
0.61178 0.61178 0.61178
0.613489 0.613489 0.613489
0.615198 0.615198 0.615198
0.616876 0.616876 0.616876
0.618555 0.618555 0.618555
0.620203 0.620203 0.620203
0.621851 0.621851 0.621851
0.623468 0.623468 0.623468
0.625086 0.625086 0.625086
0.59559 0.59559 0.59559
0.597467 0.597467 0.597467
0.599313 0.599313 0.599313
0.601144 0.601144 0.601144
0.60296 0.60296 0.60296
0.604761 0.604761 0.604761
0.606531 0.606531 0.606531
0.608301 0.608301 0.608301
0.610056 0.610056 0.610056
0.61178 0.61178 0.61178
0.613489 0.613489 0.613489
0.615198 0.615198 0.615198
0.616876 0.616876 0.616876
0.618555 0.618555 0.618555
0.620203 0.620203 0.620203
0.621851 0.621851 0.621851
0.623468 0.623468 0.623468
0.625086 0.625086 0.625086
0.626688 0.626688 0.626688
0.628275 0.628275 0.628275
0.629847 0.629847 0.629847
0.631403 0.631403 0.631403
0.632944 0.632944 0.632944
0.634485 0.634485 0.634485
0.636011 0.636011 0.636011
0.637522 0.637522 0.637522
0.639017 0.639017 0.639017
0.640513 0.640513 0.640513
0.641978 0.641978 0.641978
0.643442 0.643442 0.643442
0.644907 0.644907 0.644907
0.646342 0.646342 0.646342
0.647776 0.647776 0.647776
0.621851 0.621851 0.621851
0.623468 0.623468 0.623468
0.625086 0.625086 0.625086
0.626688 0.626688 0.626688
0.628275 0.628275 0.628275
0.629847 0.629847 0.629847
0.631403 0.631403 0.631403
0.632944 0.632944 0.632944
0.634485 0.634485 0.634485
0.636011 0.636011 0.636011
0.637522 0.637522 0.637522
0.639017 0.639017 0.639017
0.640513 0.640513 0.640513
0.641978 0.641978 0.641978
0.643442 0.643442 0.643442
0.644907 0.644907 0.644907
0.646342 0.646342 0.646342
0.647776 0.647776 0.647776
0.64921 0.64921 0.64921
0.650614 0.650614 0.650614
0.652018 0.652018 0.652018
0.653407 0.653407 0.653407
0.654795 0.654795 0.654795
0.656168 0.656168 0.656168
0.657526 0.657526 0.657526
0.658885 0.658885 0.658885
0.660227 0.660227 0.660227
0.66157 0.66157 0.66157
0.662898 0.662898 0.662898
0.664225 0.664225 0.664225
0.665522 0.665522 0.665522
0.666835 0.666835 0.666835
0.668132 0.668132 0.668132
0.644907 0.644907 0.644907
0.646342 0.646342 0.646342
0.647776 0.647776 0.647776
0.64921 0.64921 0.64921
0.650614 0.650614 0.650614
0.652018 0.652018 0.652018
0.653407 0.653407 0.653407
0.654795 0.654795 0.654795
0.656168 0.656168 0.656168
0.657526 0.657526 0.657526
0.658885 0.658885 0.658885
0.660227 0.660227 0.660227
0.66157 0.66157 0.66157
0.662898 0.662898 0.662898
0.664225 0.664225 0.664225
0.665522 0.665522 0.665522
0.666835 0.666835 0.666835
0.668132 0.668132 0.668132
0.669413 0.669413 0.669413
0.670695 0.670695 0.670695
0.671962 0.671962 0.671962
0.673228 0.673228 0.673228
0.674479 0.674479 0.674479
0.675731 0.675731 0.675731
0.676966 0.676966 0.676966
0.678203 0.678203 0.678203
0.679438 0.679438 0.679438
0.680659 0.680659 0.680659
0.681865 0.681865 0.681865
0.68307 0.68307 0.68307
0.684276 0.684276 0.684276
0.685466 0.685466 0.685466
0.686656 0.686656 0.686656
0.665537 0.665537 0.665537
0.666835 0.666835 0.666835
0.668132 0.668132 0.668132
0.669413 0.669413 0.669413
0.670695 0.670695 0.670695
0.671962 0.671962 0.671962
0.673228 0.673228 0.673228
0.674479 0.674479 0.674479
0.675731 0.675731 0.675731
0.676966 0.676966 0.676966
0.678203 0.678203 0.678203
0.679438 0.679438 0.679438
0.680659 0.680659 0.680659
0.681865 0.681865 0.681865
0.68307 0.68307 0.68307
0.684276 0.684276 0.684276
0.685466 0.685466 0.685466
0.686656 0.686656 0.686656
0.687831 0.687831 0.687831
0.689006 0.689006 0.689006
0.690181 0.690181 0.690181
0.691341 0.691341 0.691341
0.6925 0.6925 0.6925
0.693645 0.693645 0.693645
0.694789 0.694789 0.694789
0.695933 0.695933 0.695933
0.697063 0.697063 0.697063
0.698192 0.698192 0.698192
0.699306 0.699306 0.699306
