2499DRT/STP-2399Log-InstantFilm.cube
TITLE "Generated by Resolve"
LUT_3D_SIZE 33
0.0179599 0.0644999 0.0641489
0.0442512 0.0644999 0.0641489
0.0683146 0.0644999 0.0641489
0.0932174 0.0644999 0.0641489
0.119066 0.0644999 0.0641489
0.145892 0.0644999 0.0641489
0.173754 0.0644999 0.0641489
0.20264 0.0644999 0.0641489
0.232563 0.0644999 0.0641489
0.263447 0.0644999 0.0641489
0.295094 0.0644999 0.0641489
0.327276 0.0644999 0.0641489
0.359609 0.0644999 0.0641489
0.39173 0.0644999 0.0641489
0.423301 0.0644999 0.0641489
0.454032 0.0644999 0.0641489
0.483742 0.0644999 0.0641489
0.512322 0.0644999 0.0641489
0.539666 0.0644999 0.0641489
0.565744 0.0644999 0.0641489
0.590494 0.0644999 0.0641489
0.613855 0.0644999 0.0641489
0.635737 0.0644999 0.0641489
0.656062 0.0644999 0.0641489
0.674754 0.0644999 0.0641489
0.691722 0.0644999 0.0641489
0.70695 0.0644999 0.0641489
0.720409 0.0644999 0.0641489
0.732143 0.0644999 0.0641489
0.742214 0.0644999 0.0641489
0.750744 0.0644999 0.0641489
0.757885 0.0644999 0.0641489
0.76379 0.0644999 0.0641489
0.0179599 0.0849622 0.0641489
0.0442512 0.0849622 0.0641489
0.0683146 0.0849622 0.0641489
0.0932174 0.0849622 0.0641489
0.119066 0.0849622 0.0641489
0.145892 0.0849622 0.0641489
0.173754 0.0849622 0.0641489
0.20264 0.0849622 0.0641489
0.232563 0.0849622 0.0641489
0.263447 0.0849622 0.0641489
0.295094 0.0849622 0.0641489
0.327276 0.0849622 0.0641489
0.359609 0.0849622 0.0641489
0.39173 0.0849622 0.0641489
0.423301 0.0849622 0.0641489
0.454032 0.0849622 0.0641489
0.483742 0.0849622 0.0641489
0.512322 0.0849622 0.0641489
0.539666 0.0849622 0.0641489
0.565744 0.0849622 0.0641489
0.590494 0.0849622 0.0641489
0.613855 0.0849622 0.0641489
0.635737 0.0849622 0.0641489
0.656062 0.0849622 0.0641489
0.674754 0.0849622 0.0641489
0.691722 0.0849622 0.0641489
0.70695 0.0849622 0.0641489
0.720409 0.0849622 0.0641489
0.732143 0.0849622 0.0641489
0.742214 0.0849622 0.0641489
0.750744 0.0849622 0.0641489
0.757885 0.0849622 0.0641489
0.76379 0.0849622 0.0641489
0.0179599 0.104219 0.0641489
0.0442512 0.104219 0.0641489
0.0683146 0.104219 0.0641489
0.0932174 0.104219 0.0641489
0.119066 0.104219 0.0641489
0.145892 0.104219 0.0641489
0.173754 0.104219 0.0641489
0.20264 0.104219 0.0641489
0.232563 0.104219 0.0641489
0.263447 0.104219 0.0641489
0.295094 0.104219 0.0641489
0.327276 0.104219 0.0641489
0.359609 0.104219 0.0641489
0.39173 0.104219 0.0641489
0.423301 0.104219 0.0641489
0.454032 0.104219 0.0641489
0.483742 0.104219 0.0641489
0.512322 0.104219 0.0641489
0.539666 0.104219 0.0641489
0.565744 0.104219 0.0641489
0.590494 0.104219 0.0641489
0.613855 0.104219 0.0641489
0.635737 0.104219 0.0641489
0.656062 0.104219 0.0641489
0.674754 0.104219 0.0641489
0.691722 0.104219 0.0641489
0.70695 0.104219 0.0641489
0.720409 0.104219 0.0641489
0.732143 0.104219 0.0641489
0.742214 0.104219 0.0641489
0.750744 0.104219 0.0641489
0.757885 0.104219 0.0641489
0.76379 0.104219 0.0641489
0.0179599 0.124636 0.0641489
0.0442512 0.124636 0.0641489
0.0683146 0.124636 0.0641489
0.0932174 0.124636 0.0641489
0.119066 0.124636 0.0641489
0.145892 0.124636 0.0641489
0.173754 0.124636 0.0641489
0.20264 0.124636 0.0641489
0.232563 0.124636 0.0641489
0.263447 0.124636 0.0641489
0.295094 0.124636 0.0641489
0.327276 0.124636 0.0641489
0.359609 0.124636 0.0641489
0.39173 0.124636 0.0641489
0.423301 0.124636 0.0641489
0.454032 0.124636 0.0641489
0.483742 0.124636 0.0641489
0.512322 0.124636 0.0641489
0.539666 0.124636 0.0641489
0.565744 0.124636 0.0641489
0.590494 0.124636 0.0641489
0.613855 0.124636 0.0641489
0.635737 0.124636 0.0641489
0.656062 0.124636 0.0641489
0.674754 0.124636 0.0641489
0.691722 0.124636 0.0641489
0.70695 0.124636 0.0641489
0.720409 0.124636 0.0641489
0.732143 0.124636 0.0641489
0.742214 0.124636 0.0641489
0.750744 0.124636 0.0641489
0.757885 0.124636 0.0641489
0.76379 0.124636 0.0641489
0.0179599 0.146181 0.0641489
0.0442512 0.146181 0.0641489
0.0683146 0.146181 0.0641489
0.0932174 0.146181 0.0641489
0.119066 0.146181 0.0641489
0.145892 0.146181 0.0641489
0.173754 0.146181 0.0641489
0.20264 0.146181 0.0641489
0.232563 0.146181 0.0641489
0.263447 0.146181 0.0641489
0.295094 0.146181 0.0641489
0.327276 0.146181 0.0641489
0.359609 0.146181 0.0641489
0.39173 0.146181 0.0641489
0.423301 0.146181 0.0641489
0.454032 0.146181 0.0641489
0.483742 0.146181 0.0641489
0.512322 0.146181 0.0641489
0.539666 0.146181 0.0641489
0.565744 0.146181 0.0641489
0.590494 0.146181 0.0641489
0.613855 0.146181 0.0641489
0.635737 0.146181 0.0641489
0.656062 0.146181 0.0641489
0.674754 0.146181 0.0641489
0.691722 0.146181 0.0641489
0.70695 0.146181 0.0641489
0.720409 0.146181 0.0641489
0.732143 0.146181 0.0641489
0.742214 0.146181 0.0641489
0.750744 0.146181 0.0641489
0.757885 0.146181 0.0641489
0.76379 0.146181 0.0641489
0.0179599 0.168811 0.0641489
0.0442512 0.168811 0.0641489
0.0683146 0.168811 0.0641489
0.0932174 0.168811 0.0641489
0.119066 0.168811 0.0641489
0.145892 0.168811 0.0641489
0.173754 0.168811 0.0641489
0.20264 0.168811 0.0641489
0.232563 0.168811 0.0641489
0.263447 0.168811 0.0641489
0.295094 0.168811 0.0641489
0.327276 0.168811 0.0641489
0.359609 0.168811 0.0641489
0.39173 0.168811 0.0641489
0.423301 0.168811 0.0641489
0.454032 0.168811 0.0641489
0.483742 0.168811 0.0641489
0.512322 0.168811 0.0641489
0.539666 0.168811 0.0641489
0.565744 0.168811 0.0641489
0.590494 0.168811 0.0641489
0.613855 0.168811 0.0641489
0.635737 0.168811 0.0641489
0.656062 0.168811 0.0641489
0.674754 0.168811 0.0641489
0.691722 0.168811 0.0641489
0.70695 0.168811 0.0641489
0.720409 0.168811 0.0641489
0.732143 0.168811 0.0641489
0.742214 0.168811 0.0641489
0.750744 0.168811 0.0641489
0.757885 0.168811 0.0641489
0.76379 0.168811 0.0641489
0.0179599 0.192447 0.0641489
0.0442512 0.192447 0.0641489
0.0683146 0.192447 0.0641489
0.0932174 0.192447 0.0641489
0.119066 0.192447 0.0641489
0.145892 0.192447 0.0641489
0.173754 0.192447 0.0641489
0.20264 0.192447 0.0641489
0.232563 0.192447 0.0641489
0.263447 0.192447 0.0641489
0.295094 0.192447 0.0641489
0.327276 0.192447 0.0641489
0.359609 0.192447 0.0641489
0.39173 0.192447 0.0641489
0.423301 0.192447 0.0641489
0.454032 0.192447 0.0641489
0.483742 0.192447 0.0641489
0.512322 0.192447 0.0641489
0.539666 0.192447 0.0641489
0.565744 0.192447 0.0641489
0.590494 0.192447 0.0641489
0.613855 0.192447 0.0641489
0.635737 0.192447 0.0641489
0.656062 0.192447 0.0641489
0.674754 0.192447 0.0641489
0.691722 0.192447 0.0641489
0.70695 0.192447 0.0641489
0.720409 0.192447 0.0641489
0.732143 0.192447 0.0641489
0.742214 0.192447 0.0641489
0.750744 0.192447 0.0641489
0.757885 0.192447 0.0641489
0.76379 0.192447 0.0641489
0.0179599 0.216999 0.0641489
0.0442512 0.216999 0.0641489
0.0683146 0.216999 0.0641489
0.0932174 0.216999 0.0641489
0.119066 0.216999 0.0641489
0.145892 0.216999 0.0641489
0.173754 0.216999 0.0641489
0.20264 0.216999 0.0641489
0.232563 0.216999 0.0641489
0.263447 0.216999 0.0641489
0.295094 0.216999 0.0641489
0.327276 0.216999 0.0641489
0.359609 0.216999 0.0641489
0.39173 0.216999 0.0641489
0.423301 0.216999 0.0641489
0.454032 0.216999 0.0641489
0.483742 0.216999 0.0641489
0.512322 0.216999 0.0641489
0.539666 0.216999 0.0641489
0.565744 0.216999 0.0641489
0.590494 0.216999 0.0641489
0.613855 0.216999 0.0641489
0.635737 0.216999 0.0641489
0.656062 0.216999 0.0641489
0.674754 0.216999 0.0641489
0.691722 0.216999 0.0641489
0.70695 0.216999 0.0641489
0.720409 0.216999 0.0641489
0.732143 0.216999 0.0641489
0.742214 0.216999 0.0641489
0.750744 0.216999 0.0641489
0.757885 0.216999 0.0641489
0.76379 0.216999 0.0641489
0.0179599 0.242359 0.0641489
0.0442512 0.242359 0.0641489
0.0683146 0.242359 0.0641489
0.0932174 0.242359 0.0641489
0.119066 0.242359 0.0641489
0.145892 0.242359 0.0641489
0.173754 0.242359 0.0641489
0.20264 0.242359 0.0641489
0.232563 0.242359 0.0641489
0.263447 0.242359 0.0641489
0.295094 0.242359 0.0641489
0.327276 0.242359 0.0641489
0.359609 0.242359 0.0641489
0.39173 0.242359 0.0641489
0.423301 0.242359 0.0641489
0.454032 0.242359 0.0641489
0.483742 0.242359 0.0641489
0.512322 0.242359 0.0641489
0.539666 0.242359 0.0641489
0.565744 0.242359 0.0641489
0.590494 0.242359 0.0641489
0.613855 0.242359 0.0641489
0.635737 0.242359 0.0641489
0.656062 0.242359 0.0641489
0.674754 0.242359 0.0641489
0.691722 0.242359 0.0641489
0.70695 0.242359 0.0641489
0.720409 0.242359 0.0641489
0.732143 0.242359 0.0641489
0.742214 0.242359 0.0641489
0.750744 0.242359 0.0641489
0.757885 0.242359 0.0641489
0.76379 0.242359 0.0641489
0.0179599 0.268345 0.0641489
0.0442512 0.268345 0.0641489
0.0683146 0.268345 0.0641489
0.0932174 0.268345 0.0641489
0.119066 0.268345 0.0641489
0.145892 0.268345 0.0641489
0.173754 0.268345 0.0641489
0.20264 0.268345 0.0641489
0.232563 0.268345 0.0641489
0.263447 0.268345 0.0641489
0.295094 0.268345 0.0641489
0.327276 0.268345 0.0641489
0.359609 0.268345 0.0641489
0.39173 0.268345 0.0641489
0.423301 0.268345 0.0641489
0.454032 0.268345 0.0641489
0.483742 0.268345 0.0641489
0.512322 0.268345 0.0641489
0.539666 0.268345 0.0641489
0.565744 0.268345 0.0641489
0.590494 0.268345 0.0641489
0.613855 0.268345 0.0641489
0.635737 0.268345 0.0641489
0.656062 0.268345 0.0641489
0.674754 0.268345 0.0641489
0.691722 0.268345 0.0641489
0.70695 0.268345 0.0641489
0.720409 0.268345 0.0641489
0.732143 0.268345 0.0641489
0.742214 0.268345 0.0641489
0.750744 0.268345 0.0641489
0.757885 0.268345 0.0641489
0.76379 0.268345 0.0641489
0.0179599 0.294759 0.0641489
0.0442512 0.294759 0.0641489
0.0683146 0.294759 0.0641489
0.0932174 0.294759 0.0641489
0.119066 0.294759 0.0641489
0.145892 0.294759 0.0641489
0.173754 0.294759 0.0641489
0.20264 0.294759 0.0641489
0.232563 0.294759 0.0641489
0.263447 0.294759 0.0641489
0.295094 0.294759 0.0641489
0.327276 0.294759 0.0641489
0.359609 0.294759 0.0641489
0.39173 0.294759 0.0641489
0.423301 0.294759 0.0641489
0.454032 0.294759 0.0641489
0.483742 0.294759 0.0641489
0.512322 0.294759 0.0641489
0.539666 0.294759 0.0641489
0.565744 0.294759 0.0641489
0.590494 0.294759 0.0641489
0.613855 0.294759 0.0641489
0.635737 0.294759 0.0641489
0.656062 0.294759 0.0641489
0.674754 0.294759 0.0641489
0.691722 0.294759 0.0641489
0.70695 0.294759 0.0641489
0.720409 0.294759 0.0641489
0.732143 0.294759 0.0641489
0.742214 0.294759 0.0641489
0.750744 0.294759 0.0641489
0.757885 0.294759 0.0641489
0.76379 0.294759 0.0641489
0.0179599 0.32137 0.0641489
0.0442512 0.32137 0.0641489
0.0683146 0.32137 0.0641489
0.0932174 0.32137 0.0641489
0.119066 0.32137 0.0641489
0.145892 0.32137 0.0641489
0.173754 0.32137 0.0641489
0.20264 0.32137 0.0641489
0.232563 0.32137 0.0641489
0.263447 0.32137 0.0641489
0.295094 0.32137 0.0641489
0.327276 0.32137 0.0641489
0.359609 0.32137 0.0641489
0.39173 0.32137 0.0641489
0.423301 0.32137 0.0641489
0.454032 0.32137 0.0641489
0.483742 0.32137 0.0641489
0.512322 0.32137 0.0641489
0.539666 0.32137 0.0641489
0.565744 0.32137 0.0641489
0.590494 0.32137 0.0641489
0.613855 0.32137 0.0641489
0.635737 0.32137 0.0641489
0.656062 0.32137 0.0641489
0.674754 0.32137 0.0641489
0.691722 0.32137 0.0641489
0.70695 0.32137 0.0641489
0.720409 0.32137 0.0641489
0.732143 0.32137 0.0641489
0.742214 0.32137 0.0641489
0.750744 0.32137 0.0641489
0.757885 0.32137 0.0641489
0.76379 0.32137 0.0641489
0.0179599 0.347906 0.0641489
0.0442512 0.347906 0.0641489
0.0683146 0.347906 0.0641489
0.0932174 0.347906 0.0641489
0.119066 0.347906 0.0641489
0.145892 0.347906 0.0641489
0.173754 0.347906 0.0641489
0.20264 0.347906 0.0641489
0.232563 0.347906 0.0641489
0.263447 0.347906 0.0641489
0.295094 0.347906 0.0641489
0.327276 0.347906 0.0641489
0.359609 0.347906 0.0641489
0.39173 0.347906 0.0641489
0.423301 0.347906 0.0641489
0.454032 0.347906 0.0641489
0.483742 0.347906 0.0641489
0.512322 0.347906 0.0641489
0.539666 0.347906 0.0641489
0.565744 0.347906 0.0641489
0.590494 0.347906 0.0641489
0.613855 0.347906 0.0641489
0.635737 0.347906 0.0641489
0.656062 0.347906 0.0641489
0.674754 0.347906 0.0641489
0.691722 0.347906 0.0641489
0.70695 0.347906 0.0641489
0.720409 0.347906 0.0641489
0.732143 0.347906 0.0641489
0.742214 0.347906 0.0641489
0.750744 0.347906 0.0641489
0.757885 0.347906 0.0641489
0.76379 0.347906 0.0641489
0.0179599 0.374166 0.0641489
0.0442512 0.374166 0.0641489
0.0683146 0.374166 0.0641489
0.0932174 0.374166 0.0641489
0.119066 0.374166 0.0641489
0.145892 0.374166 0.0641489
0.173754 0.374166 0.0641489
0.20264 0.374166 0.0641489
0.232563 0.374166 0.0641489
0.263447 0.374166 0.0641489
0.295094 0.374166 0.0641489
0.327276 0.374166 0.0641489
0.359609 0.374166 0.0641489
0.39173 0.374166 0.0641489
0.423301 0.374166 0.0641489
0.454032 0.374166 0.0641489
0.483742 0.374166 0.0641489
0.512322 0.374166 0.0641489
0.539666 0.374166 0.0641489
0.565744 0.374166 0.0641489
0.590494 0.374166 0.0641489
0.613855 0.374166 0.0641489
0.635737 0.374166 0.0641489
0.656062 0.374166 0.0641489
0.674754 0.374166 0.0641489
0.691722 0.374166 0.0641489
0.70695 0.374166 0.0641489
0.720409 0.374166 0.0641489
0.732143 0.374166 0.0641489
0.742214 0.374166 0.0641489
0.750744 0.374166 0.0641489
0.757885 0.374166 0.0641489
0.76379 0.374166 0.0641489
0.0179599 0.399954 0.0641489
0.0442512 0.399954 0.0641489
0.0683146 0.399954 0.0641489
0.0932174 0.399954 0.0641489
0.119066 0.399954 0.0641489
0.145892 0.399954 0.0641489
0.173754 0.399954 0.0641489
0.20264 0.399954 0.0641489
0.232563 0.399954 0.0641489
0.263447 0.399954 0.0641489
0.295094 0.399954 0.0641489
0.327276 0.399954 0.0641489
0.359609 0.399954 0.0641489
0.39173 0.399954 0.0641489
0.423301 0.399954 0.0641489
0.454032 0.399954 0.0641489
0.483742 0.399954 0.0641489
0.512322 0.399954 0.0641489
0.539666 0.399954 0.0641489
0.565744 0.399954 0.0641489
0.590494 0.399954 0.0641489
0.613855 0.399954 0.0641489
0.635737 0.399954 0.0641489
0.656062 0.399954 0.0641489
0.674754 0.399954 0.0641489
0.691722 0.399954 0.0641489
0.70695 0.399954 0.0641489
0.720409 0.399954 0.0641489
0.732143 0.399954 0.0641489
0.742214 0.399954 0.0641489
0.750744 0.399954 0.0641489
0.757885 0.399954 0.0641489
0.76379 0.399954 0.0641489
0.0179599 0.425116 0.0641489
0.0442512 0.425116 0.0641489
0.0683146 0.425116 0.0641489
0.0932174 0.425116 0.0641489
0.119066 0.425116 0.0641489
0.145892 0.425116 0.0641489
0.173754 0.425116 0.0641489
0.20264 0.425116 0.0641489
0.232563 0.425116 0.0641489
0.263447 0.425116 0.0641489
0.295094 0.425116 0.0641489
0.327276 0.425116 0.0641489
0.359609 0.425116 0.0641489
0.39173 0.425116 0.0641489
0.423301 0.425116 0.0641489
0.454032 0.425116 0.0641489
0.483742 0.425116 0.0641489
0.512322 0.425116 0.0641489
0.539666 0.425116 0.0641489
0.565744 0.425116 0.0641489
0.590494 0.425116 0.0641489
0.613855 0.425116 0.0641489
0.635737 0.425116 0.0641489
0.656062 0.425116 0.0641489
0.674754 0.425116 0.0641489
0.691722 0.425116 0.0641489
0.70695 0.425116 0.0641489
0.720409 0.425116 0.0641489
0.732143 0.425116 0.0641489
0.742214 0.425116 0.0641489
0.750744 0.425116 0.0641489
0.757885 0.425116 0.0641489
0.76379 0.425116 0.0641489
0.0179599 0.449577 0.0641489
0.0442512 0.449577 0.0641489
0.0683146 0.449577 0.0641489
0.0932174 0.449577 0.0641489
0.119066 0.449577 0.0641489
0.145892 0.449577 0.0641489
0.173754 0.449577 0.0641489
0.20264 0.449577 0.0641489
0.232563 0.449577 0.0641489
0.263447 0.449577 0.0641489
0.295094 0.449577 0.0641489
0.327276 0.449577 0.0641489
0.359609 0.449577 0.0641489
0.39173 0.449577 0.0641489
0.423301 0.449577 0.0641489
0.454032 0.449577 0.0641489
0.483742 0.449577 0.0641489
0.512322 0.449577 0.0641489
0.539666 0.449577 0.0641489
0.565744 0.449577 0.0641489
0.590494 0.449577 0.0641489
0.613855 0.449577 0.0641489
0.635737 0.449577 0.0641489
0.656062 0.449577 0.0641489
0.674754 0.449577 0.0641489
0.691722 0.449577 0.0641489
0.70695 0.449577 0.0641489
0.720409 0.449577 0.0641489
0.732143 0.449577 0.0641489
0.742214 0.449577 0.0641489
0.750744 0.449577 0.0641489
0.757885 0.449577 0.0641489
0.76379 0.449577 0.0641489
0.0179599 0.473243 0.0641489
0.0442512 0.473243 0.0641489
0.0683146 0.473243 0.0641489
0.0932174 0.473243 0.0641489
0.119066 0.473243 0.0641489
0.145892 0.473243 0.0641489
0.173754 0.473243 0.0641489
0.20264 0.473243 0.0641489
0.232563 0.473243 0.0641489
0.263447 0.473243 0.0641489
0.295094 0.473243 0.0641489
0.327276 0.473243 0.0641489
0.359609 0.473243 0.0641489
0.39173 0.473243 0.0641489
0.423301 0.473243 0.0641489
0.454032 0.473243 0.0641489
0.483742 0.473243 0.0641489
0.512322 0.473243 0.0641489
0.539666 0.473243 0.0641489
0.565744 0.473243 0.0641489
0.590494 0.473243 0.0641489
0.613855 0.473243 0.0641489
0.635737 0.473243 0.0641489
0.656062 0.473243 0.0641489
0.674754 0.473243 0.0641489
0.691722 0.473243 0.0641489
0.70695 0.473243 0.0641489
0.720409 0.473243 0.0641489
0.732143 0.473243 0.0641489
0.742214 0.473243 0.0641489
0.750744 0.473243 0.0641489
0.757885 0.473243 0.0641489
0.76379 0.473243 0.0641489
0.0179599 0.496117 0.0641489
0.0442512 0.496117 0.0641489
0.0683146 0.496117 0.0641489
0.0932174 0.496117 0.0641489
0.119066 0.496117 0.0641489
0.145892 0.496117 0.0641489
0.173754 0.496117 0.0641489
0.20264 0.496117 0.0641489
0.232563 0.496117 0.0641489
0.263447 0.496117 0.0641489
0.295094 0.496117 0.0641489
0.327276 0.496117 0.0641489
0.359609 0.496117 0.0641489
0.39173 0.496117 0.0641489
0.423301 0.496117 0.0641489
0.454032 0.496117 0.0641489
0.483742 0.496117 0.0641489
0.512322 0.496117 0.0641489
0.539666 0.496117 0.0641489
0.565744 0.496117 0.0641489
0.590494 0.496117 0.0641489
0.613855 0.496117 0.0641489
0.635737 0.496117 0.0641489
0.656062 0.496117 0.0641489
0.674754 0.496117 0.0641489
0.691722 0.496117 0.0641489
0.70695 0.496117 0.0641489
0.720409 0.496117 0.0641489
0.732143 0.496117 0.0641489
0.742214 0.496117 0.0641489
0.750744 0.496117 0.0641489
0.757885 0.496117 0.0641489
0.76379 0.496117 0.0641489
0.0179599 0.518166 0.0641489
0.0442512 0.518166 0.0641489
0.0683146 0.518166 0.0641489
0.0932174 0.518166 0.0641489
0.119066 0.518166 0.0641489
0.145892 0.518166 0.0641489
0.173754 0.518166 0.0641489
0.20264 0.518166 0.0641489
0.232563 0.518166 0.0641489
0.263447 0.518166 0.0641489
0.295094 0.518166 0.0641489
0.327276 0.518166 0.0641489
0.359609 0.518166 0.0641489
0.39173 0.518166 0.0641489
0.423301 0.518166 0.0641489
0.454032 0.518166 0.0641489
0.483742 0.518166 0.0641489
0.512322 0.518166 0.0641489
0.539666 0.518166 0.0641489
0.565744 0.518166 0.0641489
0.590494 0.518166 0.0641489
0.613855 0.518166 0.0641489
0.635737 0.518166 0.0641489
0.656062 0.518166 0.0641489
0.674754 0.518166 0.0641489
0.691722 0.518166 0.0641489
0.70695 0.518166 0.0641489
0.720409 0.518166 0.0641489
0.732143 0.518166 0.0641489
0.742214 0.518166 0.0641489
0.750744 0.518166 0.0641489
0.757885 0.518166 0.0641489
0.76379 0.518166 0.0641489
0.0179599 0.539376 0.0641489
0.0442512 0.539376 0.0641489
0.0683146 0.539376 0.0641489
0.0932174 0.539376 0.0641489
0.119066 0.539376 0.0641489
0.145892 0.539376 0.0641489
0.173754 0.539376 0.0641489
0.20264 0.539376 0.0641489
0.232563 0.539376 0.0641489
0.263447 0.539376 0.0641489
0.295094 0.539376 0.0641489
0.327276 0.539376 0.0641489
0.359609 0.539376 0.0641489
0.39173 0.539376 0.0641489
0.423301 0.539376 0.0641489
0.454032 0.539376 0.0641489
0.483742 0.539376 0.0641489
0.512322 0.539376 0.0641489
0.539666 0.539376 0.0641489
0.565744 0.539376 0.0641489
0.590494 0.539376 0.0641489
0.613855 0.539376 0.0641489
0.635737 0.539376 0.0641489
0.656062 0.539376 0.0641489
0.674754 0.539376 0.0641489
0.691722 0.539376 0.0641489
0.70695 0.539376 0.0641489
0.720409 0.539376 0.0641489
0.732143 0.539376 0.0641489
0.742214 0.539376 0.0641489
0.750744 0.539376 0.0641489
0.757885 0.539376 0.0641489
0.76379 0.539376 0.0641489
0.0179599 0.559731 0.0641489
0.0442512 0.559731 0.0641489
0.0683146 0.559731 0.0641489
0.0932174 0.559731 0.0641489
0.119066 0.559731 0.0641489
0.145892 0.559731 0.0641489
0.173754 0.559731 0.0641489
0.20264 0.559731 0.0641489
0.232563 0.559731 0.0641489
0.263447 0.559731 0.0641489
0.295094 0.559731 0.0641489
0.327276 0.559731 0.0641489
0.359609 0.559731 0.0641489
0.39173 0.559731 0.0641489
0.423301 0.559731 0.0641489
0.454032 0.559731 0.0641489
0.483742 0.559731 0.0641489
0.512322 0.559731 0.0641489
0.539666 0.559731 0.0641489
0.565744 0.559731 0.0641489
0.590494 0.559731 0.0641489
0.613855 0.559731 0.0641489
0.635737 0.559731 0.0641489
0.656062 0.559731 0.0641489
0.674754 0.559731 0.0641489
0.691722 0.559731 0.0641489
0.70695 0.559731 0.0641489
0.720409 0.559731 0.0641489
0.732143 0.559731 0.0641489
0.742214 0.559731 0.0641489
0.750744 0.559731 0.0641489
0.757885 0.559731 0.0641489
0.76379 0.559731 0.0641489
0.0179599 0.579217 0.0641489
0.0442512 0.579217 0.0641489
0.0683146 0.579217 0.0641489
0.0932174 0.579217 0.0641489
0.119066 0.579217 0.0641489
0.145892 0.579217 0.0641489
0.173754 0.579217 0.0641489
0.20264 0.579217 0.0641489
0.232563 0.579217 0.0641489
0.263447 0.579217 0.0641489
0.295094 0.579217 0.0641489
0.327276 0.579217 0.0641489
0.359609 0.579217 0.0641489
0.39173 0.579217 0.0641489
0.423301 0.579217 0.0641489
0.454032 0.579217 0.0641489
0.483742 0.579217 0.0641489
0.512322 0.579217 0.0641489
0.539666 0.579217 0.0641489
0.565744 0.579217 0.0641489
0.590494 0.579217 0.0641489
0.613855 0.579217 0.0641489
0.635737 0.579217 0.0641489
0.656062 0.579217 0.0641489
0.674754 0.579217 0.0641489
0.691722 0.579217 0.0641489
0.70695 0.579217 0.0641489
0.720409 0.579217 0.0641489
0.732143 0.579217 0.0641489
0.742214 0.579217 0.0641489
0.750744 0.579217 0.0641489
0.757885 0.579217 0.0641489
0.76379 0.579217 0.0641489
0.0179599 0.597803 0.0641489
0.0442512 0.597803 0.0641489
0.0683146 0.597803 0.0641489
0.0932174 0.597803 0.0641489
0.119066 0.597803 0.0641489
0.145892 0.597803 0.0641489
0.173754 0.597803 0.0641489
0.20264 0.597803 0.0641489
0.232563 0.597803 0.0641489
0.263447 0.597803 0.0641489
0.295094 0.597803 0.0641489
0.327276 0.597803 0.0641489
0.359609 0.597803 0.0641489
0.39173 0.597803 0.0641489
0.423301 0.597803 0.0641489
0.454032 0.597803 0.0641489
0.483742 0.597803 0.0641489
0.512322 0.597803 0.0641489
0.539666 0.597803 0.0641489
0.565744 0.597803 0.0641489
0.590494 0.597803 0.0641489
0.613855 0.597803 0.0641489
0.635737 0.597803 0.0641489
0.656062 0.597803 0.0641489
0.674754 0.597803 0.0641489
0.691722 0.597803 0.0641489
0.70695 0.597803 0.0641489
0.720409 0.597803 0.0641489
0.732143 0.597803 0.0641489
0.742214 0.597803 0.0641489
0.750744 0.597803 0.0641489
0.757885 0.597803 0.0641489
0.76379 0.597803 0.0641489
0.0179599 0.615457 0.0641489
0.0442512 0.615457 0.0641489
0.0683146 0.615457 0.0641489
0.0932174 0.615457 0.0641489
0.119066 0.615457 0.0641489
0.145892 0.615457 0.0641489
0.173754 0.615457 0.0641489
0.20264 0.615457 0.0641489
0.232563 0.615457 0.0641489
0.263447 0.615457 0.0641489
0.295094 0.615457 0.0641489
0.327276 0.615457 0.0641489
0.359609 0.615457 0.0641489
0.39173 0.615457 0.0641489
0.423301 0.615457 0.0641489
0.454032 0.615457 0.0641489
0.483742 0.615457 0.0641489
0.512322 0.615457 0.0641489
0.539666 0.615457 0.0641489
0.565744 0.615457 0.0641489
0.590494 0.615457 0.0641489
0.613855 0.615457 0.0641489
0.635737 0.615457 0.0641489
0.656062 0.615457 0.0641489
0.674754 0.615457 0.0641489
0.691722 0.615457 0.0641489
0.70695 0.615457 0.0641489
0.720409 0.615457 0.0641489
0.732143 0.615457 0.0641489
0.742214 0.615457 0.0641489
0.750744 0.615457 0.0641489
0.757885 0.615457 0.0641489
0.76379 0.615457 0.0641489
0.0179599 0.632136 0.0641489
0.0442512 0.632136 0.0641489
0.0683146 0.632136 0.0641489
0.0932174 0.632136 0.0641489
0.119066 0.632136 0.0641489
0.145892 0.632136 0.0641489
0.173754 0.632136 0.0641489
0.20264 0.632136 0.0641489
0.232563 0.632136 0.0641489
0.263447 0.632136 0.0641489
0.295094 0.632136 0.0641489
0.327276 0.632136 0.0641489
0.359609 0.632136 0.0641489
0.39173 0.632136 0.0641489
0.423301 0.632136 0.0641489
0.454032 0.632136 0.0641489
0.483742 0.632136 0.0641489
0.512322 0.632136 0.0641489
0.539666 0.632136 0.0641489
0.565744 0.632136 0.0641489
0.590494 0.632136 0.0641489
0.613855 0.632136 0.0641489
0.635737 0.632136 0.0641489
0.656062 0.632136 0.0641489
0.674754 0.632136 0.0641489
0.691722 0.632136 0.0641489
0.70695 0.632136 0.0641489
0.720409 0.632136 0.0641489
0.732143 0.632136 0.0641489
