2499DRT/STP-2399Log-ClassicReversal.cube
TITLE "Generated by Resolve"
LUT_3D_SIZE 9
0.0621042 0.0381476 0.0262913
0.107988 0.0381476 0.0262913
0.202747 0.0381476 0.0262913
0.32871 0.0381476 0.0262913
0.44799 0.0381476 0.0262913
0.548943 0.0381476 0.0262913
0.637629 0.0381476 0.0262913
0.71989 0.0381476 0.0262913
0.798932 0.0381476 0.0262913
0.0621042 0.0933852 0.0262913
0.107988 0.0933852 0.0262913
0.202747 0.0933852 0.0262913
0.32871 0.0933852 0.0262913
0.44799 0.0933852 0.0262913
0.548943 0.0933852 0.0262913
0.637629 0.0933852 0.0262913
0.71989 0.0933852 0.0262913
0.798932 0.0933852 0.0262913
0.0621042 0.214343 0.0262913
0.107988 0.214343 0.0262913
0.202747 0.214343 0.0262913
0.32871 0.214343 0.0262913
0.44799 0.214343 0.0262913
0.548943 0.214343 0.0262913
0.637629 0.214343 0.0262913
0.71989 0.214343 0.0262913
0.798947 0.214343 0.0262913
0.0621042 0.364614 0.0262913
0.107988 0.364614 0.0262913
0.202747 0.364614 0.0262913
0.32871 0.364614 0.0262913
0.44799 0.364614 0.0262913
0.548943 0.364614 0.0262913
0.637629 0.364614 0.0262913
0.71989 0.364614 0.0262913
0.798947 0.364614 0.0262913
0.0621042 0.492485 0.0262913
0.107988 0.492485 0.0262913
0.202747 0.492485 0.0262913
0.32871 0.492485 0.0262913
0.44799 0.492485 0.0262913
0.548943 0.492485 0.0262913
0.637629 0.492485 0.0262913
0.71989 0.492485 0.0262913
0.798947 0.492485 0.0262913
0.0621042 0.590173 0.0262913
0.107988 0.590173 0.0262913
0.202747 0.590173 0.0262913
0.32871 0.590173 0.0262913
0.44799 0.590173 0.0262913
0.548943 0.590173 0.0262913
0.637629 0.590173 0.0262913
0.71989 0.590173 0.0262913
0.798947 0.590173 0.0262913
0.0621042 0.661662 0.0262913
0.107988 0.661662 0.0262913
0.202747 0.661662 0.0262913
0.32871 0.661662 0.0262913
0.44799 0.661662 0.0262913
0.548943 0.661662 0.0262913
0.637629 0.661662 0.0262913
0.71989 0.661662 0.0262913
0.798947 0.661662 0.0262913
0.0621042 0.70811 0.0262913
0.107988 0.70811 0.0262913
0.202747 0.70811 0.0262913
0.32871 0.70811 0.0262913
0.44799 0.70811 0.0262913
0.548943 0.70811 0.0262913
0.637629 0.70811 0.0262913
0.71989 0.70811 0.0262913
0.798947 0.70811 0.0262913
0.0621042 0.733669 0.0262913
0.107988 0.733669 0.0262913
0.202747 0.733669 0.0262913
0.32871 0.733669 0.0262913
0.44799 0.733669 0.0262913
0.548943 0.733669 0.0262913
0.637629 0.733669 0.0262913
0.71989 0.733669 0.0262913
0.798947 0.733669 0.0262913
0.0621042 0.0381476 0.0999466
0.107988 0.0381476 0.0999466
0.202747 0.0381476 0.0999466
0.32871 0.0381476 0.0999466
0.44799 0.0381476 0.0999466
0.548943 0.0381476 0.0999466
0.637629 0.0381476 0.0999466
0.71989 0.0381476 0.0999466
0.798932 0.0381476 0.0999466
0.0621042 0.0933852 0.0999466
0.107988 0.0933852 0.0999466
0.202747 0.0933852 0.0999466
0.32871 0.0933852 0.0999466
0.44799 0.0933852 0.0999466
0.548943 0.0933852 0.0999466
0.637629 0.0933852 0.0999466
0.71989 0.0933852 0.0999466
0.798947 0.0933852 0.0999466
0.0621042 0.214343 0.0999466
0.107988 0.214343 0.0999466
0.202747 0.214343 0.0999466
0.32871 0.214343 0.0999466
0.44799 0.214343 0.0999466
0.548943 0.214343 0.0999466
0.637629 0.214343 0.0999466
0.71989 0.214343 0.0999466
0.798947 0.214343 0.0999466
0.0621042 0.364614 0.0999466
0.107988 0.364614 0.0999466
0.202747 0.364614 0.0999466
0.32871 0.364614 0.0999466
0.44799 0.364614 0.0999466
0.548943 0.364614 0.0999466
0.637629 0.364614 0.0999466
0.71989 0.364614 0.0999466
0.798947 0.364614 0.0999466
0.0621042 0.492485 0.0999466
0.107988 0.492485 0.0999466
0.202747 0.492485 0.0999466
0.32871 0.492485 0.0999466
0.44799 0.492485 0.0999466
0.548943 0.492485 0.0999466
0.637629 0.492485 0.0999466
0.71989 0.492485 0.0999466
0.798947 0.492485 0.0999466
0.0621042 0.590173 0.0999466
0.107988 0.590173 0.0999466
0.202747 0.590173 0.0999466
0.32871 0.590173 0.0999466
0.44799 0.590173 0.0999466
0.548943 0.590173 0.0999466
0.637629 0.590173 0.0999466
0.71989 0.590173 0.0999466
0.798947 0.590173 0.0999466
0.0621042 0.661662 0.0999466
0.107988 0.661662 0.0999466
0.202747 0.661662 0.0999466
0.32871 0.661662 0.0999466
0.44799 0.661662 0.0999466
0.548943 0.661662 0.0999466
0.637629 0.661662 0.0999466
0.71989 0.661662 0.0999466
0.798947 0.661662 0.0999466
0.0621042 0.70811 0.0999466
0.107988 0.70811 0.0999466
0.202747 0.70811 0.0999466
0.32871 0.70811 0.0999466
0.44799 0.70811 0.0999466
0.548943 0.70811 0.0999466
0.637629 0.70811 0.0999466
0.71989 0.70811 0.0999466
0.798947 0.70811 0.0999466
0.0621042 0.733669 0.0999466
0.107988 0.733669 0.0999466
0.202747 0.733669 0.0999466
0.32871 0.733669 0.0999466
0.44799 0.733669 0.0999466
0.548943 0.733669 0.0999466
0.637629 0.733669 0.0999466
0.71989 0.733669 0.0999466
0.798947 0.733669 0.0999466
0.0621042 0.0381476 0.236194
0.107988 0.0381476 0.236194
0.202747 0.0381476 0.236194
0.32871 0.0381476 0.236194
0.44799 0.0381476 0.236194
0.548943 0.0381476 0.236194
0.637629 0.0381476 0.236194
0.71989 0.0381476 0.236194
0.798947 0.0381476 0.236194
0.0621042 0.0933852 0.236194
0.107988 0.0933852 0.236194
0.202747 0.0933852 0.236194
0.32871 0.0933852 0.236194
0.44799 0.0933852 0.236194
0.548943 0.0933852 0.236194
0.637629 0.0933852 0.236194
0.71989 0.0933852 0.236194
0.798947 0.0933852 0.236194
0.0621042 0.214343 0.236194
0.107988 0.214343 0.236194
0.202747 0.214343 0.236194
0.32871 0.214343 0.236194
0.44799 0.214343 0.236194
0.548943 0.214343 0.236194
0.637629 0.214343 0.236194
0.71989 0.214343 0.236194
0.798947 0.214343 0.236194
0.0621042 0.364614 0.236194
0.107988 0.364614 0.236194
0.202747 0.364614 0.236194
0.32871 0.364614 0.236194
0.44799 0.364614 0.236194
0.548943 0.364614 0.236194
0.637629 0.364614 0.236194
0.71989 0.364614 0.236194
0.798947 0.364614 0.236194
0.0621042 0.492485 0.236194
0.107988 0.492485 0.236194
0.202747 0.492485 0.236194
0.32871 0.492485 0.236194
0.44799 0.492485 0.236194
0.548943 0.492485 0.236194
0.637629 0.492485 0.236194
0.71989 0.492485 0.236194
0.798947 0.492485 0.236194
0.0621042 0.590173 0.236194
0.107988 0.590173 0.236194
0.202747 0.590173 0.236194
0.32871 0.590173 0.236194
0.44799 0.590173 0.236194
0.548943 0.590173 0.236194
0.637629 0.590173 0.236194
0.71989 0.590173 0.236194
0.798947 0.590173 0.236194
0.0621042 0.661662 0.236194
0.107988 0.661662 0.236194
0.202747 0.661662 0.236194
0.32871 0.661662 0.236194
0.44799 0.661662 0.236194
0.548943 0.661662 0.236194
0.637629 0.661662 0.236194
0.71989 0.661662 0.236194
0.798947 0.661662 0.236194
0.0621042 0.70811 0.236194
0.107988 0.70811 0.236194
0.202747 0.70811 0.236194
0.32871 0.70811 0.236194
0.44799 0.70811 0.236194
0.548943 0.70811 0.236194
0.637629 0.70811 0.236194
0.71989 0.70811 0.236194
0.798947 0.70811 0.236194
0.0621042 0.733669 0.236194
0.107988 0.733669 0.236194
0.202747 0.733669 0.236194
0.32871 0.733669 0.236194
0.44799 0.733669 0.236194
0.548943 0.733669 0.236194
0.637629 0.733669 0.236194
0.71989 0.733669 0.236194
0.798947 0.733669 0.236194
0.0621042 0.0381476 0.390967
0.107988 0.0381476 0.390967
0.202747 0.0381476 0.390967
0.32871 0.0381476 0.390967
0.44799 0.0381476 0.390967
0.548943 0.0381476 0.390967
0.637629 0.0381476 0.390967
0.71989 0.0381476 0.390967
0.798947 0.0381476 0.390967
0.0621042 0.0933852 0.390967
0.107988 0.0933852 0.390967
0.202747 0.0933852 0.390967
0.32871 0.0933852 0.390967
0.44799 0.0933852 0.390967
0.548943 0.0933852 0.390967
0.637629 0.0933852 0.390967
0.71989 0.0933852 0.390967
0.798947 0.0933852 0.390967
0.0621042 0.214343 0.390967
0.107988 0.214343 0.390967
0.202747 0.214343 0.390967
0.32871 0.214343 0.390967
0.44799 0.214343 0.390967
0.548943 0.214343 0.390967
0.637629 0.214343 0.390967
0.71989 0.214343 0.390967
0.798947 0.214343 0.390967
0.0621042 0.364614 0.390967
0.107988 0.364614 0.390967
0.202747 0.364614 0.390967
0.32871 0.364614 0.390967
0.44799 0.364614 0.390967
0.548943 0.364614 0.390967
0.637629 0.364614 0.390967
0.71989 0.364614 0.390967
0.798947 0.364614 0.390967
0.0621042 0.492485 0.390967
0.107988 0.492485 0.390967
0.202747 0.492485 0.390967
0.32871 0.492485 0.390967
0.44799 0.492485 0.390967
0.548943 0.492485 0.390967
0.637629 0.492485 0.390967
0.71989 0.492485 0.390967
0.798947 0.492485 0.390967
0.0621042 0.590173 0.390967
0.107988 0.590173 0.390967
0.202747 0.590173 0.390967
0.32871 0.590173 0.390967
0.44799 0.590173 0.390967
0.548943 0.590173 0.390967
0.637629 0.590173 0.390967
0.71989 0.590173 0.390967
0.798947 0.590173 0.390967
0.0621042 0.661662 0.390967
0.107988 0.661662 0.390967
0.202747 0.661662 0.390967
0.32871 0.661662 0.390967
0.44799 0.661662 0.390967
0.548943 0.661662 0.390967
0.637629 0.661662 0.390967
0.71989 0.661662 0.390967
0.798947 0.661662 0.390967
0.0621042 0.70811 0.390967
0.107988 0.70811 0.390967
0.202747 0.70811 0.390967
0.32871 0.70811 0.390967
0.44799 0.70811 0.390967
0.548943 0.70811 0.390967
0.637629 0.70811 0.390967
0.71989 0.70811 0.390967
0.798947 0.70811 0.390967
0.0621042 0.733669 0.390967
0.107988 0.733669 0.390967
0.202747 0.733669 0.390967
0.32871 0.733669 0.390967
0.44799 0.733669 0.390967
0.548943 0.733669 0.390967
0.637629 0.733669 0.390967
0.71989 0.733669 0.390967
0.798947 0.733669 0.390967
0.0621042 0.0381476 0.514733
0.107988 0.0381476 0.514733
0.202747 0.0381476 0.514733
0.32871 0.0381476 0.514733
0.44799 0.0381476 0.514733
0.548943 0.0381476 0.514733
0.637629 0.0381476 0.514733
0.71989 0.0381476 0.514733
0.798947 0.0381476 0.514733
0.0621042 0.0933852 0.514733
0.107988 0.0933852 0.514733
0.202747 0.0933852 0.514733
0.32871 0.0933852 0.514733
0.44799 0.0933852 0.514733
0.548943 0.0933852 0.514733
0.637629 0.0933852 0.514733
0.71989 0.0933852 0.514733
0.798947 0.0933852 0.514733
0.0621042 0.214343 0.514733
0.107988 0.214343 0.514733
0.202747 0.214343 0.514733
0.32871 0.214343 0.514733
0.44799 0.214343 0.514733
0.548943 0.214343 0.514733
0.637629 0.214343 0.514733
0.71989 0.214343 0.514733
0.798947 0.214343 0.514733
0.0621042 0.364614 0.514733
0.107988 0.364614 0.514733
0.202747 0.364614 0.514733
0.32871 0.364614 0.514733
0.44799 0.364614 0.514733
0.548943 0.364614 0.514733
0.637629 0.364614 0.514733
0.71989 0.364614 0.514733
0.798947 0.364614 0.514733
0.0621042 0.492485 0.514733
0.107988 0.492485 0.514733
0.202747 0.492485 0.514733
0.32871 0.492485 0.514733
0.44799 0.492485 0.514733
0.548943 0.492485 0.514733
0.637629 0.492485 0.514733
0.71989 0.492485 0.514733
0.798947 0.492485 0.514733
0.0621042 0.590173 0.514733
0.107988 0.590173 0.514733
0.202747 0.590173 0.514733
0.32871 0.590173 0.514733
0.44799 0.590173 0.514733
0.548943 0.590173 0.514733
0.637629 0.590173 0.514733
0.71989 0.590173 0.514733
0.798947 0.590173 0.514733
0.0621042 0.661662 0.514733
0.107988 0.661662 0.514733
0.202747 0.661662 0.514733
0.32871 0.661662 0.514733
0.44799 0.661662 0.514733
0.548943 0.661662 0.514733
0.637629 0.661662 0.514733
0.71989 0.661662 0.514733
0.798947 0.661662 0.514733
0.0621042 0.70811 0.514733
0.107988 0.70811 0.514733
0.202747 0.70811 0.514733
0.32871 0.70811 0.514733
0.44799 0.70811 0.514733
0.548943 0.70811 0.514733
0.637629 0.70811 0.514733
0.71989 0.70811 0.514733
0.798947 0.70811 0.514733
0.0621042 0.733669 0.514733
0.107988 0.733669 0.514733
0.202747 0.733669 0.514733
0.32871 0.733669 0.514733
0.44799 0.733669 0.514733
0.548943 0.733669 0.514733
0.637629 0.733669 0.514733
0.71989 0.733669 0.514733
0.798947 0.733669 0.514733
0.0621042 0.0381476 0.595865
0.107988 0.0381476 0.595865
0.202747 0.0381476 0.595865
0.32871 0.0381476 0.595865
0.44799 0.0381476 0.595865
0.548943 0.0381476 0.595865
0.637629 0.0381476 0.595865
0.71989 0.0381476 0.595865
0.798947 0.0381476 0.595865
0.0621042 0.0933852 0.595865
0.107988 0.0933852 0.595865
0.202747 0.0933852 0.595865
0.32871 0.0933852 0.595865
0.44799 0.0933852 0.595865
0.548943 0.0933852 0.595865
0.637629 0.0933852 0.595865
0.71989 0.0933852 0.595865
0.798947 0.0933852 0.595865
0.0621042 0.214343 0.595865
0.107988 0.214343 0.595865
0.202747 0.214343 0.595865
0.32871 0.214343 0.595865
0.44799 0.214343 0.595865
0.548943 0.214343 0.595865
0.637629 0.214343 0.595865
0.71989 0.214343 0.595865
0.798947 0.214343 0.595865
0.0621042 0.364614 0.595865
0.107988 0.364614 0.595865
0.202747 0.364614 0.595865
0.32871 0.364614 0.595865
0.44799 0.364614 0.595865
0.548943 0.364614 0.595865
0.637629 0.364614 0.595865
0.71989 0.364614 0.595865
0.798947 0.364614 0.595865
0.0621042 0.492485 0.595865
0.107988 0.492485 0.595865
0.202747 0.492485 0.595865
0.32871 0.492485 0.595865
0.44799 0.492485 0.595865
0.548943 0.492485 0.595865
0.637629 0.492485 0.595865
0.71989 0.492485 0.595865
0.798947 0.492485 0.595865
0.0621042 0.590173 0.595865
0.107988 0.590173 0.595865
0.202747 0.590173 0.595865
0.32871 0.590173 0.595865
0.44799 0.590173 0.595865
0.548943 0.590173 0.595865
0.637629 0.590173 0.595865
0.71989 0.590173 0.595865
0.798947 0.590173 0.595865
0.0621042 0.661662 0.595865
0.107988 0.661662 0.595865
0.202747 0.661662 0.595865
0.32871 0.661662 0.595865
0.44799 0.661662 0.595865
0.548943 0.661662 0.595865
0.637629 0.661662 0.595865
0.71989 0.661662 0.595865
0.798947 0.661662 0.595865
0.0621042 0.70811 0.595865
0.107988 0.70811 0.595865
0.202747 0.70811 0.595865
0.32871 0.70811 0.595865
0.44799 0.70811 0.595865
0.548943 0.70811 0.595865
0.637629 0.70811 0.595865
0.71989 0.70811 0.595865
0.798947 0.70811 0.595865
0.0621042 0.733669 0.595865
0.107988 0.733669 0.595865
0.202747 0.733669 0.595865
0.32871 0.733669 0.595865
0.44799 0.733669 0.595865
0.548943 0.733669 0.595865
0.637629 0.733669 0.595865
0.71989 0.733669 0.595865
0.798947 0.733669 0.595865
0.0621042 0.0381476 0.638773
0.107988 0.0381476 0.638773
0.202747 0.0381476 0.638773
0.32871 0.0381476 0.638773
0.44799 0.0381476 0.638773
0.548943 0.0381476 0.638773
0.637629 0.0381476 0.638773
0.71989 0.0381476 0.638773
0.798947 0.0381476 0.638773
0.0621042 0.0933852 0.638773
0.107988 0.0933852 0.638773
0.202747 0.0933852 0.638773
0.32871 0.0933852 0.638773
0.44799 0.0933852 0.638773
0.548943 0.0933852 0.638773
0.637629 0.0933852 0.638773
0.71989 0.0933852 0.638773
0.798947 0.0933852 0.638773
0.0621042 0.214343 0.638773
0.107988 0.214343 0.638773
0.202747 0.214343 0.638773
0.32871 0.214343 0.638773
0.44799 0.214343 0.638773
0.548943 0.214343 0.638773
0.637629 0.214343 0.638773
0.71989 0.214343 0.638773
0.798947 0.214343 0.638773
0.0621042 0.364614 0.638773
0.107988 0.364614 0.638773
0.202747 0.364614 0.638773
0.32871 0.364614 0.638773
0.44799 0.364614 0.638773
0.548943 0.364614 0.638773
0.637629 0.364614 0.638773
0.71989 0.364614 0.638773
0.798947 0.364614 0.638773
0.0621042 0.492485 0.638773
0.107988 0.492485 0.638773
0.202747 0.492485 0.638773
0.32871 0.492485 0.638773
0.44799 0.492485 0.638773
0.548943 0.492485 0.638773
0.637629 0.492485 0.638773
0.71989 0.492485 0.638773
0.798947 0.492485 0.638773
0.0621042 0.590173 0.638773
0.107988 0.590173 0.638773
0.202747 0.590173 0.638773
0.32871 0.590173 0.638773
0.44799 0.590173 0.638773
0.548943 0.590173 0.638773
0.637629 0.590173 0.638773
0.71989 0.590173 0.638773
0.798947 0.590173 0.638773
0.0621042 0.661662 0.638773
0.107988 0.661662 0.638773
0.202747 0.661662 0.638773
0.32871 0.661662 0.638773
0.44799 0.661662 0.638773
0.548943 0.661662 0.638773
0.637629 0.661662 0.638773
0.71989 0.661662 0.638773
0.798947 0.661662 0.638773
0.0621042 0.70811 0.638773
0.107988 0.70811 0.638773
0.202747 0.70811 0.638773
0.32871 0.70811 0.638773
0.44799 0.70811 0.638773
0.548943 0.70811 0.638773
0.637629 0.70811 0.638773
0.71989 0.70811 0.638773
0.798947 0.70811 0.638773
0.0621042 0.733669 0.638773
0.107988 0.733669 0.638773
0.202747 0.733669 0.638773
0.32871 0.733669 0.638773
0.44799 0.733669 0.638773
0.548943 0.733669 0.638773
0.637629 0.733669 0.638773
0.71989 0.733669 0.638773
0.798947 0.733669 0.638773
0.0621042 0.0381476 0.65684
0.107988 0.0381476 0.65684
0.202747 0.0381476 0.65684
0.32871 0.0381476 0.65684
0.44799 0.0381476 0.65684
0.548943 0.0381476 0.65684
0.637629 0.0381476 0.65684
0.71989 0.0381476 0.65684
0.798947 0.0381476 0.65684
0.0621042 0.0933852 0.65684
0.107988 0.0933852 0.65684
0.202747 0.0933852 0.65684
0.32871 0.0933852 0.65684
0.44799 0.0933852 0.65684
0.548943 0.0933852 0.65684
0.637629 0.0933852 0.65684
0.71989 0.0933852 0.65684
0.798947 0.0933852 0.65684
0.0621042 0.214343 0.65684
0.107988 0.214343 0.65684
0.202747 0.214343 0.65684
0.32871 0.214343 0.65684
0.44799 0.214343 0.65684
0.548943 0.214343 0.65684
0.637629 0.214343 0.65684
0.71989 0.214343 0.65684
0.798947 0.214343 0.65684
0.0621042 0.364614 0.65684
0.107988 0.364614 0.65684
0.202747 0.364614 0.65684
0.32871 0.364614 0.65684
0.44799 0.364614 0.65684
0.548943 0.364614 0.65684
0.637629 0.364614 0.65684
0.71989 0.364614 0.65684
0.798947 0.364614 0.65684
0.0621042 0.492485 0.65684
0.107988 0.492485 0.65684
0.202747 0.492485 0.65684
0.32871 0.492485 0.65684
0.44799 0.492485 0.65684
0.548943 0.492485 0.65684
0.637629 0.492485 0.65684
0.71989 0.492485 0.65684
0.798947 0.492485 0.65684
0.0621042 0.590173 0.65684
0.107988 0.590173 0.65684
0.202747 0.590173 0.65684
0.32871 0.590173 0.65684
0.44799 0.590173 0.65684
0.548943 0.590173 0.65684
0.637629 0.590173 0.65684
0.71989 0.590173 0.65684
0.798947 0.590173 0.65684
0.0621042 0.661662 0.65684
0.107988 0.661662 0.65684
0.202747 0.661662 0.65684
0.32871 0.661662 0.65684
0.44799 0.661662 0.65684
0.548943 0.661662 0.65684
0.637629 0.661662 0.65684
0.71989 0.661662 0.65684
0.798947 0.661662 0.65684
0.0621042 0.70811 0.65684
0.107988 0.70811 0.65684
0.202747 0.70811 0.65684
0.32871 0.70811 0.65684
0.44799 0.70811 0.65684
0.548943 0.70811 0.65684
0.637629 0.70811 0.65684
0.71989 0.70811 0.65684
0.798947 0.70811 0.65684
0.0621042 0.733669 0.65684
0.107988 0.733669 0.65684
0.202747 0.733669 0.65684
0.32871 0.733669 0.65684
0.44799 0.733669 0.65684
0.548943 0.733669 0.65684
0.637629 0.733669 0.65684
0.71989 0.733669 0.65684
0.798947 0.733669 0.65684
0.0621042 0.0381476 0.663417
0.107988 0.0381476 0.663417
0.202747 0.0381476 0.663417
0.32871 0.0381476 0.663417
0.44799 0.0381476 0.663417
0.548943 0.0381476 0.663417
0.637629 0.0381476 0.663417
0.71989 0.0381476 0.663417
0.798947 0.0381476 0.663417
0.0621042 0.0933852 0.663417
0.107988 0.0933852 0.663417
0.202747 0.0933852 0.663417
0.32871 0.0933852 0.663417
0.44799 0.0933852 0.663417
0.548943 0.0933852 0.663417
0.637629 0.0933852 0.663417
0.71989 0.0933852 0.663417
0.798947 0.0933852 0.663417
0.0621042 0.214343 0.663417
0.107988 0.214343 0.663417
0.202747 0.214343 0.663417
0.32871 0.214343 0.663417
0.44799 0.214343 0.663417
0.548943 0.214343 0.663417
0.637629 0.214343 0.663417
0.71989 0.214343 0.663417
0.798947 0.214343 0.663417
0.0621042 0.364614 0.663417
0.107988 0.364614 0.663417
0.202747 0.364614 0.663417
0.32871 0.364614 0.663417
0.44799 0.364614 0.663417
0.548943 0.364614 0.663417
0.637629 0.364614 0.663417
0.71989 0.364614 0.663417
0.798947 0.364614 0.663417
0.0621042 0.492485 0.663417
0.107988 0.492485 0.663417
0.202747 0.492485 0.663417
0.32871 0.492485 0.663417
0.44799 0.492485 0.663417
0.548943 0.492485 0.663417
0.637629 0.492485 0.663417
0.71989 0.492485 0.663417
0.798947 0.492485 0.663417
0.0621042 0.590173 0.663417
0.107988 0.590173 0.663417
0.202747 0.590173 0.663417
0.32871 0.590173 0.663417
0.44799 0.590173 0.663417
0.548943 0.590173 0.663417
0.637629 0.590173 0.663417
0.71989 0.590173 0.663417
0.798947 0.590173 0.663417
0.0621042 0.661662 0.663417
0.107988 0.661662 0.663417
0.202747 0.661662 0.663417
0.32871 0.661662 0.663417
0.44799 0.661662 0.663417
0.548943 0.661662 0.663417
0.637629 0.661662 0.663417
0.71989 0.661662 0.663417
0.798947 0.661662 0.663417
0.0621042 0.70811 0.663417
0.107988 0.70811 0.663417
0.202747 0.70811 0.663417
0.32871 0.70811 0.663417
0.44799 0.70811 0.663417
0.548943 0.70811 0.663417
0.637629 0.70811 0.663417
0.71989 0.70811 0.663417
0.798947 0.70811 0.663417
0.0621042 0.733669 0.663417
0.107988 0.733669 0.663417
0.202747 0.733669 0.663417
0.32871 0.733669 0.663417
0.44799 0.733669 0.663417
0.548943 0.733669 0.663417
0.637629 0.733669 0.663417
0.71989 0.733669 0.663417
0.798947 0.733669 0.663417
