2499DRT/STP-2399Log-PrintV2.cube
TITLE "Generated by Resolve"
LUT_3D_SIZE 5
0.0605631 0.0765698 0.0667277
0.234577 0.0765698 0.0667277
0.5093 0.0765698 0.0667277
0.658366 0.0765698 0.0667277
0.703548 0.0765698 0.0667277
0.0605631 0.259968 0.0667277
0.234577 0.259968 0.0667277
0.5093 0.259968 0.0667277
0.658366 0.259968 0.0667277
0.703548 0.259968 0.0667277
0.0605631 0.513161 0.0667277
0.234577 0.513161 0.0667277
0.5093 0.513161 0.0667277
0.658366 0.513161 0.0667277
0.703548 0.513161 0.0667277
0.0605631 0.662715 0.0667277
0.234577 0.662715 0.0667277
0.5093 0.662715 0.0667277
0.658366 0.662715 0.0667277
0.703548 0.662715 0.0667277
0.0605631 0.709178 0.0667277
0.234577 0.709178 0.0667277
0.5093 0.709178 0.0667277
0.658366 0.709178 0.0667277
0.703548 0.709178 0.0667277
0.0605631 0.0765698 0.272801
0.234577 0.0765698 0.272801
0.5093 0.0765698 0.272801
0.658366 0.0765698 0.272801
0.703548 0.0765698 0.272801
0.0605631 0.259968 0.272801
0.234577 0.259968 0.272801
0.5093 0.259968 0.272801
0.658366 0.259968 0.272801
0.703548 0.259968 0.272801
0.0605631 0.513161 0.272801
0.234577 0.513161 0.272801
0.5093 0.513161 0.272801
0.658366 0.513161 0.272801
0.703548 0.513161 0.272801
0.0605631 0.662715 0.272801
0.234577 0.662715 0.272801
0.5093 0.662715 0.272801
0.658366 0.662715 0.272801
0.703548 0.662715 0.272801
0.0605631 0.709178 0.272801
0.234577 0.709178 0.272801
0.5093 0.709178 0.272801
0.658366 0.709178 0.272801
0.703548 0.709178 0.272801
0.0605631 0.0765698 0.506188
0.234577 0.0765698 0.506188
0.5093 0.0765698 0.506188
0.658366 0.0765698 0.506188
0.703548 0.0765698 0.506188
0.0605631 0.259968 0.506188
0.234577 0.259968 0.506188
0.5093 0.259968 0.506188
0.658366 0.259968 0.506188
0.703548 0.259968 0.506188
0.0605631 0.513161 0.506188
0.234577 0.513161 0.506188
0.5093 0.513161 0.506188
0.658366 0.513161 0.506188
0.703548 0.513161 0.506188
0.0605631 0.662715 0.506188
0.234577 0.662715 0.506188
0.5093 0.662715 0.506188
0.658366 0.662715 0.506188
0.703548 0.662715 0.506188
0.0605631 0.709178 0.506188
0.234577 0.709178 0.506188
0.5093 0.709178 0.506188
0.658366 0.709178 0.506188
0.703548 0.709178 0.506188
0.0605631 0.0765698 0.616999
0.234577 0.0765698 0.616999
0.5093 0.0765698 0.616999
0.658366 0.0765698 0.616999
0.703548 0.0765698 0.616999
0.0605631 0.259968 0.616999
0.234577 0.259968 0.616999
0.5093 0.259968 0.616999
0.658366 0.259968 0.616999
0.703548 0.259968 0.616999
0.0605631 0.513161 0.616999
0.234577 0.513161 0.616999
0.5093 0.513161 0.616999
0.658366 0.513161 0.616999
0.703548 0.513161 0.616999
0.0605631 0.662715 0.616999
0.234577 0.662715 0.616999
0.5093 0.662715 0.616999
0.658366 0.662715 0.616999
0.703548 0.662715 0.616999
0.0605631 0.709178 0.616999
0.234577 0.709178 0.616999
0.5093 0.709178 0.616999
0.658366 0.709178 0.616999
0.703548 0.709178 0.616999
0.0605631 0.0765698 0.649683
0.234577 0.0765698 0.649683
0.5093 0.0765698 0.649683
0.658366 0.0765698 0.649683
0.703548 0.0765698 0.649683
0.0605631 0.259968 0.649683
0.234577 0.259968 0.649683
0.5093 0.259968 0.649683
0.658366 0.259968 0.649683
0.703548 0.259968 0.649683
0.0605631 0.513161 0.649683
0.234577 0.513161 0.649683
0.5093 0.513161 0.649683
0.658366 0.513161 0.649683
0.703548 0.513161 0.649683
0.0605631 0.662715 0.649683
0.234577 0.662715 0.649683
0.5093 0.662715 0.649683
0.658366 0.662715 0.649683
0.703548 0.662715 0.649683
0.0605631 0.709178 0.649683
0.234577 0.709178 0.649683
0.5093 0.709178 0.649683
0.658366 0.709178 0.649683
0.703548 0.709178 0.649683
