2499DRT/STP-2399Log-ClassicCinemaNegative.cube
TITLE "Generated by Resolve"
LUT_3D_SIZE 9
0.00344854 0.024445 0.0399634
0.10222 0.024445 0.0399634
0.237491 0.024445 0.0399634
0.378531 0.024445 0.0399634
0.515389 0.024445 0.0399634
0.641154 0.024445 0.0399634
0.746944 0.024445 0.0399634
0.824353 0.024445 0.0399634
0.872145 0.024445 0.0399634
0.00344854 0.113191 0.0399634
0.10222 0.113191 0.0399634
0.237491 0.113191 0.0399634
0.378531 0.113191 0.0399634
0.515389 0.113191 0.0399634
0.641154 0.113191 0.0399634
0.746944 0.113191 0.0399634
0.824353 0.113191 0.0399634
0.872145 0.113191 0.0399634
0.00344854 0.241688 0.0399634
0.10222 0.241688 0.0399634
0.237491 0.241688 0.0399634
0.378531 0.241688 0.0399634
0.515389 0.241688 0.0399634
0.641154 0.241688 0.0399634
0.746944 0.241688 0.0399634
0.824353 0.241688 0.0399634
0.872145 0.241688 0.0399634
0.00344854 0.380148 0.0399634
0.10222 0.380148 0.0399634
0.237491 0.380148 0.0399634
0.378531 0.380148 0.0399634
0.515389 0.380148 0.0399634
0.641154 0.380148 0.0399634
0.746944 0.380148 0.0399634
0.824353 0.380148 0.0399634
0.872145 0.380148 0.0399634
0.00344854 0.513375 0.0399634
0.10222 0.513375 0.0399634
0.237491 0.513375 0.0399634
0.378531 0.513375 0.0399634
0.515389 0.513375 0.0399634
0.641154 0.513375 0.0399634
0.746944 0.513375 0.0399634
0.824353 0.513375 0.0399634
0.872145 0.513375 0.0399634
0.00344854 0.635447 0.0399634
0.10222 0.635447 0.0399634
0.237491 0.635447 0.0399634
0.378531 0.635447 0.0399634
0.515389 0.635447 0.0399634
0.641154 0.635447 0.0399634
0.746944 0.635447 0.0399634
0.824353 0.635447 0.0399634
0.872145 0.635447 0.0399634
0.00344854 0.743023 0.0399634
0.10222 0.743023 0.0399634
0.237491 0.743023 0.0399634
0.378531 0.743023 0.0399634
0.515389 0.743023 0.0399634
0.641154 0.743023 0.0399634
0.746944 0.743023 0.0399634
0.824353 0.743023 0.0399634
0.872145 0.743023 0.0399634
0.00344854 0.834119 0.0399634
0.10222 0.834119 0.0399634
0.237491 0.834119 0.0399634
0.378531 0.834119 0.0399634
0.515389 0.834119 0.0399634
0.641154 0.834119 0.0399634
0.746944 0.834119 0.0399634
0.824353 0.834119 0.0399634
0.872145 0.834119 0.0399634
0.00344854 0.908049 0.0399634
0.10222 0.908049 0.0399634
0.237491 0.908049 0.0399634
0.378531 0.908049 0.0399634
0.515389 0.908049 0.0399634
0.641154 0.908049 0.0399634
0.746944 0.908049 0.0399634
0.824353 0.908049 0.0399634
0.872145 0.908049 0.0399634
0.00344854 0.024445 0.114
0.10222 0.024445 0.114
0.237491 0.024445 0.114
0.378531 0.024445 0.114
0.515389 0.024445 0.114
0.641154 0.024445 0.114
0.746944 0.024445 0.114
0.824353 0.024445 0.114
0.872145 0.024445 0.114
0.00344854 0.113191 0.114
0.10222 0.113191 0.114
0.237491 0.113191 0.114
0.378531 0.113191 0.114
0.515389 0.113191 0.114
0.641154 0.113191 0.114
0.746944 0.113191 0.114
0.824353 0.113191 0.114
0.872145 0.113191 0.114
0.00344854 0.241688 0.114
0.10222 0.241688 0.114
0.237491 0.241688 0.114
0.378531 0.241688 0.114
0.515389 0.241688 0.114
0.641154 0.241688 0.114
0.746944 0.241688 0.114
0.824353 0.241688 0.114
0.872145 0.241688 0.114
0.00344854 0.380148 0.114
0.10222 0.380148 0.114
0.237491 0.380148 0.114
0.378531 0.380148 0.114
0.515389 0.380148 0.114
0.641154 0.380148 0.114
0.746944 0.380148 0.114
0.824353 0.380148 0.114
0.872145 0.380148 0.114
0.00344854 0.513375 0.114
0.10222 0.513375 0.114
0.237491 0.513375 0.114
0.378531 0.513375 0.114
0.515389 0.513375 0.114
0.641154 0.513375 0.114
0.746944 0.513375 0.114
0.824353 0.513375 0.114
0.872145 0.513375 0.114
0.00344854 0.635447 0.114
0.10222 0.635447 0.114
0.237491 0.635447 0.114
0.378531 0.635447 0.114
0.515389 0.635447 0.114
0.641154 0.635447 0.114
0.746944 0.635447 0.114
0.824353 0.635447 0.114
0.872145 0.635447 0.114
0.00344854 0.743023 0.114
0.10222 0.743023 0.114
0.237491 0.743023 0.114
0.378531 0.743023 0.114
0.515389 0.743023 0.114
0.641154 0.743023 0.114
0.746944 0.743023 0.114
0.824353 0.743023 0.114
0.872145 0.743023 0.114
0.00344854 0.834119 0.114
0.10222 0.834119 0.114
0.237491 0.834119 0.114
0.378531 0.834119 0.114
0.515389 0.834119 0.114
0.641154 0.834119 0.114
0.746944 0.834119 0.114
0.824353 0.834119 0.114
0.872145 0.834119 0.114
0.00344854 0.908049 0.114
0.10222 0.908049 0.114
0.237491 0.908049 0.114
0.378531 0.908049 0.114
0.515389 0.908049 0.114
0.641154 0.908049 0.114
0.746944 0.908049 0.114
0.824353 0.908049 0.114
0.872145 0.908049 0.114
0.00344854 0.024445 0.236866
0.10222 0.024445 0.236866
0.237491 0.024445 0.236866
0.378531 0.024445 0.236866
0.515389 0.024445 0.236866
0.641154 0.024445 0.236866
0.746944 0.024445 0.236866
0.824353 0.024445 0.236866
0.872145 0.024445 0.236866
0.00344854 0.113191 0.236866
0.10222 0.113191 0.236866
0.237491 0.113191 0.236866
0.378531 0.113191 0.236866
0.515389 0.113191 0.236866
0.641154 0.113191 0.236866
0.746944 0.113191 0.236866
0.824353 0.113191 0.236866
0.872145 0.113191 0.236866
0.00344854 0.241688 0.236866
0.10222 0.241688 0.236866
0.237491 0.241688 0.236866
0.378531 0.241688 0.236866
0.515389 0.241688 0.236866
0.641154 0.241688 0.236866
0.746944 0.241688 0.236866
0.824353 0.241688 0.236866
0.872145 0.241688 0.236866
0.00344854 0.380148 0.236866
0.10222 0.380148 0.236866
0.237491 0.380148 0.236866
0.378531 0.380148 0.236866
0.515389 0.380148 0.236866
0.641154 0.380148 0.236866
0.746944 0.380148 0.236866
0.824353 0.380148 0.236866
0.872145 0.380148 0.236866
0.00344854 0.513375 0.236866
0.10222 0.513375 0.236866
0.237491 0.513375 0.236866
0.378531 0.513375 0.236866
0.515389 0.513375 0.236866
0.641154 0.513375 0.236866
0.746944 0.513375 0.236866
0.824353 0.513375 0.236866
0.872145 0.513375 0.236866
0.00344854 0.635447 0.236866
0.10222 0.635447 0.236866
0.237491 0.635447 0.236866
0.378531 0.635447 0.236866
0.515389 0.635447 0.236866
0.641154 0.635447 0.236866
0.746944 0.635447 0.236866
0.824353 0.635447 0.236866
0.872145 0.635447 0.236866
0.00344854 0.743023 0.236866
0.10222 0.743023 0.236866
0.237491 0.743023 0.236866
0.378531 0.743023 0.236866
0.515389 0.743023 0.236866
0.641154 0.743023 0.236866
0.746944 0.743023 0.236866
0.824353 0.743023 0.236866
0.872145 0.743023 0.236866
0.00344854 0.834119 0.236866
0.10222 0.834119 0.236866
0.237491 0.834119 0.236866
0.378531 0.834119 0.236866
0.515389 0.834119 0.236866
0.641154 0.834119 0.236866
0.746944 0.834119 0.236866
0.824353 0.834119 0.236866
0.872145 0.834119 0.236866
0.00344854 0.908049 0.236866
0.10222 0.908049 0.236866
0.237491 0.908049 0.236866
0.378531 0.908049 0.236866
0.515389 0.908049 0.236866
0.641154 0.908049 0.236866
0.746944 0.908049 0.236866
0.824353 0.908049 0.236866
0.872145 0.908049 0.236866
0.00344854 0.024445 0.373541
0.10222 0.024445 0.373541
0.237491 0.024445 0.373541
0.378531 0.024445 0.373541
0.515389 0.024445 0.373541
0.641154 0.024445 0.373541
0.746944 0.024445 0.373541
0.824353 0.024445 0.373541
0.872145 0.024445 0.373541
0.00344854 0.113191 0.373541
0.10222 0.113191 0.373541
0.237491 0.113191 0.373541
0.378531 0.113191 0.373541
0.515389 0.113191 0.373541
0.641154 0.113191 0.373541
0.746944 0.113191 0.373541
0.824353 0.113191 0.373541
0.872145 0.113191 0.373541
0.00344854 0.241688 0.373541
0.10222 0.241688 0.373541
0.237491 0.241688 0.373541
0.378531 0.241688 0.373541
0.515389 0.241688 0.373541
0.641154 0.241688 0.373541
0.746944 0.241688 0.373541
0.824353 0.241688 0.373541
0.872145 0.241688 0.373541
0.00344854 0.380148 0.373541
0.10222 0.380148 0.373541
0.237491 0.380148 0.373541
0.378531 0.380148 0.373541
0.515389 0.380148 0.373541
0.641154 0.380148 0.373541
0.746944 0.380148 0.373541
0.824353 0.380148 0.373541
0.872145 0.380148 0.373541
0.00344854 0.513375 0.373541
0.10222 0.513375 0.373541
0.237491 0.513375 0.373541
0.378531 0.513375 0.373541
0.515389 0.513375 0.373541
0.641154 0.513375 0.373541
0.746944 0.513375 0.373541
0.824353 0.513375 0.373541
0.872145 0.513375 0.373541
0.00344854 0.635447 0.373541
0.10222 0.635447 0.373541
0.237491 0.635447 0.373541
0.378531 0.635447 0.373541
0.515389 0.635447 0.373541
0.641154 0.635447 0.373541
0.746944 0.635447 0.373541
0.824353 0.635447 0.373541
0.872145 0.635447 0.373541
0.00344854 0.743023 0.373541
0.10222 0.743023 0.373541
0.237491 0.743023 0.373541
0.378531 0.743023 0.373541
0.515389 0.743023 0.373541
0.641154 0.743023 0.373541
0.746944 0.743023 0.373541
0.824353 0.743023 0.373541
0.872145 0.743023 0.373541
0.00344854 0.834119 0.373541
0.10222 0.834119 0.373541
0.237491 0.834119 0.373541
0.378531 0.834119 0.373541
0.515389 0.834119 0.373541
0.641154 0.834119 0.373541
0.746944 0.834119 0.373541
0.824353 0.834119 0.373541
0.872145 0.834119 0.373541
0.00344854 0.908049 0.373541
0.10222 0.908049 0.373541
0.237491 0.908049 0.373541
0.378531 0.908049 0.373541
0.515389 0.908049 0.373541
0.641154 0.908049 0.373541
0.746944 0.908049 0.373541
0.824353 0.908049 0.373541
0.872145 0.908049 0.373541
0.00344854 0.024445 0.50045
0.10222 0.024445 0.50045
0.237491 0.024445 0.50045
0.378531 0.024445 0.50045
0.515389 0.024445 0.50045
0.641154 0.024445 0.50045
0.746944 0.024445 0.50045
0.824353 0.024445 0.50045
0.872145 0.024445 0.50045
0.00344854 0.113191 0.50045
0.10222 0.113191 0.50045
0.237491 0.113191 0.50045
0.378531 0.113191 0.50045
0.515389 0.113191 0.50045
0.641154 0.113191 0.50045
0.746944 0.113191 0.50045
0.824353 0.113191 0.50045
0.872145 0.113191 0.50045
0.00344854 0.241688 0.50045
0.10222 0.241688 0.50045
0.237491 0.241688 0.50045
0.378531 0.241688 0.50045
0.515389 0.241688 0.50045
0.641154 0.241688 0.50045
0.746944 0.241688 0.50045
0.824353 0.241688 0.50045
0.872145 0.241688 0.50045
0.00344854 0.380148 0.50045
0.10222 0.380148 0.50045
0.237491 0.380148 0.50045
0.378531 0.380148 0.50045
0.515389 0.380148 0.50045
0.641154 0.380148 0.50045
0.746944 0.380148 0.50045
0.824353 0.380148 0.50045
0.872145 0.380148 0.50045
0.00344854 0.513375 0.50045
0.10222 0.513375 0.50045
0.237491 0.513375 0.50045
0.378531 0.513375 0.50045
0.515389 0.513375 0.50045
0.641154 0.513375 0.50045
0.746944 0.513375 0.50045
0.824353 0.513375 0.50045
0.872145 0.513375 0.50045
0.00344854 0.635447 0.50045
0.10222 0.635447 0.50045
0.237491 0.635447 0.50045
0.378531 0.635447 0.50045
0.515389 0.635447 0.50045
0.641154 0.635447 0.50045
0.746944 0.635447 0.50045
0.824353 0.635447 0.50045
0.872145 0.635447 0.50045
0.00344854 0.743023 0.50045
0.10222 0.743023 0.50045
0.237491 0.743023 0.50045
0.378531 0.743023 0.50045
0.515389 0.743023 0.50045
0.641154 0.743023 0.50045
0.746944 0.743023 0.50045
0.824353 0.743023 0.50045
0.872145 0.743023 0.50045
0.00344854 0.834119 0.50045
0.10222 0.834119 0.50045
0.237491 0.834119 0.50045
0.378531 0.834119 0.50045
0.515389 0.834119 0.50045
0.641154 0.834119 0.50045
0.746944 0.834119 0.50045
0.824353 0.834119 0.50045
0.872145 0.834119 0.50045
0.00344854 0.908049 0.50045
0.10222 0.908049 0.50045
0.237491 0.908049 0.50045
0.378531 0.908049 0.50045
0.515389 0.908049 0.50045
0.641154 0.908049 0.50045
0.746944 0.908049 0.50045
0.824353 0.908049 0.50045
0.872145 0.908049 0.50045
0.00344854 0.024445 0.611078
0.10222 0.024445 0.611078
0.237491 0.024445 0.611078
0.378531 0.024445 0.611078
0.515389 0.024445 0.611078
0.641154 0.024445 0.611078
0.746944 0.024445 0.611078
0.824353 0.024445 0.611078
0.872145 0.024445 0.611078
0.00344854 0.113191 0.611078
0.10222 0.113191 0.611078
0.237491 0.113191 0.611078
0.378531 0.113191 0.611078
0.515389 0.113191 0.611078
0.641154 0.113191 0.611078
0.746944 0.113191 0.611078
0.824353 0.113191 0.611078
0.872145 0.113191 0.611078
0.00344854 0.241688 0.611078
0.10222 0.241688 0.611078
0.237491 0.241688 0.611078
0.378531 0.241688 0.611078
0.515389 0.241688 0.611078
0.641154 0.241688 0.611078
0.746944 0.241688 0.611078
0.824353 0.241688 0.611078
0.872145 0.241688 0.611078
0.00344854 0.380148 0.611078
0.10222 0.380148 0.611078
0.237491 0.380148 0.611078
0.378531 0.380148 0.611078
0.515389 0.380148 0.611078
0.641154 0.380148 0.611078
0.746944 0.380148 0.611078
0.824353 0.380148 0.611078
0.872145 0.380148 0.611078
0.00344854 0.513375 0.611078
0.10222 0.513375 0.611078
0.237491 0.513375 0.611078
0.378531 0.513375 0.611078
0.515389 0.513375 0.611078
0.641154 0.513375 0.611078
0.746944 0.513375 0.611078
0.824353 0.513375 0.611078
0.872145 0.513375 0.611078
0.00344854 0.635447 0.611078
0.10222 0.635447 0.611078
0.237491 0.635447 0.611078
0.378531 0.635447 0.611078
0.515389 0.635447 0.611078
0.641154 0.635447 0.611078
0.746944 0.635447 0.611078
0.824353 0.635447 0.611078
0.872145 0.635447 0.611078
0.00344854 0.743023 0.611078
0.10222 0.743023 0.611078
0.237491 0.743023 0.611078
0.378531 0.743023 0.611078
0.515389 0.743023 0.611078
0.641154 0.743023 0.611078
0.746944 0.743023 0.611078
0.824353 0.743023 0.611078
0.872145 0.743023 0.611078
0.00344854 0.834119 0.611078
0.10222 0.834119 0.611078
0.237491 0.834119 0.611078
0.378531 0.834119 0.611078
0.515389 0.834119 0.611078
0.641154 0.834119 0.611078
0.746944 0.834119 0.611078
0.824353 0.834119 0.611078
0.872145 0.834119 0.611078
0.00344854 0.908049 0.611078
0.10222 0.908049 0.611078
0.237491 0.908049 0.611078
0.378531 0.908049 0.611078
0.515389 0.908049 0.611078
0.641154 0.908049 0.611078
0.746944 0.908049 0.611078
0.824353 0.908049 0.611078
0.872145 0.908049 0.611078
0.00344854 0.024445 0.704753
0.10222 0.024445 0.704753
0.237491 0.024445 0.704753
0.378531 0.024445 0.704753
0.515389 0.024445 0.704753
0.641154 0.024445 0.704753
0.746944 0.024445 0.704753
0.824353 0.024445 0.704753
0.872145 0.024445 0.704753
0.00344854 0.113191 0.704753
0.10222 0.113191 0.704753
0.237491 0.113191 0.704753
0.378531 0.113191 0.704753
0.515389 0.113191 0.704753
0.641154 0.113191 0.704753
0.746944 0.113191 0.704753
0.824353 0.113191 0.704753
0.872145 0.113191 0.704753
0.00344854 0.241688 0.704753
0.10222 0.241688 0.704753
0.237491 0.241688 0.704753
0.378531 0.241688 0.704753
0.515389 0.241688 0.704753
0.641154 0.241688 0.704753
0.746944 0.241688 0.704753
0.824353 0.241688 0.704753
0.872145 0.241688 0.704753
0.00344854 0.380148 0.704753
0.10222 0.380148 0.704753
0.237491 0.380148 0.704753
0.378531 0.380148 0.704753
0.515389 0.380148 0.704753
0.641154 0.380148 0.704753
0.746944 0.380148 0.704753
0.824353 0.380148 0.704753
0.872145 0.380148 0.704753
0.00344854 0.513375 0.704753
0.10222 0.513375 0.704753
0.237491 0.513375 0.704753
0.378531 0.513375 0.704753
0.515389 0.513375 0.704753
0.641154 0.513375 0.704753
0.746944 0.513375 0.704753
0.824353 0.513375 0.704753
0.872145 0.513375 0.704753
0.00344854 0.635447 0.704753
0.10222 0.635447 0.704753
0.237491 0.635447 0.704753
0.378531 0.635447 0.704753
0.515389 0.635447 0.704753
0.641154 0.635447 0.704753
0.746944 0.635447 0.704753
0.824353 0.635447 0.704753
0.872145 0.635447 0.704753
0.00344854 0.743023 0.704753
0.10222 0.743023 0.704753
0.237491 0.743023 0.704753
0.378531 0.743023 0.704753
0.515389 0.743023 0.704753
0.641154 0.743023 0.704753
0.746944 0.743023 0.704753
0.824353 0.743023 0.704753
0.872145 0.743023 0.704753
0.00344854 0.834119 0.704753
0.10222 0.834119 0.704753
0.237491 0.834119 0.704753
0.378531 0.834119 0.704753
0.515389 0.834119 0.704753
0.641154 0.834119 0.704753
0.746944 0.834119 0.704753
0.824353 0.834119 0.704753
0.872145 0.834119 0.704753
0.00344854 0.908049 0.704753
0.10222 0.908049 0.704753
0.237491 0.908049 0.704753
0.378531 0.908049 0.704753
0.515389 0.908049 0.704753
0.641154 0.908049 0.704753
0.746944 0.908049 0.704753
0.824353 0.908049 0.704753
0.872145 0.908049 0.704753
0.00344854 0.024445 0.782666
0.10222 0.024445 0.782666
0.237491 0.024445 0.782666
0.378531 0.024445 0.782666
0.515389 0.024445 0.782666
0.641154 0.024445 0.782666
0.746944 0.024445 0.782666
0.824353 0.024445 0.782666
0.872145 0.024445 0.782666
0.00344854 0.113191 0.782666
0.10222 0.113191 0.782666
0.237491 0.113191 0.782666
0.378531 0.113191 0.782666
0.515389 0.113191 0.782666
0.641154 0.113191 0.782666
0.746944 0.113191 0.782666
0.824353 0.113191 0.782666
0.872145 0.113191 0.782666
0.00344854 0.241688 0.782666
0.10222 0.241688 0.782666
0.237491 0.241688 0.782666
0.378531 0.241688 0.782666
0.515389 0.241688 0.782666
0.641154 0.241688 0.782666
0.746944 0.241688 0.782666
0.824353 0.241688 0.782666
0.872145 0.241688 0.782666
0.00344854 0.380148 0.782666
0.10222 0.380148 0.782666
0.237491 0.380148 0.782666
0.378531 0.380148 0.782666
0.515389 0.380148 0.782666
0.641154 0.380148 0.782666
0.746944 0.380148 0.782666
0.824353 0.380148 0.782666
0.872145 0.380148 0.782666
0.00344854 0.513375 0.782666
0.10222 0.513375 0.782666
0.237491 0.513375 0.782666
0.378531 0.513375 0.782666
0.515389 0.513375 0.782666
0.641154 0.513375 0.782666
0.746944 0.513375 0.782666
0.824353 0.513375 0.782666
0.872145 0.513375 0.782666
0.00344854 0.635447 0.782666
0.10222 0.635447 0.782666
0.237491 0.635447 0.782666
0.378531 0.635447 0.782666
0.515389 0.635447 0.782666
0.641154 0.635447 0.782666
0.746944 0.635447 0.782666
0.824353 0.635447 0.782666
0.872145 0.635447 0.782666
0.00344854 0.743023 0.782666
0.10222 0.743023 0.782666
0.237491 0.743023 0.782666
0.378531 0.743023 0.782666
0.515389 0.743023 0.782666
0.641154 0.743023 0.782666
0.746944 0.743023 0.782666
0.824353 0.743023 0.782666
0.872145 0.743023 0.782666
0.00344854 0.834119 0.782666
0.10222 0.834119 0.782666
0.237491 0.834119 0.782666
0.378531 0.834119 0.782666
0.515389 0.834119 0.782666
0.641154 0.834119 0.782666
0.746944 0.834119 0.782666
0.824353 0.834119 0.782666
0.872145 0.834119 0.782666
0.00344854 0.908049 0.782666
0.10222 0.908049 0.782666
0.237491 0.908049 0.782666
0.378531 0.908049 0.782666
0.515389 0.908049 0.782666
0.641154 0.908049 0.782666
0.746944 0.908049 0.782666
0.824353 0.908049 0.782666
0.872145 0.908049 0.782666
0.00344854 0.024445 0.846525
0.10222 0.024445 0.846525
0.237491 0.024445 0.846525
0.378531 0.024445 0.846525
0.515389 0.024445 0.846525
0.641154 0.024445 0.846525
0.746944 0.024445 0.846525
0.824353 0.024445 0.846525
0.872145 0.024445 0.846525
0.00344854 0.113191 0.846525
0.10222 0.113191 0.846525
0.237491 0.113191 0.846525
0.378531 0.113191 0.846525
0.515389 0.113191 0.846525
0.641154 0.113191 0.846525
0.746944 0.113191 0.846525
0.824353 0.113191 0.846525
0.872145 0.113191 0.846525
0.00344854 0.241688 0.846525
0.10222 0.241688 0.846525
0.237491 0.241688 0.846525
0.378531 0.241688 0.846525
0.515389 0.241688 0.846525
0.641154 0.241688 0.846525
0.746944 0.241688 0.846525
0.824353 0.241688 0.846525
0.872145 0.241688 0.846525
0.00344854 0.380148 0.846525
0.10222 0.380148 0.846525
0.237491 0.380148 0.846525
0.378531 0.380148 0.846525
0.515389 0.380148 0.846525
0.641154 0.380148 0.846525
0.746944 0.380148 0.846525
0.824353 0.380148 0.846525
0.872145 0.380148 0.846525
0.00344854 0.513375 0.846525
0.10222 0.513375 0.846525
0.237491 0.513375 0.846525
0.378531 0.513375 0.846525
0.515389 0.513375 0.846525
0.641154 0.513375 0.846525
0.746944 0.513375 0.846525
0.824353 0.513375 0.846525
0.872145 0.513375 0.846525
0.00344854 0.635447 0.846525
0.10222 0.635447 0.846525
0.237491 0.635447 0.846525
0.378531 0.635447 0.846525
0.515389 0.635447 0.846525
0.641154 0.635447 0.846525
0.746944 0.635447 0.846525
0.824353 0.635447 0.846525
0.872145 0.635447 0.846525
0.00344854 0.743023 0.846525
0.10222 0.743023 0.846525
0.237491 0.743023 0.846525
0.378531 0.743023 0.846525
0.515389 0.743023 0.846525
0.641154 0.743023 0.846525
0.746944 0.743023 0.846525
0.824353 0.743023 0.846525
0.872145 0.743023 0.846525
0.00344854 0.834119 0.846525
0.10222 0.834119 0.846525
0.237491 0.834119 0.846525
0.378531 0.834119 0.846525
0.515389 0.834119 0.846525
0.641154 0.834119 0.846525
0.746944 0.834119 0.846525
0.824353 0.834119 0.846525
0.872145 0.834119 0.846525
0.00344854 0.908049 0.846525
0.10222 0.908049 0.846525
0.237491 0.908049 0.846525
0.378531 0.908049 0.846525
0.515389 0.908049 0.846525
0.641154 0.908049 0.846525
0.746944 0.908049 0.846525
0.824353 0.908049 0.846525
0.872145 0.908049 0.846525
