2499DRT/STP-2399Log-PrintV2.cube
TITLE "Generated by Resolve"
LUT_3D_SIZE 9
0.0605631 0.0765698 0.0667277
0.116274 0.0765698 0.0667277
0.234577 0.0765698 0.0667277
0.383825 0.0765698 0.0667277
0.5093 0.0765698 0.0667277
0.600076 0.0765698 0.0667277
0.658366 0.0765698 0.0667277
0.689525 0.0765698 0.0667277
0.703548 0.0765698 0.0667277
0.0605631 0.145357 0.0667277
0.116274 0.145357 0.0667277
0.234577 0.145357 0.0667277
0.383825 0.145357 0.0667277
0.5093 0.145357 0.0667277
0.600076 0.145357 0.0667277
0.658366 0.145357 0.0667277
0.689525 0.145357 0.0667277
0.703548 0.145357 0.0667277
0.0605631 0.259968 0.0667277
0.116274 0.259968 0.0667277
0.234577 0.259968 0.0667277
0.383825 0.259968 0.0667277
0.5093 0.259968 0.0667277
0.600076 0.259968 0.0667277
0.658366 0.259968 0.0667277
0.689525 0.259968 0.0667277
0.703548 0.259968 0.0667277
0.0605631 0.394766 0.0667277
0.116274 0.394766 0.0667277
0.234577 0.394766 0.0667277
0.383825 0.394766 0.0667277
0.5093 0.394766 0.0667277
0.600076 0.394766 0.0667277
0.658366 0.394766 0.0667277
0.689525 0.394766 0.0667277
0.703548 0.394766 0.0667277
0.0605631 0.513161 0.0667277
0.116274 0.513161 0.0667277
0.234577 0.513161 0.0667277
0.383825 0.513161 0.0667277
0.5093 0.513161 0.0667277
0.600076 0.513161 0.0667277
0.658366 0.513161 0.0667277
0.689525 0.513161 0.0667277
0.703548 0.513161 0.0667277
0.0605631 0.603235 0.0667277
0.116274 0.603235 0.0667277
0.234577 0.603235 0.0667277
0.383825 0.603235 0.0667277
0.5093 0.603235 0.0667277
0.600076 0.603235 0.0667277
0.658366 0.603235 0.0667277
0.689525 0.603235 0.0667277
0.703548 0.603235 0.0667277
0.0605631 0.662715 0.0667277
0.116274 0.662715 0.0667277
0.234577 0.662715 0.0667277
0.383825 0.662715 0.0667277
0.5093 0.662715 0.0667277
0.600076 0.662715 0.0667277
0.658366 0.662715 0.0667277
0.689525 0.662715 0.0667277
0.703548 0.662715 0.0667277
0.0605631 0.694804 0.0667277
0.116274 0.694804 0.0667277
0.234577 0.694804 0.0667277
0.383825 0.694804 0.0667277
0.5093 0.694804 0.0667277
0.600076 0.694804 0.0667277
0.658366 0.694804 0.0667277
0.689525 0.694804 0.0667277
0.703548 0.694804 0.0667277
0.0605631 0.709178 0.0667277
0.116274 0.709178 0.0667277
0.234577 0.709178 0.0667277
0.383825 0.709178 0.0667277
0.5093 0.709178 0.0667277
0.600076 0.709178 0.0667277
0.658366 0.709178 0.0667277
0.689525 0.709178 0.0667277
0.703548 0.709178 0.0667277
0.0605631 0.0765698 0.144183
0.116274 0.0765698 0.144183
0.234577 0.0765698 0.144183
0.383825 0.0765698 0.144183
0.5093 0.0765698 0.144183
0.600076 0.0765698 0.144183
0.658366 0.0765698 0.144183
0.689525 0.0765698 0.144183
0.703548 0.0765698 0.144183
0.0605631 0.145357 0.144183
0.116274 0.145357 0.144183
0.234577 0.145357 0.144183
0.383825 0.145357 0.144183
0.5093 0.145357 0.144183
0.600076 0.145357 0.144183
0.658366 0.145357 0.144183
0.689525 0.145357 0.144183
0.703548 0.145357 0.144183
0.0605631 0.259968 0.144183
0.116274 0.259968 0.144183
0.234577 0.259968 0.144183
0.383825 0.259968 0.144183
0.5093 0.259968 0.144183
0.600076 0.259968 0.144183
0.658366 0.259968 0.144183
0.689525 0.259968 0.144183
0.703548 0.259968 0.144183
0.0605631 0.394766 0.144183
0.116274 0.394766 0.144183
0.234577 0.394766 0.144183
0.383825 0.394766 0.144183
0.5093 0.394766 0.144183
0.600076 0.394766 0.144183
0.658366 0.394766 0.144183
0.689525 0.394766 0.144183
0.703548 0.394766 0.144183
0.0605631 0.513161 0.144183
0.116274 0.513161 0.144183
0.234577 0.513161 0.144183
0.383825 0.513161 0.144183
0.5093 0.513161 0.144183
0.600076 0.513161 0.144183
0.658366 0.513161 0.144183
0.689525 0.513161 0.144183
0.703548 0.513161 0.144183
0.0605631 0.603235 0.144183
0.116274 0.603235 0.144183
0.234577 0.603235 0.144183
0.383825 0.603235 0.144183
0.5093 0.603235 0.144183
0.600076 0.603235 0.144183
0.658366 0.603235 0.144183
0.689525 0.603235 0.144183
0.703548 0.603235 0.144183
0.0605631 0.662715 0.144183
0.116274 0.662715 0.144183
0.234577 0.662715 0.144183
0.383825 0.662715 0.144183
0.5093 0.662715 0.144183
0.600076 0.662715 0.144183
0.658366 0.662715 0.144183
0.689525 0.662715 0.144183
0.703548 0.662715 0.144183
0.0605631 0.694804 0.144183
0.116274 0.694804 0.144183
0.234577 0.694804 0.144183
0.383825 0.694804 0.144183
0.5093 0.694804 0.144183
0.600076 0.694804 0.144183
0.658366 0.694804 0.144183
0.689525 0.694804 0.144183
0.703548 0.694804 0.144183
0.0605631 0.709178 0.144183
0.116274 0.709178 0.144183
0.234577 0.709178 0.144183
0.383825 0.709178 0.144183
0.5093 0.709178 0.144183
0.600076 0.709178 0.144183
0.658366 0.709178 0.144183
0.689525 0.709178 0.144183
0.703548 0.709178 0.144183
0.0605631 0.0765698 0.272801
0.116274 0.0765698 0.272801
0.234577 0.0765698 0.272801
0.383825 0.0765698 0.272801
0.5093 0.0765698 0.272801
0.600076 0.0765698 0.272801
0.658366 0.0765698 0.272801
0.689525 0.0765698 0.272801
0.703548 0.0765698 0.272801
0.0605631 0.145357 0.272801
0.116274 0.145357 0.272801
0.234577 0.145357 0.272801
0.383825 0.145357 0.272801
0.5093 0.145357 0.272801
0.600076 0.145357 0.272801
0.658366 0.145357 0.272801
0.689525 0.145357 0.272801
0.703548 0.145357 0.272801
0.0605631 0.259968 0.272801
0.116274 0.259968 0.272801
0.234577 0.259968 0.272801
0.383825 0.259968 0.272801
0.5093 0.259968 0.272801
0.600076 0.259968 0.272801
0.658366 0.259968 0.272801
0.689525 0.259968 0.272801
0.703548 0.259968 0.272801
0.0605631 0.394766 0.272801
0.116274 0.394766 0.272801
0.234577 0.394766 0.272801
0.383825 0.394766 0.272801
0.5093 0.394766 0.272801
0.600076 0.394766 0.272801
0.658366 0.394766 0.272801
0.689525 0.394766 0.272801
0.703548 0.394766 0.272801
0.0605631 0.513161 0.272801
0.116274 0.513161 0.272801
0.234577 0.513161 0.272801
0.383825 0.513161 0.272801
0.5093 0.513161 0.272801
0.600076 0.513161 0.272801
0.658366 0.513161 0.272801
0.689525 0.513161 0.272801
0.703548 0.513161 0.272801
0.0605631 0.603235 0.272801
0.116274 0.603235 0.272801
0.234577 0.603235 0.272801
0.383825 0.603235 0.272801
0.5093 0.603235 0.272801
0.600076 0.603235 0.272801
0.658366 0.603235 0.272801
0.689525 0.603235 0.272801
0.703548 0.603235 0.272801
0.0605631 0.662715 0.272801
0.116274 0.662715 0.272801
0.234577 0.662715 0.272801
0.383825 0.662715 0.272801
0.5093 0.662715 0.272801
0.600076 0.662715 0.272801
0.658366 0.662715 0.272801
0.689525 0.662715 0.272801
0.703548 0.662715 0.272801
0.0605631 0.694804 0.272801
0.116274 0.694804 0.272801
0.234577 0.694804 0.272801
0.383825 0.694804 0.272801
0.5093 0.694804 0.272801
0.600076 0.694804 0.272801
0.658366 0.694804 0.272801
0.689525 0.694804 0.272801
0.703548 0.694804 0.272801
0.0605631 0.709178 0.272801
0.116274 0.709178 0.272801
0.234577 0.709178 0.272801
0.383825 0.709178 0.272801
0.5093 0.709178 0.272801
0.600076 0.709178 0.272801
0.658366 0.709178 0.272801
0.689525 0.709178 0.272801
0.703548 0.709178 0.272801
0.0605631 0.0765698 0.40499
0.116274 0.0765698 0.40499
0.234577 0.0765698 0.40499
0.383825 0.0765698 0.40499
0.5093 0.0765698 0.40499
0.600076 0.0765698 0.40499
0.658366 0.0765698 0.40499
0.689525 0.0765698 0.40499
0.703548 0.0765698 0.40499
0.0605631 0.145357 0.40499
0.116274 0.145357 0.40499
0.234577 0.145357 0.40499
0.383825 0.145357 0.40499
0.5093 0.145357 0.40499
0.600076 0.145357 0.40499
0.658366 0.145357 0.40499
0.689525 0.145357 0.40499
0.703548 0.145357 0.40499
0.0605631 0.259968 0.40499
0.116274 0.259968 0.40499
0.234577 0.259968 0.40499
0.383825 0.259968 0.40499
0.5093 0.259968 0.40499
0.600076 0.259968 0.40499
0.658366 0.259968 0.40499
0.689525 0.259968 0.40499
0.703548 0.259968 0.40499
0.0605631 0.394766 0.40499
0.116274 0.394766 0.40499
0.234577 0.394766 0.40499
0.383825 0.394766 0.40499
0.5093 0.394766 0.40499
0.600076 0.394766 0.40499
0.658366 0.394766 0.40499
0.689525 0.394766 0.40499
0.703548 0.394766 0.40499
0.0605631 0.513161 0.40499
0.116274 0.513161 0.40499
0.234577 0.513161 0.40499
0.383825 0.513161 0.40499
0.5093 0.513161 0.40499
0.600076 0.513161 0.40499
0.658366 0.513161 0.40499
0.689525 0.513161 0.40499
0.703548 0.513161 0.40499
0.0605631 0.603235 0.40499
0.116274 0.603235 0.40499
0.234577 0.603235 0.40499
0.383825 0.603235 0.40499
0.5093 0.603235 0.40499
0.600076 0.603235 0.40499
0.658366 0.603235 0.40499
0.689525 0.603235 0.40499
0.703548 0.603235 0.40499
0.0605631 0.662715 0.40499
0.116274 0.662715 0.40499
0.234577 0.662715 0.40499
0.383825 0.662715 0.40499
0.5093 0.662715 0.40499
0.600076 0.662715 0.40499
0.658366 0.662715 0.40499
0.689525 0.662715 0.40499
0.703548 0.662715 0.40499
0.0605631 0.694804 0.40499
0.116274 0.694804 0.40499
0.234577 0.694804 0.40499
0.383825 0.694804 0.40499
0.5093 0.694804 0.40499
0.600076 0.694804 0.40499
0.658366 0.694804 0.40499
0.689525 0.694804 0.40499
0.703548 0.694804 0.40499
0.0605631 0.709178 0.40499
0.116274 0.709178 0.40499
0.234577 0.709178 0.40499
0.383825 0.709178 0.40499
0.5093 0.709178 0.40499
0.600076 0.709178 0.40499
0.658366 0.709178 0.40499
0.689525 0.709178 0.40499
0.703548 0.709178 0.40499
0.0605631 0.0765698 0.506188
0.116274 0.0765698 0.506188
0.234577 0.0765698 0.506188
0.383825 0.0765698 0.506188
0.5093 0.0765698 0.506188
0.600076 0.0765698 0.506188
0.658366 0.0765698 0.506188
0.689525 0.0765698 0.506188
0.703548 0.0765698 0.506188
0.0605631 0.145357 0.506188
0.116274 0.145357 0.506188
0.234577 0.145357 0.506188
0.383825 0.145357 0.506188
0.5093 0.145357 0.506188
0.600076 0.145357 0.506188
0.658366 0.145357 0.506188
0.689525 0.145357 0.506188
0.703548 0.145357 0.506188
0.0605631 0.259968 0.506188
0.116274 0.259968 0.506188
0.234577 0.259968 0.506188
0.383825 0.259968 0.506188
0.5093 0.259968 0.506188
0.600076 0.259968 0.506188
0.658366 0.259968 0.506188
0.689525 0.259968 0.506188
0.703548 0.259968 0.506188
0.0605631 0.394766 0.506188
0.116274 0.394766 0.506188
0.234577 0.394766 0.506188
0.383825 0.394766 0.506188
0.5093 0.394766 0.506188
0.600076 0.394766 0.506188
0.658366 0.394766 0.506188
0.689525 0.394766 0.506188
0.703548 0.394766 0.506188
0.0605631 0.513161 0.506188
0.116274 0.513161 0.506188
0.234577 0.513161 0.506188
0.383825 0.513161 0.506188
0.5093 0.513161 0.506188
0.600076 0.513161 0.506188
0.658366 0.513161 0.506188
0.689525 0.513161 0.506188
0.703548 0.513161 0.506188
0.0605631 0.603235 0.506188
0.116274 0.603235 0.506188
0.234577 0.603235 0.506188
0.383825 0.603235 0.506188
0.5093 0.603235 0.506188
0.600076 0.603235 0.506188
0.658366 0.603235 0.506188
0.689525 0.603235 0.506188
0.703548 0.603235 0.506188
0.0605631 0.662715 0.506188
0.116274 0.662715 0.506188
0.234577 0.662715 0.506188
0.383825 0.662715 0.506188
0.5093 0.662715 0.506188
0.600076 0.662715 0.506188
0.658366 0.662715 0.506188
0.689525 0.662715 0.506188
0.703548 0.662715 0.506188
0.0605631 0.694804 0.506188
0.116274 0.694804 0.506188
0.234577 0.694804 0.506188
0.383825 0.694804 0.506188
0.5093 0.694804 0.506188
0.600076 0.694804 0.506188
0.658366 0.694804 0.506188
0.689525 0.694804 0.506188
0.703548 0.694804 0.506188
0.0605631 0.709178 0.506188
0.116274 0.709178 0.506188
0.234577 0.709178 0.506188
0.383825 0.709178 0.506188
0.5093 0.709178 0.506188
0.600076 0.709178 0.506188
0.658366 0.709178 0.506188
0.689525 0.709178 0.506188
0.703548 0.709178 0.506188
0.0605631 0.0765698 0.575143
0.116274 0.0765698 0.575143
0.234577 0.0765698 0.575143
0.383825 0.0765698 0.575143
0.5093 0.0765698 0.575143
0.600076 0.0765698 0.575143
0.658366 0.0765698 0.575143
0.689525 0.0765698 0.575143
0.703548 0.0765698 0.575143
0.0605631 0.145357 0.575143
0.116274 0.145357 0.575143
0.234577 0.145357 0.575143
0.383825 0.145357 0.575143
0.5093 0.145357 0.575143
0.600076 0.145357 0.575143
0.658366 0.145357 0.575143
0.689525 0.145357 0.575143
0.703548 0.145357 0.575143
0.0605631 0.259968 0.575143
0.116274 0.259968 0.575143
0.234577 0.259968 0.575143
0.383825 0.259968 0.575143
0.5093 0.259968 0.575143
0.600076 0.259968 0.575143
0.658366 0.259968 0.575143
0.689525 0.259968 0.575143
0.703548 0.259968 0.575143
0.0605631 0.394766 0.575143
0.116274 0.394766 0.575143
0.234577 0.394766 0.575143
0.383825 0.394766 0.575143
0.5093 0.394766 0.575143
0.600076 0.394766 0.575143
0.658366 0.394766 0.575143
0.689525 0.394766 0.575143
0.703548 0.394766 0.575143
0.0605631 0.513161 0.575143
0.116274 0.513161 0.575143
0.234577 0.513161 0.575143
0.383825 0.513161 0.575143
0.5093 0.513161 0.575143
0.600076 0.513161 0.575143
0.658366 0.513161 0.575143
0.689525 0.513161 0.575143
0.703548 0.513161 0.575143
0.0605631 0.603235 0.575143
0.116274 0.603235 0.575143
0.234577 0.603235 0.575143
0.383825 0.603235 0.575143
0.5093 0.603235 0.575143
0.600076 0.603235 0.575143
0.658366 0.603235 0.575143
0.689525 0.603235 0.575143
0.703548 0.603235 0.575143
0.0605631 0.662715 0.575143
0.116274 0.662715 0.575143
0.234577 0.662715 0.575143
0.383825 0.662715 0.575143
0.5093 0.662715 0.575143
0.600076 0.662715 0.575143
0.658366 0.662715 0.575143
0.689525 0.662715 0.575143
0.703548 0.662715 0.575143
0.0605631 0.694804 0.575143
0.116274 0.694804 0.575143
0.234577 0.694804 0.575143
0.383825 0.694804 0.575143
0.5093 0.694804 0.575143
0.600076 0.694804 0.575143
0.658366 0.694804 0.575143
0.689525 0.694804 0.575143
0.703548 0.694804 0.575143
0.0605631 0.709178 0.575143
0.116274 0.709178 0.575143
0.234577 0.709178 0.575143
0.383825 0.709178 0.575143
0.5093 0.709178 0.575143
0.600076 0.709178 0.575143
0.658366 0.709178 0.575143
0.689525 0.709178 0.575143
0.703548 0.709178 0.575143
0.0605631 0.0765698 0.616999
0.116274 0.0765698 0.616999
0.234577 0.0765698 0.616999
0.383825 0.0765698 0.616999
0.5093 0.0765698 0.616999
0.600076 0.0765698 0.616999
0.658366 0.0765698 0.616999
0.689525 0.0765698 0.616999
0.703548 0.0765698 0.616999
0.0605631 0.145357 0.616999
0.116274 0.145357 0.616999
0.234577 0.145357 0.616999
0.383825 0.145357 0.616999
0.5093 0.145357 0.616999
0.600076 0.145357 0.616999
0.658366 0.145357 0.616999
0.689525 0.145357 0.616999
0.703548 0.145357 0.616999
0.0605631 0.259968 0.616999
0.116274 0.259968 0.616999
0.234577 0.259968 0.616999
0.383825 0.259968 0.616999
0.5093 0.259968 0.616999
0.600076 0.259968 0.616999
0.658366 0.259968 0.616999
0.689525 0.259968 0.616999
0.703548 0.259968 0.616999
0.0605631 0.394766 0.616999
0.116274 0.394766 0.616999
0.234577 0.394766 0.616999
0.383825 0.394766 0.616999
0.5093 0.394766 0.616999
0.600076 0.394766 0.616999
0.658366 0.394766 0.616999
0.689525 0.394766 0.616999
0.703548 0.394766 0.616999
0.0605631 0.513161 0.616999
0.116274 0.513161 0.616999
0.234577 0.513161 0.616999
0.383825 0.513161 0.616999
0.5093 0.513161 0.616999
0.600076 0.513161 0.616999
0.658366 0.513161 0.616999
0.689525 0.513161 0.616999
0.703548 0.513161 0.616999
0.0605631 0.603235 0.616999
0.116274 0.603235 0.616999
0.234577 0.603235 0.616999
0.383825 0.603235 0.616999
0.5093 0.603235 0.616999
0.600076 0.603235 0.616999
0.658366 0.603235 0.616999
0.689525 0.603235 0.616999
0.703548 0.603235 0.616999
0.0605631 0.662715 0.616999
0.116274 0.662715 0.616999
0.234577 0.662715 0.616999
0.383825 0.662715 0.616999
0.5093 0.662715 0.616999
0.600076 0.662715 0.616999
0.658366 0.662715 0.616999
0.689525 0.662715 0.616999
0.703548 0.662715 0.616999
0.0605631 0.694804 0.616999
0.116274 0.694804 0.616999
0.234577 0.694804 0.616999
0.383825 0.694804 0.616999
0.5093 0.694804 0.616999
0.600076 0.694804 0.616999
0.658366 0.694804 0.616999
0.689525 0.694804 0.616999
0.703548 0.694804 0.616999
0.0605631 0.709178 0.616999
0.116274 0.709178 0.616999
0.234577 0.709178 0.616999
0.383825 0.709178 0.616999
0.5093 0.709178 0.616999
0.600076 0.709178 0.616999
0.658366 0.709178 0.616999
0.689525 0.709178 0.616999
0.703548 0.709178 0.616999
0.0605631 0.0765698 0.63917
0.116274 0.0765698 0.63917
0.234577 0.0765698 0.63917
0.383825 0.0765698 0.63917
0.5093 0.0765698 0.63917
0.600076 0.0765698 0.63917
0.658366 0.0765698 0.63917
0.689525 0.0765698 0.63917
0.703548 0.0765698 0.63917
0.0605631 0.145357 0.63917
0.116274 0.145357 0.63917
0.234577 0.145357 0.63917
0.383825 0.145357 0.63917
0.5093 0.145357 0.63917
0.600076 0.145357 0.63917
0.658366 0.145357 0.63917
0.689525 0.145357 0.63917
0.703548 0.145357 0.63917
0.0605631 0.259968 0.63917
0.116274 0.259968 0.63917
0.234577 0.259968 0.63917
0.383825 0.259968 0.63917
0.5093 0.259968 0.63917
0.600076 0.259968 0.63917
0.658366 0.259968 0.63917
0.689525 0.259968 0.63917
0.703548 0.259968 0.63917
0.0605631 0.394766 0.63917
0.116274 0.394766 0.63917
0.234577 0.394766 0.63917
0.383825 0.394766 0.63917
0.5093 0.394766 0.63917
0.600076 0.394766 0.63917
0.658366 0.394766 0.63917
0.689525 0.394766 0.63917
0.703548 0.394766 0.63917
0.0605631 0.513161 0.63917
0.116274 0.513161 0.63917
0.234577 0.513161 0.63917
0.383825 0.513161 0.63917
0.5093 0.513161 0.63917
0.600076 0.513161 0.63917
0.658366 0.513161 0.63917
0.689525 0.513161 0.63917
0.703548 0.513161 0.63917
0.0605631 0.603235 0.63917
0.116274 0.603235 0.63917
0.234577 0.603235 0.63917
0.383825 0.603235 0.63917
0.5093 0.603235 0.63917
0.600076 0.603235 0.63917
0.658366 0.603235 0.63917
0.689525 0.603235 0.63917
0.703548 0.603235 0.63917
0.0605631 0.662715 0.63917
0.116274 0.662715 0.63917
0.234577 0.662715 0.63917
0.383825 0.662715 0.63917
0.5093 0.662715 0.63917
0.600076 0.662715 0.63917
0.658366 0.662715 0.63917
0.689525 0.662715 0.63917
0.703548 0.662715 0.63917
0.0605631 0.694804 0.63917
0.116274 0.694804 0.63917
0.234577 0.694804 0.63917
0.383825 0.694804 0.63917
0.5093 0.694804 0.63917
0.600076 0.694804 0.63917
0.658366 0.694804 0.63917
0.689525 0.694804 0.63917
0.703548 0.694804 0.63917
0.0605631 0.709178 0.63917
0.116274 0.709178 0.63917
0.234577 0.709178 0.63917
0.383825 0.709178 0.63917
0.5093 0.709178 0.63917
0.600076 0.709178 0.63917
0.658366 0.709178 0.63917
0.689525 0.709178 0.63917
0.703548 0.709178 0.63917
0.0605631 0.0765698 0.649683
0.116274 0.0765698 0.649683
0.234577 0.0765698 0.649683
0.383825 0.0765698 0.649683
0.5093 0.0765698 0.649683
0.600076 0.0765698 0.649683
0.658366 0.0765698 0.649683
0.689525 0.0765698 0.649683
0.703548 0.0765698 0.649683
0.0605631 0.145357 0.649683
0.116274 0.145357 0.649683
0.234577 0.145357 0.649683
0.383825 0.145357 0.649683
0.5093 0.145357 0.649683
0.600076 0.145357 0.649683
0.658366 0.145357 0.649683
0.689525 0.145357 0.649683
0.703548 0.145357 0.649683
0.0605631 0.259968 0.649683
0.116274 0.259968 0.649683
0.234577 0.259968 0.649683
0.383825 0.259968 0.649683
0.5093 0.259968 0.649683
0.600076 0.259968 0.649683
0.658366 0.259968 0.649683
0.689525 0.259968 0.649683
0.703548 0.259968 0.649683
0.0605631 0.394766 0.649683
0.116274 0.394766 0.649683
0.234577 0.394766 0.649683
0.383825 0.394766 0.649683
0.5093 0.394766 0.649683
0.600076 0.394766 0.649683
0.658366 0.394766 0.649683
0.689525 0.394766 0.649683
0.703548 0.394766 0.649683
0.0605631 0.513161 0.649683
0.116274 0.513161 0.649683
0.234577 0.513161 0.649683
0.383825 0.513161 0.649683
0.5093 0.513161 0.649683
0.600076 0.513161 0.649683
0.658366 0.513161 0.649683
0.689525 0.513161 0.649683
0.703548 0.513161 0.649683
0.0605631 0.603235 0.649683
0.116274 0.603235 0.649683
0.234577 0.603235 0.649683
0.383825 0.603235 0.649683
0.5093 0.603235 0.649683
0.600076 0.603235 0.649683
0.658366 0.603235 0.649683
0.689525 0.603235 0.649683
0.703548 0.603235 0.649683
0.0605631 0.662715 0.649683
0.116274 0.662715 0.649683
0.234577 0.662715 0.649683
0.383825 0.662715 0.649683
0.5093 0.662715 0.649683
0.600076 0.662715 0.649683
0.658366 0.662715 0.649683
0.689525 0.662715 0.649683
0.703548 0.662715 0.649683
0.0605631 0.694804 0.649683
0.116274 0.694804 0.649683
0.234577 0.694804 0.649683
0.383825 0.694804 0.649683
0.5093 0.694804 0.649683
0.600076 0.694804 0.649683
0.658366 0.694804 0.649683
0.689525 0.694804 0.649683
0.703548 0.694804 0.649683
0.0605631 0.709178 0.649683
0.116274 0.709178 0.649683
0.234577 0.709178 0.649683
0.383825 0.709178 0.649683
0.5093 0.709178 0.649683
0.600076 0.709178 0.649683
0.658366 0.709178 0.649683
0.689525 0.709178 0.649683
0.703548 0.709178 0.649683
