2499DRT/STP-2399Log-ClassicNegative.cube
TITLE "Generated by Resolve"
LUT_3D_SIZE 9
0 0 0
0.0802319 0 0
0.23444 0 0
0.380713 0 0
0.522683 0 0
0.665446 0 0
0.810361 0 0
0.957824 0 0
1 0 0
0 0.085771 0
0.0802319 0.085771 0
0.23444 0.085771 0
0.380713 0.085771 0
0.522683 0.085771 0
0.665446 0.085771 0
0.810361 0.085771 0
0.957824 0.085771 0
1 0.085771 0
0 0.241413 0
0.0802319 0.241413 0
0.23444 0.241413 0
0.380713 0.241413 0
0.522683 0.241413 0
0.665446 0.241413 0
0.810361 0.241413 0
0.957824 0.241413 0
1 0.241413 0
0 0.377066 0
0.0802319 0.377066 0
0.23444 0.377066 0
0.380713 0.377066 0
0.522683 0.377066 0
0.665446 0.377066 0
0.810361 0.377066 0
0.957824 0.377066 0
1 0.377066 0
0 0.506767 0
0.0802319 0.506767 0
0.23444 0.506767 0
0.380713 0.506767 0
0.522683 0.506767 0
0.665446 0.506767 0
0.810361 0.506767 0
0.957824 0.506767 0
1 0.506767 0
0 0.637369 0
0.0802319 0.637369 0
0.23444 0.637369 0
0.380713 0.637369 0
0.522683 0.637369 0
0.665446 0.637369 0
0.810361 0.637369 0
0.957824 0.637369 0
1 0.637369 0
0 0.770733 0
0.0802319 0.770733 0
0.23444 0.770733 0
0.380713 0.770733 0
0.522683 0.770733 0
0.665446 0.770733 0
0.810361 0.770733 0
0.957824 0.770733 0
1 0.770733 0
0 0.907378 0
0.0802319 0.907378 0
0.23444 0.907378 0
0.380713 0.907378 0
0.522683 0.907378 0
0.665446 0.907378 0
0.810361 0.907378 0
0.957824 0.907378 0
1 0.907378 0
0 1 0
0.0802319 1 0
0.23444 1 0
0.380713 1 0
0.522683 1 0
0.665446 1 0
0.810361 1 0
0.957824 1 0
1 1 0
0 0 0.0740826
0.0802319 0 0.0740826
0.23444 0 0.0740826
0.380713 0 0.0740826
0.522683 0 0.0740826
0.665446 0 0.0740826
0.810361 0 0.0740826
0.957824 0 0.0740826
1 0 0.0740826
0 0.085771 0.0740826
0.0802319 0.085771 0.0740826
0.23444 0.085771 0.0740826
0.380713 0.085771 0.0740826
0.522683 0.085771 0.0740826
0.665446 0.085771 0.0740826
0.810361 0.085771 0.0740826
0.957824 0.085771 0.0740826
1 0.085771 0.0740826
0 0.241413 0.0740826
0.0802319 0.241413 0.0740826
0.23444 0.241413 0.0740826
0.380713 0.241413 0.0740826
0.522683 0.241413 0.0740826
0.665446 0.241413 0.0740826
0.810361 0.241413 0.0740826
0.957824 0.241413 0.0740826
1 0.241413 0.0740826
0 0.377066 0.0740826
0.0802319 0.377066 0.0740826
0.23444 0.377066 0.0740826
0.380713 0.377066 0.0740826
0.522683 0.377066 0.0740826
0.665446 0.377066 0.0740826
0.810361 0.377066 0.0740826
0.957824 0.377066 0.0740826
1 0.377066 0.0740826
0 0.506767 0.0740826
0.0802319 0.506767 0.0740826
0.23444 0.506767 0.0740826
0.380713 0.506767 0.0740826
0.522683 0.506767 0.0740826
0.665446 0.506767 0.0740826
0.810361 0.506767 0.0740826
0.957824 0.506767 0.0740826
1 0.506767 0.0740826
0 0.637369 0.0740826
0.0802319 0.637369 0.0740826
0.23444 0.637369 0.0740826
0.380713 0.637369 0.0740826
0.522683 0.637369 0.0740826
0.665446 0.637369 0.0740826
0.810361 0.637369 0.0740826
0.957824 0.637369 0.0740826
1 0.637369 0.0740826
0 0.770733 0.0740826
0.0802319 0.770733 0.0740826
0.23444 0.770733 0.0740826
0.380713 0.770733 0.0740826
0.522683 0.770733 0.0740826
0.665446 0.770733 0.0740826
0.810361 0.770733 0.0740826
0.957824 0.770733 0.0740826
1 0.770733 0.0740826
0 0.907378 0.0740826
0.0802319 0.907378 0.0740826
0.23444 0.907378 0.0740826
0.380713 0.907378 0.0740826
0.522683 0.907378 0.0740826
0.665446 0.907378 0.0740826
0.810361 0.907378 0.0740826
0.957824 0.907378 0.0740826
1 0.907378 0.0740826
0 1 0.0740826
0.0802319 1 0.0740826
0.23444 1 0.0740826
0.380713 1 0.0740826
0.522683 1 0.0740826
0.665446 1 0.0740826
0.810361 1 0.0740826
0.957824 1 0.0740826
1 1 0.0740826
0 0 0.228824
0.0802319 0 0.228824
0.23444 0 0.228824
0.380713 0 0.228824
0.522683 0 0.228824
0.665446 0 0.228824
0.810361 0 0.228824
0.957824 0 0.228824
1 0 0.228824
0 0.085771 0.228824
0.0802319 0.085771 0.228824
0.23444 0.085771 0.228824
0.380713 0.085771 0.228824
0.522683 0.085771 0.228824
0.665446 0.085771 0.228824
0.810361 0.085771 0.228824
0.957824 0.085771 0.228824
1 0.085771 0.228824
0 0.241413 0.228824
0.0802319 0.241413 0.228824
0.23444 0.241413 0.228824
0.380713 0.241413 0.228824
0.522683 0.241413 0.228824
0.665446 0.241413 0.228824
0.810361 0.241413 0.228824
0.957824 0.241413 0.228824
1 0.241413 0.228824
0 0.377066 0.228824
0.0802319 0.377066 0.228824
0.23444 0.377066 0.228824
0.380713 0.377066 0.228824
0.522683 0.377066 0.228824
0.665446 0.377066 0.228824
0.810361 0.377066 0.228824
0.957824 0.377066 0.228824
1 0.377066 0.228824
0 0.506767 0.228824
0.0802319 0.506767 0.228824
0.23444 0.506767 0.228824
0.380713 0.506767 0.228824
0.522683 0.506767 0.228824
0.665446 0.506767 0.228824
0.810361 0.506767 0.228824
0.957824 0.506767 0.228824
1 0.506767 0.228824
0 0.637369 0.228824
0.0802319 0.637369 0.228824
0.23444 0.637369 0.228824
0.380713 0.637369 0.228824
0.522683 0.637369 0.228824
0.665446 0.637369 0.228824
0.810361 0.637369 0.228824
0.957824 0.637369 0.228824
1 0.637369 0.228824
0 0.770733 0.228824
0.0802319 0.770733 0.228824
0.23444 0.770733 0.228824
0.380713 0.770733 0.228824
0.522683 0.770733 0.228824
0.665446 0.770733 0.228824
0.810361 0.770733 0.228824
0.957824 0.770733 0.228824
1 0.770733 0.228824
0 0.907378 0.228824
0.0802319 0.907378 0.228824
0.23444 0.907378 0.228824
0.380713 0.907378 0.228824
0.522683 0.907378 0.228824
0.665446 0.907378 0.228824
0.810361 0.907378 0.228824
0.957824 0.907378 0.228824
1 0.907378 0.228824
0 1 0.228824
0.0802319 1 0.228824
0.23444 1 0.228824
0.380713 1 0.228824
0.522683 1 0.228824
0.665446 1 0.228824
0.810361 1 0.228824
0.957824 1 0.228824
1 1 0.228824
0 0 0.383398
0.0802319 0 0.383398
0.23444 0 0.383398
0.380713 0 0.383398
0.522683 0 0.383398
0.665446 0 0.383398
0.810361 0 0.383398
0.957824 0 0.383398
1 0 0.383398
0 0.085771 0.383398
0.0802319 0.085771 0.383398
0.23444 0.085771 0.383398
0.380713 0.085771 0.383398
0.522683 0.085771 0.383398
0.665446 0.085771 0.383398
0.810361 0.085771 0.383398
0.957824 0.085771 0.383398
1 0.085771 0.383398
0 0.241413 0.383398
0.0802319 0.241413 0.383398
0.23444 0.241413 0.383398
0.380713 0.241413 0.383398
0.522683 0.241413 0.383398
0.665446 0.241413 0.383398
0.810361 0.241413 0.383398
0.957824 0.241413 0.383398
1 0.241413 0.383398
0 0.377066 0.383398
0.0802319 0.377066 0.383398
0.23444 0.377066 0.383398
0.380713 0.377066 0.383398
0.522683 0.377066 0.383398
0.665446 0.377066 0.383398
0.810361 0.377066 0.383398
0.957824 0.377066 0.383398
1 0.377066 0.383398
0 0.506767 0.383398
0.0802319 0.506767 0.383398
0.23444 0.506767 0.383398
0.380713 0.506767 0.383398
0.522683 0.506767 0.383398
0.665446 0.506767 0.383398
0.810361 0.506767 0.383398
0.957824 0.506767 0.383398
1 0.506767 0.383398
0 0.637369 0.383398
0.0802319 0.637369 0.383398
0.23444 0.637369 0.383398
0.380713 0.637369 0.383398
0.522683 0.637369 0.383398
0.665446 0.637369 0.383398
0.810361 0.637369 0.383398
0.957824 0.637369 0.383398
1 0.637369 0.383398
0 0.770733 0.383398
0.0802319 0.770733 0.383398
0.23444 0.770733 0.383398
0.380713 0.770733 0.383398
0.522683 0.770733 0.383398
0.665446 0.770733 0.383398
0.810361 0.770733 0.383398
0.957824 0.770733 0.383398
1 0.770733 0.383398
0 0.907378 0.383398
0.0802319 0.907378 0.383398
0.23444 0.907378 0.383398
0.380713 0.907378 0.383398
0.522683 0.907378 0.383398
0.665446 0.907378 0.383398
0.810361 0.907378 0.383398
0.957824 0.907378 0.383398
1 0.907378 0.383398
0 1 0.383398
0.0802319 1 0.383398
0.23444 1 0.383398
0.380713 1 0.383398
0.522683 1 0.383398
0.665446 1 0.383398
0.810361 1 0.383398
0.957824 1 0.383398
1 1 0.383398
0 0 0.536171
0.0802319 0 0.536171
0.23444 0 0.536171
0.380713 0 0.536171
0.522683 0 0.536171
0.665446 0 0.536171
0.810361 0 0.536171
0.957824 0 0.536171
1 0 0.536171
0 0.085771 0.536171
0.0802319 0.085771 0.536171
0.23444 0.085771 0.536171
0.380713 0.085771 0.536171
0.522683 0.085771 0.536171
0.665446 0.085771 0.536171
0.810361 0.085771 0.536171
0.957824 0.085771 0.536171
1 0.085771 0.536171
0 0.241413 0.536171
0.0802319 0.241413 0.536171
0.23444 0.241413 0.536171
0.380713 0.241413 0.536171
0.522683 0.241413 0.536171
0.665446 0.241413 0.536171
0.810361 0.241413 0.536171
0.957824 0.241413 0.536171
1 0.241413 0.536171
0 0.377066 0.536171
0.0802319 0.377066 0.536171
0.23444 0.377066 0.536171
0.380713 0.377066 0.536171
0.522683 0.377066 0.536171
0.665446 0.377066 0.536171
0.810361 0.377066 0.536171
0.957824 0.377066 0.536171
1 0.377066 0.536171
0 0.506767 0.536171
0.0802319 0.506767 0.536171
0.23444 0.506767 0.536171
0.380713 0.506767 0.536171
0.522683 0.506767 0.536171
0.665446 0.506767 0.536171
0.810361 0.506767 0.536171
0.957824 0.506767 0.536171
1 0.506767 0.536171
0 0.637369 0.536171
0.0802319 0.637369 0.536171
0.23444 0.637369 0.536171
0.380713 0.637369 0.536171
0.522683 0.637369 0.536171
0.665446 0.637369 0.536171
0.810361 0.637369 0.536171
0.957824 0.637369 0.536171
1 0.637369 0.536171
0 0.770733 0.536171
0.0802319 0.770733 0.536171
0.23444 0.770733 0.536171
0.380713 0.770733 0.536171
0.522683 0.770733 0.536171
0.665446 0.770733 0.536171
0.810361 0.770733 0.536171
0.957824 0.770733 0.536171
1 0.770733 0.536171
0 0.907378 0.536171
0.0802319 0.907378 0.536171
0.23444 0.907378 0.536171
0.380713 0.907378 0.536171
0.522683 0.907378 0.536171
0.665446 0.907378 0.536171
0.810361 0.907378 0.536171
0.957824 0.907378 0.536171
1 0.907378 0.536171
0 1 0.536171
0.0802319 1 0.536171
0.23444 1 0.536171
0.380713 1 0.536171
0.522683 1 0.536171
0.665446 1 0.536171
0.810361 1 0.536171
0.957824 1 0.536171
1 1 0.536171
0 0 0.693935
0.0802319 0 0.693935
0.23444 0 0.693935
0.380713 0 0.693935
0.522683 0 0.693935
0.665446 0 0.693935
0.810361 0 0.693935
0.957824 0 0.693935
1 0 0.693935
0 0.085771 0.693935
0.0802319 0.085771 0.693935
0.23444 0.085771 0.693935
0.380713 0.085771 0.693935
0.522683 0.085771 0.693935
0.665446 0.085771 0.693935
0.810361 0.085771 0.693935
0.957824 0.085771 0.693935
1 0.085771 0.693935
0 0.241413 0.693935
0.0802319 0.241413 0.693935
0.23444 0.241413 0.693935
0.380713 0.241413 0.693935
0.522683 0.241413 0.693935
0.665446 0.241413 0.693935
0.810361 0.241413 0.693935
0.957824 0.241413 0.693935
1 0.241413 0.693935
0 0.377066 0.693935
0.0802319 0.377066 0.693935
0.23444 0.377066 0.693935
0.380713 0.377066 0.693935
0.522683 0.377066 0.693935
0.665446 0.377066 0.693935
0.810361 0.377066 0.693935
0.957824 0.377066 0.693935
1 0.377066 0.693935
0 0.506767 0.693935
0.0802319 0.506767 0.693935
0.23444 0.506767 0.693935
0.380713 0.506767 0.693935
0.522683 0.506767 0.693935
0.665446 0.506767 0.693935
0.810361 0.506767 0.693935
0.957824 0.506767 0.693935
1 0.506767 0.693935
0 0.637369 0.693935
0.0802319 0.637369 0.693935
0.23444 0.637369 0.693935
0.380713 0.637369 0.693935
0.522683 0.637369 0.693935
0.665446 0.637369 0.693935
0.810361 0.637369 0.693935
0.957824 0.637369 0.693935
1 0.637369 0.693935
0 0.770733 0.693935
0.0802319 0.770733 0.693935
0.23444 0.770733 0.693935
0.380713 0.770733 0.693935
0.522683 0.770733 0.693935
0.665446 0.770733 0.693935
0.810361 0.770733 0.693935
0.957824 0.770733 0.693935
1 0.770733 0.693935
0 0.907378 0.693935
0.0802319 0.907378 0.693935
0.23444 0.907378 0.693935
0.380713 0.907378 0.693935
0.522683 0.907378 0.693935
0.665446 0.907378 0.693935
0.810361 0.907378 0.693935
0.957824 0.907378 0.693935
1 0.907378 0.693935
0 1 0.693935
0.0802319 1 0.693935
0.23444 1 0.693935
0.380713 1 0.693935
0.522683 1 0.693935
0.665446 1 0.693935
0.810361 1 0.693935
0.957824 1 0.693935
1 1 0.693935
0 0 0.858442
0.0802319 0 0.858442
0.23444 0 0.858442
0.380713 0 0.858442
0.522683 0 0.858442
0.665446 0 0.858442
0.810361 0 0.858442
0.957824 0 0.858442
1 0 0.858442
0 0.085771 0.858442
0.0802319 0.085771 0.858442
0.23444 0.085771 0.858442
0.380713 0.085771 0.858442
0.522683 0.085771 0.858442
0.665446 0.085771 0.858442
0.810361 0.085771 0.858442
0.957824 0.085771 0.858442
1 0.085771 0.858442
0 0.241413 0.858442
0.0802319 0.241413 0.858442
0.23444 0.241413 0.858442
0.380713 0.241413 0.858442
0.522683 0.241413 0.858442
0.665446 0.241413 0.858442
0.810361 0.241413 0.858442
0.957824 0.241413 0.858442
1 0.241413 0.858442
0 0.377066 0.858442
0.0802319 0.377066 0.858442
0.23444 0.377066 0.858442
0.380713 0.377066 0.858442
0.522683 0.377066 0.858442
0.665446 0.377066 0.858442
0.810361 0.377066 0.858442
0.957824 0.377066 0.858442
1 0.377066 0.858442
0 0.506767 0.858442
0.0802319 0.506767 0.858442
0.23444 0.506767 0.858442
0.380713 0.506767 0.858442
0.522683 0.506767 0.858442
0.665446 0.506767 0.858442
0.810361 0.506767 0.858442
0.957824 0.506767 0.858442
1 0.506767 0.858442
0 0.637369 0.858442
0.0802319 0.637369 0.858442
0.23444 0.637369 0.858442
0.380713 0.637369 0.858442
0.522683 0.637369 0.858442
0.665446 0.637369 0.858442
0.810361 0.637369 0.858442
0.957824 0.637369 0.858442
1 0.637369 0.858442
0 0.770733 0.858442
0.0802319 0.770733 0.858442
0.23444 0.770733 0.858442
0.380713 0.770733 0.858442
0.522683 0.770733 0.858442
0.665446 0.770733 0.858442
0.810361 0.770733 0.858442
0.957824 0.770733 0.858442
1 0.770733 0.858442
0 0.907378 0.858442
0.0802319 0.907378 0.858442
0.23444 0.907378 0.858442
0.380713 0.907378 0.858442
0.522683 0.907378 0.858442
0.665446 0.907378 0.858442
0.810361 0.907378 0.858442
0.957824 0.907378 0.858442
1 0.907378 0.858442
0 1 0.858442
0.0802319 1 0.858442
0.23444 1 0.858442
0.380713 1 0.858442
0.522683 1 0.858442
0.665446 1 0.858442
0.810361 1 0.858442
0.957824 1 0.858442
1 1 0.858442
0 0 1
0.0802319 0 1
0.23444 0 1
0.380713 0 1
0.522683 0 1
0.665446 0 1
0.810361 0 1
0.957824 0 1
1 0 1
0 0.085771 1
0.0802319 0.085771 1
0.23444 0.085771 1
0.380713 0.085771 1
0.522683 0.085771 1
0.665446 0.085771 1
0.810361 0.085771 1
0.957824 0.085771 1
1 0.085771 1
0 0.241413 1
0.0802319 0.241413 1
0.23444 0.241413 1
0.380713 0.241413 1
0.522683 0.241413 1
0.665446 0.241413 1
0.810361 0.241413 1
0.957824 0.241413 1
1 0.241413 1
0 0.377066 1
0.0802319 0.377066 1
0.23444 0.377066 1
0.380713 0.377066 1
0.522683 0.377066 1
0.665446 0.377066 1
0.810361 0.377066 1
0.957824 0.377066 1
1 0.377066 1
0 0.506767 1
0.0802319 0.506767 1
0.23444 0.506767 1
0.380713 0.506767 1
0.522683 0.506767 1
0.665446 0.506767 1
0.810361 0.506767 1
0.957824 0.506767 1
1 0.506767 1
0 0.637369 1
0.0802319 0.637369 1
0.23444 0.637369 1
0.380713 0.637369 1
0.522683 0.637369 1
0.665446 0.637369 1
0.810361 0.637369 1
0.957824 0.637369 1
1 0.637369 1
0 0.770733 1
0.0802319 0.770733 1
0.23444 0.770733 1
0.380713 0.770733 1
0.522683 0.770733 1
0.665446 0.770733 1
0.810361 0.770733 1
0.957824 0.770733 1
1 0.770733 1
0 0.907378 1
0.0802319 0.907378 1
0.23444 0.907378 1
0.380713 0.907378 1
0.522683 0.907378 1
0.665446 0.907378 1
0.810361 0.907378 1
0.957824 0.907378 1
1 0.907378 1
0 1 1
0.0802319 1 1
0.23444 1 1
0.380713 1 1
0.522683 1 1
0.665446 1 1
0.810361 1 1
0.957824 1 1
1 1 1
0 0 1
0.0802319 0 1
0.23444 0 1
0.380713 0 1
0.522683 0 1
0.665446 0 1
0.810361 0 1
0.957824 0 1
1 0 1
0 0.085771 1
0.0802319 0.085771 1
0.23444 0.085771 1
0.380713 0.085771 1
0.522683 0.085771 1
0.665446 0.085771 1
0.810361 0.085771 1
0.957824 0.085771 1
1 0.085771 1
0 0.241413 1
0.0802319 0.241413 1
0.23444 0.241413 1
0.380713 0.241413 1
0.522683 0.241413 1
0.665446 0.241413 1
0.810361 0.241413 1
0.957824 0.241413 1
1 0.241413 1
0 0.377066 1
0.0802319 0.377066 1
0.23444 0.377066 1
0.380713 0.377066 1
0.522683 0.377066 1
0.665446 0.377066 1
0.810361 0.377066 1
0.957824 0.377066 1
1 0.377066 1
0 0.506767 1
0.0802319 0.506767 1
0.23444 0.506767 1
0.380713 0.506767 1
0.522683 0.506767 1
0.665446 0.506767 1
0.810361 0.506767 1
0.957824 0.506767 1
1 0.506767 1
0 0.637369 1
0.0802319 0.637369 1
0.23444 0.637369 1
0.380713 0.637369 1
0.522683 0.637369 1
0.665446 0.637369 1
0.810361 0.637369 1
0.957824 0.637369 1
1 0.637369 1
0 0.770733 1
0.0802319 0.770733 1
0.23444 0.770733 1
0.380713 0.770733 1
0.522683 0.770733 1
0.665446 0.770733 1
0.810361 0.770733 1
0.957824 0.770733 1
1 0.770733 1
0 0.907378 1
0.0802319 0.907378 1
0.23444 0.907378 1
0.380713 0.907378 1
0.522683 0.907378 1
0.665446 0.907378 1
0.810361 0.907378 1
0.957824 0.907378 1
1 0.907378 1
0 1 1
0.0802319 1 1
0.23444 1 1
0.380713 1 1
0.522683 1 1
0.665446 1 1
0.810361 1 1
0.957824 1 1
1 1 1
