2499DRT/STP-2399Log-CrazyNegative.cube
TITLE "Generated by Resolve"
LUT_3D_SIZE 9
0.0194705 0.0210117 0.0189059
0.0827344 0.0210117 0.0189059
0.213535 0.0210117 0.0189059
0.382757 0.0210117 0.0189059
0.517662 0.0210117 0.0189059
0.643381 0.0210117 0.0189059
0.766888 0.0210117 0.0189059
0.8907 0.0210117 0.0189059
1 0.0210117 0.0189059
0.0194705 0.0892653 0.0189059
0.0827344 0.0892653 0.0189059
0.213535 0.0892653 0.0189059
0.382757 0.0892653 0.0189059
0.517662 0.0892653 0.0189059
0.643381 0.0892653 0.0189059
0.766888 0.0892653 0.0189059
0.8907 0.0892653 0.0189059
1 0.0892653 0.0189059
0.0194705 0.230381 0.0189059
0.0827344 0.230381 0.0189059
0.213535 0.230381 0.0189059
0.382757 0.230381 0.0189059
0.517662 0.230381 0.0189059
0.643381 0.230381 0.0189059
0.766888 0.230381 0.0189059
0.8907 0.230381 0.0189059
1 0.230381 0.0189059
0.0194705 0.369818 0.0189059
0.0827344 0.369818 0.0189059
0.213535 0.369818 0.0189059
0.382757 0.369818 0.0189059
0.517662 0.369818 0.0189059
0.643381 0.369818 0.0189059
0.766888 0.369818 0.0189059
0.8907 0.369818 0.0189059
1 0.369818 0.0189059
0.0194705 0.460945 0.0189059
0.0827344 0.460945 0.0189059
0.213535 0.460945 0.0189059
0.382757 0.460945 0.0189059
0.517662 0.460945 0.0189059
0.643381 0.460945 0.0189059
0.766888 0.460945 0.0189059
0.8907 0.460945 0.0189059
1 0.460945 0.0189059
0.0194705 0.542443 0.0189059
0.0827344 0.542443 0.0189059
0.213535 0.542443 0.0189059
0.382757 0.542443 0.0189059
0.517662 0.542443 0.0189059
0.643381 0.542443 0.0189059
0.766888 0.542443 0.0189059
0.8907 0.542443 0.0189059
1 0.542443 0.0189059
0.0194705 0.621668 0.0189059
0.0827344 0.621668 0.0189059
0.213535 0.621668 0.0189059
0.382757 0.621668 0.0189059
0.517662 0.621668 0.0189059
0.643381 0.621668 0.0189059
0.766888 0.621668 0.0189059
0.8907 0.621668 0.0189059
1 0.621668 0.0189059
0.0194705 0.701076 0.0189059
0.0827344 0.701076 0.0189059
0.213535 0.701076 0.0189059
0.382757 0.701076 0.0189059
0.517662 0.701076 0.0189059
0.643381 0.701076 0.0189059
0.766888 0.701076 0.0189059
0.8907 0.701076 0.0189059
1 0.701076 0.0189059
0.0194705 0.781567 0.0189059
0.0827344 0.781567 0.0189059
0.213535 0.781567 0.0189059
0.382757 0.781567 0.0189059
0.517662 0.781567 0.0189059
0.643381 0.781567 0.0189059
0.766888 0.781567 0.0189059
0.8907 0.781567 0.0189059
1 0.781567 0.0189059
0.0194705 0.0210117 0.0803082
0.0827344 0.0210117 0.0803082
0.213535 0.0210117 0.0803082
0.382757 0.0210117 0.0803082
0.517662 0.0210117 0.0803082
0.643381 0.0210117 0.0803082
0.766888 0.0210117 0.0803082
0.8907 0.0210117 0.0803082
1 0.0210117 0.0803082
0.0194705 0.0892653 0.0803082
0.0827344 0.0892653 0.0803082
0.213535 0.0892653 0.0803082
0.382757 0.0892653 0.0803082
0.517662 0.0892653 0.0803082
0.643381 0.0892653 0.0803082
0.766888 0.0892653 0.0803082
0.8907 0.0892653 0.0803082
1 0.0892653 0.0803082
0.0194705 0.230381 0.0803082
0.0827344 0.230381 0.0803082
0.213535 0.230381 0.0803082
0.382757 0.230381 0.0803082
0.517662 0.230381 0.0803082
0.643381 0.230381 0.0803082
0.766888 0.230381 0.0803082
0.8907 0.230381 0.0803082
1 0.230381 0.0803082
0.0194705 0.369818 0.0803082
0.0827344 0.369818 0.0803082
0.213535 0.369818 0.0803082
0.382757 0.369818 0.0803082
0.517662 0.369818 0.0803082
0.643381 0.369818 0.0803082
0.766888 0.369818 0.0803082
0.8907 0.369818 0.0803082
1 0.369818 0.0803082
0.0194705 0.460945 0.0803082
0.0827344 0.460945 0.0803082
0.213535 0.460945 0.0803082
0.382757 0.460945 0.0803082
0.517662 0.460945 0.0803082
0.643381 0.460945 0.0803082
0.766888 0.460945 0.0803082
0.8907 0.460945 0.0803082
1 0.460945 0.0803082
0.0194705 0.542443 0.0803082
0.0827344 0.542443 0.0803082
0.213535 0.542443 0.0803082
0.382757 0.542443 0.0803082
0.517662 0.542443 0.0803082
0.643381 0.542443 0.0803082
0.766888 0.542443 0.0803082
0.8907 0.542443 0.0803082
1 0.542443 0.0803082
0.0194705 0.621668 0.0803082
0.0827344 0.621668 0.0803082
0.213535 0.621668 0.0803082
0.382757 0.621668 0.0803082
0.517662 0.621668 0.0803082
0.643381 0.621668 0.0803082
0.766888 0.621668 0.0803082
0.8907 0.621668 0.0803082
1 0.621668 0.0803082
0.0194705 0.701076 0.0803082
0.0827344 0.701076 0.0803082
0.213535 0.701076 0.0803082
0.382757 0.701076 0.0803082
0.517662 0.701076 0.0803082
0.643381 0.701076 0.0803082
0.766888 0.701076 0.0803082
0.8907 0.701076 0.0803082
1 0.701076 0.0803082
0.0194705 0.781567 0.0803082
0.0827344 0.781567 0.0803082
0.213535 0.781567 0.0803082
0.382757 0.781567 0.0803082
0.517662 0.781567 0.0803082
0.643381 0.781567 0.0803082
0.766888 0.781567 0.0803082
0.8907 0.781567 0.0803082
1 0.781567 0.0803082
0.0194705 0.0210117 0.207279
0.0827344 0.0210117 0.207279
0.213535 0.0210117 0.207279
0.382757 0.0210117 0.207279
0.517662 0.0210117 0.207279
0.643381 0.0210117 0.207279
0.766888 0.0210117 0.207279
0.8907 0.0210117 0.207279
1 0.0210117 0.207279
0.0194705 0.0892653 0.207279
0.0827344 0.0892653 0.207279
0.213535 0.0892653 0.207279
0.382757 0.0892653 0.207279
0.517662 0.0892653 0.207279
0.643381 0.0892653 0.207279
0.766888 0.0892653 0.207279
0.8907 0.0892653 0.207279
1 0.0892653 0.207279
0.0194705 0.230381 0.207279
0.0827344 0.230381 0.207279
0.213535 0.230381 0.207279
0.382757 0.230381 0.207279
0.517662 0.230381 0.207279
0.643381 0.230381 0.207279
0.766888 0.230381 0.207279
0.8907 0.230381 0.207279
1 0.230381 0.207279
0.0194705 0.369818 0.207279
0.0827344 0.369818 0.207279
0.213535 0.369818 0.207279
0.382757 0.369818 0.207279
0.517662 0.369818 0.207279
0.643381 0.369818 0.207279
0.766888 0.369818 0.207279
0.8907 0.369818 0.207279
1 0.369818 0.207279
0.0194705 0.460945 0.207279
0.0827344 0.460945 0.207279
0.213535 0.460945 0.207279
0.382757 0.460945 0.207279
0.517662 0.460945 0.207279
0.643381 0.460945 0.207279
0.766888 0.460945 0.207279
0.8907 0.460945 0.207279
1 0.460945 0.207279
0.0194705 0.542443 0.207279
0.0827344 0.542443 0.207279
0.213535 0.542443 0.207279
0.382757 0.542443 0.207279
0.517662 0.542443 0.207279
0.643381 0.542443 0.207279
0.766888 0.542443 0.207279
0.8907 0.542443 0.207279
1 0.542443 0.207279
0.0194705 0.621668 0.207279
0.0827344 0.621668 0.207279
0.213535 0.621668 0.207279
0.382757 0.621668 0.207279
0.517662 0.621668 0.207279
0.643381 0.621668 0.207279
0.766888 0.621668 0.207279
0.8907 0.621668 0.207279
1 0.621668 0.207279
0.0194705 0.701076 0.207279
0.0827344 0.701076 0.207279
0.213535 0.701076 0.207279
0.382757 0.701076 0.207279
0.517662 0.701076 0.207279
0.643381 0.701076 0.207279
0.766888 0.701076 0.207279
0.8907 0.701076 0.207279
1 0.701076 0.207279
0.0194705 0.781567 0.207279
0.0827344 0.781567 0.207279
0.213535 0.781567 0.207279
0.382757 0.781567 0.207279
0.517662 0.781567 0.207279
0.643381 0.781567 0.207279
0.766888 0.781567 0.207279
0.8907 0.781567 0.207279
1 0.781567 0.207279
0.0194705 0.0210117 0.381552
0.0827344 0.0210117 0.381552
0.213535 0.0210117 0.381552
0.382757 0.0210117 0.381552
0.517662 0.0210117 0.381552
0.643381 0.0210117 0.381552
0.766888 0.0210117 0.381552
0.8907 0.0210117 0.381552
1 0.0210117 0.381552
0.0194705 0.0892653 0.381552
0.0827344 0.0892653 0.381552
0.213535 0.0892653 0.381552
0.382757 0.0892653 0.381552
0.517662 0.0892653 0.381552
0.643381 0.0892653 0.381552
0.766888 0.0892653 0.381552
0.8907 0.0892653 0.381552
1 0.0892653 0.381552
0.0194705 0.230381 0.381552
0.0827344 0.230381 0.381552
0.213535 0.230381 0.381552
0.382757 0.230381 0.381552
0.517662 0.230381 0.381552
0.643381 0.230381 0.381552
0.766888 0.230381 0.381552
0.8907 0.230381 0.381552
1 0.230381 0.381552
0.0194705 0.369818 0.381552
0.0827344 0.369818 0.381552
0.213535 0.369818 0.381552
0.382757 0.369818 0.381552
0.517662 0.369818 0.381552
0.643381 0.369818 0.381552
0.766888 0.369818 0.381552
0.8907 0.369818 0.381552
1 0.369818 0.381552
0.0194705 0.460945 0.381552
0.0827344 0.460945 0.381552
0.213535 0.460945 0.381552
0.382757 0.460945 0.381552
0.517662 0.460945 0.381552
0.643381 0.460945 0.381552
0.766888 0.460945 0.381552
0.8907 0.460945 0.381552
1 0.460945 0.381552
0.0194705 0.542443 0.381552
0.0827344 0.542443 0.381552
0.213535 0.542443 0.381552
0.382757 0.542443 0.381552
0.517662 0.542443 0.381552
0.643381 0.542443 0.381552
0.766888 0.542443 0.381552
0.8907 0.542443 0.381552
1 0.542443 0.381552
0.0194705 0.621668 0.381552
0.0827344 0.621668 0.381552
0.213535 0.621668 0.381552
0.382757 0.621668 0.381552
0.517662 0.621668 0.381552
0.643381 0.621668 0.381552
0.766888 0.621668 0.381552
0.8907 0.621668 0.381552
1 0.621668 0.381552
0.0194705 0.701076 0.381552
0.0827344 0.701076 0.381552
0.213535 0.701076 0.381552
0.382757 0.701076 0.381552
0.517662 0.701076 0.381552
0.643381 0.701076 0.381552
0.766888 0.701076 0.381552
0.8907 0.701076 0.381552
1 0.701076 0.381552
0.0194705 0.781567 0.381552
0.0827344 0.781567 0.381552
0.213535 0.781567 0.381552
0.382757 0.781567 0.381552
0.517662 0.781567 0.381552
0.643381 0.781567 0.381552
0.766888 0.781567 0.381552
0.8907 0.781567 0.381552
1 0.781567 0.381552
0.0194705 0.0210117 0.505394
0.0827344 0.0210117 0.505394
0.213535 0.0210117 0.505394
0.382757 0.0210117 0.505394
0.517662 0.0210117 0.505394
0.643381 0.0210117 0.505394
0.766888 0.0210117 0.505394
0.8907 0.0210117 0.505394
1 0.0210117 0.505394
0.0194705 0.0892653 0.505394
0.0827344 0.0892653 0.505394
0.213535 0.0892653 0.505394
0.382757 0.0892653 0.505394
0.517662 0.0892653 0.505394
0.643381 0.0892653 0.505394
0.766888 0.0892653 0.505394
0.8907 0.0892653 0.505394
1 0.0892653 0.505394
0.0194705 0.230381 0.505394
0.0827344 0.230381 0.505394
0.213535 0.230381 0.505394
0.382757 0.230381 0.505394
0.517662 0.230381 0.505394
0.643381 0.230381 0.505394
0.766888 0.230381 0.505394
0.8907 0.230381 0.505394
1 0.230381 0.505394
0.0194705 0.369818 0.505394
0.0827344 0.369818 0.505394
0.213535 0.369818 0.505394
0.382757 0.369818 0.505394
0.517662 0.369818 0.505394
0.643381 0.369818 0.505394
0.766888 0.369818 0.505394
0.8907 0.369818 0.505394
1 0.369818 0.505394
0.0194705 0.460945 0.505394
0.0827344 0.460945 0.505394
0.213535 0.460945 0.505394
0.382757 0.460945 0.505394
0.517662 0.460945 0.505394
0.643381 0.460945 0.505394
0.766888 0.460945 0.505394
0.8907 0.460945 0.505394
1 0.460945 0.505394
0.0194705 0.542443 0.505394
0.0827344 0.542443 0.505394
0.213535 0.542443 0.505394
0.382757 0.542443 0.505394
0.517662 0.542443 0.505394
0.643381 0.542443 0.505394
0.766888 0.542443 0.505394
0.8907 0.542443 0.505394
1 0.542443 0.505394
0.0194705 0.621668 0.505394
0.0827344 0.621668 0.505394
0.213535 0.621668 0.505394
0.382757 0.621668 0.505394
0.517662 0.621668 0.505394
0.643381 0.621668 0.505394
0.766888 0.621668 0.505394
0.8907 0.621668 0.505394
1 0.621668 0.505394
0.0194705 0.701076 0.505394
0.0827344 0.701076 0.505394
0.213535 0.701076 0.505394
0.382757 0.701076 0.505394
0.517662 0.701076 0.505394
0.643381 0.701076 0.505394
0.766888 0.701076 0.505394
0.8907 0.701076 0.505394
1 0.701076 0.505394
0.0194705 0.781567 0.505394
0.0827344 0.781567 0.505394
0.213535 0.781567 0.505394
0.382757 0.781567 0.505394
0.517662 0.781567 0.505394
0.643381 0.781567 0.505394
0.766888 0.781567 0.505394
0.8907 0.781567 0.505394
1 0.781567 0.505394
0.0194705 0.0210117 0.616556
0.0827344 0.0210117 0.616556
0.213535 0.0210117 0.616556
0.382757 0.0210117 0.616556
0.517662 0.0210117 0.616556
0.643381 0.0210117 0.616556
0.766888 0.0210117 0.616556
0.8907 0.0210117 0.616556
1 0.0210117 0.616556
0.0194705 0.0892653 0.616556
0.0827344 0.0892653 0.616556
0.213535 0.0892653 0.616556
0.382757 0.0892653 0.616556
0.517662 0.0892653 0.616556
0.643381 0.0892653 0.616556
0.766888 0.0892653 0.616556
0.8907 0.0892653 0.616556
1 0.0892653 0.616556
0.0194705 0.230381 0.616556
0.0827344 0.230381 0.616556
0.213535 0.230381 0.616556
0.382757 0.230381 0.616556
0.517662 0.230381 0.616556
0.643381 0.230381 0.616556
0.766888 0.230381 0.616556
0.8907 0.230381 0.616556
1 0.230381 0.616556
0.0194705 0.369818 0.616556
0.0827344 0.369818 0.616556
0.213535 0.369818 0.616556
0.382757 0.369818 0.616556
0.517662 0.369818 0.616556
0.643381 0.369818 0.616556
0.766888 0.369818 0.616556
0.8907 0.369818 0.616556
1 0.369818 0.616556
0.0194705 0.460945 0.616556
0.0827344 0.460945 0.616556
0.213535 0.460945 0.616556
0.382757 0.460945 0.616556
0.517662 0.460945 0.616556
0.643381 0.460945 0.616556
0.766888 0.460945 0.616556
0.8907 0.460945 0.616556
1 0.460945 0.616556
0.0194705 0.542443 0.616556
0.0827344 0.542443 0.616556
0.213535 0.542443 0.616556
0.382757 0.542443 0.616556
0.517662 0.542443 0.616556
0.643381 0.542443 0.616556
0.766888 0.542443 0.616556
0.8907 0.542443 0.616556
1 0.542443 0.616556
0.0194705 0.621668 0.616556
0.0827344 0.621668 0.616556
0.213535 0.621668 0.616556
0.382757 0.621668 0.616556
0.517662 0.621668 0.616556
0.643381 0.621668 0.616556
0.766888 0.621668 0.616556
0.8907 0.621668 0.616556
1 0.621668 0.616556
0.0194705 0.701076 0.616556
0.0827344 0.701076 0.616556
0.213535 0.701076 0.616556
0.382757 0.701076 0.616556
0.517662 0.701076 0.616556
0.643381 0.701076 0.616556
0.766888 0.701076 0.616556
0.8907 0.701076 0.616556
1 0.701076 0.616556
0.0194705 0.781567 0.616556
0.0827344 0.781567 0.616556
0.213535 0.781567 0.616556
0.382757 0.781567 0.616556
0.517662 0.781567 0.616556
0.643381 0.781567 0.616556
0.766888 0.781567 0.616556
0.8907 0.781567 0.616556
1 0.781567 0.616556
0.0194705 0.0210117 0.724605
0.0827344 0.0210117 0.724605
0.213535 0.0210117 0.724605
0.382757 0.0210117 0.724605
0.517662 0.0210117 0.724605
0.643381 0.0210117 0.724605
0.766888 0.0210117 0.724605
0.8907 0.0210117 0.724605
1 0.0210117 0.724605
0.0194705 0.0892653 0.724605
0.0827344 0.0892653 0.724605
0.213535 0.0892653 0.724605
0.382757 0.0892653 0.724605
0.517662 0.0892653 0.724605
0.643381 0.0892653 0.724605
0.766888 0.0892653 0.724605
0.8907 0.0892653 0.724605
1 0.0892653 0.724605
0.0194705 0.230381 0.724605
0.0827344 0.230381 0.724605
0.213535 0.230381 0.724605
0.382757 0.230381 0.724605
0.517662 0.230381 0.724605
0.643381 0.230381 0.724605
0.766888 0.230381 0.724605
0.8907 0.230381 0.724605
1 0.230381 0.724605
0.0194705 0.369818 0.724605
0.0827344 0.369818 0.724605
0.213535 0.369818 0.724605
0.382757 0.369818 0.724605
0.517662 0.369818 0.724605
0.643381 0.369818 0.724605
0.766888 0.369818 0.724605
0.8907 0.369818 0.724605
1 0.369818 0.724605
0.0194705 0.460945 0.724605
0.0827344 0.460945 0.724605
0.213535 0.460945 0.724605
0.382757 0.460945 0.724605
0.517662 0.460945 0.724605
0.643381 0.460945 0.724605
0.766888 0.460945 0.724605
0.8907 0.460945 0.724605
1 0.460945 0.724605
0.0194705 0.542443 0.724605
0.0827344 0.542443 0.724605
0.213535 0.542443 0.724605
0.382757 0.542443 0.724605
0.517662 0.542443 0.724605
0.643381 0.542443 0.724605
0.766888 0.542443 0.724605
0.8907 0.542443 0.724605
1 0.542443 0.724605
0.0194705 0.621668 0.724605
0.0827344 0.621668 0.724605
0.213535 0.621668 0.724605
0.382757 0.621668 0.724605
0.517662 0.621668 0.724605
0.643381 0.621668 0.724605
0.766888 0.621668 0.724605
0.8907 0.621668 0.724605
1 0.621668 0.724605
0.0194705 0.701076 0.724605
0.0827344 0.701076 0.724605
0.213535 0.701076 0.724605
0.382757 0.701076 0.724605
0.517662 0.701076 0.724605
0.643381 0.701076 0.724605
0.766888 0.701076 0.724605
0.8907 0.701076 0.724605
1 0.701076 0.724605
0.0194705 0.781567 0.724605
0.0827344 0.781567 0.724605
0.213535 0.781567 0.724605
0.382757 0.781567 0.724605
0.517662 0.781567 0.724605
0.643381 0.781567 0.724605
0.766888 0.781567 0.724605
0.8907 0.781567 0.724605
1 0.781567 0.724605
0.0194705 0.0210117 0.8327
0.0827344 0.0210117 0.8327
0.213535 0.0210117 0.8327
0.382757 0.0210117 0.8327
0.517662 0.0210117 0.8327
0.643381 0.0210117 0.8327
0.766888 0.0210117 0.8327
0.8907 0.0210117 0.8327
1 0.0210117 0.8327
0.0194705 0.0892653 0.8327
0.0827344 0.0892653 0.8327
0.213535 0.0892653 0.8327
0.382757 0.0892653 0.8327
0.517662 0.0892653 0.8327
0.643381 0.0892653 0.8327
0.766888 0.0892653 0.8327
0.8907 0.0892653 0.8327
1 0.0892653 0.8327
0.0194705 0.230381 0.8327
0.0827344 0.230381 0.8327
0.213535 0.230381 0.8327
0.382757 0.230381 0.8327
0.517662 0.230381 0.8327
0.643381 0.230381 0.8327
0.766888 0.230381 0.8327
0.8907 0.230381 0.8327
1 0.230381 0.8327
0.0194705 0.369818 0.8327
0.0827344 0.369818 0.8327
0.213535 0.369818 0.8327
0.382757 0.369818 0.8327
0.517662 0.369818 0.8327
0.643381 0.369818 0.8327
0.766888 0.369818 0.8327
0.8907 0.369818 0.8327
1 0.369818 0.8327
0.0194705 0.460945 0.8327
0.0827344 0.460945 0.8327
0.213535 0.460945 0.8327
0.382757 0.460945 0.8327
0.517662 0.460945 0.8327
0.643381 0.460945 0.8327
0.766888 0.460945 0.8327
0.8907 0.460945 0.8327
1 0.460945 0.8327
0.0194705 0.542443 0.8327
0.0827344 0.542443 0.8327
0.213535 0.542443 0.8327
0.382757 0.542443 0.8327
0.517662 0.542443 0.8327
0.643381 0.542443 0.8327
0.766888 0.542443 0.8327
0.8907 0.542443 0.8327
1 0.542443 0.8327
0.0194705 0.621668 0.8327
0.0827344 0.621668 0.8327
0.213535 0.621668 0.8327
0.382757 0.621668 0.8327
0.517662 0.621668 0.8327
0.643381 0.621668 0.8327
0.766888 0.621668 0.8327
0.8907 0.621668 0.8327
1 0.621668 0.8327
0.0194705 0.701076 0.8327
0.0827344 0.701076 0.8327
0.213535 0.701076 0.8327
0.382757 0.701076 0.8327
0.517662 0.701076 0.8327
0.643381 0.701076 0.8327
0.766888 0.701076 0.8327
0.8907 0.701076 0.8327
1 0.701076 0.8327
0.0194705 0.781567 0.8327
0.0827344 0.781567 0.8327
0.213535 0.781567 0.8327
0.382757 0.781567 0.8327
0.517662 0.781567 0.8327
0.643381 0.781567 0.8327
0.766888 0.781567 0.8327
0.8907 0.781567 0.8327
1 0.781567 0.8327
0.0194705 0.0210117 0.942077
0.0827344 0.0210117 0.942077
0.213535 0.0210117 0.942077
0.382757 0.0210117 0.942077
0.517662 0.0210117 0.942077
0.643381 0.0210117 0.942077
0.766888 0.0210117 0.942077
0.8907 0.0210117 0.942077
1 0.0210117 0.942077
0.0194705 0.0892653 0.942077
0.0827344 0.0892653 0.942077
0.213535 0.0892653 0.942077
0.382757 0.0892653 0.942077
0.517662 0.0892653 0.942077
0.643381 0.0892653 0.942077
0.766888 0.0892653 0.942077
0.8907 0.0892653 0.942077
1 0.0892653 0.942077
0.0194705 0.230381 0.942077
0.0827344 0.230381 0.942077
0.213535 0.230381 0.942077
0.382757 0.230381 0.942077
0.517662 0.230381 0.942077
0.643381 0.230381 0.942077
0.766888 0.230381 0.942077
0.8907 0.230381 0.942077
1 0.230381 0.942077
0.0194705 0.369818 0.942077
0.0827344 0.369818 0.942077
0.213535 0.369818 0.942077
0.382757 0.369818 0.942077
0.517662 0.369818 0.942077
0.643381 0.369818 0.942077
0.766888 0.369818 0.942077
0.8907 0.369818 0.942077
1 0.369818 0.942077
0.0194705 0.460945 0.942077
0.0827344 0.460945 0.942077
0.213535 0.460945 0.942077
0.382757 0.460945 0.942077
0.517662 0.460945 0.942077
0.643381 0.460945 0.942077
0.766888 0.460945 0.942077
0.8907 0.460945 0.942077
1 0.460945 0.942077
0.0194705 0.542443 0.942077
0.0827344 0.542443 0.942077
0.213535 0.542443 0.942077
0.382757 0.542443 0.942077
0.517662 0.542443 0.942077
0.643381 0.542443 0.942077
0.766888 0.542443 0.942077
0.8907 0.542443 0.942077
1 0.542443 0.942077
0.0194705 0.621668 0.942077
0.0827344 0.621668 0.942077
0.213535 0.621668 0.942077
0.382757 0.621668 0.942077
0.517662 0.621668 0.942077
0.643381 0.621668 0.942077
0.766888 0.621668 0.942077
0.8907 0.621668 0.942077
1 0.621668 0.942077
0.0194705 0.701076 0.942077
0.0827344 0.701076 0.942077
0.213535 0.701076 0.942077
0.382757 0.701076 0.942077
0.517662 0.701076 0.942077
0.643381 0.701076 0.942077
0.766888 0.701076 0.942077
0.8907 0.701076 0.942077
1 0.701076 0.942077
0.0194705 0.781567 0.942077
0.0827344 0.781567 0.942077
0.213535 0.781567 0.942077
0.382757 0.781567 0.942077
0.517662 0.781567 0.942077
0.643381 0.781567 0.942077
0.766888 0.781567 0.942077
0.8907 0.781567 0.942077
1 0.781567 0.942077
