2499DRT/STP-2399Log-PrintV3.cube
TITLE "Generated by Resolve"
LUT_3D_SIZE 5
0.0321965 0.0289464 0.0326543
0.207858 0.0289464 0.0326543
0.520958 0.0289464 0.0326543
0.677272 0.0289464 0.0326543
0.701411 0.0289464 0.0326543
0.0321965 0.222263 0.0326543
0.207858 0.222263 0.0326543
0.520958 0.222263 0.0326543
0.677272 0.222263 0.0326543
0.701411 0.222263 0.0326543
0.0321965 0.551583 0.0326543
0.207858 0.551583 0.0326543
0.520958 0.551583 0.0326543
0.677272 0.551583 0.0326543
0.701411 0.551583 0.0326543
0.0321965 0.709545 0.0326543
0.207858 0.709545 0.0326543
0.520958 0.709545 0.0326543
0.677272 0.709545 0.0326543
0.701411 0.709545 0.0326543
0.0321965 0.723461 0.0326543
0.207858 0.723461 0.0326543
0.520958 0.723461 0.0326543
0.677272 0.723461 0.0326543
0.701411 0.723461 0.0326543
0.0321965 0.0289464 0.238178
0.207858 0.0289464 0.238178
0.520958 0.0289464 0.238178
0.677272 0.0289464 0.238178
0.701411 0.0289464 0.238178
0.0321965 0.222263 0.238178
0.207858 0.222263 0.238178
0.520958 0.222263 0.238178
0.677272 0.222263 0.238178
0.701411 0.222263 0.238178
0.0321965 0.551583 0.238178
0.207858 0.551583 0.238178
0.520958 0.551583 0.238178
0.677272 0.551583 0.238178
0.701411 0.551583 0.238178
0.0321965 0.709545 0.238178
0.207858 0.709545 0.238178
0.520958 0.709545 0.238178
0.677272 0.709545 0.238178
0.701411 0.709545 0.238178
0.0321965 0.723461 0.238178
0.207858 0.723461 0.238178
0.520958 0.723461 0.238178
0.677272 0.723461 0.238178
0.701411 0.723461 0.238178
0.0321965 0.0289464 0.52314
0.207858 0.0289464 0.52314
0.520958 0.0289464 0.52314
0.677272 0.0289464 0.52314
0.701411 0.0289464 0.52314
0.0321965 0.222263 0.52314
0.207858 0.222263 0.52314
0.520958 0.222263 0.52314
0.677272 0.222263 0.52314
0.701411 0.222263 0.52314
0.0321965 0.551583 0.52314
0.207858 0.551583 0.52314
0.520958 0.551583 0.52314
0.677272 0.551583 0.52314
0.701411 0.551583 0.52314
0.0321965 0.709545 0.52314
0.207858 0.709545 0.52314
0.520958 0.709545 0.52314
0.677272 0.709545 0.52314
0.701411 0.709545 0.52314
0.0321965 0.723461 0.52314
0.207858 0.723461 0.52314
0.520958 0.723461 0.52314
0.677272 0.723461 0.52314
0.701411 0.723461 0.52314
0.0321965 0.0289464 0.650294
0.207858 0.0289464 0.650294
0.520958 0.0289464 0.650294
0.677272 0.0289464 0.650294
0.701411 0.0289464 0.650294
0.0321965 0.222263 0.650294
0.207858 0.222263 0.650294
0.520958 0.222263 0.650294
0.677272 0.222263 0.650294
0.701411 0.222263 0.650294
0.0321965 0.551583 0.650294
0.207858 0.551583 0.650294
0.520958 0.551583 0.650294
0.677272 0.551583 0.650294
0.701411 0.551583 0.650294
0.0321965 0.709545 0.650294
0.207858 0.709545 0.650294
0.520958 0.709545 0.650294
0.677272 0.709545 0.650294
0.701411 0.709545 0.650294
0.0321965 0.723461 0.650294
0.207858 0.723461 0.650294
0.520958 0.723461 0.650294
0.677272 0.723461 0.650294
0.701411 0.723461 0.650294
0.0321965 0.0289464 0.666636
0.207858 0.0289464 0.666636
0.520958 0.0289464 0.666636
0.677272 0.0289464 0.666636
0.701411 0.0289464 0.666636
0.0321965 0.222263 0.666636
0.207858 0.222263 0.666636
0.520958 0.222263 0.666636
0.677272 0.222263 0.666636
0.701411 0.222263 0.666636
0.0321965 0.551583 0.666636
0.207858 0.551583 0.666636
0.520958 0.551583 0.666636
0.677272 0.551583 0.666636
0.701411 0.551583 0.666636
0.0321965 0.709545 0.666636
0.207858 0.709545 0.666636
0.520958 0.709545 0.666636
0.677272 0.709545 0.666636
0.701411 0.709545 0.666636
0.0321965 0.723461 0.666636
0.207858 0.723461 0.666636
0.520958 0.723461 0.666636
0.677272 0.723461 0.666636
0.701411 0.723461 0.666636
