2499DRT/STP-2399Log-ClassicCinemaNegative.cube
TITLE "Generated by Resolve"
LUT_3D_SIZE 33
0.00344854 0.024445 0.0399634
0.0211032 0.024445 0.0399634
0.0445716 0.024445 0.0399634
0.0719921 0.024445 0.0399634
0.10222 0.024445 0.0399634
0.134447 0.024445 0.0399634
0.168032 0.024445 0.0399634
0.202487 0.024445 0.0399634
0.237491 0.024445 0.0399634
0.272755 0.024445 0.0399634
0.30811 0.024445 0.0399634
0.343404 0.024445 0.0399634
0.378531 0.024445 0.0399634
0.413382 0.024445 0.0399634
0.447883 0.024445 0.0399634
0.48191 0.024445 0.0399634
0.515389 0.024445 0.0399634
0.54818 0.024445 0.0399634
0.580163 0.024445 0.0399634
0.611215 0.024445 0.0399634
0.641154 0.024445 0.0399634
0.669856 0.024445 0.0399634
0.697154 0.024445 0.0399634
0.722896 0.024445 0.0399634
0.746944 0.024445 0.0399634
0.769177 0.024445 0.0399634
0.789502 0.024445 0.0399634
0.807904 0.024445 0.0399634
0.824353 0.024445 0.0399634
0.838911 0.024445 0.0399634
0.851652 0.024445 0.0399634
0.862684 0.024445 0.0399634
0.872145 0.024445 0.0399634
0.00344854 0.0424353 0.0399634
0.0211032 0.0424353 0.0399634
0.0445716 0.0424353 0.0399634
0.0719921 0.0424353 0.0399634
0.10222 0.0424353 0.0399634
0.134447 0.0424353 0.0399634
0.168032 0.0424353 0.0399634
0.202487 0.0424353 0.0399634
0.237491 0.0424353 0.0399634
0.272755 0.0424353 0.0399634
0.30811 0.0424353 0.0399634
0.343404 0.0424353 0.0399634
0.378531 0.0424353 0.0399634
0.413382 0.0424353 0.0399634
0.447883 0.0424353 0.0399634
0.48191 0.0424353 0.0399634
0.515389 0.0424353 0.0399634
0.54818 0.0424353 0.0399634
0.580163 0.0424353 0.0399634
0.611215 0.0424353 0.0399634
0.641154 0.0424353 0.0399634
0.669856 0.0424353 0.0399634
0.697154 0.0424353 0.0399634
0.722896 0.0424353 0.0399634
0.746944 0.0424353 0.0399634
0.769177 0.0424353 0.0399634
0.789502 0.0424353 0.0399634
0.807904 0.0424353 0.0399634
0.824353 0.0424353 0.0399634
0.838911 0.0424353 0.0399634
0.851652 0.0424353 0.0399634
0.862684 0.0424353 0.0399634
0.872145 0.0424353 0.0399634
0.00344854 0.0624552 0.0399634
0.0211032 0.0624552 0.0399634
0.0445716 0.0624552 0.0399634
0.0719921 0.0624552 0.0399634
0.10222 0.0624552 0.0399634
0.134447 0.0624552 0.0399634
0.168032 0.0624552 0.0399634
0.202487 0.0624552 0.0399634
0.237491 0.0624552 0.0399634
0.272755 0.0624552 0.0399634
0.30811 0.0624552 0.0399634
0.343404 0.0624552 0.0399634
0.378531 0.0624552 0.0399634
0.413382 0.0624552 0.0399634
0.447883 0.0624552 0.0399634
0.48191 0.0624552 0.0399634
0.515389 0.0624552 0.0399634
0.54818 0.0624552 0.0399634
0.580163 0.0624552 0.0399634
0.611215 0.0624552 0.0399634
0.641154 0.0624552 0.0399634
0.669856 0.0624552 0.0399634
0.697154 0.0624552 0.0399634
0.722896 0.0624552 0.0399634
0.746944 0.0624552 0.0399634
0.769177 0.0624552 0.0399634
0.789502 0.0624552 0.0399634
0.807904 0.0624552 0.0399634
0.824353 0.0624552 0.0399634
0.838911 0.0624552 0.0399634
0.851652 0.0624552 0.0399634
0.862684 0.0624552 0.0399634
0.872145 0.0624552 0.0399634
0.00344854 0.086183 0.0399634
0.0211032 0.086183 0.0399634
0.0445716 0.086183 0.0399634
0.0719921 0.086183 0.0399634
0.10222 0.086183 0.0399634
0.134447 0.086183 0.0399634
0.168032 0.086183 0.0399634
0.202487 0.086183 0.0399634
0.237491 0.086183 0.0399634
0.272755 0.086183 0.0399634
0.30811 0.086183 0.0399634
0.343404 0.086183 0.0399634
0.378531 0.086183 0.0399634
0.413382 0.086183 0.0399634
0.447883 0.086183 0.0399634
0.48191 0.086183 0.0399634
0.515389 0.086183 0.0399634
0.54818 0.086183 0.0399634
0.580163 0.086183 0.0399634
0.611215 0.086183 0.0399634
0.641154 0.086183 0.0399634
0.669856 0.086183 0.0399634
0.697154 0.086183 0.0399634
0.722896 0.086183 0.0399634
0.746944 0.086183 0.0399634
0.769177 0.086183 0.0399634
0.789502 0.086183 0.0399634
0.807904 0.086183 0.0399634
0.824353 0.086183 0.0399634
0.838911 0.086183 0.0399634
0.851652 0.086183 0.0399634
0.862684 0.086183 0.0399634
0.872145 0.086183 0.0399634
0.00344854 0.113191 0.0399634
0.0211032 0.113191 0.0399634
0.0445716 0.113191 0.0399634
0.0719921 0.113191 0.0399634
0.10222 0.113191 0.0399634
0.134447 0.113191 0.0399634
0.168032 0.113191 0.0399634
0.202487 0.113191 0.0399634
0.237491 0.113191 0.0399634
0.272755 0.113191 0.0399634
0.30811 0.113191 0.0399634
0.343404 0.113191 0.0399634
0.378531 0.113191 0.0399634
0.413382 0.113191 0.0399634
0.447883 0.113191 0.0399634
0.48191 0.113191 0.0399634
0.515389 0.113191 0.0399634
0.54818 0.113191 0.0399634
0.580163 0.113191 0.0399634
0.611215 0.113191 0.0399634
0.641154 0.113191 0.0399634
0.669856 0.113191 0.0399634
0.697154 0.113191 0.0399634
0.722896 0.113191 0.0399634
0.746944 0.113191 0.0399634
0.769177 0.113191 0.0399634
0.789502 0.113191 0.0399634
0.807904 0.113191 0.0399634
0.824353 0.113191 0.0399634
0.838911 0.113191 0.0399634
0.851652 0.113191 0.0399634
0.862684 0.113191 0.0399634
0.872145 0.113191 0.0399634
0.00344854 0.142855 0.0399634
0.0211032 0.142855 0.0399634
0.0445716 0.142855 0.0399634
0.0719921 0.142855 0.0399634
0.10222 0.142855 0.0399634
0.134447 0.142855 0.0399634
0.168032 0.142855 0.0399634
0.202487 0.142855 0.0399634
0.237491 0.142855 0.0399634
0.272755 0.142855 0.0399634
0.30811 0.142855 0.0399634
0.343404 0.142855 0.0399634
0.378531 0.142855 0.0399634
0.413382 0.142855 0.0399634
0.447883 0.142855 0.0399634
0.48191 0.142855 0.0399634
0.515389 0.142855 0.0399634
0.54818 0.142855 0.0399634
0.580163 0.142855 0.0399634
0.611215 0.142855 0.0399634
0.641154 0.142855 0.0399634
0.669856 0.142855 0.0399634
0.697154 0.142855 0.0399634
0.722896 0.142855 0.0399634
0.746944 0.142855 0.0399634
0.769177 0.142855 0.0399634
0.789502 0.142855 0.0399634
0.807904 0.142855 0.0399634
0.824353 0.142855 0.0399634
0.838911 0.142855 0.0399634
0.851652 0.142855 0.0399634
0.862684 0.142855 0.0399634
0.872145 0.142855 0.0399634
0.00344854 0.174533 0.0399634
0.0211032 0.174533 0.0399634
0.0445716 0.174533 0.0399634
0.0719921 0.174533 0.0399634
0.10222 0.174533 0.0399634
0.134447 0.174533 0.0399634
0.168032 0.174533 0.0399634
0.202487 0.174533 0.0399634
0.237491 0.174533 0.0399634
0.272755 0.174533 0.0399634
0.30811 0.174533 0.0399634
0.343404 0.174533 0.0399634
0.378531 0.174533 0.0399634
0.413382 0.174533 0.0399634
0.447883 0.174533 0.0399634
0.48191 0.174533 0.0399634
0.515389 0.174533 0.0399634
0.54818 0.174533 0.0399634
0.580163 0.174533 0.0399634
0.611215 0.174533 0.0399634
0.641154 0.174533 0.0399634
0.669856 0.174533 0.0399634
0.697154 0.174533 0.0399634
0.722896 0.174533 0.0399634
0.746944 0.174533 0.0399634
0.769177 0.174533 0.0399634
0.789502 0.174533 0.0399634
0.807904 0.174533 0.0399634
0.824353 0.174533 0.0399634
0.838911 0.174533 0.0399634
0.851652 0.174533 0.0399634
0.862684 0.174533 0.0399634
0.872145 0.174533 0.0399634
0.00344854 0.207645 0.0399634
0.0211032 0.207645 0.0399634
0.0445716 0.207645 0.0399634
0.0719921 0.207645 0.0399634
0.10222 0.207645 0.0399634
0.134447 0.207645 0.0399634
0.168032 0.207645 0.0399634
0.202487 0.207645 0.0399634
0.237491 0.207645 0.0399634
0.272755 0.207645 0.0399634
0.30811 0.207645 0.0399634
0.343404 0.207645 0.0399634
0.378531 0.207645 0.0399634
0.413382 0.207645 0.0399634
0.447883 0.207645 0.0399634
0.48191 0.207645 0.0399634
0.515389 0.207645 0.0399634
0.54818 0.207645 0.0399634
0.580163 0.207645 0.0399634
0.611215 0.207645 0.0399634
0.641154 0.207645 0.0399634
0.669856 0.207645 0.0399634
0.697154 0.207645 0.0399634
0.722896 0.207645 0.0399634
0.746944 0.207645 0.0399634
0.769177 0.207645 0.0399634
0.789502 0.207645 0.0399634
0.807904 0.207645 0.0399634
0.824353 0.207645 0.0399634
0.838911 0.207645 0.0399634
0.851652 0.207645 0.0399634
0.862684 0.207645 0.0399634
0.872145 0.207645 0.0399634
0.00344854 0.241688 0.0399634
0.0211032 0.241688 0.0399634
0.0445716 0.241688 0.0399634
0.0719921 0.241688 0.0399634
0.10222 0.241688 0.0399634
0.134447 0.241688 0.0399634
0.168032 0.241688 0.0399634
0.202487 0.241688 0.0399634
0.237491 0.241688 0.0399634
0.272755 0.241688 0.0399634
0.30811 0.241688 0.0399634
0.343404 0.241688 0.0399634
0.378531 0.241688 0.0399634
0.413382 0.241688 0.0399634
0.447883 0.241688 0.0399634
0.48191 0.241688 0.0399634
0.515389 0.241688 0.0399634
0.54818 0.241688 0.0399634
0.580163 0.241688 0.0399634
0.611215 0.241688 0.0399634
0.641154 0.241688 0.0399634
0.669856 0.241688 0.0399634
0.697154 0.241688 0.0399634
0.722896 0.241688 0.0399634
0.746944 0.241688 0.0399634
0.769177 0.241688 0.0399634
0.789502 0.241688 0.0399634
0.807904 0.241688 0.0399634
0.824353 0.241688 0.0399634
0.838911 0.241688 0.0399634
0.851652 0.241688 0.0399634
0.862684 0.241688 0.0399634
0.872145 0.241688 0.0399634
0.00344854 0.276234 0.0399634
0.0211032 0.276234 0.0399634
0.0445716 0.276234 0.0399634
0.0719921 0.276234 0.0399634
0.10222 0.276234 0.0399634
0.134447 0.276234 0.0399634
0.168032 0.276234 0.0399634
0.202487 0.276234 0.0399634
0.237491 0.276234 0.0399634
0.272755 0.276234 0.0399634
0.30811 0.276234 0.0399634
0.343404 0.276234 0.0399634
0.378531 0.276234 0.0399634
0.413382 0.276234 0.0399634
0.447883 0.276234 0.0399634
0.48191 0.276234 0.0399634
0.515389 0.276234 0.0399634
0.54818 0.276234 0.0399634
0.580163 0.276234 0.0399634
0.611215 0.276234 0.0399634
0.641154 0.276234 0.0399634
0.669856 0.276234 0.0399634
0.697154 0.276234 0.0399634
0.722896 0.276234 0.0399634
0.746944 0.276234 0.0399634
0.769177 0.276234 0.0399634
0.789502 0.276234 0.0399634
0.807904 0.276234 0.0399634
0.824353 0.276234 0.0399634
0.838911 0.276234 0.0399634
0.851652 0.276234 0.0399634
0.862684 0.276234 0.0399634
0.872145 0.276234 0.0399634
0.00344854 0.310964 0.0399634
0.0211032 0.310964 0.0399634
0.0445716 0.310964 0.0399634
0.0719921 0.310964 0.0399634
0.10222 0.310964 0.0399634
0.134447 0.310964 0.0399634
0.168032 0.310964 0.0399634
0.202487 0.310964 0.0399634
0.237491 0.310964 0.0399634
0.272755 0.310964 0.0399634
0.30811 0.310964 0.0399634
0.343404 0.310964 0.0399634
0.378531 0.310964 0.0399634
0.413382 0.310964 0.0399634
0.447883 0.310964 0.0399634
0.48191 0.310964 0.0399634
0.515389 0.310964 0.0399634
0.54818 0.310964 0.0399634
0.580163 0.310964 0.0399634
0.611215 0.310964 0.0399634
0.641154 0.310964 0.0399634
0.669856 0.310964 0.0399634
0.697154 0.310964 0.0399634
0.722896 0.310964 0.0399634
0.746944 0.310964 0.0399634
0.769177 0.310964 0.0399634
0.789502 0.310964 0.0399634
0.807904 0.310964 0.0399634
0.824353 0.310964 0.0399634
0.838911 0.310964 0.0399634
0.851652 0.310964 0.0399634
0.862684 0.310964 0.0399634
0.872145 0.310964 0.0399634
0.00344854 0.345663 0.0399634
0.0211032 0.345663 0.0399634
0.0445716 0.345663 0.0399634
0.0719921 0.345663 0.0399634
0.10222 0.345663 0.0399634
0.134447 0.345663 0.0399634
0.168032 0.345663 0.0399634
0.202487 0.345663 0.0399634
0.237491 0.345663 0.0399634
0.272755 0.345663 0.0399634
0.30811 0.345663 0.0399634
0.343404 0.345663 0.0399634
0.378531 0.345663 0.0399634
0.413382 0.345663 0.0399634
0.447883 0.345663 0.0399634
0.48191 0.345663 0.0399634
0.515389 0.345663 0.0399634
0.54818 0.345663 0.0399634
0.580163 0.345663 0.0399634
0.611215 0.345663 0.0399634
0.641154 0.345663 0.0399634
0.669856 0.345663 0.0399634
0.697154 0.345663 0.0399634
0.722896 0.345663 0.0399634
0.746944 0.345663 0.0399634
0.769177 0.345663 0.0399634
0.789502 0.345663 0.0399634
0.807904 0.345663 0.0399634
0.824353 0.345663 0.0399634
0.838911 0.345663 0.0399634
0.851652 0.345663 0.0399634
0.862684 0.345663 0.0399634
0.872145 0.345663 0.0399634
0.00344854 0.380148 0.0399634
0.0211032 0.380148 0.0399634
0.0445716 0.380148 0.0399634
0.0719921 0.380148 0.0399634
0.10222 0.380148 0.0399634
0.134447 0.380148 0.0399634
0.168032 0.380148 0.0399634
0.202487 0.380148 0.0399634
0.237491 0.380148 0.0399634
0.272755 0.380148 0.0399634
0.30811 0.380148 0.0399634
0.343404 0.380148 0.0399634
0.378531 0.380148 0.0399634
0.413382 0.380148 0.0399634
0.447883 0.380148 0.0399634
0.48191 0.380148 0.0399634
0.515389 0.380148 0.0399634
0.54818 0.380148 0.0399634
0.580163 0.380148 0.0399634
0.611215 0.380148 0.0399634
0.641154 0.380148 0.0399634
0.669856 0.380148 0.0399634
0.697154 0.380148 0.0399634
0.722896 0.380148 0.0399634
0.746944 0.380148 0.0399634
0.769177 0.380148 0.0399634
0.789502 0.380148 0.0399634
0.807904 0.380148 0.0399634
0.824353 0.380148 0.0399634
0.838911 0.380148 0.0399634
0.851652 0.380148 0.0399634
0.862684 0.380148 0.0399634
0.872145 0.380148 0.0399634
0.00344854 0.414252 0.0399634
0.0211032 0.414252 0.0399634
0.0445716 0.414252 0.0399634
0.0719921 0.414252 0.0399634
0.10222 0.414252 0.0399634
0.134447 0.414252 0.0399634
0.168032 0.414252 0.0399634
0.202487 0.414252 0.0399634
0.237491 0.414252 0.0399634
0.272755 0.414252 0.0399634
0.30811 0.414252 0.0399634
0.343404 0.414252 0.0399634
0.378531 0.414252 0.0399634
0.413382 0.414252 0.0399634
0.447883 0.414252 0.0399634
0.48191 0.414252 0.0399634
0.515389 0.414252 0.0399634
0.54818 0.414252 0.0399634
0.580163 0.414252 0.0399634
0.611215 0.414252 0.0399634
0.641154 0.414252 0.0399634
0.669856 0.414252 0.0399634
0.697154 0.414252 0.0399634
0.722896 0.414252 0.0399634
0.746944 0.414252 0.0399634
0.769177 0.414252 0.0399634
0.789502 0.414252 0.0399634
0.807904 0.414252 0.0399634
0.824353 0.414252 0.0399634
0.838911 0.414252 0.0399634
0.851652 0.414252 0.0399634
0.862684 0.414252 0.0399634
0.872145 0.414252 0.0399634
0.00344854 0.447883 0.0399634
0.0211032 0.447883 0.0399634
0.0445716 0.447883 0.0399634
0.0719921 0.447883 0.0399634
0.10222 0.447883 0.0399634
0.134447 0.447883 0.0399634
0.168032 0.447883 0.0399634
0.202487 0.447883 0.0399634
0.237491 0.447883 0.0399634
0.272755 0.447883 0.0399634
0.30811 0.447883 0.0399634
0.343404 0.447883 0.0399634
0.378531 0.447883 0.0399634
0.413382 0.447883 0.0399634
0.447883 0.447883 0.0399634
0.48191 0.447883 0.0399634
0.515389 0.447883 0.0399634
0.54818 0.447883 0.0399634
0.580163 0.447883 0.0399634
0.611215 0.447883 0.0399634
0.641154 0.447883 0.0399634
0.669856 0.447883 0.0399634
0.697154 0.447883 0.0399634
0.722896 0.447883 0.0399634
0.746944 0.447883 0.0399634
0.769177 0.447883 0.0399634
0.789502 0.447883 0.0399634
0.807904 0.447883 0.0399634
0.824353 0.447883 0.0399634
0.838911 0.447883 0.0399634
0.851652 0.447883 0.0399634
0.862684 0.447883 0.0399634
0.872145 0.447883 0.0399634
0.00344854 0.480964 0.0399634
0.0211032 0.480964 0.0399634
0.0445716 0.480964 0.0399634
0.0719921 0.480964 0.0399634
0.10222 0.480964 0.0399634
0.134447 0.480964 0.0399634
0.168032 0.480964 0.0399634
0.202487 0.480964 0.0399634
0.237491 0.480964 0.0399634
0.272755 0.480964 0.0399634
0.30811 0.480964 0.0399634
0.343404 0.480964 0.0399634
0.378531 0.480964 0.0399634
0.413382 0.480964 0.0399634
0.447883 0.480964 0.0399634
0.48191 0.480964 0.0399634
0.515389 0.480964 0.0399634
0.54818 0.480964 0.0399634
0.580163 0.480964 0.0399634
0.611215 0.480964 0.0399634
0.641154 0.480964 0.0399634
0.669856 0.480964 0.0399634
0.697154 0.480964 0.0399634
0.722896 0.480964 0.0399634
0.746944 0.480964 0.0399634
0.769177 0.480964 0.0399634
0.789502 0.480964 0.0399634
0.807904 0.480964 0.0399634
0.824353 0.480964 0.0399634
0.838911 0.480964 0.0399634
0.851652 0.480964 0.0399634
0.862684 0.480964 0.0399634
0.872145 0.480964 0.0399634
0.00344854 0.513375 0.0399634
0.0211032 0.513375 0.0399634
0.0445716 0.513375 0.0399634
0.0719921 0.513375 0.0399634
0.10222 0.513375 0.0399634
0.134447 0.513375 0.0399634
0.168032 0.513375 0.0399634
0.202487 0.513375 0.0399634
0.237491 0.513375 0.0399634
0.272755 0.513375 0.0399634
0.30811 0.513375 0.0399634
0.343404 0.513375 0.0399634
0.378531 0.513375 0.0399634
0.413382 0.513375 0.0399634
0.447883 0.513375 0.0399634
0.48191 0.513375 0.0399634
0.515389 0.513375 0.0399634
0.54818 0.513375 0.0399634
0.580163 0.513375 0.0399634
0.611215 0.513375 0.0399634
0.641154 0.513375 0.0399634
0.669856 0.513375 0.0399634
0.697154 0.513375 0.0399634
0.722896 0.513375 0.0399634
0.746944 0.513375 0.0399634
0.769177 0.513375 0.0399634
0.789502 0.513375 0.0399634
0.807904 0.513375 0.0399634
0.824353 0.513375 0.0399634
0.838911 0.513375 0.0399634
0.851652 0.513375 0.0399634
0.862684 0.513375 0.0399634
0.872145 0.513375 0.0399634
0.00344854 0.545098 0.0399634
0.0211032 0.545098 0.0399634
0.0445716 0.545098 0.0399634
0.0719921 0.545098 0.0399634
0.10222 0.545098 0.0399634
0.134447 0.545098 0.0399634
0.168032 0.545098 0.0399634
0.202487 0.545098 0.0399634
0.237491 0.545098 0.0399634
0.272755 0.545098 0.0399634
0.30811 0.545098 0.0399634
0.343404 0.545098 0.0399634
0.378531 0.545098 0.0399634
0.413382 0.545098 0.0399634
0.447883 0.545098 0.0399634
0.48191 0.545098 0.0399634
0.515389 0.545098 0.0399634
0.54818 0.545098 0.0399634
0.580163 0.545098 0.0399634
0.611215 0.545098 0.0399634
0.641154 0.545098 0.0399634
0.669856 0.545098 0.0399634
0.697154 0.545098 0.0399634
0.722896 0.545098 0.0399634
0.746944 0.545098 0.0399634
0.769177 0.545098 0.0399634
0.789502 0.545098 0.0399634
0.807904 0.545098 0.0399634
0.824353 0.545098 0.0399634
0.838911 0.545098 0.0399634
0.851652 0.545098 0.0399634
0.862684 0.545098 0.0399634
0.872145 0.545098 0.0399634
0.00344854 0.576043 0.0399634
0.0211032 0.576043 0.0399634
0.0445716 0.576043 0.0399634
0.0719921 0.576043 0.0399634
0.10222 0.576043 0.0399634
0.134447 0.576043 0.0399634
0.168032 0.576043 0.0399634
0.202487 0.576043 0.0399634
0.237491 0.576043 0.0399634
0.272755 0.576043 0.0399634
0.30811 0.576043 0.0399634
0.343404 0.576043 0.0399634
0.378531 0.576043 0.0399634
0.413382 0.576043 0.0399634
0.447883 0.576043 0.0399634
0.48191 0.576043 0.0399634
0.515389 0.576043 0.0399634
0.54818 0.576043 0.0399634
0.580163 0.576043 0.0399634
0.611215 0.576043 0.0399634
0.641154 0.576043 0.0399634
0.669856 0.576043 0.0399634
0.697154 0.576043 0.0399634
0.722896 0.576043 0.0399634
0.746944 0.576043 0.0399634
0.769177 0.576043 0.0399634
0.789502 0.576043 0.0399634
0.807904 0.576043 0.0399634
0.824353 0.576043 0.0399634
0.838911 0.576043 0.0399634
0.851652 0.576043 0.0399634
0.862684 0.576043 0.0399634
0.872145 0.576043 0.0399634
0.00344854 0.60618 0.0399634
0.0211032 0.60618 0.0399634
0.0445716 0.60618 0.0399634
0.0719921 0.60618 0.0399634
0.10222 0.60618 0.0399634
0.134447 0.60618 0.0399634
0.168032 0.60618 0.0399634
0.202487 0.60618 0.0399634
0.237491 0.60618 0.0399634
0.272755 0.60618 0.0399634
0.30811 0.60618 0.0399634
0.343404 0.60618 0.0399634
0.378531 0.60618 0.0399634
0.413382 0.60618 0.0399634
0.447883 0.60618 0.0399634
0.48191 0.60618 0.0399634
0.515389 0.60618 0.0399634
0.54818 0.60618 0.0399634
0.580163 0.60618 0.0399634
0.611215 0.60618 0.0399634
0.641154 0.60618 0.0399634
0.669856 0.60618 0.0399634
0.697154 0.60618 0.0399634
0.722896 0.60618 0.0399634
0.746944 0.60618 0.0399634
0.769177 0.60618 0.0399634
0.789502 0.60618 0.0399634
0.807904 0.60618 0.0399634
0.824353 0.60618 0.0399634
0.838911 0.60618 0.0399634
0.851652 0.60618 0.0399634
0.862684 0.60618 0.0399634
0.872145 0.60618 0.0399634
0.00344854 0.635447 0.0399634
0.0211032 0.635447 0.0399634
0.0445716 0.635447 0.0399634
0.0719921 0.635447 0.0399634
0.10222 0.635447 0.0399634
0.134447 0.635447 0.0399634
0.168032 0.635447 0.0399634
0.202487 0.635447 0.0399634
0.237491 0.635447 0.0399634
0.272755 0.635447 0.0399634
0.30811 0.635447 0.0399634
0.343404 0.635447 0.0399634
0.378531 0.635447 0.0399634
0.413382 0.635447 0.0399634
0.447883 0.635447 0.0399634
0.48191 0.635447 0.0399634
0.515389 0.635447 0.0399634
0.54818 0.635447 0.0399634
0.580163 0.635447 0.0399634
0.611215 0.635447 0.0399634
0.641154 0.635447 0.0399634
0.669856 0.635447 0.0399634
0.697154 0.635447 0.0399634
0.722896 0.635447 0.0399634
0.746944 0.635447 0.0399634
0.769177 0.635447 0.0399634
0.789502 0.635447 0.0399634
0.807904 0.635447 0.0399634
0.824353 0.635447 0.0399634
0.838911 0.635447 0.0399634
0.851652 0.635447 0.0399634
0.862684 0.635447 0.0399634
0.872145 0.635447 0.0399634
0.00344854 0.663798 0.0399634
0.0211032 0.663798 0.0399634
0.0445716 0.663798 0.0399634
0.0719921 0.663798 0.0399634
0.10222 0.663798 0.0399634
0.134447 0.663798 0.0399634
0.168032 0.663798 0.0399634
0.202487 0.663798 0.0399634
0.237491 0.663798 0.0399634
0.272755 0.663798 0.0399634
0.30811 0.663798 0.0399634
0.343404 0.663798 0.0399634
0.378531 0.663798 0.0399634
0.413382 0.663798 0.0399634
0.447883 0.663798 0.0399634
0.48191 0.663798 0.0399634
0.515389 0.663798 0.0399634
0.54818 0.663798 0.0399634
0.580163 0.663798 0.0399634
0.611215 0.663798 0.0399634
0.641154 0.663798 0.0399634
0.669856 0.663798 0.0399634
0.697154 0.663798 0.0399634
0.722896 0.663798 0.0399634
0.746944 0.663798 0.0399634
0.769177 0.663798 0.0399634
0.789502 0.663798 0.0399634
0.807904 0.663798 0.0399634
0.824353 0.663798 0.0399634
0.838911 0.663798 0.0399634
0.851652 0.663798 0.0399634
0.862684 0.663798 0.0399634
0.872145 0.663798 0.0399634
0.00344854 0.691203 0.0399634
0.0211032 0.691203 0.0399634
0.0445716 0.691203 0.0399634
0.0719921 0.691203 0.0399634
0.10222 0.691203 0.0399634
0.134447 0.691203 0.0399634
0.168032 0.691203 0.0399634
0.202487 0.691203 0.0399634
0.237491 0.691203 0.0399634
0.272755 0.691203 0.0399634
0.30811 0.691203 0.0399634
0.343404 0.691203 0.0399634
0.378531 0.691203 0.0399634
0.413382 0.691203 0.0399634
0.447883 0.691203 0.0399634
0.48191 0.691203 0.0399634
0.515389 0.691203 0.0399634
0.54818 0.691203 0.0399634
0.580163 0.691203 0.0399634
0.611215 0.691203 0.0399634
0.641154 0.691203 0.0399634
0.669856 0.691203 0.0399634
0.697154 0.691203 0.0399634
0.722896 0.691203 0.0399634
0.746944 0.691203 0.0399634
0.769177 0.691203 0.0399634
0.789502 0.691203 0.0399634
0.807904 0.691203 0.0399634
0.824353 0.691203 0.0399634
0.838911 0.691203 0.0399634
0.851652 0.691203 0.0399634
0.862684 0.691203 0.0399634
0.872145 0.691203 0.0399634
0.00344854 0.717617 0.0399634
0.0211032 0.717617 0.0399634
0.0445716 0.717617 0.0399634
0.0719921 0.717617 0.0399634
0.10222 0.717617 0.0399634
0.134447 0.717617 0.0399634
0.168032 0.717617 0.0399634
0.202487 0.717617 0.0399634
0.237491 0.717617 0.0399634
0.272755 0.717617 0.0399634
0.30811 0.717617 0.0399634
0.343404 0.717617 0.0399634
0.378531 0.717617 0.0399634
0.413382 0.717617 0.0399634
0.447883 0.717617 0.0399634
0.48191 0.717617 0.0399634
0.515389 0.717617 0.0399634
0.54818 0.717617 0.0399634
0.580163 0.717617 0.0399634
0.611215 0.717617 0.0399634
0.641154 0.717617 0.0399634
0.669856 0.717617 0.0399634
0.697154 0.717617 0.0399634
0.722896 0.717617 0.0399634
0.746944 0.717617 0.0399634
0.769177 0.717617 0.0399634
0.789502 0.717617 0.0399634
0.807904 0.717617 0.0399634
0.824353 0.717617 0.0399634
0.838911 0.717617 0.0399634
0.851652 0.717617 0.0399634
0.862684 0.717617 0.0399634
0.872145 0.717617 0.0399634
0.00344854 0.743023 0.0399634
0.0211032 0.743023 0.0399634
0.0445716 0.743023 0.0399634
0.0719921 0.743023 0.0399634
0.10222 0.743023 0.0399634
0.134447 0.743023 0.0399634
0.168032 0.743023 0.0399634
0.202487 0.743023 0.0399634
0.237491 0.743023 0.0399634
0.272755 0.743023 0.0399634
0.30811 0.743023 0.0399634
0.343404 0.743023 0.0399634
0.378531 0.743023 0.0399634
0.413382 0.743023 0.0399634
0.447883 0.743023 0.0399634
0.48191 0.743023 0.0399634
0.515389 0.743023 0.0399634
0.54818 0.743023 0.0399634
0.580163 0.743023 0.0399634
0.611215 0.743023 0.0399634
0.641154 0.743023 0.0399634
0.669856 0.743023 0.0399634
0.697154 0.743023 0.0399634
0.722896 0.743023 0.0399634
0.746944 0.743023 0.0399634
0.769177 0.743023 0.0399634
0.789502 0.743023 0.0399634
0.807904 0.743023 0.0399634
0.824353 0.743023 0.0399634
0.838911 0.743023 0.0399634
0.851652 0.743023 0.0399634
0.862684 0.743023 0.0399634
0.872145 0.743023 0.0399634
0.00344854 0.767407 0.0399634
0.0211032 0.767407 0.0399634
0.0445716 0.767407 0.0399634
0.0719921 0.767407 0.0399634
0.10222 0.767407 0.0399634
0.134447 0.767407 0.0399634
0.168032 0.767407 0.0399634
0.202487 0.767407 0.0399634
0.237491 0.767407 0.0399634
0.272755 0.767407 0.0399634
0.30811 0.767407 0.0399634
0.343404 0.767407 0.0399634
0.378531 0.767407 0.0399634
0.413382 0.767407 0.0399634
0.447883 0.767407 0.0399634
0.48191 0.767407 0.0399634
0.515389 0.767407 0.0399634
0.54818 0.767407 0.0399634
0.580163 0.767407 0.0399634
0.611215 0.767407 0.0399634
0.641154 0.767407 0.0399634
0.669856 0.767407 0.0399634
0.697154 0.767407 0.0399634
0.722896 0.767407 0.0399634
0.746944 0.767407 0.0399634
0.769177 0.767407 0.0399634
0.789502 0.767407 0.0399634
0.807904 0.767407 0.0399634
