2499DRT/STP-2399Log-PrintV1.cube
TITLE "Generated by Resolve"
LUT_3D_SIZE 9
0.0738842 0.0978256 0.119829
0.144823 0.0978256 0.119829
0.282597 0.0978256 0.119829
0.439094 0.0978256 0.119829
0.562081 0.0978256 0.119829
0.644892 0.0978256 0.119829
0.690044 0.0978256 0.119829
0.709346 0.0978256 0.119829
0.716396 0.0978256 0.119829
0.0738842 0.153918 0.119829
0.144823 0.153918 0.119829
0.282597 0.153918 0.119829
0.439094 0.153918 0.119829
0.562081 0.153918 0.119829
0.644892 0.153918 0.119829
0.690044 0.153918 0.119829
0.709346 0.153918 0.119829
0.716396 0.153918 0.119829
0.0738842 0.277028 0.119829
0.144823 0.277028 0.119829
0.282597 0.277028 0.119829
0.439094 0.277028 0.119829
0.562081 0.277028 0.119829
0.644892 0.277028 0.119829
0.690044 0.277028 0.119829
0.709346 0.277028 0.119829
0.716396 0.277028 0.119829
0.0738842 0.439689 0.119829
0.144823 0.439689 0.119829
0.282597 0.439689 0.119829
0.439094 0.439689 0.119829
0.562081 0.439689 0.119829
0.644892 0.439689 0.119829
0.690044 0.439689 0.119829
0.709346 0.439689 0.119829
0.716396 0.439689 0.119829
0.0738842 0.563043 0.119829
0.144823 0.563043 0.119829
0.282597 0.563043 0.119829
0.439094 0.563043 0.119829
0.562081 0.563043 0.119829
0.644892 0.563043 0.119829
0.690044 0.563043 0.119829
0.709346 0.563043 0.119829
0.716396 0.563043 0.119829
0.0738842 0.623316 0.119829
0.144823 0.623316 0.119829
0.282597 0.623316 0.119829
0.439094 0.623316 0.119829
0.562081 0.623316 0.119829
0.644892 0.623316 0.119829
0.690044 0.623316 0.119829
0.709346 0.623316 0.119829
0.716396 0.623316 0.119829
0.0738842 0.642634 0.119829
0.144823 0.642634 0.119829
0.282597 0.642634 0.119829
0.439094 0.642634 0.119829
0.562081 0.642634 0.119829
0.644892 0.642634 0.119829
0.690044 0.642634 0.119829
0.709346 0.642634 0.119829
0.716396 0.642634 0.119829
0.0738842 0.647486 0.119829
0.144823 0.647486 0.119829
0.282597 0.647486 0.119829
0.439094 0.647486 0.119829
0.562081 0.647486 0.119829
0.644892 0.647486 0.119829
0.690044 0.647486 0.119829
0.709346 0.647486 0.119829
0.716396 0.647486 0.119829
0.0738842 0.6486 0.119829
0.144823 0.6486 0.119829
0.282597 0.6486 0.119829
0.439094 0.6486 0.119829
0.562081 0.6486 0.119829
0.644892 0.6486 0.119829
0.690044 0.6486 0.119829
0.709346 0.6486 0.119829
0.716396 0.6486 0.119829
0.0738842 0.0978256 0.180362
0.144823 0.0978256 0.180362
0.282597 0.0978256 0.180362
0.439094 0.0978256 0.180362
0.562081 0.0978256 0.180362
0.644892 0.0978256 0.180362
0.690044 0.0978256 0.180362
0.709346 0.0978256 0.180362
0.716396 0.0978256 0.180362
0.0738842 0.153918 0.180362
0.144823 0.153918 0.180362
0.282597 0.153918 0.180362
0.439094 0.153918 0.180362
0.562081 0.153918 0.180362
0.644892 0.153918 0.180362
0.690044 0.153918 0.180362
0.709346 0.153918 0.180362
0.716396 0.153918 0.180362
0.0738842 0.277028 0.180362
0.144823 0.277028 0.180362
0.282597 0.277028 0.180362
0.439094 0.277028 0.180362
0.562081 0.277028 0.180362
0.644892 0.277028 0.180362
0.690044 0.277028 0.180362
0.709346 0.277028 0.180362
0.716396 0.277028 0.180362
0.0738842 0.439689 0.180362
0.144823 0.439689 0.180362
0.282597 0.439689 0.180362
0.439094 0.439689 0.180362
0.562081 0.439689 0.180362
0.644892 0.439689 0.180362
0.690044 0.439689 0.180362
0.709346 0.439689 0.180362
0.716396 0.439689 0.180362
0.0738842 0.563043 0.180362
0.144823 0.563043 0.180362
0.282597 0.563043 0.180362
0.439094 0.563043 0.180362
0.562081 0.563043 0.180362
0.644892 0.563043 0.180362
0.690044 0.563043 0.180362
0.709346 0.563043 0.180362
0.716396 0.563043 0.180362
0.0738842 0.623316 0.180362
0.144823 0.623316 0.180362
0.282597 0.623316 0.180362
0.439094 0.623316 0.180362
0.562081 0.623316 0.180362
0.644892 0.623316 0.180362
0.690044 0.623316 0.180362
0.709346 0.623316 0.180362
0.716396 0.623316 0.180362
0.0738842 0.642634 0.180362
0.144823 0.642634 0.180362
0.282597 0.642634 0.180362
0.439094 0.642634 0.180362
0.562081 0.642634 0.180362
0.644892 0.642634 0.180362
0.690044 0.642634 0.180362
0.709346 0.642634 0.180362
0.716396 0.642634 0.180362
0.0738842 0.647486 0.180362
0.144823 0.647486 0.180362
0.282597 0.647486 0.180362
0.439094 0.647486 0.180362
0.562081 0.647486 0.180362
0.644892 0.647486 0.180362
0.690044 0.647486 0.180362
0.709346 0.647486 0.180362
0.716396 0.647486 0.180362
0.0738842 0.6486 0.180362
0.144823 0.6486 0.180362
0.282597 0.6486 0.180362
0.439094 0.6486 0.180362
0.562081 0.6486 0.180362
0.644892 0.6486 0.180362
0.690044 0.6486 0.180362
0.709346 0.6486 0.180362
0.716396 0.6486 0.180362
0.0738842 0.0978256 0.288243
0.144823 0.0978256 0.288243
0.282597 0.0978256 0.288243
0.439094 0.0978256 0.288243
0.562081 0.0978256 0.288243
0.644892 0.0978256 0.288243
0.690044 0.0978256 0.288243
0.709346 0.0978256 0.288243
0.716396 0.0978256 0.288243
0.0738842 0.153918 0.288243
0.144823 0.153918 0.288243
0.282597 0.153918 0.288243
0.439094 0.153918 0.288243
0.562081 0.153918 0.288243
0.644892 0.153918 0.288243
0.690044 0.153918 0.288243
0.709346 0.153918 0.288243
0.716396 0.153918 0.288243
0.0738842 0.277028 0.288243
0.144823 0.277028 0.288243
0.282597 0.277028 0.288243
0.439094 0.277028 0.288243
0.562081 0.277028 0.288243
0.644892 0.277028 0.288243
0.690044 0.277028 0.288243
0.709346 0.277028 0.288243
0.716396 0.277028 0.288243
0.0738842 0.439689 0.288243
0.144823 0.439689 0.288243
0.282597 0.439689 0.288243
0.439094 0.439689 0.288243
0.562081 0.439689 0.288243
0.644892 0.439689 0.288243
0.690044 0.439689 0.288243
0.709346 0.439689 0.288243
0.716396 0.439689 0.288243
0.0738842 0.563043 0.288243
0.144823 0.563043 0.288243
0.282597 0.563043 0.288243
0.439094 0.563043 0.288243
0.562081 0.563043 0.288243
0.644892 0.563043 0.288243
0.690044 0.563043 0.288243
0.709346 0.563043 0.288243
0.716396 0.563043 0.288243
0.0738842 0.623316 0.288243
0.144823 0.623316 0.288243
0.282597 0.623316 0.288243
0.439094 0.623316 0.288243
0.562081 0.623316 0.288243
0.644892 0.623316 0.288243
0.690044 0.623316 0.288243
0.709346 0.623316 0.288243
0.716396 0.623316 0.288243
0.0738842 0.642634 0.288243
0.144823 0.642634 0.288243
0.282597 0.642634 0.288243
0.439094 0.642634 0.288243
0.562081 0.642634 0.288243
0.644892 0.642634 0.288243
0.690044 0.642634 0.288243
0.709346 0.642634 0.288243
0.716396 0.642634 0.288243
0.0738842 0.647486 0.288243
0.144823 0.647486 0.288243
0.282597 0.647486 0.288243
0.439094 0.647486 0.288243
0.562081 0.647486 0.288243
0.644892 0.647486 0.288243
0.690044 0.647486 0.288243
0.709346 0.647486 0.288243
0.716396 0.647486 0.288243
0.0738842 0.6486 0.288243
0.144823 0.6486 0.288243
0.282597 0.6486 0.288243
0.439094 0.6486 0.288243
0.562081 0.6486 0.288243
0.644892 0.6486 0.288243
0.690044 0.6486 0.288243
0.709346 0.6486 0.288243
0.716396 0.6486 0.288243
0.0738842 0.0978256 0.420294
0.144823 0.0978256 0.420294
0.282597 0.0978256 0.420294
0.439094 0.0978256 0.420294
0.562081 0.0978256 0.420294
0.644892 0.0978256 0.420294
0.690044 0.0978256 0.420294
0.709346 0.0978256 0.420294
0.716396 0.0978256 0.420294
0.0738842 0.153918 0.420294
0.144823 0.153918 0.420294
0.282597 0.153918 0.420294
0.439094 0.153918 0.420294
0.562081 0.153918 0.420294
0.644892 0.153918 0.420294
0.690044 0.153918 0.420294
0.709346 0.153918 0.420294
0.716396 0.153918 0.420294
0.0738842 0.277028 0.420294
0.144823 0.277028 0.420294
0.282597 0.277028 0.420294
0.439094 0.277028 0.420294
0.562081 0.277028 0.420294
0.644892 0.277028 0.420294
0.690044 0.277028 0.420294
0.709346 0.277028 0.420294
0.716396 0.277028 0.420294
0.0738842 0.439689 0.420294
0.144823 0.439689 0.420294
0.282597 0.439689 0.420294
0.439094 0.439689 0.420294
0.562081 0.439689 0.420294
0.644892 0.439689 0.420294
0.690044 0.439689 0.420294
0.709346 0.439689 0.420294
0.716396 0.439689 0.420294
0.0738842 0.563043 0.420294
0.144823 0.563043 0.420294
0.282597 0.563043 0.420294
0.439094 0.563043 0.420294
0.562081 0.563043 0.420294
0.644892 0.563043 0.420294
0.690044 0.563043 0.420294
0.709346 0.563043 0.420294
0.716396 0.563043 0.420294
0.0738842 0.623316 0.420294
0.144823 0.623316 0.420294
0.282597 0.623316 0.420294
0.439094 0.623316 0.420294
0.562081 0.623316 0.420294
0.644892 0.623316 0.420294
0.690044 0.623316 0.420294
0.709346 0.623316 0.420294
0.716396 0.623316 0.420294
0.0738842 0.642634 0.420294
0.144823 0.642634 0.420294
0.282597 0.642634 0.420294
0.439094 0.642634 0.420294
0.562081 0.642634 0.420294
0.644892 0.642634 0.420294
0.690044 0.642634 0.420294
0.709346 0.642634 0.420294
0.716396 0.642634 0.420294
0.0738842 0.647486 0.420294
0.144823 0.647486 0.420294
0.282597 0.647486 0.420294
0.439094 0.647486 0.420294
0.562081 0.647486 0.420294
0.644892 0.647486 0.420294
0.690044 0.647486 0.420294
0.709346 0.647486 0.420294
0.716396 0.647486 0.420294
0.0738842 0.6486 0.420294
0.144823 0.6486 0.420294
0.282597 0.6486 0.420294
0.439094 0.6486 0.420294
0.562081 0.6486 0.420294
0.644892 0.6486 0.420294
0.690044 0.6486 0.420294
0.709346 0.6486 0.420294
0.716396 0.6486 0.420294
0.0738842 0.0978256 0.510475
0.144823 0.0978256 0.510475
0.282597 0.0978256 0.510475
0.439094 0.0978256 0.510475
0.562081 0.0978256 0.510475
0.644892 0.0978256 0.510475
0.690044 0.0978256 0.510475
0.709346 0.0978256 0.510475
0.716396 0.0978256 0.510475
0.0738842 0.153918 0.510475
0.144823 0.153918 0.510475
0.282597 0.153918 0.510475
0.439094 0.153918 0.510475
0.562081 0.153918 0.510475
0.644892 0.153918 0.510475
0.690044 0.153918 0.510475
0.709346 0.153918 0.510475
0.716396 0.153918 0.510475
0.0738842 0.277028 0.510475
0.144823 0.277028 0.510475
0.282597 0.277028 0.510475
0.439094 0.277028 0.510475
0.562081 0.277028 0.510475
0.644892 0.277028 0.510475
0.690044 0.277028 0.510475
0.709346 0.277028 0.510475
0.716396 0.277028 0.510475
0.0738842 0.439689 0.510475
0.144823 0.439689 0.510475
0.282597 0.439689 0.510475
0.439094 0.439689 0.510475
0.562081 0.439689 0.510475
0.644892 0.439689 0.510475
0.690044 0.439689 0.510475
0.709346 0.439689 0.510475
0.716396 0.439689 0.510475
0.0738842 0.563043 0.510475
0.144823 0.563043 0.510475
0.282597 0.563043 0.510475
0.439094 0.563043 0.510475
0.562081 0.563043 0.510475
0.644892 0.563043 0.510475
0.690044 0.563043 0.510475
0.709346 0.563043 0.510475
0.716396 0.563043 0.510475
0.0738842 0.623316 0.510475
0.144823 0.623316 0.510475
0.282597 0.623316 0.510475
0.439094 0.623316 0.510475
0.562081 0.623316 0.510475
0.644892 0.623316 0.510475
0.690044 0.623316 0.510475
0.709346 0.623316 0.510475
0.716396 0.623316 0.510475
0.0738842 0.642634 0.510475
0.144823 0.642634 0.510475
0.282597 0.642634 0.510475
0.439094 0.642634 0.510475
0.562081 0.642634 0.510475
0.644892 0.642634 0.510475
0.690044 0.642634 0.510475
0.709346 0.642634 0.510475
0.716396 0.642634 0.510475
0.0738842 0.647486 0.510475
0.144823 0.647486 0.510475
0.282597 0.647486 0.510475
0.439094 0.647486 0.510475
0.562081 0.647486 0.510475
0.644892 0.647486 0.510475
0.690044 0.647486 0.510475
0.709346 0.647486 0.510475
0.716396 0.647486 0.510475
0.0738842 0.6486 0.510475
0.144823 0.6486 0.510475
0.282597 0.6486 0.510475
0.439094 0.6486 0.510475
0.562081 0.6486 0.510475
0.644892 0.6486 0.510475
0.690044 0.6486 0.510475
0.709346 0.6486 0.510475
0.716396 0.6486 0.510475
0.0738842 0.0978256 0.54377
0.144823 0.0978256 0.54377
0.282597 0.0978256 0.54377
0.439094 0.0978256 0.54377
0.562081 0.0978256 0.54377
0.644892 0.0978256 0.54377
0.690044 0.0978256 0.54377
0.709346 0.0978256 0.54377
0.716396 0.0978256 0.54377
0.0738842 0.153918 0.54377
0.144823 0.153918 0.54377
0.282597 0.153918 0.54377
0.439094 0.153918 0.54377
0.562081 0.153918 0.54377
0.644892 0.153918 0.54377
0.690044 0.153918 0.54377
0.709346 0.153918 0.54377
0.716396 0.153918 0.54377
0.0738842 0.277028 0.54377
0.144823 0.277028 0.54377
0.282597 0.277028 0.54377
0.439094 0.277028 0.54377
0.562081 0.277028 0.54377
0.644892 0.277028 0.54377
0.690044 0.277028 0.54377
0.709346 0.277028 0.54377
0.716396 0.277028 0.54377
0.0738842 0.439689 0.54377
0.144823 0.439689 0.54377
0.282597 0.439689 0.54377
0.439094 0.439689 0.54377
0.562081 0.439689 0.54377
0.644892 0.439689 0.54377
0.690044 0.439689 0.54377
0.709346 0.439689 0.54377
0.716396 0.439689 0.54377
0.0738842 0.563043 0.54377
0.144823 0.563043 0.54377
0.282597 0.563043 0.54377
0.439094 0.563043 0.54377
0.562081 0.563043 0.54377
0.644892 0.563043 0.54377
0.690044 0.563043 0.54377
0.709346 0.563043 0.54377
0.716396 0.563043 0.54377
0.0738842 0.623316 0.54377
0.144823 0.623316 0.54377
0.282597 0.623316 0.54377
0.439094 0.623316 0.54377
0.562081 0.623316 0.54377
0.644892 0.623316 0.54377
0.690044 0.623316 0.54377
0.709346 0.623316 0.54377
0.716396 0.623316 0.54377
0.0738842 0.642634 0.54377
0.144823 0.642634 0.54377
0.282597 0.642634 0.54377
0.439094 0.642634 0.54377
0.562081 0.642634 0.54377
0.644892 0.642634 0.54377
0.690044 0.642634 0.54377
0.709346 0.642634 0.54377
0.716396 0.642634 0.54377
0.0738842 0.647486 0.54377
0.144823 0.647486 0.54377
0.282597 0.647486 0.54377
0.439094 0.647486 0.54377
0.562081 0.647486 0.54377
0.644892 0.647486 0.54377
0.690044 0.647486 0.54377
0.709346 0.647486 0.54377
0.716396 0.647486 0.54377
0.0738842 0.6486 0.54377
0.144823 0.6486 0.54377
0.282597 0.6486 0.54377
0.439094 0.6486 0.54377
0.562081 0.6486 0.54377
0.644892 0.6486 0.54377
0.690044 0.6486 0.54377
0.709346 0.6486 0.54377
0.716396 0.6486 0.54377
0.0738842 0.0978256 0.551919
0.144823 0.0978256 0.551919
0.282597 0.0978256 0.551919
0.439094 0.0978256 0.551919
0.562081 0.0978256 0.551919
0.644892 0.0978256 0.551919
0.690044 0.0978256 0.551919
0.709346 0.0978256 0.551919
0.716396 0.0978256 0.551919
0.0738842 0.153918 0.551919
0.144823 0.153918 0.551919
0.282597 0.153918 0.551919
0.439094 0.153918 0.551919
0.562081 0.153918 0.551919
0.644892 0.153918 0.551919
0.690044 0.153918 0.551919
0.709346 0.153918 0.551919
0.716396 0.153918 0.551919
0.0738842 0.277028 0.551919
0.144823 0.277028 0.551919
0.282597 0.277028 0.551919
0.439094 0.277028 0.551919
0.562081 0.277028 0.551919
0.644892 0.277028 0.551919
0.690044 0.277028 0.551919
0.709346 0.277028 0.551919
0.716396 0.277028 0.551919
0.0738842 0.439689 0.551919
0.144823 0.439689 0.551919
0.282597 0.439689 0.551919
0.439094 0.439689 0.551919
0.562081 0.439689 0.551919
0.644892 0.439689 0.551919
0.690044 0.439689 0.551919
0.709346 0.439689 0.551919
0.716396 0.439689 0.551919
0.0738842 0.563043 0.551919
0.144823 0.563043 0.551919
0.282597 0.563043 0.551919
0.439094 0.563043 0.551919
0.562081 0.563043 0.551919
0.644892 0.563043 0.551919
0.690044 0.563043 0.551919
0.709346 0.563043 0.551919
0.716396 0.563043 0.551919
0.0738842 0.623316 0.551919
0.144823 0.623316 0.551919
0.282597 0.623316 0.551919
0.439094 0.623316 0.551919
0.562081 0.623316 0.551919
0.644892 0.623316 0.551919
0.690044 0.623316 0.551919
0.709346 0.623316 0.551919
0.716396 0.623316 0.551919
0.0738842 0.642634 0.551919
0.144823 0.642634 0.551919
0.282597 0.642634 0.551919
0.439094 0.642634 0.551919
0.562081 0.642634 0.551919
0.644892 0.642634 0.551919
0.690044 0.642634 0.551919
0.709346 0.642634 0.551919
0.716396 0.642634 0.551919
0.0738842 0.647486 0.551919
0.144823 0.647486 0.551919
0.282597 0.647486 0.551919
0.439094 0.647486 0.551919
0.562081 0.647486 0.551919
0.644892 0.647486 0.551919
0.690044 0.647486 0.551919
0.709346 0.647486 0.551919
0.716396 0.647486 0.551919
0.0738842 0.6486 0.551919
0.144823 0.6486 0.551919
0.282597 0.6486 0.551919
0.439094 0.6486 0.551919
0.562081 0.6486 0.551919
0.644892 0.6486 0.551919
0.690044 0.6486 0.551919
0.709346 0.6486 0.551919
0.716396 0.6486 0.551919
0.0738842 0.0978256 0.553643
0.144823 0.0978256 0.553643
0.282597 0.0978256 0.553643
0.439094 0.0978256 0.553643
0.562081 0.0978256 0.553643
0.644892 0.0978256 0.553643
0.690044 0.0978256 0.553643
0.709346 0.0978256 0.553643
0.716396 0.0978256 0.553643
0.0738842 0.153918 0.553643
0.144823 0.153918 0.553643
0.282597 0.153918 0.553643
0.439094 0.153918 0.553643
0.562081 0.153918 0.553643
0.644892 0.153918 0.553643
0.690044 0.153918 0.553643
0.709346 0.153918 0.553643
0.716396 0.153918 0.553643
0.0738842 0.277028 0.553643
0.144823 0.277028 0.553643
0.282597 0.277028 0.553643
0.439094 0.277028 0.553643
0.562081 0.277028 0.553643
0.644892 0.277028 0.553643
0.690044 0.277028 0.553643
0.709346 0.277028 0.553643
0.716396 0.277028 0.553643
0.0738842 0.439689 0.553643
0.144823 0.439689 0.553643
0.282597 0.439689 0.553643
0.439094 0.439689 0.553643
0.562081 0.439689 0.553643
0.644892 0.439689 0.553643
0.690044 0.439689 0.553643
0.709346 0.439689 0.553643
0.716396 0.439689 0.553643
0.0738842 0.563043 0.553643
0.144823 0.563043 0.553643
0.282597 0.563043 0.553643
0.439094 0.563043 0.553643
0.562081 0.563043 0.553643
0.644892 0.563043 0.553643
0.690044 0.563043 0.553643
0.709346 0.563043 0.553643
0.716396 0.563043 0.553643
0.0738842 0.623316 0.553643
0.144823 0.623316 0.553643
0.282597 0.623316 0.553643
0.439094 0.623316 0.553643
0.562081 0.623316 0.553643
0.644892 0.623316 0.553643
0.690044 0.623316 0.553643
0.709346 0.623316 0.553643
0.716396 0.623316 0.553643
0.0738842 0.642634 0.553643
0.144823 0.642634 0.553643
0.282597 0.642634 0.553643
0.439094 0.642634 0.553643
0.562081 0.642634 0.553643
0.644892 0.642634 0.553643
0.690044 0.642634 0.553643
0.709346 0.642634 0.553643
0.716396 0.642634 0.553643
0.0738842 0.647486 0.553643
0.144823 0.647486 0.553643
0.282597 0.647486 0.553643
0.439094 0.647486 0.553643
0.562081 0.647486 0.553643
0.644892 0.647486 0.553643
0.690044 0.647486 0.553643
0.709346 0.647486 0.553643
0.716396 0.647486 0.553643
0.0738842 0.6486 0.553643
0.144823 0.6486 0.553643
0.282597 0.6486 0.553643
0.439094 0.6486 0.553643
0.562081 0.6486 0.553643
0.644892 0.6486 0.553643
0.690044 0.6486 0.553643
0.709346 0.6486 0.553643
0.716396 0.6486 0.553643
0.0738842 0.0978256 0.553994
0.144823 0.0978256 0.553994
0.282597 0.0978256 0.553994
0.439094 0.0978256 0.553994
0.562081 0.0978256 0.553994
0.644892 0.0978256 0.553994
0.690044 0.0978256 0.553994
0.709346 0.0978256 0.553994
0.716396 0.0978256 0.553994
0.0738842 0.153918 0.553994
0.144823 0.153918 0.553994
0.282597 0.153918 0.553994
0.439094 0.153918 0.553994
0.562081 0.153918 0.553994
0.644892 0.153918 0.553994
0.690044 0.153918 0.553994
0.709346 0.153918 0.553994
0.716396 0.153918 0.553994
0.0738842 0.277028 0.553994
0.144823 0.277028 0.553994
0.282597 0.277028 0.553994
0.439094 0.277028 0.553994
0.562081 0.277028 0.553994
0.644892 0.277028 0.553994
0.690044 0.277028 0.553994
0.709346 0.277028 0.553994
0.716396 0.277028 0.553994
0.0738842 0.439689 0.553994
0.144823 0.439689 0.553994
0.282597 0.439689 0.553994
0.439094 0.439689 0.553994
0.562081 0.439689 0.553994
0.644892 0.439689 0.553994
0.690044 0.439689 0.553994
0.709346 0.439689 0.553994
0.716396 0.439689 0.553994
0.0738842 0.563043 0.553994
0.144823 0.563043 0.553994
0.282597 0.563043 0.553994
0.439094 0.563043 0.553994
0.562081 0.563043 0.553994
0.644892 0.563043 0.553994
0.690044 0.563043 0.553994
0.709346 0.563043 0.553994
0.716396 0.563043 0.553994
0.0738842 0.623316 0.553994
0.144823 0.623316 0.553994
0.282597 0.623316 0.553994
0.439094 0.623316 0.553994
0.562081 0.623316 0.553994
0.644892 0.623316 0.553994
0.690044 0.623316 0.553994
0.709346 0.623316 0.553994
0.716396 0.623316 0.553994
0.0738842 0.642634 0.553994
0.144823 0.642634 0.553994
0.282597 0.642634 0.553994
0.439094 0.642634 0.553994
0.562081 0.642634 0.553994
0.644892 0.642634 0.553994
0.690044 0.642634 0.553994
0.709346 0.642634 0.553994
0.716396 0.642634 0.553994
0.0738842 0.647486 0.553994
0.144823 0.647486 0.553994
0.282597 0.647486 0.553994
0.439094 0.647486 0.553994
0.562081 0.647486 0.553994
0.644892 0.647486 0.553994
0.690044 0.647486 0.553994
0.709346 0.647486 0.553994
0.716396 0.647486 0.553994
0.0738842 0.6486 0.553994
0.144823 0.6486 0.553994
0.282597 0.6486 0.553994
0.439094 0.6486 0.553994
0.562081 0.6486 0.553994
0.644892 0.6486 0.553994
0.690044 0.6486 0.553994
0.709346 0.6486 0.553994
0.716396 0.6486 0.553994
