OpenDRT/JzDT-LogC3LinP3D65.cube
TITLE "Generated by Resolve"
LUT_3D_SIZE 33
0 0 0
0 0 0
0 0 0
0 0 0
0 0 0
0 0 0
0.00117494 0 0
0.00613413 0 0
0.0158694 0 0
0.0318303 0 0
0.0559396 0 0
0.0905623 0 0
0.138842 0 0
0.203235 0 0
0.284276 0 0
0.383398 0 0
0.495674 0 0
0.616815 0 0
0.745129 0.0297551 0.0192874
0.876036 0.0712444 0.0492561
1 0.123384 0.0880446
1 0.184695 0.13489
1 0.252857 0.18851
1 0.325704 0.247501
1 0.401144 0.311055
1 0.47892 0.379812
1 0.555444 0.451164
1 0.625498 0.519417
1 0.688212 0.583108
1 0.743328 0.641474
1 0.791043 0.694118
1 0.832029 0.740932
1 0.867002 0.782345
0 0 0
0 0 0
0 0 0
0 0 0
0 0 0
0.000381476 0 0
0.00270085 0 0
0.00794995 0 0
0.0175326 0 0
0.0331884 0 0
0.0569162 0 0
0.0912642 0 0
0.139437 0 0
0.203387 0 0
0.283665 0 0
0.382239 0 0
0.495033 0 0
0.616266 0.00437934 0
0.744472 0.0340581 0.0187991
0.875288 0.0749981 0.0488746
1 0.126604 0.0877699
1 0.187304 0.134707
1 0.254994 0.188388
1 0.327352 0.24744
1 0.402457 0.311101
1 0.479942 0.379904
1 0.556115 0.451255
1 0.62594 0.519402
1 0.688472 0.583185
1 0.743557 0.641566
1 0.791196 0.694133
1 0.83212 0.740932
1 0.867033 0.782315
0 0 0
0 0 0
0 0 0
0 0 0
0.00015259 0 0
0.00131228 0 0
0.00392157 0 0
0.00924697 0 0
0.0187686 0 0
0.0342412 0 0
0.0577401 0 0
0.0918898 0 0
0.139971 0 0
0.203494 0 0
0.28304 0 0
0.381094 0 0
0.494285 0 0
0.615625 0.00921645 0
0.74377 0.0383764 0.0183261
0.874449 0.0787823 0.0485237
1 0.129809 0.0874952
1 0.189944 0.134539
1 0.257115 0.188312
1 0.329076 0.24744
1 0.40383 0.311162
1 0.480995 0.380072
1 0.556771 0.451301
1 0.62649 0.519539
1 0.688853 0.583276
1 0.74377 0.641642
1 0.791394 0.694118
1 0.832273 0.740993
1 0.867109 0.782376
0 0 0
0 0 0
0 0 0
1.5259e-05 1.5259e-05 0
0.000564584 0.000213626 0
0.00195315 0.000488289 0
0.00479133 0.000793469 0
0.0102541 0.00105287 0
0.0197604 0.00109865 0
0.0350958 0.000686656 0
0.0584421 0 0
0.0924697 0 0
0.140459 0 0
0.203525 0 0
0.282383 0 0
0.379919 0 0
0.4934 0 0
0.614908 0.0140841 0
0.743008 0.0427253 0.0178683
0.87361 0.0825513 0.0481727
1 0.133013 0.0872511
1 0.192599 0.134356
1 0.259266 0.188205
1 0.330724 0.24741
1 0.405158 0.311208
1 0.482048 0.380255
1 0.557565 0.451408
1 0.626947 0.5196
1 0.689219 0.583276
1 0.744015 0.641611
1 0.791531 0.694194
1 0.832334 0.740963
1 0.867185 0.782376
0 0 0
0 0 0
0 0.000213626 0
1.5259e-05 0.000564584 0
0.000823987 0.0012665 0
0.00247196 0.00196841 0
0.00550851 0.00273136 0
0.0110933 0.00350958 0
0.0205997 0.00411994 0
0.0358587 0.00427253 0
0.0590677 0.00358587 0
0.0930343 0.00166323 0
0.140887 0 0
0.203494 0 0
0.281666 0 0
0.378729 0 0
0.492409 0.0019379 0
0.614084 0.0189822 0
0.742199 0.0470893 0.0174411
0.872694 0.0863355 0.0478218
0.999741 0.136187 0.0870069
1 0.195239 0.134203
1 0.261402 0.188128
1 0.332403 0.24741
1 0.40647 0.311284
1 0.483009 0.380316
1 0.558206 0.451499
1 0.627482 0.519738
1 0.689525 0.583368
1 0.744152 0.641581
1 0.791684 0.69424
1 0.832395 0.740978
1 0.86714 0.782269
0 0.000366217 0
0 0.000991836 0
0 0.00164797 0
0 0.00230411 0
0.000976577 0.00306706 0
0.0028687 0.00411994 0
0.00613413 0.00523384 0
0.0118257 0.00642405 0
0.0213626 0.00747692 0
0.0365301 0.00810254 0
0.0596475 0.00787366 0
0.0935988 0.0062562 0
0.141253 0.00306706 0
0.203403 0.000335698 0
0.280919 0 0
0.377478 0.00137331 0
0.491279 0.00746166 0
0.613199 0.0239414 0
0.741344 0.0514839 0.0170138
0.871763 0.0901656 0.0474861
0.998688 0.139452 0.0867628
1 0.197894 0.134035
1 0.263554 0.188037
1 0.334127 0.24741
1 0.407782 0.31133
1 0.484092 0.380499
1 0.558984 0.451621
1 0.627955 0.519753
1 0.68986 0.583398
1 0.744366 0.641672
1 0.791775 0.694194
1 0.832532 0.741054
1 0.867308 0.782422
0 0.00302129 0
0 0.0039826 0
0 0.00489815 0
0 0.00576791 0
0.00102235 0.0065919 0
0.00315862 0.00755322 0
0.00666819 0.00898756 0
0.0125582 0.0105287 0
0.0221408 0.0120089 0
0.0372625 0.0130922 0
0.0602731 0.0133211 0
0.0942855 0.0119631 0
0.141588 0.00929274 0
0.203143 0.00706493 0
0.279927 0.00701915 0
0.375937 0.00857557 0
0.489754 0.0142824 0
0.612009 0.0300755 0
0.7402 0.0569009 0.0165255
0.870527 0.0948806 0.0471046
0.997406 0.14342 0.0864729
1 0.201175 0.133852
1 0.266194 0.187945
1 0.336156 0.247395
1 0.4094 0.311421
1 0.485344 0.380667
1 0.559884 0.451743
1 0.628595 0.519875
1 0.690257 0.58349
1 0.744686 0.641672
1 0.791974 0.69424
1 0.832609 0.741009
1 0.867384 0.782437
0 0.00892653 0
0 0.0100557 0
0 0.0110933 0
0 0.0120546 0
0.000579843 0.0129702 0
0.00325017 0.0138399 0
0.00698863 0.0149996 0
0.013138 0.0168612 0
0.0228885 0.0187228 0
0.0380102 0.0202487 0
0.0609751 0.0209201 0
0.0950179 0.0198978 0
0.141802 0.0178531 0
0.202564 0.0162509 0
0.278538 0.016556 0
0.373846 0.0181888 0
0.48748 0.0234989 0
0.610208 0.0383154 0
0.738521 0.0641947 0.0158846
0.868849 0.101183 0.0466011
0.995666 0.14873 0.0861067
1 0.205554 0.133623
1 0.269703 0.187808
1 0.338994 0.247379
1 0.411566 0.311528
1 0.486961 0.38088
1 0.561059 0.451957
1 0.629374 0.520012
1 0.690852 0.583597
1 0.745098 0.641779
1 0.792203 0.69427
1 0.832807 0.741115
1 0.867399 0.782406
0 0.0193027 0
0 0.0204318 0
0 0.0214694 0
0 0.022446 0
0 0.0233463 0
0.00251774 0.0242161 0
0.00686656 0.0252079 0
0.0132601 0.026566 0
0.02327 0.0287175 0
0.0385443 0.0305943 0
0.0616007 0.0316167 0
0.0954299 0.0310979 0
0.141604 0.0296941 0
0.201251 0.0288701 0
0.276524 0.0293584 0
0.370962 0.0310521 0
0.484047 0.0359808 0
0.607492 0.0494545 0
0.736034 0.0740063 0.0151217
0.866484 0.109606 0.0459907
0.99321 0.155871 0.0856794
1 0.211398 0.133349
1 0.274388 0.187671
1 0.342672 0.247395
1 0.414481 0.311727
1 0.489235 0.381186
1 0.562615 0.452186
1 0.630457 0.520195
1 0.69163 0.583688
1 0.745525 0.641871
1 0.792554 0.694377
1 0.832975 0.741054
1 0.867613 0.782452
0 0.0355535 0
0 0.0365759 0
0 0.0375219 0
0 0.0384222 0
0 0.0392615 0
0.000381476 0.0400702 0
0.00541695 0.0409857 0
0.0125429 0.0421149 0
0.022797 0.0435187 0
0.0383459 0.0456245 0
0.0615702 0.046891 0
0.0949416 0.0469978 0
0.140475 0.0462043 0
0.19884 0.046128 0
0.273564 0.0465858 0
0.366995 0.0482032 0
0.478981 0.052781 0
0.603372 0.0644846 0
0.732403 0.0872053 0.0142214
0.862959 0.121019 0.045243
0.989807 0.165423 0.0851453
1 0.219303 0.132982
1 0.28072 0.187518
1 0.347646 0.247395
1 0.418372 0.311894
1 0.492287 0.381643
1 0.564736 0.452476
1 0.631907 0.520439
1 0.692546 0.58381
1 0.746197 0.642054
1 0.792935 0.694362
1 0.833356 0.741238
1 0.867765 0.782483
0 0.0594034 0
0 0.0602731 0
0 0.0610971 0
0 0.0618753 0
0 0.0626078 0
0 0.0633097 0
0.00184634 0.0641031 0
0.00973526 0.0650797 0
0.0207828 0.0662089 0
0.0365911 0.0673686 0
0.0598306 0.0689097 0
0.0928054 0.0694591 0
0.137514 0.0692454 0
0.195163 0.0693828 0
0.269276 0.0696574 0
0.361532 0.0710155 0
0.472114 0.0750439 0
0.597101 0.0847639 0
0.72697 0.104982 0.0133059
0.857908 0.136263 0.04448
0.984909 0.178241 0.0845655
1 0.229786 0.132647
1 0.289143 0.187411
1 0.354299 0.247517
1 0.423651 0.312322
1 0.496239 0.382193
1 0.567529 0.452873
1 0.633814 0.520684
1 0.693935 0.584115
1 0.747036 0.642115
1 0.793591 0.69453
1 0.833707 0.741283
1 0.868009 0.782528
0 0.0930953 0
0 0.0938125 0
0 0.0944991 0
0 0.0951553 0
0 0.0957961 0
0 0.096376 0
0 0.0970169 0
0.00384527 0.0977646 0
0.0158236 0.098558 0
0.032517 0.0992905 0
0.0557717 0.0998703 0
0.0883803 0.100649 0
0.132189 0.100862 0
0.189685 0.100618 0
0.263066 0.10045 0
0.354025 0.101228 0
0.462989 0.104341 0
0.587671 0.111971 0
0.7187 0.128893 0.0125734
0.850431 0.156771 0.0438087
0.977905 0.195438 0.084062
1 0.243824 0.132357
1 0.30042 0.187366
1 0.363226 0.247745
1 0.430533 0.312825
1 0.501488 0.38294
1 0.571252 0.453483
1 0.636393 0.52108
1 0.695537 0.58436
1 0.748272 0.642359
1 0.794324 0.694743
1 0.834257 0.74136
1 0.868376 0.78265
0 0.139452 0
0 0.139925 0
0 0.140368 0
0 0.14078 0
0 0.141146 0
0 0.141482 0
0 0.141848 0
0 0.142229 0
0.00794995 0.142626 0
0.0254826 0.142901 0
0.0494087 0.142962 0
0.081651 0.14287 0
0.125048 0.142824 0
0.181949 0.142092 0
0.254444 0.141131 0
0.343969 0.140871 0
0.451026 0.14258 0
0.57406 0.148089 0
0.70634 0.160891 0.0124514
0.839368 0.184222 0.0435187
0.96788 0.218402 0.0838483
1 0.262638 0.132296
1 0.315496 0.187533
1 0.375097 0.248249
1 0.439872 0.313756
1 0.508614 0.384039
1 0.576211 0.454292
1 0.639826 0.521691
1 0.697917 0.584802
1 0.749813 0.642557
1 0.795346 0.69485
1 0.834852 0.741436
1 0.868818 0.782712
0 0.199069 0
0 0.19942 0
0 0.199695 0
0 0.199908 0
0 0.200061 0
0 0.200122 0
0 0.200107 0
0 0.2 0
0 0.199878 0
0.0166171 0.199664 0
0.0406806 0.199344 0
0.0728466 0.198779 0
0.115663 0.197894 0
0.17174 0.196277 0
0.243076 0.19408 0
0.330983 0.192157 0
0.435767 0.191836 0
0.556329 0.19472 0
0.688518 0.203143 0.0137789
0.823133 0.220752 0.044358
0.953216 0.249073 0.0843824
1 0.2878 0.13283
1 0.335653 0.18819
1 0.390997 0.249241
1 0.452262 0.315221
1 0.517845 0.385473
1 0.582742 0.455344
1 0.644373 0.522499
1 0.700969 0.585306
1 0.751888 0.643015
1 0.796811 0.69514
1 0.835721 0.741619
1 0.869429 0.782742
0 0.267887 0
0 0.268299 0
0 0.26865 0
0 0.268956 0
0 0.26923 0
0 0.26949 0
0 0.269749 0
0 0.270008 0
0 0.270222 0
0.00764477 0.270314 0
0.0308385 0.270115 0
0.0621042 0.269413 0
0.103883 0.268009 0
0.158953 0.265827 0
0.228931 0.261723 0
0.314961 0.257389 0
0.417197 0.254139 0
0.534676 0.253605 0
0.664485 0.257542 0.0175479
0.800031 0.26862 0.047425
0.932158 0.28957 0.0867323
1 0.321019 0.134707
1 0.362417 0.189975
1 0.412131 0.251179
1 0.468956 0.317693
1 0.530083 0.387472
1 0.591394 0.456809
1 0.650324 0.523461
1 0.705074 0.586069
1 0.75462 0.643488
1 0.798566 0.69546
1 0.836942 0.741894
1 0.870207 0.78291
0 0.348241 0
0 0.348684 0
0 0.349081 0
0 0.349447 0
0 0.349783 0
0 0.350134 0
0 0.350484 0
0 0.350896 0
0 0.351308 0
0.00447089 0.35172 0
0.025742 0.35198 0
0.0544747 0.351873 0
0.0931258 0.35108 0
0.144671 0.349233 0
0.212238 0.346029 0
0.296117 0.338674 0
0.395666 0.331426 0
0.509621 0.326268 0
0.635554 0.325093 0.0237888
0.769116 0.329625 0.0542916
0.902739 0.342153 0.0924392
1 0.364797 0.139315
1 0.397772 0.193896
1 0.440314 0.255009
1 0.490761 0.321447
1 0.546014 0.390311
1 0.602716 0.458808
1 0.658259 0.524971
1 0.710506 0.586999
1 0.758282 0.644175
1 0.801053 0.695933
1 0.838651 0.742168
1 0.871275 0.783215
0 0.440314 0
0 0.440696 0
0 0.441062 0
0 0.441413 0
0 0.441733 0
0 0.442039 0
0 0.442405 0
0 0.442817 0
0 0.44329 0
0.0089723 0.443824 0
0.0280919 0.444266 0
0.0538186 0.444511 0
0.0884108 0.444251 0
0.134676 0.443076 0
0.195911 0.440482 0
0.275517 0.436027 0
0.371603 0.424918 0
0.482063 0.414008 0.00538643
0.603571 0.406363 0.032517
0.732891 0.403815 0.0649729
0.864515 0.408087 0.10338
0.990585 0.420981 0.148882
1 0.443915 0.201999
1 0.477089 0.261936
1 0.518883 0.326863
1 0.566735 0.394308
1 0.617578 0.461692
1 0.668574 0.526879
1 0.717601 0.588418
1 0.763027 0.64506
1 0.804227 0.696559
1 0.840696 0.742565
1 0.872648 0.783444
0 0.542428 0
0 0.542718 0
0 0.543008 0
0 0.543267 0
0 0.543511 0
0 0.543755 0
0 0.544045 0
0.000946059 0.544366 0
0.0102998 0.544747 0
0.0228275 0.54519 0
0.0396124 0.545617 0
0.0621805 0.545892 0
0.0924697 0.545785 0
0.13286 0.545037 0
0.186481 0.543038 0
0.256901 0.539132 0
0.347143 0.532952 0
0.452735 0.517052 0.0151369
0.570092 0.501732 0.0435187
0.694179 0.490898 0.0789044
0.821561 0.486305 0.118776
0.946365 0.489265 0.163699
1 0.501228 0.214801
1 0.52311 0.272236
1 0.554482 0.3346
1 0.593271 0.399939
1 0.63679 0.465705
1 0.682155 0.529686
1 0.726986 0.590372
1 0.76939 0.646387
1 0.808591 0.697444
1 0.843626 0.74316
1 0.874556 0.78381
0 0.651331 0.00907912
0.00318914 0.651499 0.00910964
0.00679026 0.651698 0.00915541
0.0104524 0.651835 0.00921645
0.0140688 0.652003 0.00926223
0.0177615 0.65211 0.00932326
0.0222782 0.652277 0.0093843
0.0283207 0.652445 0.00947585
0.0363775 0.652674 0.00959792
0.0471809 0.652888 0.00979629
0.0616312 0.653101 0.0100862
0.0810101 0.653162 0.0105135
0.106905 0.652918 0.0112154
0.14139 0.65214 0.0123598
0.187182 0.650339 0.0143282
0.247501 0.646891 0.0176547
0.325658 0.641093 0.0234379
0.424506 0.632425 0.0331273
0.536156 0.61062 0.0582284
0.655421 0.590249 0.0953384
0.777203 0.575814 0.137957
0.898131 0.568505 0.18352
1 0.569268 0.232776
1 0.579171 0.286885
1 0.598627 0.34583
1 0.626719 0.408072
1 0.66128 0.471412
1 0.699702 0.5337
1 0.739116 0.59295
1 0.777844 0.648203
1 0.81416 0.698589
1 0.847318 0.743969
1 0.877058 0.784375
0.0421759 0.762448 0.0450446
0.045304 0.762448 0.0451209
0.0483558 0.762524 0.0452125
0.0514687 0.762524 0.0452888
0.0545357 0.76257 0.0453803
0.0576486 0.762585 0.0454566
0.0614023 0.762646 0.0455787
0.0664836 0.762661 0.0457465
0.0733043 0.762646 0.0459449
0.0823987 0.7626 0.0462348
0.0945602 0.762478 0.0466468
0.110765 0.762219 0.0472267
0.132464 0.761624 0.0480812
0.161212 0.760571 0.0493629
0.199512 0.758572 0.0513313
0.249851 0.755215 0.0544137
0.315496 0.749676 0.0594797
0.399558 0.741222 0.0677348
0.504189 0.729427 0.0809339
0.6177 0.700954 0.114031
0.734386 0.675227 0.159457
0.849622 0.657084 0.207355
0.960723 0.64683 0.256184
1 0.644846 0.307149
1 0.651865 0.361654
1 0.668025 0.419791
1 0.692119 0.479606
1 0.721889 0.539208
1 0.754894 0.59675
1 0.788632 0.65069
1 0.821515 0.700206
1 0.852277 0.745022
1 0.880354 0.785061
0.0948653 0.870253 0.0897383
0.0974136 0.870176 0.0898299
0.0999161 0.870146 0.0899214
0.102449 0.870069 0.0900435
0.104997 0.869993 0.0901503
0.107515 0.869932 0.0902571
0.110643 0.869841 0.0903944
0.114839 0.869673 0.0905776
0.120409 0.86949 0.0908217
0.12784 0.86923 0.0911574
0.137789 0.868803 0.0916152
0.15108 0.868162 0.092256
0.168719 0.867231 0.0931868
0.192233 0.865766 0.0944686
0.223438 0.863432 0.0964065
0.264485 0.859892 0.0992752
0.318303 0.854398 0.103716
0.387732 0.846159 0.11075
0.475547 0.834379 0.121859
0.582788 0.818845 0.139315
0.694072 0.78323 0.182315
0.804242 0.753063 0.232914
0.910094 0.731472 0.283589
1 0.718303 0.33315
1 0.713481 0.383413
1 0.717342 0.436194
1 0.729961 0.491356
1 0.749813 0.547295
1 0.774853 0.602106
1 0.80264 0.654231
1 0.831113 0.702602
1 0.858808 0.746563
1 0.884657 0.786068
0.155566 0.969635 0.141695
0.157595 0.969482 0.141802
0.159594 0.96936 0.141924
0.1617 0.969177 0.142031
0.163668 0.969055 0.142138
0.165713 0.968917 0.142229
0.168185 0.968734 0.142397
0.171542 0.968475 0.142565
0.175967 0.968154 0.14284
0.181949 0.967681 0.14316
0.189914 0.966995 0.143648
0.200458 0.966125 0.144274
0.214603 0.964843 0.145174
0.233326 0.963027 0.146426
0.258198 0.960403 0.148241
0.290929 0.956664 0.150835
0.334051 0.951049 0.154772
0.390005 0.943053 0.160739
0.461433 0.931685 0.170047
0.55053 0.916152 0.184817
0.657191 0.896406 0.207904
0.762783 0.854826 0.258808
0.863752 0.821271 0.311879
0.958358 0.79704 0.362768
1 0.781308 0.410788
1 0.773861 0.458427
1 0.774823 0.507729
1 0.783948 0.558694
1 0.799817 0.609812
1 0.820401 0.659297
1 0.843397 0.705882
1 0.86717 0.748653
1 0.890349 0.787442
0.221927 1 0.199069
0.223514 1 0.199161
0.225177 1 0.199283
0.226703 1 0.199374
0.228275 1 0.199481
0.229877 1 0.199603
0.231769 1 0.199725
0.234424 1 0.199924
0.237873 1 0.200137
0.242481 1 0.200473
0.248753 1 0.200931
0.257023 1 0.201556
0.267933 1 0.202365
0.282597 1 0.20354
0.30193 1 0.205203
0.327672 1 0.207553
0.36141 1 0.211017
0.405432 1 0.216129
0.462226 1 0.224033
0.534234 1 0.236378
0.622522 0.982956 0.256275
0.72549 0.959197 0.286015
0.822492 0.914488 0.339239
0.912764 0.878752 0.392309
0.995666 0.85275 0.441276
1 0.83534 0.486091
1 0.825696 0.529793
1 0.82417 0.574609
1 0.830182 0.620706
1 0.84242 0.666423
1 0.859037 0.710521
1 0.877974 0.751659
1 0.897658 0.789425
0.29163 1 0.259998
0.29276 1 0.26009
0.294011 1 0.260166
0.295186 1 0.260288
0.296422 1 0.26041
0.297597 1 0.260456
0.299153 1 0.260609
0.301091 1 0.260761
0.303761 1 0.261006
0.307317 1 0.261326
0.312016 1 0.261753
0.318379 1 0.262333
0.326833 1 0.263096
0.337987 1 0.26421
0.352865 1 0.265721
0.372519 1 0.267842
0.39852 1 0.270954
0.432547 1 0.275425
0.476738 1 0.282216
0.533486 1 0.292836
0.604623 1 0.309834
0.690089 1 0.335805
0.785687 1 0.366842
0.87277 0.96231 0.419669
0.951873 0.92575 0.470771
1 0.898955 0.516243
1 0.880415 0.556802
1 0.869352 0.595834
1 0.865766 0.635767
1 0.86923 0.676631
1 0.878401 0.717144
1 0.891661 0.755947
1 0.907027 0.792126
0.362585 1 0.323125
0.363546 1 0.323201
0.364431 1 0.323293
0.365316 1 0.323384
0.366262 1 0.323507
0.367132 1 0.323568
0.368292 1 0.323674
0.369787 1 0.323842
0.37171 1 0.324102
0.374456 1 0.324376
0.378012 1 0.324804
0.382757 1 0.325338
0.389075 1 0.326085
0.397589 1 0.327138
0.408759 1 0.328573
0.423728 1 0.330556
0.443473 1 0.333425
0.469368 1 0.337545
0.503288 1 0.343664
0.547311 1 0.353155
0.603494 1 0.368322
0.671778 1 0.389441
0.750317 1 0.415656
0.837446 1 0.446342
0.914031 0.999146 0.497063
0.982406 0.962951 0.544701
1 0.936202 0.585809
1 0.917388 0.621622
1 0.905455 0.655802
1 0.90042 0.690776
1 0.901884 0.726558
1 0.908598 0.762066
1 0.918959 0.796002
0.434134 1 0.387945
0.434791 1 0.388052
0.435401 1 0.388128
0.436149 1 0.388235
0.436851 1 0.388342
0.437491 1 0.388464
0.4383 1 0.388571
0.43946 1 0.388724
0.440925 1 0.388922
0.443 1 0.389288
0.445579 1 0.389685
0.44918 1 0.390234
0.453956 1 0.390982
0.460273 1 0.392035
0.468711 1 0.393454
0.479942 1 0.395438
0.494835 1 0.398215
0.514595 1 0.402289
0.540398 1 0.408255
0.574411 1 0.417395
0.617243 1 0.429892
0.669734 1 0.446265
0.731884 1 0.466835
0.80296 1 0.492256
0.880827 1 0.521782
0.947265 1 0.5691
1 0.991791 0.612421
1 0.965805 0.648859
1 0.947219 0.679866
1 0.935027 0.709331
1 0.929076 0.739605
1 0.929 0.770733
1 0.933745 0.801511
0.506737 1 0.45565
0.507301 1 0.455772
0.50779 1 0.455848
0.508171 1 0.45594
0.508766 1 0.456107
0.509239 1 0.456184
0.510002 1 0.456352
0.51075 1 0.456519
0.511879 1 0.456779
0.51339 1 0.457115
0.515389 1 0.457572
0.518029 1 0.458183
0.521782 1 0.459007
0.526467 1 0.460121
0.532967 1 0.461753
0.541436 1 0.463981
0.552682 1 0.466865
0.567544 1 0.470924
0.586572 1 0.476188
0.611353 1 0.483162
0.642527 1 0.492348
0.681437 1 0.504402
0.728634 1 0.519936
0.784482 1 0.539696
0.847791 1 0.563668
0.916472 1 0.591257
0.973556 1 0.634562
1 1 0.673304
1 0.988983 0.704997
1 0.97113 0.731533
1 0.959075 0.756664
1 0.952605 0.782498
1 0.951385 0.809293
0.580636 1 0.526925
0.581018 1 0.527016
0.581415 1 0.527062
0.581704 1 0.527108
0.58204 1 0.52723
0.582437 1 0.527352
0.582849 1 0.527489
0.583413 1 0.527596
0.584253 1 0.527825
