OpenDRT/JzDT-LogC3LinRec2020.cube
TITLE "Generated by Resolve"
LUT_3D_SIZE 9
0 0 0
0 0 0
0.010605 0 0
0.0996872 0 0
0.369085 0.00411994 0
0.785183 0.16321 0.0875563
1 0.443748 0.311376
1 0.717693 0.584024
1 0.884215 0.783246
0 0 0
0.000762951 0.00120546 0
0.0158389 0.00469978 0
0.10486 0.0043946 0
0.370779 0.0241398 0
0.784817 0.175067 0.0867628
1 0.448569 0.311696
1 0.718883 0.584298
1 0.884337 0.783169
0 0.0175479 0
0.00343328 0.0217899 0
0.022446 0.0278935 0
0.111437 0.0341344 0
0.37113 0.055787 0
0.783749 0.193301 0.0858167
1 0.455848 0.312276
1 0.720775 0.584649
1 0.884749 0.783368
0 0.128695 0
0.00622568 0.131273 0
0.032578 0.134218 0
0.120775 0.139742 0
0.367269 0.154635 0
0.776974 0.251011 0.0851453
1 0.478889 0.314748
1 0.726421 0.585855
1 0.885832 0.783642
0.0458839 0.41181 0
0.0602731 0.414008 0
0.082414 0.4168 0
0.153185 0.421988 0
0.36379 0.416983 0
0.737652 0.425162 0.10782
1 0.550439 0.329122
1 0.744106 0.589792
1 0.889265 0.784436
0.248615 0.82504 0.103471
0.256214 0.825269 0.103853
0.267765 0.825513 0.104494
0.303853 0.82562 0.106722
0.414557 0.820508 0.11667
0.687434 0.771649 0.192279
0.987686 0.726955 0.388357
1 0.795575 0.604334
1 0.900008 0.787243
0.523339 1 0.338186
0.525948 1 0.338537
0.529854 1 0.339086
0.542229 1 0.340963
0.580911 1 0.347875
0.693935 1 0.381186
0.911101 0.988983 0.505394
1 0.913191 0.659617
1 0.930709 0.797665
0.761227 1 0.604334
0.761959 1 0.604623
0.762921 1 0.604974
0.766094 1 0.606195
0.775906 1 0.609995
0.805478 1 0.621942
0.882826 1 0.658289
1 1 0.749722
1 0.998016 0.836408
0.906874 1 0.801221
0.906966 1 0.801221
0.907134 1 0.801343
0.907759 1 0.801633
0.909606 1 0.80235
0.915389 1 0.804913
0.932448 1 0.812741
0.976593 1 0.836469
1 1 0.892439
0 0 6.10361e-05
0.000122072 0 0.000381476
0.00967422 0 0.00161746
0.0980087 0 0
0.369024 0 0.00300603
0.787091 0.158251 0.0994583
1 0.441505 0.31632
1 0.717067 0.585489
1 0.884001 0.783505
0 0.000198367 0.000320439
0.000488289 0.000488289 0.000488289
0.0155184 0.00157168 0.000854505
0.102403 0.00146487 0
0.37052 0.0192569 0.00115969
0.786847 0.170077 0.0984512
1 0.446296 0.316579
1 0.718196 0.585626
1 0.88423 0.783597
0 0.0161135 0
0.00222782 0.0198062 0
0.0214694 0.024445 0
0.107988 0.0318608 0
0.37023 0.0514229 0
0.785931 0.18822 0.0972457
1 0.453559 0.317113
1 0.720073 0.585962
1 0.884535 0.783627
0 0.124346 0
0.00570687 0.126589 0
0.0319829 0.129458 0
0.118929 0.13579 0
0.366812 0.150134 0
0.779492 0.245899 0.0957046
1 0.476661 0.319478
1 0.72575 0.587091
1 0.885618 0.783886
0.0409247 0.412421 0
0.0554513 0.414527 0
0.0778668 0.417105 0
0.149706 0.421363 0
0.363195 0.413642 0.0061799
0.739193 0.421332 0.116899
1 0.548348 0.333242
1 0.74345 0.590997
1 0.889143 0.784665
0.24535 0.825803 0.111101
0.252979 0.826001 0.111437
0.264576 0.826246 0.111971
0.300908 0.8262 0.113909
0.412467 0.820462 0.123156
0.68748 0.770016 0.19852
0.988556 0.725444 0.391073
1 0.794949 0.605386
1 0.899855 0.787503
0.522164 1 0.3411
0.524773 1 0.341466
0.528756 1 0.342016
0.541131 1 0.343847
0.579904 1 0.350622
0.693507 1 0.383932
0.911208 0.988525 0.507012
1 0.912825 0.660182
1 0.930587 0.797833
0.760983 1 0.605127
0.761669 1 0.605417
0.762646 1 0.605829
0.765805 1 0.606989
0.775662 1 0.610788
0.805264 1 0.622751
0.882719 1 0.658869
1 1 0.750011
1 0.997925 0.836591
0.906889 1 0.801434
0.906874 1 0.801404
0.907164 1 0.801511
0.907683 1 0.80177
0.909499 1 0.802518
0.915221 1 0.805005
0.932464 1 0.812894
0.976562 1 0.836591
1 1 0.892531
0 0 0.0191196
0 0 0.0196994
0.0154574 0 0.0212253
0.0956283 0 0.0261845
0.36791 0 0.0313726
0.789349 0.151247 0.117601
1 0.438117 0.323888
1 0.716045 0.587366
1 0.883772 0.783963
0 0 0.018265
0 0 0.0196078
0.0171359 0 0.0205997
0.099855 0 0.024979
0.369116 0.0125582 0.0296178
0.789334 0.162966 0.116381
1 0.442863 0.324056
1 0.717235 0.587594
1 0.884016 0.783948
0 0.0170596 0.0184787
0.000427253 0.0180972 0.0189364
0.0196078 0.0196231 0.0196231
0.105104 0.0262455 0.0227207
0.368597 0.0449226 0.0280766
0.788678 0.180957 0.114809
1 0.450202 0.324514
1 0.719097 0.587991
1 0.884306 0.784054
0 0.11812 0.0146944
0.00390631 0.120256 0.0146334
0.0300755 0.123033 0.0145113
0.116472 0.129458 0.0141451
0.365835 0.143511 0.0250095
0.78265 0.23859 0.112093
1 0.473289 0.326589
1 0.724834 0.589075
1 0.885405 0.784268
0.0339818 0.412543 0.00987259
0.0487068 0.414481 0.00918593
0.0714885 0.416739 0.00831617
0.144961 0.419425 0.00759899
0.362051 0.408408 0.0292821
0.741329 0.415702 0.130816
1 0.545205 0.339529
1 0.742535 0.592874
1 0.88896 0.785183
0.240497 0.82681 0.122896
0.248219 0.826993 0.123125
0.259876 0.827192 0.123522
0.296544 0.826917 0.125032
0.409369 0.820264 0.133227
0.687465 0.767529 0.208148
0.989868 0.723247 0.395102
1 0.794079 0.606851
1 0.899657 0.787854
0.520394 1 0.345586
0.523033 1 0.345953
0.527031 1 0.346502
0.539498 1 0.348272
0.578454 1 0.354925
0.692775 1 0.388037
0.911284 0.987869 0.509514
1 0.912291 0.661067
1 0.930358 0.798199
0.760678 1 0.6065
0.761318 1 0.606683
0.762234 1 0.607034
0.765423 1 0.608225
0.775372 1 0.612039
0.80502 1 0.623865
0.882551 1 0.659846
1 1 0.7505
1 0.997787 0.836698
0.906722 1 0.801678
0.906844 1 0.801678
0.907057 1 0.801785
0.907607 1 0.801968
0.909422 1 0.802747
0.915206 1 0.80528
0.932342 1 0.813153
0.976547 1 0.836744
1 1 0.892638
0 0 0.12163
0 0 0.122225
0.0113069 0 0.119326
0.0959182 0 0.12163
0.360815 0 0.122469
0.792523 0.132692 0.175189
1 0.428122 0.347692
1 0.713008 0.593759
1 0.88304 0.785275
0 0 0.118853
0 0 0.120073
0.012726 0 0.118334
0.0978256 0 0.119677
0.362875 0 0.120546
0.792966 0.144106 0.173495
1 0.432914 0.347753
1 0.714214 0.593973
1 0.883345 0.785336
0 0 0.119921
0 0 0.116609
0.0154726 0.00189212 0.115953
0.100618 0.00605783 0.117021
0.362646 0.0250706 0.118135
0.793149 0.161639 0.171038
1 0.440208 0.347967
1 0.716045 0.594308
1 0.883635 0.785382
0 0.102251 0.108782
0 0.103243 0.108721
0.0230411 0.104707 0.108751
0.109071 0.109102 0.109102
0.361242 0.123659 0.111315
0.788754 0.218601 0.16553
1 0.463416 0.349279
1 0.721721 0.595285
1 0.884718 0.78558
0.0168307 0.406241 0.0877852
0.0324865 0.407202 0.0873121
0.0572824 0.407279 0.0871595
0.136416 0.403677 0.0892805
0.357839 0.392264 0.102693
0.746471 0.399054 0.175616
1 0.535698 0.359487
1 0.739544 0.598703
1 0.888243 0.786419
0.226139 0.828916 0.161044
0.233997 0.828992 0.161013
0.24593 0.829038 0.161013
0.283421 0.828275 0.161288
0.399893 0.818891 0.166644
0.687221 0.75996 0.238666
0.993698 0.71635 0.408286
1 0.791318 0.611688
1 0.898985 0.789151
0.514992 1 0.359945
0.517678 1 0.36025
0.521737 1 0.360723
0.534432 1 0.362325
0.574044 1 0.368429
0.690517 1 0.401144
0.911467 0.985794 0.51722
1 0.910567 0.663783
1 0.929732 0.799084
0.759503 1 0.610559
0.760189 1 0.610773
0.761212 1 0.611154
0.764385 1 0.612268
0.774319 1 0.615946
0.804059 1 0.62742
0.882002 1 0.662608
1 1 0.752056
1 0.997482 0.837247
0.906554 1 0.802502
0.90663 1 0.802518
0.906828 1 0.802594
0.907439 1 0.802808
0.909255 1 0.803586
0.914977 1 0.806058
0.932174 1 0.81384
0.976394 1 0.837324
1 1 0.892836
0 0 0.328206
0 0 0.341711
0 0 0.362982
0.0830701 0 0.36405
0.310124 0 0.365179
0.781704 0.0935988 0.353491
1 0.401999 0.422827
1 0.704021 0.614069
1 0.880827 0.789609
0 0 0.343557
0 0 0.356756
0.00416571 0 0.369528
0.0853285 0 0.373342
0.314611 0 0.369116
0.783368 0.10396 0.351843
1 0.406714 0.422477
1 0.70518 0.614252
1 0.881071 0.789624
0 0 0.352941
0 0 0.369055
0.00819409 0 0.378164
0.0880446 0 0.381033
0.319966 0 0.372732
0.78526 0.120073 0.349187
1 0.414008 0.422095
1 0.707088 0.61445
1 0.881468 0.789731
0 0.0605325 0.370123
0 0.0601205 0.372076
0.0179141 0.059968 0.37377
0.0949264 0.0616465 0.373999
0.326009 0.0753338 0.367102
0.785672 0.173754 0.340658
1 0.437278 0.421576
1 0.712749 0.615106
1 0.882506 0.789899
0.0109102 0.332952 0.345068
0.0260624 0.333288 0.345068
0.049073 0.333822 0.345022
0.120851 0.335592 0.34461
0.341787 0.341756 0.341741
0.750759 0.354849 0.326055
1 0.509758 0.424338
1 0.730678 0.617517
1 0.88603 0.7906
0.188617 0.824582 0.294453
0.196765 0.824506 0.293935
0.209201 0.824201 0.293187
0.248905 0.821881 0.291218
0.378408 0.800397 0.294728
0.684855 0.736675 0.337713
1 0.695644 0.451637
1 0.782986 0.62742
1 0.896788 0.793042
0.499321 1 0.406821
0.502098 1 0.407004
0.50634 1 0.40737
0.519539 1 0.408453
0.561273 1 0.413474
0.68365 1 0.443076
0.912139 0.979126 0.542245
1 0.905089 0.67274
1 0.92784 0.802274
0.756115 1 0.623499
0.756756 1 0.623682
0.757885 1 0.624079
0.761013 1 0.625116
0.771054 1 0.628397
0.801221 1 0.638956
0.880308 1 0.671778
1 1 0.756985
1 0.996338 0.838865
0.905745 1 0.80502
0.905837 1 0.805097
0.90605 1 0.805188
0.906722 1 0.805463
0.908507 1 0.806165
0.914275 1 0.80856
0.931517 1 0.816083
0.976043 1 0.838987
1 1 0.893828
0.0391089 0.119768 0.722652
0.0432898 0.122911 0.727703
0.0529946 0.124056 0.73666
0.133425 0.082887 0.754177
0.299123 0.0596323 0.728099
0.642802 0.109316 0.707164
1 0.350011 0.640711
1 0.680781 0.677104
1 0.87425 0.803388
0.0320439 0.138445 0.718624
0.0380255 0.139513 0.724712
0.050721 0.137255 0.735485
0.137163 0.0895857 0.755154
0.299443 0.0681315 0.732616
0.64445 0.116106 0.709041
1 0.354437 0.639872
1 0.681971 0.677058
1 0.874556 0.803418
0.0267033 0.161517 0.71284
0.035111 0.15964 0.720989
0.053193 0.15108 0.735424
0.141451 0.100984 0.756939
0.299931 0.0812543 0.738689
0.646815 0.126619 0.711589
1 0.361303 0.638636
1 0.683803 0.677058
1 0.874922 0.803494
0.0497139 0.187823 0.721721
0.0672313 0.175921 0.733989
0.0901656 0.163348 0.745754
0.15079 0.140948 0.760861
0.301427 0.124117 0.751003
0.652628 0.161624 0.716915
1 0.383474 0.634928
1 0.68954 0.676997
1 0.875975 0.803571
0.108232 0.290166 0.719142
0.11754 0.288319 0.722225
0.131624 0.285756 0.726314
0.175479 0.279072 0.735348
0.308278 0.269017 0.738781
0.656535 0.28983 0.70956
1 0.455085 0.625193
1 0.707347 0.676875
1 0.879438 0.803967
0.199298 0.670069 0.675196
0.206439 0.669886 0.675319
0.217288 0.669718 0.675578
0.251301 0.669108 0.67602
0.357229 0.667826 0.67599
0.667826 0.667384 0.667353
1 0.642206 0.604181
1 0.760098 0.678599
1 0.890394 0.805615
0.465309 1 0.566567
0.468513 1 0.566598
0.473426 1 0.566735
0.488609 1 0.567056
0.535149 1 0.568536
0.664042 1 0.576684
0.912428 0.959121 0.624063
1 0.888563 0.702907
1 0.921889 0.812375
0.746456 1 0.664439
0.747127 1 0.664622
0.748196 1 0.664866
0.751446 1 0.665553
0.761868 1 0.667948
0.792859 1 0.675563
0.874846 1 0.70103
1 1 0.773053
1 0.992767 0.844114
0.903441 1 0.813306
0.903532 1 0.813306
0.903746 1 0.813413
0.904356 1 0.813626
0.906157 1 0.814252
0.912077 1 0.816464
0.929686 1 0.823316
0.974884 1 0.844587
1 1 0.896651
0.26334 0.496468 1
0.265034 0.497108 1
0.267994 0.497642 1
0.281178 0.494697 1
0.405219 0.405966 1
0.594217 0.360403 0.996948
0.906874 0.407675 0.951705
1 0.637308 0.849515
1 0.857771 0.846036
0.261494 0.502724 1
0.263416 0.503105 1
0.266697 0.503182 1
0.281178 0.498634 1
0.406821 0.407904 1
0.593881 0.363485 0.997269
0.906737 0.410224 0.951598
1 0.638498 0.849302
1 0.857893 0.846021
0.259525 0.511345 0.995529
0.261769 0.511299 0.99704
0.265568 0.510719 0.999725
0.282032 0.503639 1
0.409033 0.411063 1
0.593423 0.368231 0.99762
0.906569 0.414054 0.951522
1 0.640253 0.848936
1 0.858274 0.845991
0.258686 0.532113 0.978012
0.261875 0.5308 0.980804
0.267323 0.528038 0.985672
0.29279 0.509636 1
0.41474 0.422126 1
0.592096 0.383001 0.998489
0.906096 0.426032 0.951247
1 0.64593 0.847868
1 0.859342 0.84596
0.312398 0.525826 0.989044
0.318898 0.520775 0.993683
0.328313 0.513924 0.999557
0.355383 0.4963 1
0.427268 0.461479 1
0.589426 0.429068 0.998459
0.904616 0.464042 0.949691
1 0.663523 0.84445
1 0.862913 0.845853
0.392706 0.604517 0.956512
0.395636 0.603647 0.957763
0.400122 0.602304 0.959564
0.41413 0.598367 0.964813
0.458351 0.587259 0.976852
0.590417 0.565988 0.981949
0.901686 0.580072 0.941344
1 0.715373 0.834607
1 0.873793 0.845472
0.502983 0.915434 0.909483
0.504982 0.915328 0.90956
0.508003 0.915145 0.909667
0.517372 0.914702 0.910063
0.547372 0.913115 0.910903
0.63978 0.908843 0.911543
0.902068 0.901198 0.900954
1 0.845716 0.813031
1 0.905852 0.846021
0.724514 1 0.789685
0.725093 1 0.789639
0.726299 1 0.789685
0.729549 1 0.789624
0.740276 1 0.789624
0.772457 1 0.789807
0.859373 1 0.794095
1 1 0.825498
1 0.981857 0.862242
0.896773 1 0.839246
0.896895 1 0.839292
0.897047 1 0.839323
0.897688 1 0.839445
0.899657 1 0.839918
0.90573 1 0.841413
0.923964 1 0.846143
0.97145 1 0.862287
1 1 0.905943
0.543511 0.792508 1
0.543832 0.792645 1
0.544366 0.792905 1
0.546273 0.793286 1
0.555093 0.790982 1
0.663386 0.699718 1
0.811444 0.650477 1
1 0.682994 1
1 0.828946 0.958495
0.543267 0.793774 1
0.543603 0.793942 1
0.544213 0.794095 1
0.546166 0.794415 1
0.555245 0.791714 1
0.663905 0.699977 1
0.811292 0.651225 1
1 0.683558 1
1 0.829175 0.958419
0.542947 0.795636 1
0.543359 0.795712 1
0.543938 0.79588 1
0.546014 0.796033 1
0.55552 0.792737 1
0.664561 0.700465 1
0.81117 0.652232 1
1 0.684352 1
1 0.829572 0.958312
0.542458 0.8009 1
0.542931 0.80087 1
0.543633 0.800885 1
0.546029 0.800565 1
0.556893 0.7953 1
0.666697 0.701991 1
0.81059 0.655512 1
1 0.6869 1
1 0.830594 0.958038
0.54464 0.812726 1
0.545281 0.812451 1
0.546319 0.811978 1
0.549737 0.810056 1
0.568109 0.794385 1
0.671946 0.708141 1
0.809018 0.665949 1
1 0.694926 1
1 0.834028 0.957275
0.594232 0.789975 1
0.595758 0.788632 1
0.598138 0.786648 1
0.605249 0.780819 1
0.626307 0.765194 1
0.682872 0.732555 1
0.805402 0.698177 1
1 0.720272 1
1 0.844602 0.954681
0.661662 0.828794 1
0.662348 0.82855 1
0.663325 0.828199 1
0.666468 0.82707 1
0.676448 0.823575 1
0.708141 0.813397 1
0.802609 0.79205 1
1 0.797177 1
1 0.875853 0.947188
0.747829 1 1
0.748241 1 1
0.748913 1 1
0.750927 1 1
0.757092 1 1
0.776776 1 1
0.837369 1 1
1 1 1
1 0.953384 0.930632
0.881712 1 0.918029
0.881804 1 0.917983
0.882002 1 0.917983
0.882551 1 0.917937
0.884565 1 0.917876
0.890898 1 0.917662
0.910109 1 0.917311
0.961196 1 0.918837
1 1 0.936645
0.753521 0.943328 1
0.753613 0.943358 1
0.753735 0.943404 1
0.753979 0.943603 1
0.755062 0.943954 1
0.759457 0.943374 1
0.832456 0.874388 1
0.93225 0.834043 1
1 0.853071 1
0.753536 0.943496 1
0.753613 0.943557 1
0.753719 0.943587 1
0.753979 0.943786 1
0.755047 0.944183 1
0.759487 0.943465 1
0.832624 0.874403 1
0.932189 0.834165 1
1 0.853223 1
0.753582 0.943801 1
0.753582 0.943877 1
0.753765 0.943877 1
0.754055 0.94403 1
0.755108 0.944396 1
0.759548 0.943679 1
0.832776 0.874449 1
0.932158 0.834318 1
1 0.853208 1
0.753597 0.944732 1
0.753689 0.944747 1
0.753765 0.944793 1
0.754086 0.94493 1
0.755108 0.945235 1
0.75993 0.944091 1
0.833341 0.874556 1
0.932006 0.835019 1
1 0.853773 1
0.753964 0.947326 1
0.754086 0.947295 1
0.754116 0.947387 1
0.754589 0.947356 1
0.755779 0.947448 1
0.761074 0.94522 1
0.834989 0.875044 1
0.931563 0.837003 1
1 0.855329 1
0.756802 0.952865 1
0.756939 0.952834 1
0.757137 0.952758 1
0.757565 0.95259 1
0.759274 0.951751 1
0.768521 0.943191 1
0.839231 0.877638 1
0.930251 0.843473 1
1 0.860136 1
0.789914 0.931777 1
0.790204 0.931502 1
0.790631 0.931105 1
0.792126 0.929717 1
0.796551 0.92575 1
0.810086 0.914672 1
0.847517 0.890425 1
0.927214 0.863127 1
1 0.875044 1
0.836545 0.946792 1
0.836652 0.946777 1
0.836851 0.946685 1
0.837461 0.94641 1
0.839384 0.945602 1
0.845441 0.943252 1
0.865019 0.936019 1
0.923903 0.919768 1
1 0.920516 1
0.892622 1 1
0.892744 1 1
0.89276 1 1
0.893233 1 1
0.894331 1 1
0.897993 1 1
0.909606 1 1
0.945159 1 1
1 1 1
