OpenDRT/JzDT-LogC3LinRec709.cube
TITLE "Generated by Resolve"
LUT_3D_SIZE 9
0 0 0
0 0 0
0.0206607 0 0
0.174731 0 0
0.611551 0 0
1 0.0863813 0.0672923
1 0.360967 0.283436
1 0.659892 0.559564
1 0.850217 0.766186
0 0 0
0.000717174 0.00129702 0
0.0243076 0.00343328 0
0.173007 0 0
0.602731 0 0
1 0.099855 0.0652171
1 0.366659 0.283345
1 0.661326 0.559762
1 0.850355 0.766094
0 0.0205844 0
0 0.0243687 0
0.0220493 0.0289464 0
0.166781 0.0249943 0
0.584833 0.0171359 0
1 0.120653 0.0623331
1 0.375265 0.283314
1 0.6636 0.559991
1 0.850874 0.766262
0 0.147326 0
0 0.148211 0
0 0.148287 0
0.12105 0.143572 0
0.520409 0.12961 0
1 0.186892 0.0559091
1 0.402533 0.28394
1 0.67042 0.56083
1 0.852186 0.766476
0 0.461051 0
0 0.461753 0
0 0.46215 0
0.00836194 0.45922 0
0.359609 0.427161 0
0.967178 0.388891 0.0644694
1 0.487648 0.293416
1 0.691737 0.563653
1 0.856336 0.767056
0 0.902861 0.0282597
0 0.902159 0.0285344
0 0.900999 0.0290227
0.0115969 0.89662 0.0308385
0.197711 0.876951 0.0404822
0.674022 0.786984 0.125017
1 0.697307 0.343435
1 0.753826 0.575311
1 0.869413 0.769268
0.178408 1 0.254856
0.183078 1 0.255268
0.190036 1 0.255909
0.212222 1 0.258076
0.28188 1 0.266117
0.488365 1 0.304967
0.894881 1 0.449393
1 0.895476 0.626612
1 0.906767 0.778225
0.515862 1 0.541756
0.517266 1 0.542092
0.519127 1 0.542535
0.525231 1 0.543984
0.544137 1 0.548562
0.601007 1 0.562875
0.748989 1 0.60592
0.996948 1 0.713527
1 0.988586 0.815656
0.763333 1 0.762798
0.7635 1 0.762798
0.763851 1 0.762936
0.765072 1 0.763287
0.768688 1 0.764157
0.780056 1 0.767254
0.813474 1 0.776669
0.899611 1 0.804913
1 1 0.871199
0 0 7.62951e-05
0.000732433 0 0.000518807
0.0194247 0 0.00222782
0.172808 0 0
0.613077 0 0
1 0.080415 0.0810559
1 0.358267 0.289174
1 0.659144 0.561257
1 0.849958 0.766491
0 0.000335698 0.000350958
0.000488289 0.000488289 0.000488289
0.0247807 0 0.000503548
0.169329 0 0
0.603845 0 0
1 0.0938582 0.0787518
1 0.363912 0.289021
1 0.660487 0.561318
1 0.850248 0.766567
0 0.0190433 0
0 0.0221714 0
0.0214084 0.0250401 0
0.161028 0.0226902 0
0.584558 0.0121462 0
1 0.114534 0.0755932
1 0.372488 0.28893
1 0.662745 0.561532
1 0.850614 0.766567
0 0.142336 0
0 0.142809 0
0 0.142794 0
0.118853 0.139162 0
0.521019 0.124422 0
1 0.180682 0.0681773
1 0.399832 0.289418
1 0.669596 0.56228
1 0.851926 0.766781
0 0.462242 0
0 0.462821 0
0 0.462943 0
0.00199893 0.458824 0
0.359579 0.423316 0
0.971328 0.384283 0.0749828
1 0.485115 0.298238
1 0.690944 0.565057
1 0.856199 0.76733
0 0.904067 0.0367742
0 0.903349 0.0370031
0 0.902174 0.0373541
0.00584421 0.897581 0.03888
0.193805 0.877089 0.047776
0.674601 0.785061 0.132158
1 0.695476 0.346593
1 0.753063 0.576547
1 0.86923 0.769558
0.176135 1 0.258122
0.180804 1 0.258549
0.18793 1 0.25919
0.210086 1 0.261311
0.279957 1 0.2692
0.487678 1 0.308095
0.895201 1 0.45124
1 0.895033 0.627283
1 0.906615 0.778424
0.515404 1 0.542641
0.516716 1 0.542992
0.518608 1 0.543481
0.524681 1 0.544884
0.543679 1 0.549447
0.60061 1 0.563775
0.748821 1 0.606577
0.996963 1 0.713863
1 0.988464 0.815854
0.763378 1 0.763027
0.763317 1 0.762997
0.763897 1 0.763134
0.764935 1 0.763439
0.76849 1 0.76434
0.779706 1 0.767346
0.813504 1 0.776852
0.89955 1 0.805051
1 1 0.871305
0 0 0.0231937
0.00563058 0 0.0237125
0.0339513 0 0.0251469
0.170153 0 0.0298161
0.613245 0 0.0292058
1 0.0720531 0.102037
1 0.354162 0.297948
1 0.657877 0.563455
1 0.849683 0.767025
0 0 0.0209049
0 0 0.0223239
0.028809 0 0.0230564
0.166415 0 0.0265507
0.603372 0 0.0251621
1 0.0853437 0.0994888
1 0.359762 0.297688
1 0.659327 0.563607
1 0.849973 0.766979
0 0.0205692 0.0191653
0 0.0202945 0.0193637
0.0196078 0.0196231 0.0196231
0.157458 0.0164492 0.0208743
0.583612 0.00474556 0.0202029
1 0.105821 0.0959182
1 0.368444 0.29752
1 0.66157 0.563882
1 0.850324 0.767071
0 0.135286 0.00479133
0 0.135622 0.00421149
0 0.135515 0.00331121
0.116289 0.132036 0.000686656
0.521294 0.116808 0.00689708
1 0.171878 0.0872053
1 0.395758 0.297704
1 0.668482 0.564569
1 0.851667 0.767224
0 0.46305 0
0 0.463416 0
0 0.463142 0
0 0.457053 0
0.35906 0.41735 0
0.977157 0.377523 0.0910811
1 0.481285 0.305547
1 0.68983 0.567254
1 0.855985 0.767926
0 0.905715 0.049958
0 0.904952 0.0500649
0 0.903716 0.0502785
0 0.898833 0.0513161
0.188022 0.87718 0.0591135
0.675334 0.782177 0.143175
1 0.69279 0.351308
1 0.75201 0.578271
1 0.868986 0.76997
0.172717 1 0.263142
0.177447 1 0.263569
0.184619 1 0.26421
0.206958 1 0.26627
0.277195 1 0.274037
0.486534 1 0.312749
0.895552 1 0.454109
1 0.894377 0.628321
1 0.90634 0.778836
0.514839 1 0.544198
0.516091 1 0.544427
0.517815 1 0.544839
0.523964 1 0.546273
0.543175 1 0.550866
0.600214 1 0.565042
0.748577 1 0.607691
0.997131 1 0.714443
1 0.988312 0.816007
0.763058 1 0.763302
0.763287 1 0.763302
0.763729 1 0.763455
0.764767 1 0.763653
0.768307 1 0.764599
0.779675 1 0.767651
0.813306 1 0.777142
0.899519 1 0.805219
1 1 0.871443
0 0 0.141741
0 0 0.142092
0.0399786 0 0.138415
0.178286 0 0.139101
0.606134 0 0.133196
1 0.0501411 0.168261
1 0.342153 0.325521
1 0.654215 0.570886
1 0.848783 0.768566
0 0 0.135912
0 0 0.137514
0.0301061 0 0.135164
0.169177 0 0.134752
0.598093 0 0.129015
1 0.063035 0.165194
1 0.347784 0.325139
1 0.655665 0.571008
1 0.849149 0.768597
0 0 0.134997
0 0 0.130724
0.016144 0 0.129244
0.154986 0 0.128481
0.578836 0 0.123064
1 0.0829175 0.160693
1 0.356405 0.324681
1 0.657877 0.571221
1 0.8495 0.768627
0 0.117632 0.111803
0 0.116548 0.11133
0 0.114839 0.110719
0.109056 0.109102 0.109102
0.519066 0.0941634 0.105531
1 0.148028 0.148882
1 0.383856 0.323995
1 0.664698 0.571817
1 0.850828 0.76875
0 0.457404 0.0570382
0 0.456535 0.0561379
0 0.453544 0.0555123
0 0.439597 0.0567941
0.356207 0.398978 0.0689403
0.992218 0.357641 0.142779
1 0.46978 0.32874
1 0.686198 0.574029
1 0.8551 0.769375
0 0.90956 0.0926833
0 0.90869 0.0925002
0 0.90724 0.0922713
0 0.901701 0.0919814
0.170657 0.876524 0.0968032
0.67715 0.773373 0.178088
1 0.684382 0.366674
1 0.748638 0.583917
1 0.868162 0.771496
0.16231 1 0.27924
0.167117 1 0.279606
0.174411 1 0.280156
0.197269 1 0.282032
0.268879 1 0.289235
0.482948 1 0.327657
0.896498 0.998962 0.462943
1 0.892271 0.63151
1 0.905562 0.779889
0.512688 1 0.548775
0.514015 1 0.549035
0.515953 1 0.549493
0.522103 1 0.550835
0.541253 1 0.555276
0.598474 1 0.56907
0.747646 1 0.610834
0.99736 1 0.716213
1 0.98793 0.816648
0.762768 1 0.764233
0.762921 1 0.764263
0.763287 1 0.76434
0.764477 1 0.764614
0.768032 1 0.76556
0.779293 1 0.768536
0.813001 1 0.77792
0.899245 1 0.805859
1 1 0.871656
0 0 0.375463
0 0 0.389883
0.0106661 0 0.412772
0.152255 0 0.412757
0.515846 0 0.407614
1 0.00572213 0.371847
1 0.311086 0.412085
1 0.643366 0.59443
1 0.846098 0.773602
0 0 0.390402
0 0 0.404334
0.0111543 0 0.418662
0.146334 0 0.421561
0.514885 0 0.410544
1 0.0172732 0.368933
1 0.31664 0.411246
1 0.64477 0.594537
1 0.846387 0.773587
0 0 0.397192
0 0 0.415595
0.00273136 0 0.425772
0.13518 0 0.427543
0.510079 0 0.412207
1 0.0353094 0.364309
1 0.325216 0.410132
1 0.647059 0.594583
1 0.846876 0.773678
0 0.0683909 0.408408
0 0.0658579 0.41033
0 0.0625925 0.411795
0.0941634 0.0548867 0.410468
0.470314 0.0416876 0.397177
1 0.0961471 0.349371
1 0.352697 0.407355
1 0.653864 0.594812
1 0.848127 0.773785
0 0.372961 0.352361
0 0.37145 0.352041
0 0.369192 0.351522
0 0.362264 0.349584
0.341817 0.341741 0.341741
1 0.305776 0.31545
1 0.438651 0.403723
1 0.675456 0.595895
1 0.852399 0.774243
0 0.908217 0.243061
0 0.907118 0.242329
0 0.905241 0.241306
0 0.897673 0.238605
0.136538 0.857176 0.242359
0.679698 0.746471 0.291279
1 0.659251 0.417075
1 0.738476 0.602274
1 0.865492 0.776028
0.132601 1 0.331914
0.137606 1 0.332143
0.145296 1 0.332586
0.169238 1 0.333913
0.245487 1 0.340032
0.472328 1 0.375357
0.899702 0.991119 0.491585
1 0.885542 0.642023
1 0.903243 0.783627
0.506554 1 0.563394
0.50779 1 0.563622
0.510018 1 0.564111
0.516045 1 0.565347
0.535378 1 0.569345
0.593454 1 0.582116
0.744915 1 0.621256
0.998276 1 0.721859
1 0.986511 0.81854
0.761242 1 0.767071
0.761425 1 0.767163
0.761852 1 0.767269
0.76321 1 0.76762
0.766674 1 0.768475
0.777996 1 0.771374
0.811795 1 0.780438
0.898665 1 0.807767
1 1 0.872801
0 0.124773 0.795697
0 0.127779 0.800961
0 0.127794 0.810681
0.117906 0.070985 0.832975
0.408591 0.0242313 0.803128
0.951614 0.0378729 0.76846
1 0.251194 0.661189
1 0.61561 0.66717
1 0.838117 0.789624
0 0.146853 0.789441
0 0.147265 0.796033
0 0.143038 0.808072
0.120089 0.0780957 0.833326
0.4038 0.0337682 0.807309
0.950225 0.0453498 0.769848
1 0.256352 0.659815
1 0.617029 0.667002
1 0.838499 0.789639
0 0.173709 0.780743
0 0.170459 0.789899
0 0.158389 0.806577
0.120394 0.0904555 0.834089
0.39646 0.0485237 0.812772
0.947768 0.0569467 0.771588
1 0.264363 0.657771
1 0.619226 0.666835
1 0.838941 0.789685
0 0.20058 0.78761
0 0.184802 0.802228
0 0.167605 0.816236
0.112139 0.134539 0.834287
0.372869 0.0968032 0.822217
0.936492 0.0958267 0.773938
1 0.290349 0.651514
1 0.626093 0.666239
1 0.840208 0.789685
0 0.309239 0.773373
0 0.305974 0.776852
0 0.301274 0.781415
0.0738231 0.288167 0.791409
0.299992 0.260197 0.793835
0.868147 0.24065 0.752743
1 0.374792 0.633906
1 0.647456 0.664485
1 0.844419 0.789807
0 0.728649 0.684352
0 0.727565 0.684367
0 0.726009 0.684489
0 0.721096 0.684413
0.151476 0.706447 0.682597
0.668132 0.667323 0.667353
1 0.595514 0.592813
1 0.710796 0.661646
1 0.85771 0.790692
0.0740978 1 0.512886
0.0800641 1 0.512993
0.0892348 1 0.513222
0.117479 1 0.513832
0.20412 1 0.516243
0.443488 1 0.527474
0.905989 0.967742 0.585122
1 0.865339 0.677241
1 0.895979 0.795453
0.489601 1 0.609705
0.490898 1 0.609934
0.492943 1 0.610239
0.499229 1 0.611124
0.519341 1 0.614115
0.578927 1 0.62356
0.736202 1 0.65449
1 1 0.740261
1 0.982116 0.824735
0.757046 1 0.776425
0.757214 1 0.776425
0.757641 1 0.776562
0.758846 1 0.776822
0.762356 1 0.777584
0.774014 1 0.780285
0.808499 1 0.788632
0.896788 1 0.81413
1 1 0.876036
0.0721294 0.521248 1
0.0745251 0.521752 1
0.0789807 0.521965 1
0.101976 0.516915 1
0.357626 0.400671 1
0.702281 0.325963 1
1 0.340963 1
1 0.565087 0.864439
1 0.818372 0.838895
0.0657511 0.528603 1
0.0686351 0.528786 1
0.0738994 0.52845 1
0.0998856 0.521401 1
0.359258 0.40267 1
0.699886 0.329503 1
1 0.343862 1
1 0.566522 0.864088
1 0.818524 0.838849
0.0579232 0.538674 1
0.0615549 0.538323 1
0.0680095 0.537179 1
0.0986191 0.526986 1
0.361227 0.405997 1
0.696315 0.33492 1
1 0.348226 1
1 0.568597 0.863523
1 0.818967 0.838804
0.0456245 0.562448 1
0.0514839 0.56054 1
0.0617838 0.55668 1
0.113283 0.532479 1
0.364645 0.417868 1
0.685359 0.351812 1
1 0.361852 1
1 0.575372 0.861799
1 0.820264 0.838666
0.137682 0.548547 1
0.15111 0.54197 1
0.170336 0.532998 1
0.224689 0.509529 1
0.363592 0.461036 1
0.653864 0.404334 1
1 0.405112 0.999359
1 0.596368 0.856367
1 0.824582 0.838224
0.227176 0.627955 1
0.232456 0.626596 1
0.240558 0.624506 1
0.265751 0.61825 1
0.344839 0.600061 1
0.576242 0.559487 1
1 0.537011 0.978408
1 0.658228 0.840574
1 0.837736 0.83682
0.230991 0.966857 0.916259
0.234363 0.966491 0.916335
0.239475 0.965911 0.916396
0.255283 0.964218 0.916716
0.305959 0.958679 0.917281
0.461875 0.942336 0.916747
0.902663 0.901091 0.900908
1 0.813779 0.804471
1 0.876509 0.834577
0.454536 1 0.752026
0.455619 1 0.75198
0.457954 1 0.752056
0.464134 1 0.752071
0.484703 1 0.752346
0.546273 1 0.753368
0.712444 1 0.760372
1 1 0.800244
1 0.968734 0.845991
0.745113 1 0.805753
0.745357 1 0.805798
0.745678 1 0.805829
0.746944 1 0.805997
0.75079 1 0.806607
0.762722 1 0.808499
0.798413 1 0.814435
0.891173 1 0.834226
1 1 0.886671
0.359899 0.821317 1
0.360342 0.821439 1
0.361059 0.821668 1
0.363943 0.821851 1
0.37937 0.818082 1
0.608896 0.70074 1
0.886687 0.626871 1
1 0.638315 1
1 0.784772 0.96759
0.358846 0.822812 1
0.359319 0.82295 1
0.36022 0.823041 1
0.36318 0.823148 1
0.379248 0.818891 1
0.609613 0.700969 1
0.886015 0.627741 1
1 0.638956 1
1 0.785046 0.967483
0.357382 0.824964 1
0.357992 0.82501 1
0.358846 0.825116 1
0.362112 0.82501 1
0.379187 0.82002 1
0.610468 0.701442 1
0.885191 0.628885 1
1 0.639887 1
1 0.785519 0.967346
0.353887 0.831037 1
0.354681 0.830945 1
0.355795 0.830869 1
0.359823 0.830182 1
0.380148 0.822782 1
0.613214 0.702937 1
0.882292 0.63267 1
1 0.642786 1
1 0.78674 0.966934
0.351537 0.844282 1
0.352728 0.84387 1
0.354635 0.843214 1
0.361135 0.840574 1
0.399176 0.820325 1
0.618647 0.709285 1
0.873487 0.644694 1
1 0.651957 1
1 0.790875 0.965774
0.445106 0.81207 1
0.448325 0.810361 1
0.453285 0.807797 1
0.468116 0.800259 1
0.51133 0.779828 1
0.623377 0.735683 1
0.848493 0.681651 1
1 0.680888 1
1 0.803571 0.961913
0.535561 0.847807 1
0.536812 0.84744 1
0.538613 0.846906 1
0.544366 0.845228 1
0.562676 0.840009 1
0.620539 0.824445 1
0.789578 0.788434 1
1 0.768582 1
1 0.841093 0.950683
0.568521 1 1
0.569192 1 1
0.570367 1 1
0.573831 1 1
0.584314 1 1
0.617823 1 1
0.720867 1 1
1 1 1
1 0.93431 0.925124
0.720439 1 0.895186
0.720592 1 0.89514
0.721004 1 0.89514
0.722042 1 0.895109
0.725978 1 0.895094
0.738308 1 0.895064
0.775662 1 0.895247
0.874998 1 0.898512
1 1 0.921798
0.620279 0.966079 1
0.620417 0.966094 1
0.6206 0.966125 1
0.620905 0.966323 1
0.622461 0.966583 1
0.629786 0.965331 1
0.787396 0.877623 1
0.978683 0.819715 1
1 0.826368 1
0.620233 0.966262 1
0.620325 0.966308 1
0.620478 0.966339 1
0.620798 0.966537 1
0.622293 0.966842 1
0.629755 0.965438 1
0.787686 0.877623 1
0.978515 0.819837 1
1 0.826535 1
0.620172 0.966598 1
0.620142 0.966674 1
0.620432 0.966659 1
0.620798 0.966812 1
0.622309 0.967071 1
0.62977 0.965667 1
0.787915 0.877653 1
0.978378 0.82002 1
1 0.826505 1
0.619745 0.967651 1
0.619883 0.967681 1
0.619974 0.967712 1
0.620417 0.967834 1
0.621897 0.968048 1
0.630198 0.96611 1
0.788815 0.877714 1
0.977722 0.820829 1
1 0.827161 1
0.619104 0.970596 1
0.619318 0.97055 1
0.619303 0.970642 1
0.620096 0.970535 1
0.621927 0.970489 1
0.63154 0.967254 1
0.791302 0.878065 1
0.975784 0.823148 1
1 0.828946 1
0.621149 0.976577 1
0.621393 0.976516 1
0.621729 0.976425 1
0.622507 0.976165 1
0.625635 0.974975 1
0.644831 0.963989 1
0.797024 0.880491 1
0.969757 0.830625 1
1 0.834455 1
0.686137 0.948287 1
0.686778 0.947951 1
0.687678 0.947433 1
0.690852 0.945663 1
0.700191 0.940566 1
0.728405 0.926253 1
0.803861 0.894026 1
0.953124 0.853254 1
1 0.851514 1
0.755138 0.959548 1
0.755306 0.959503 1
0.755703 0.959365 1
0.756848 0.958984 1
0.760433 0.957824 1
0.771649 0.954391 1
0.807874 0.943679 1
0.914885 0.917891 1
1 0.903471 1
0.787121 1 1
0.787366 1 1
0.787335 1 1
0.788159 1 1
0.790036 1 1
0.796323 1 1
0.816205 1 1
0.876982 1 1
1 1 1
