OpenDRT/JzDT-LogC3LinP3D65.cube
TITLE "Generated by Resolve"
LUT_3D_SIZE 9
0 0 0
0 0 0
0.0158694 0 0
0.138842 0 0
0.495674 0 0
1 0.123384 0.0880446
1 0.401144 0.311055
1 0.688212 0.583108
1 0.867002 0.782345
0 0 0
0.000823987 0.0012665 0
0.0205997 0.00411994 0
0.140887 0 0
0.492409 0.0019379 0
0.999741 0.136187 0.0870069
1 0.40647 0.311284
1 0.689525 0.583368
1 0.86714 0.782269
0 0.0193027 0
0 0.0233463 0
0.02327 0.0287175 0
0.141604 0.0296941 0
0.484047 0.0359808 0
0.99321 0.155871 0.0856794
1 0.414481 0.311727
1 0.69163 0.583688
1 0.867613 0.782452
0 0.139452 0
0 0.141146 0
0.00794995 0.142626 0
0.125048 0.142824 0
0.451026 0.14258 0
0.96788 0.218402 0.0838483
1 0.439872 0.313756
1 0.697917 0.584802
1 0.868818 0.782712
0 0.440314 0
0 0.441733 0
0 0.44329 0
0.0884108 0.444251 0
0.371603 0.424918 0
0.864515 0.408087 0.10338
1 0.518883 0.326863
1 0.717601 0.588418
1 0.872648 0.783444
0.0948653 0.870253 0.0897383
0.104997 0.869993 0.0901503
0.120409 0.86949 0.0908217
0.168719 0.867231 0.0931868
0.318303 0.854398 0.103716
0.694072 0.78323 0.182315
1 0.713481 0.383413
1 0.774853 0.602106
1 0.884657 0.786068
0.362585 1 0.323125
0.366262 1 0.323507
0.37171 1 0.324102
0.389075 1 0.326085
0.443473 1 0.333425
0.603494 1 0.368322
0.914031 0.999146 0.497063
1 0.905455 0.655802
1 0.918959 0.796002
0.647547 1 0.593133
0.648615 1 0.593439
0.650019 1 0.59382
0.654658 1 0.595087
0.668986 1 0.599084
0.712139 1 0.611612
0.824491 1 0.649516
1 1 0.74432
1 0.994064 0.833951
0.840742 1 0.794415
0.840864 1 0.794415
0.841123 1 0.794537
0.842054 1 0.794842
0.84477 1 0.79559
0.853315 1 0.798276
0.878477 1 0.80647
0.943328 1 0.831205
1 1 0.889265
0 0 6.10361e-05
0.000411994 0 0.000411994
0.0145724 0 0.00178531
0.136522 0 0.000350958
0.495888 0 0.00411994
1 0.1178 0.100237
1 0.398627 0.316136
1 0.68751 0.584619
1 0.866758 0.782605
0 0.000274662 0.000320439
0.000488289 0.000488289 0.000488289
0.0203555 0.000671397 0.000869764
0.137301 0 0
0.492332 0 0.00184634
1 0.130556 0.0989853
1 0.403906 0.316289
1 0.688762 0.584741
1 0.867033 0.782696
0 0.0177462 0
0 0.0211795 0
0.0220493 0.024918 0
0.136461 0.0272831 0
0.482933 0.0311437 0
0.996872 0.150134 0.0973983
1 0.411887 0.316686
1 0.690837 0.585031
1 0.867369 0.782712
0 0.134615 0
0 0.135958 0
0.00733959 0.137331 0
0.122469 0.138491 0
0.450614 0.137575 0
0.972045 0.212634 0.0946822
1 0.437339 0.318608
1 0.697169 0.586069
1 0.868574 0.782971
0 0.441138 0
0 0.442451 0
0 0.443778 0
0.0831006 0.443656 0
0.370886 0.42121 0
0.867109 0.403769 0.112688
1 0.516503 0.331106
1 0.716854 0.589654
1 0.872511 0.783673
0.0898146 0.871199 0.0974746
0.0999771 0.870924 0.0978408
0.115465 0.87042 0.0984054
0.164157 0.867979 0.100481
0.315114 0.854414 0.110307
0.694209 0.781399 0.188693
1 0.711772 0.386206
1 0.774151 0.603189
1 0.884489 0.786328
0.360784 1 0.326085
0.364446 1 0.326467
0.370031 1 0.327062
0.387381 1 0.329015
0.441932 1 0.336217
0.602838 1 0.37113
0.914199 0.998627 0.498711
1 0.905043 0.656397
1 0.918822 0.796185
0.647181 1 0.593942
0.648173 1 0.594247
0.649607 1 0.594675
0.654215 1 0.595895
0.66862 1 0.599878
0.711818 1 0.612421
0.824338 1 0.650095
1 1 0.74461
1 0.993942 0.834119
0.840757 1 0.794614
0.840726 1 0.794583
0.841169 1 0.794705
0.841947 1 0.79498
0.844617 1 0.795758
0.853056 1 0.798367
0.878492 1 0.806638
0.943282 1 0.831342
1 1 0.889357
0 0 0.0197147
0.00134279 0 0.0203403
0.0241855 0 0.0219425
0.133242 0 0.0273289
0.494606 0 0.0330816
1 0.109941 0.118837
1 0.394797 0.323888
1 0.686336 0.586557
1 0.866514 0.783078
0 0 0.0185855
0 0 0.0200198
0.0226444 0 0.0210575
0.133791 0 0.0257572
0.490578 0 0.0309148
1 0.122545 0.117372
1 0.400031 0.323964
1 0.687663 0.586755
1 0.866773 0.783062
0 0.0188907 0.0184329
0 0.0192416 0.0189059
0.0196078 0.0196231 0.0196231
0.132418 0.0211337 0.0228885
0.480842 0.0239719 0.0287175
1 0.14197 0.115404
1 0.408103 0.324285
1 0.689738 0.587121
1 0.867109 0.783154
0 0.127749 0.0125887
0 0.128954 0.0125277
0.00480659 0.130236 0.0124208
0.119097 0.131502 0.0121614
0.449485 0.130236 0.0236515
0.977356 0.204395 0.111513
1 0.433539 0.325917
1 0.696117 0.588098
1 0.86833 0.783352
0 0.441489 0.00205997
0 0.442618 0.00135805
0 0.443565 0.000488289
0.0759442 0.441672 0
0.369406 0.415412 0.0227817
0.870695 0.397436 0.126955
1 0.512947 0.337575
1 0.715831 0.591592
1 0.872312 0.784207
0.0822766 0.87248 0.109422
0.0925765 0.872175 0.109682
0.108171 0.871611 0.110109
0.157412 0.86891 0.111757
0.310384 0.854307 0.120531
0.694301 0.778622 0.198535
1 0.709285 0.390356
1 0.773175 0.6047
1 0.88426 0.786694
0.358068 1 0.330632
0.361761 1 0.331029
0.367376 1 0.331609
0.384863 1 0.333516
0.439689 1 0.340581
0.601785 1 0.375311
0.914336 0.997879 0.501274
1 0.904433 0.657298
1 0.918578 0.796551
0.646708 1 0.595346
0.647639 1 0.595544
0.648966 1 0.595911
0.653635 1 0.597162
0.668177 1 0.60116
0.711467 1 0.613565
0.824109 1 0.651102
1 1 0.745113
1 0.993805 0.834241
0.840513 1 0.794873
0.840696 1 0.794873
0.841016 1 0.794995
0.84181 1 0.795178
0.84448 1 0.795987
0.853025 1 0.798642
0.87834 1 0.806897
0.943252 1 0.831495
1 1 0.889479
0 0 0.124544
0 0 0.1252
0.0222324 0 0.122362
0.134798 0 0.124865
0.484901 0 0.126085
1 0.0891585 0.177768
1 0.383551 0.348302
1 0.682918 0.593118
1 0.865675 0.784436
0 0 0.121141
0 0 0.122606
0.0182803 0 0.120943
0.131518 0 0.122469
0.482216 0 0.123735
1 0.101427 0.175814
1 0.3888 0.348272
1 0.68426 0.593301
1 0.866011 0.784482
0 0 0.12192
0 0 0.118563
0.013138 0 0.117906
0.126284 0 0.119142
0.472908 0.00204471 0.120653
1 0.120317 0.172976
1 0.396841 0.348333
1 0.68629 0.593606
1 0.866346 0.784527
0 0.110277 0.108537
0 0.110185 0.108522
0 0.109987 0.108583
0.109071 0.109102 0.109102
0.443626 0.108278 0.111772
0.9879 0.181918 0.166247
1 0.422415 0.349187
1 0.692592 0.594476
1 0.867552 0.784695
0 0.435019 0.0813458
0 0.435019 0.0808881
0 0.433494 0.0808118
0.0638895 0.42443 0.0832532
0.36379 0.397559 0.097734
0.879561 0.378714 0.172839
1 0.50222 0.358053
1 0.712428 0.597574
1 0.871489 0.785473
0.0600443 0.875273 0.148135
0.070573 0.874861 0.148119
0.0865949 0.874128 0.14815
0.137179 0.870848 0.148562
0.295979 0.853086 0.154513
0.69424 0.770184 0.229709
1 0.701473 0.403891
1 0.770047 0.609674
1 0.883497 0.788037
0.349737 1 0.345205
0.353506 1 0.345541
0.359213 1 0.346059
0.377066 1 0.347768
0.432944 1 0.354314
0.598489 1 0.388678
0.914687 0.99556 0.509163
1 0.902495 0.660105
1 0.917861 0.797467
0.644923 1 0.599466
0.64593 1 0.599695
0.647395 1 0.600092
0.652064 1 0.601267
0.66659 1 0.605127
0.710002 1 0.617182
0.823285 1 0.65391
1 1 0.7467
1 0.993454 0.834806
0.840253 1 0.795712
0.840375 1 0.795727
0.84065 1 0.795804
0.84155 1 0.796033
0.844236 1 0.796841
0.852705 1 0.799435
0.878065 1 0.807584
0.943023 1 0.832074
1 1 0.889677
0 0 0.335195
0 0 0.348837
0 0 0.370367
0.108858 0 0.371756
0.407462 0 0.373098
1 0.0459449 0.359792
1 0.354208 0.425238
1 0.67277 0.613947
1 0.863172 0.788876
0 0 0.350317
0 0 0.363607
0 0 0.376776
0.107027 0 0.380896
0.409339 0 0.376837
1 0.0569924 0.357916
1 0.359396 0.424781
1 0.674067 0.614099
1 0.863447 0.788891
0 0 0.35906
0 0 0.375662
0 0 0.385092
0.102937 0 0.388235
0.409857 0 0.380087
0.999725 0.0742351 0.35491
1 0.367407 0.424247
1 0.676188 0.614267
1 0.86389 0.788983
0 0.0627604 0.375082
0 0.0612192 0.377127
0 0.0594186 0.378912
0.0871901 0.056199 0.379324
0.394217 0.0559091 0.372702
0.985656 0.132052 0.34519
1 0.393027 0.423224
1 0.682475 0.614816
1 0.865049 0.789136
0 0.353857 0.344366
0 0.353231 0.344396
0 0.352285 0.344411
0.0465095 0.349523 0.344167
0.341817 0.341741 0.341741
0.888563 0.329305 0.32668
1 0.472999 0.424521
1 0.702419 0.616892
1 0.868986 0.789776
0.00267033 0.871672 0.283772
0.0136568 0.871061 0.283253
0.030518 0.869932 0.282551
0.0846418 0.864851 0.280705
0.264469 0.833249 0.285054
0.691554 0.744259 0.330861
1 0.67805 0.448417
1 0.760601 0.625849
1 0.88101 0.79202
0.325673 1 0.392813
0.32958 1 0.393027
0.335592 1 0.393423
0.354269 1 0.394629
0.413535 1 0.400107
0.588525 1 0.431418
0.915938 0.988083 0.534722
1 0.896254 0.669337
1 0.915709 0.800748
0.63978 1 0.612634
0.640711 1 0.612833
0.64239 1 0.613245
0.646967 1 0.614328
0.661646 1 0.617792
0.705745 1 0.628916
0.820798 1 0.663264
1 1 0.751751
1 0.992142 0.836469
0.839017 1 0.798276
0.839155 1 0.798337
0.839475 1 0.798444
0.840482 1 0.798733
0.843091 1 0.799481
0.851621 1 0.801999
0.877073 1 0.809873
0.942519 1 0.833768
1 1 0.890684
0 0.1187 0.73254
0 0.121767 0.737621
0 0.122271 0.746746
0.109575 0.0725414 0.765591
0.340352 0.0369879 0.740001
0.789395 0.0682078 0.7187
1 0.296422 0.647776
1 0.646632 0.678523
1 0.855741 0.803037
0 0.1393 0.728054
0 0.140002 0.734249
0 0.136629 0.745266
0.112642 0.0794995 0.766461
0.338109 0.0460517 0.744411
0.789563 0.0753796 0.720485
1 0.301274 0.64683
1 0.647944 0.678447
1 0.856092 0.803052
0 0.164538 0.721706
0 0.161883 0.730053
0 0.151339 0.744945
0.115068 0.0914473 0.768063
0.334691 0.0600748 0.750332
0.789624 0.0865187 0.722866
1 0.308782 0.645426
1 0.649989 0.678401
1 0.856489 0.803128
0 0.191241 0.730282
0 0.177157 0.743053
0.0292668 0.16202 0.755322
0.116121 0.133791 0.771282
0.323857 0.105974 0.76202
0.787243 0.123735 0.727626
1 0.33312 0.641215
1 0.656352 0.678218
1 0.857664 0.803189
0.019379 0.297551 0.725826
0.0322271 0.294926 0.72903
0.051606 0.291203 0.733272
0.111879 0.281056 0.742718
0.292927 0.261524 0.746761
0.756741 0.261479 0.717647
1 0.411948 0.629847
1 0.676127 0.677714
1 0.86154 0.80351
0.037232 0.700755 0.673961
0.0468757 0.700099 0.674098
0.0614939 0.699199 0.674403
0.107332 0.696315 0.674952
0.250004 0.688029 0.675258
0.667979 0.667353 0.667353
1 0.61796 0.604608
1 0.734752 0.67837
1 0.873777 0.804944
0.274769 1 0.555459
0.279393 1 0.555535
0.286473 1 0.555718
0.308324 1 0.556191
0.375311 1 0.558129
0.560433 1 0.567651
0.916945 0.965698 0.618311
1 0.877531 0.700343
1 0.90898 0.811139
0.625284 1 0.654292
0.626261 1 0.65449
0.627832 1 0.654749
0.632609 1 0.655497
0.647883 1 0.658061
0.693233 1 0.666178
0.812863 1 0.693065
1 1 0.76817
1 0.988098 0.841886
0.835523 1 0.806699
0.83566 1 0.806683
0.835981 1 0.806806
0.836881 1 0.807034
0.839536 1 0.807691
0.84831 1 0.810025
0.874296 1 0.817243
0.940826 1 0.839475
1 1 0.893584
0.151873 0.50634 1
0.153918 0.506905 1
0.157626 0.507271 1
0.175647 0.503151 1
0.36527 0.399237 1
0.635477 0.33846 1
1 0.369375 0.962234
1 0.598138 0.854673
1 0.837186 0.846738
0.147921 0.513237 1
0.150332 0.513512 1
0.154604 0.513359 1
0.174716 0.507408 1
0.366964 0.401236 1
0.634134 0.341802 1
1 0.372122 0.962081
1 0.599481 0.854429
1 0.837324 0.846708
0.143267 0.522713 1
0.146212 0.522499 1
0.151308 0.521599 1
0.17467 0.512764 1
0.369177 0.404517 1
0.632151 0.346929 1
1 0.376257 0.961929
1 0.601404 0.854032
1 0.837751 0.846693
0.137377 0.545281 0.984726
0.141863 0.543648 0.987594
0.149645 0.540261 0.992615
0.187716 0.518563 1
0.37409 0.416098 1
0.626139 0.36289 1
1 0.389166 0.96141
1 0.607706 0.852811
1 0.838926 0.846632
0.210636 0.534905 0.996216
0.220508 0.529 1
0.234714 0.520958 1
0.275257 0.500084 1
0.380896 0.457801 1
0.609567 0.412619 1
1 0.430182 0.959091
1 0.627207 0.848981
1 0.842924 0.846433
0.298329 0.614649 0.961822
0.302434 0.613504 0.963119
0.308721 0.611749 0.964981
0.328328 0.606561 0.970443
0.390143 0.591592 0.983032
0.573266 0.560037 0.988998
0.990005 0.555291 0.948318
1 0.684688 0.837873
1 0.85507 0.845823
0.361639 0.942443 0.908217
0.36434 0.942184 0.908309
0.368444 0.941802 0.908415
0.38114 0.940688 0.908858
0.421851 0.937011 0.909834
0.547173 0.92639 0.910826
0.902388 0.901152 0.900938
1 0.829175 0.813214
1 0.890837 0.845701
0.593149 1 0.781933
0.593988 1 0.781888
0.595758 1 0.781949
0.600519 1 0.781918
0.616251 1 0.78204
0.663386 1 0.782589
0.790539 1 0.78793
1 1 0.821759
1 0.975708 0.860563
0.825467 1 0.833097
0.82565 1 0.833127
0.825895 1 0.833158
0.826841 1 0.833295
0.829755 1 0.833814
0.838758 1 0.835401
0.865736 1 0.840452
0.93579 1 0.857511
1 1 0.903075
0.441825 0.805997 1
0.442206 0.806134 1
0.442832 0.806378 1
0.445228 0.806653 1
0.457252 0.803525 1
0.625193 0.697688 1
0.840574 0.635508 1
1 0.657389 1
1 0.80499 0.961639
0.441215 0.807401 1
0.441627 0.807553 1
0.44239 0.807675 1
0.444846 0.807889 1
0.457298 0.804303 1
0.625834 0.697948 1
0.840162 0.636316 1
1 0.658 1
1 0.805249 0.961563
0.440391 0.809445 1
0.440894 0.809506 1
0.441627 0.809628 1
0.444297 0.809644 1
0.45745 0.805386 1
0.626627 0.698436 1
0.839689 0.6374 1
1 0.658869 1
1 0.805692 0.961456
0.438605 0.815198 1
0.439246 0.815137 1
0.440146 0.815091 1
0.443336 0.814572 1
0.458732 0.808087 1
0.629145 0.699962 1
0.83798 0.640955 1
1 0.661616 1
1 0.806821 0.961151
0.439017 0.827924 1
0.439933 0.827573 1
0.441367 0.826993 1
0.44625 0.824659 1
0.473945 0.806348 1
0.63473 0.706279 1
0.832868 0.652277 1
1 0.670298 1
1 0.810651 0.960296
0.510262 0.799893 1
0.512596 0.798352 1
0.516228 0.796033 1
0.527092 0.789227 1
0.558999 0.770916 1
0.64332 0.73196 1
0.818875 0.68719 1
1 0.697673 1
1 0.822416 0.957443
0.590997 0.83743 1
0.591974 0.837125 1
0.593347 0.836683 1
0.597787 0.835248 1
0.611902 0.830808 1
0.656733 0.81767 1
0.78938 0.788479 1
1 0.780743 1
1 0.857191 0.949157
0.654765 1 1
0.655314 1 1
0.656245 1 1
0.659007 1 1
0.667399 1 1
0.694224 1 1
0.776776 1 1
1 1 1
1 0.943526 0.930678
0.803311 1 0.913344
0.803433 1 0.913298
0.803738 1 0.913298
0.804547 1 0.913268
0.807538 1 0.913222
0.816922 1 0.913085
0.84535 1 0.912978
0.920928 1 0.915145
1 1 0.934447
0.681666 0.954589 1
0.681788 0.95462 1
0.681941 0.95465 1
0.682231 0.954864 1
0.683543 0.955154 1
0.689357 0.954192 1
0.803418 0.874632 1
0.950469 0.824979 1
1 0.837797 1
0.681666 0.954772 1
0.681758 0.954833 1
0.68188 0.954864 1
0.68217 0.955047 1
0.683467 0.955398 1
0.689357 0.954299 1
0.803647 0.874632 1
0.950347 0.825101 1
1 0.837949 1
0.681682 0.955108 1
0.681666 0.955184 1
0.681895 0.955169 1
0.682231 0.955322 1
0.683528 0.955627 1
0.689403 0.954513 1
0.803845 0.874678 1
0.950271 0.825284 1
1 0.837934 1
0.681514 0.956115 1
0.681636 0.95613 1
0.681712 0.956176 1
0.682094 0.956298 1
0.683345 0.956558 1
0.68983 0.954955 1
0.804593 0.874754 1
0.949859 0.826047 1
1 0.838544 1
0.681498 0.958923 1
0.681666 0.958892 1
0.681682 0.958984 1
0.682307 0.958907 1
0.683818 0.958923 1
0.691142 0.956115 1
0.806699 0.875181 1
0.948684 0.828214 1
1 0.840238 1
0.684245 0.964782 1
0.684443 0.964736 1
0.684703 0.964645 1
0.685283 0.964431 1
0.687663 0.963378 1
0.701488 0.953399 1
0.811841 0.877729 1
0.945068 0.835248 1
1 0.845441 1
0.732677 0.93959 1
0.73315 0.939284 1
0.733791 0.938811 1
0.736095 0.937209 1
0.74287 0.932586 1
0.763531 0.919676 1
0.819867 0.891035 1
0.935393 0.856565 1
1 0.86157 1
0.791424 0.952758 1
0.791562 0.952728 1
0.791867 0.952605 1
0.792737 0.952285 1
0.795483 0.951278 1
0.804089 0.948318 1
0.831983 0.939178 1
0.915419 0.9178 1
1 0.910735 1
0.837919 1 1
0.838117 1 1
0.838087 1 1
0.838743 1 1
0.840253 1 1
0.845258 1 1
0.861143 1 1
0.909728 1 1
1 1 1
