OpenDRT/JzDT-LogC3LinRec2020.cube
TITLE "Generated by Resolve"
LUT_3D_SIZE 5
0 0 0
0.010605 0 0
0.369085 0.00411994 0
1 0.443748 0.311376
1 0.884215 0.783246
0 0.0175479 0
0.022446 0.0278935 0
0.37113 0.055787 0
1 0.455848 0.312276
1 0.884749 0.783368
0.0458839 0.41181 0
0.082414 0.4168 0
0.36379 0.416983 0
1 0.550439 0.329122
1 0.889265 0.784436
0.523339 1 0.338186
0.529854 1 0.339086
0.580911 1 0.347875
0.911101 0.988983 0.505394
1 0.930709 0.797665
0.906874 1 0.801221
0.907134 1 0.801343
0.909606 1 0.80235
0.932448 1 0.812741
1 1 0.892439
0 0 0.0191196
0.0154574 0 0.0212253
0.36791 0 0.0313726
1 0.438117 0.323888
1 0.883772 0.783963
0 0.0170596 0.0184787
0.0196078 0.0196231 0.0196231
0.368597 0.0449226 0.0280766
1 0.450202 0.324514
1 0.884306 0.784054
0.0339818 0.412543 0.00987259
0.0714885 0.416739 0.00831617
0.362051 0.408408 0.0292821
1 0.545205 0.339529
1 0.88896 0.785183
0.520394 1 0.345586
0.527031 1 0.346502
0.578454 1 0.354925
0.911284 0.987869 0.509514
1 0.930358 0.798199
0.906722 1 0.801678
0.907057 1 0.801785
0.909422 1 0.802747
0.932342 1 0.813153
1 1 0.892638
0 0 0.328206
0 0 0.362982
0.310124 0 0.365179
1 0.401999 0.422827
1 0.880827 0.789609
0 0 0.352941
0.00819409 0 0.378164
0.319966 0 0.372732
1 0.414008 0.422095
1 0.881468 0.789731
0.0109102 0.332952 0.345068
0.049073 0.333822 0.345022
0.341787 0.341756 0.341741
1 0.509758 0.424338
1 0.88603 0.7906
0.499321 1 0.406821
0.50634 1 0.40737
0.561273 1 0.413474
0.912139 0.979126 0.542245
1 0.92784 0.802274
0.905745 1 0.80502
0.90605 1 0.805188
0.908507 1 0.806165
0.931517 1 0.816083
1 1 0.893828
0.26334 0.496468 1
0.267994 0.497642 1
0.405219 0.405966 1
0.906874 0.407675 0.951705
1 0.857771 0.846036
0.259525 0.511345 0.995529
0.265568 0.510719 0.999725
0.409033 0.411063 1
0.906569 0.414054 0.951522
1 0.858274 0.845991
0.312398 0.525826 0.989044
0.328313 0.513924 0.999557
0.427268 0.461479 1
0.904616 0.464042 0.949691
1 0.862913 0.845853
0.502983 0.915434 0.909483
0.508003 0.915145 0.909667
0.547372 0.913115 0.910903
0.902068 0.901198 0.900954
1 0.905852 0.846021
0.896773 1 0.839246
0.897047 1 0.839323
0.899657 1 0.839918
0.923964 1 0.846143
1 1 0.905943
0.753521 0.943328 1
0.753735 0.943404 1
0.755062 0.943954 1
0.832456 0.874388 1
1 0.853071 1
0.753582 0.943801 1
0.753765 0.943877 1
0.755108 0.944396 1
0.832776 0.874449 1
1 0.853208 1
0.753964 0.947326 1
0.754116 0.947387 1
0.755779 0.947448 1
0.834989 0.875044 1
1 0.855329 1
0.789914 0.931777 1
0.790631 0.931105 1
0.796551 0.92575 1
0.847517 0.890425 1
1 0.875044 1
0.892622 1 1
0.89276 1 1
0.894331 1 1
0.909606 1 1
1 1 1
