OpenDRT/JzDT-LogC3LinRec709.cube
TITLE "Generated by Resolve"
LUT_3D_SIZE 33
0 0 0
0 0 0
0 0 0
0 0 0
0 0 0
0 0 0
0.0016022 0 0
0.00814832 0 0
0.0206607 0 0
0.0408484 0 0
0.0711223 0 0
0.114458 0 0
0.174731 0 0
0.25478 0 0
0.35465 0 0
0.475898 0 0
0.611551 0 0
0.755657 0 0
0.906035 0 0.00421149
1 0.0373999 0.0312963
1 0.0863813 0.0672923
1 0.145327 0.11162
1 0.212116 0.163149
1 0.284657 0.220645
1 0.360967 0.283436
1 0.440879 0.352316
1 0.52047 0.424582
1 0.593835 0.494209
1 0.659892 0.559564
1 0.718242 0.619745
1 0.768994 0.674281
1 0.812726 0.722972
1 0.850217 0.766186
0 0 0
0 0 0
0 0 0
0 0 0
0 0 0
0.000503548 0 0
0.00357061 0 0
0.0102541 0 0
0.0223239 0 0
0.0419165 0 0
0.0715648 0 0
0.114382 0 0
0.174426 0 0
0.253819 0 0
0.352636 0 0
0.473182 0 0
0.609598 0 0
0.753902 0 0
0.904265 0.00418097 0.00335698
1 0.0413367 0.0305943
1 0.0897688 0.066743
1 0.148089 0.111223
1 0.214374 0.16289
1 0.286412 0.220478
1 0.362356 0.283406
1 0.441962 0.352346
1 0.521187 0.424643
1 0.594308 0.494163
1 0.660166 0.559625
1 0.718486 0.619837
1 0.769146 0.674296
1 0.812848 0.722972
1 0.850248 0.76614
0 0 0
0 0 0
0 0 0
0 0 0
0.000198367 0 0
0.00167849 0 0
0.00491341 0 0
0.0115358 0 0
0.0233463 0 0
0.0425269 0 0
0.0717327 0 0
0.114183 0 0
0.174044 0 0
0.252781 0 0
0.350591 0 0
0.470451 0 0
0.607477 0 0
0.752041 0 0
0.902449 0.0087129 0.00250248
1 0.0453193 0.0299229
1 0.0931411 0.0662242
1 0.150881 0.110857
1 0.216617 0.162646
1 0.288258 0.220356
1 0.363821 0.283375
1 0.443107 0.352468
1 0.521904 0.424643
1 0.594903 0.49427
1 0.660594 0.559701
1 0.71873 0.619913
1 0.76936 0.674281
1 0.813001 0.723033
1 0.850324 0.766217
0 0 0
0 0 0
0 0 0
1.5259e-05 1.5259e-05 0
0.000640879 0.000198367 0
0.00227359 0.000411994 0
0.00569162 0.00062562 0
0.012314 0.000671397 0
0.0239567 0.000320439 0
0.0428473 0 0
0.0717021 0 0
0.113909 0 0
0.173571 0 0
0.251637 0 0
0.348501 0 0
0.467704 0 0
0.605173 0 0
0.750057 0 0
0.900526 0.0132753 0.00167849
1 0.0492866 0.0292515
1 0.0965286 0.0657206
1 0.153689 0.110475
1 0.218921 0.162387
1 0.290013 0.220203
1 0.365255 0.283345
1 0.444266 0.352605
1 0.522759 0.42472
1 0.595407 0.494316
1 0.660975 0.559686
1 0.719005 0.619867
1 0.769512 0.674342
1 0.813062 0.722988
1 0.850401 0.766217
0 0 0
0 0 0
0 0.000228885 0
0 0.000595102 0
0.000717174 0.00129702 0
0.00257877 0.00195315 0
0.00613413 0.00260929 0
0.0128023 0.00320439 0
0.0243076 0.00343328 0
0.0429541 0.00294499 0
0.0715496 0.0012665 0
0.113603 0 0
0.173007 0 0
0.250416 0 0
0.346334 0 0
0.464927 0 0
0.602731 0 0
0.747951 0 0
0.898558 0.0178531 0.000885023
1 0.0532692 0.0285954
1 0.099855 0.0652171
1 0.156481 0.110109
1 0.221195 0.162142
1 0.291798 0.220096
1 0.366659 0.283345
1 0.445289 0.352605
1 0.523445 0.424781
1 0.595987 0.494438
1 0.661326 0.559762
1 0.719142 0.619821
1 0.76968 0.674388
1 0.813138 0.723003
1 0.850355 0.766094
0 0.000411994 0
0 0.00108339 0
0 0.00175479 0
0 0.00241093 0
0.000518807 0.00315862 0
0.00259403 0.00416571 0
0.00633249 0.00520333 0
0.0130465 0.00619516 0
0.0244755 0.00689708 0
0.0429236 0.00691234 0
0.0712902 0.00569162 0
0.113237 0.00257877 0
0.172335 0 0
0.249073 0 0
0.344121 0 0
0.462074 0 0
0.600107 0 0
0.745739 0 0
0.896529 0.0224765 7.62951e-05
1 0.0572824 0.0279393
1 0.103319 0.0647135
1 0.159304 0.109728
1 0.223468 0.161898
1 0.293645 0.219989
1 0.368063 0.283299
1 0.446448 0.352743
1 0.5243 0.424872
1 0.59649 0.494438
1 0.661677 0.559777
1 0.719371 0.619898
1 0.769787 0.674327
1 0.813291 0.723079
1 0.850553 0.766262
0 0.00328069 0
0 0.00425727 0
0 0.00518807 0
0 0.00602731 0
0 0.00682078 0
0.00218204 0.00773632 0
0.00614939 0.00907912 0
0.0130159 0.0104524 0
0.0244144 0.0115816 0
0.0426947 0.0120851 0
0.0708324 0.0113527 0
0.11281 0.00849927 0
0.171344 0.00373846 0
0.247257 0 0
0.341314 0 0
0.458579 0 0
0.596704 0 0
0.742916 0.00560006 0
0.893904 0.0281682 0
1 0.0622568 0.0271763
1 0.1075 0.0641031
1 0.162768 0.109316
1 0.226276 0.161608
1 0.295827 0.219821
1 0.369818 0.283314
1 0.447791 0.35285
1 0.525277 0.424964
1 0.597177 0.494514
1 0.662104 0.559853
1 0.719707 0.619898
1 0.770001 0.674372
1 0.813367 0.723033
1 0.850614 0.766262
0 0.00956741 0
0 0.0106966 0
0 0.0117037 0
0 0.0126345 0
0 0.013489 0
0.000869764 0.0142824 0
0.00518807 0.0153353 0
0.012314 0.0170291 0
0.0238193 0.018555 0
0.0420081 0.019501 0
0.0699779 0.0192416 0
0.111925 0.0167391 0
0.16968 0.0126345 0
0.24448 0.00840772 0
0.337469 0.00552377 0
0.453849 0.00323491 0
0.591852 0.0039826 0
0.738857 0.0142672 0
0.890196 0.0358282 0
1 0.0688945 0.026154
1 0.113115 0.0633097
1 0.167407 0.108751
1 0.230015 0.161227
1 0.298848 0.219623
1 0.372137 0.283284
1 0.449546 0.352987
1 0.526528 0.425116
1 0.598032 0.494636
1 0.662745 0.55993
1 0.720165 0.619989
1 0.770245 0.674388
1 0.813596 0.723125
1 0.850629 0.766232
0 0.0205844 0
0 0.0216678 0
0 0.0226444 0
0 0.0235447 0
0 0.0243687 0
0 0.0251316 0
0.00273136 0.0259861 0
0.0102693 0.0271305 0
0.0220493 0.0289464 0
0.0403296 0.0302739 0
0.0683299 0.0303502 0
0.109895 0.028397 0
0.166781 0.0249943 0
0.240024 0.021622 0
0.332113 0.018967 0
0.44741 0.0167544 0
0.584833 0.0171359 0
0.733013 0.0259861 0
0.884947 0.0461585 0
1 0.0777752 0.0248722
1 0.120653 0.0623331
1 0.173602 0.108034
1 0.234989 0.160754
1 0.30277 0.219394
1 0.375265 0.283314
1 0.452003 0.35317
1 0.528206 0.425269
1 0.599207 0.494774
1 0.6636 0.559991
1 0.720623 0.620066
1 0.770626 0.674479
1 0.813764 0.723049
1 0.850874 0.766262
0 0.0377661 0
0 0.0386969 0
0 0.0395514 0
0 0.0403449 0
0 0.041062 0
0 0.0417487 0
0 0.0424811 0
0.00588998 0.0433509 0
0.0181277 0.0443885 0
0.0367132 0.0459297 0
0.0648814 0.0462806 0
0.105715 0.0449836 0
0.161685 0.042237 0
0.233188 0.039704 0
0.32462 0.0370336 0
0.438697 0.0348058 0
0.574853 0.0348516 0
0.72459 0.0418097 0
0.877531 0.0600748 0
1 0.0898146 0.0232242
1 0.130755 0.0610666
1 0.181979 0.107073
1 0.241733 0.160143
1 0.308095 0.219074
1 0.379446 0.283253
1 0.455299 0.353491
1 0.53051 0.425467
1 0.600778 0.494957
1 0.664591 0.560082
1 0.721355 0.620218
1 0.771038 0.674449
1 0.814191 0.723232
1 0.851041 0.766293
0 0.0629435 0
0 0.0636912 0
0 0.0643626 0
0 0.0650034 0
0 0.0655833 0
0 0.0661326 0
0 0.0667277 0
0 0.0674144 0
0.0105592 0.0681163 0
0.0296635 0.0686503 0
0.0577859 0.0692912 0
0.0980697 0.0684672 0
0.152865 0.0663767 0
0.223453 0.0641031 0
0.314168 0.061265 0
0.426886 0.058793 0
0.561425 0.0583505 0
0.712352 0.0632181 0
0.866865 0.0788128 0
1 0.105913 0.0213016
1 0.14432 0.0595254
1 0.193103 0.105974
1 0.250706 0.159457
1 0.31519 0.218769
1 0.385107 0.283391
1 0.459556 0.353857
1 0.533532 0.425727
1 0.602838 0.495109
1 0.666087 0.560327
1 0.722271 0.620233
1 0.77174 0.674586
1 0.814557 0.723262
1 0.851301 0.766323
0 0.0984817 0
0 0.0990311 0
0 0.0995499 0
0 0.100038 0
0 0.100496 0
0 0.100893 0
0 0.101305 0
0 0.101717 0
0 0.102037 0
0.0174868 0.102113 0
0.0458381 0.101732 0
0.0856184 0.101167 0
0.139239 0.0995499 0
0.209705 0.0968795 0
0.299657 0.0935988 0
0.410895 0.0905928 0
0.543664 0.0892653 0
0.694682 0.0919661 0
0.851362 0.104082 0
1 0.127596 0.0190738
1 0.162524 0.0577554
1 0.208011 0.104677
1 0.262715 0.158633
1 0.324742 0.218433
1 0.392508 0.283497
1 0.465232 0.35436
1 0.53756 0.426169
1 0.605631 0.495384
1 0.667842 0.560494
1 0.723613 0.620432
1 0.772549 0.674784
1 0.815167 0.723308
1 0.851698 0.76643
0 0.147326 0
0 0.147616 0
0 0.14786 0
0 0.148058 0
0 0.148211 0
0 0.148318 0
0 0.148409 0
0 0.148425 0
0 0.148287 0
0 0.147845 0
0.0283665 0.146899 0
0.0678874 0.145434 0
0.12105 0.143572 0
0.190921 0.140414 0
0.279942 0.136355 0
0.389654 0.132326 0
0.520409 0.12961 0
0.669871 0.130175 0
0.829038 0.137957 0
0.986725 0.15668 0.0168307
1 0.186892 0.0559091
1 0.228 0.103319
1 0.278767 0.157809
1 0.337453 0.218204
1 0.402533 0.28394
1 0.472908 0.355123
1 0.542916 0.426764
1 0.609354 0.495842
1 0.67042 0.56083
1 0.725277 0.620569
1 0.773648 0.674846
1 0.815808 0.723369
1 0.852186 0.766476
0 0.210025 0
0 0.210147 0
0 0.210193 0
0 0.210163 0
0 0.210086 0
0 0.209903 0
0 0.209567 0
0 0.209033 0
0 0.208331 0
0 0.207355 0
0.0049897 0.206012 0
0.0445258 0.204074 0
0.0971542 0.201358 0
0.166217 0.197299 0
0.254108 0.19202 0
0.362219 0.186313 0
0.490623 0.181582 0
0.637659 0.179507 0
0.797711 0.182727 0
0.958633 0.195422 0.015198
1 0.219455 0.0543679
1 0.25478 0.10219
1 0.300282 0.157183
1 0.354482 0.21825
1 0.415869 0.284764
1 0.482887 0.35613
1 0.549981 0.427512
1 0.614267 0.496452
1 0.673716 0.561212
1 0.727535 0.620951
1 0.77525 0.675074
1 0.816754 0.723507
1 0.852842 0.766491
0 0.281941 0
0 0.282124 0
0 0.282277 0
0 0.282353 0
0 0.282414 0
0 0.282429 0
0 0.282414 0
0 0.282292 0
0 0.281987 0
0 0.281361 0
0 0.280186 0
0.0154574 0.278141 0
0.0669718 0.274907 0
0.134905 0.270329 0
0.221561 0.263096 0
0.327916 0.254978 0
0.45388 0.247288 0
0.597894 0.241779 0
0.756024 0.240421 0
0.91957 0.246265 0.015259
1 0.262547 0.0541695
1 0.290196 0.102007
1 0.328878 0.157382
1 0.377142 0.219013
1 0.433845 0.286442
1 0.496086 0.35758
1 0.559335 0.428611
1 0.620706 0.497154
1 0.678172 0.561807
1 0.730495 0.621302
1 0.777157 0.675319
1 0.818067 0.723751
1 0.853697 0.766629
0 0.365576 0
0 0.365805 0
0 0.366003 0
0 0.366186 0
0 0.366323 0
0 0.366461 0
0 0.366552 0
0 0.366613 0
0 0.366567 0
0 0.366323 0
0 0.365698 0
0 0.364385 0
0.0350958 0.361929 0
0.0986496 0.357824 0
0.182132 0.351659 0
0.286549 0.340475 0
0.410117 0.328725 0
0.550851 0.318563 0
0.705394 0.312032 0
0.867964 0.311147 0.0186007
1 0.318578 0.0569009
1 0.336934 0.104143
1 0.366735 0.159365
1 0.407401 0.221439
1 0.457359 0.289204
1 0.513283 0.359731
1 0.571572 0.430121
1 0.629297 0.498344
1 0.684047 0.562509
1 0.734462 0.621836
1 0.779858 0.6757
1 0.819944 0.723949
1 0.854856 0.766888
0 0.461051 0
0 0.461265 0
0 0.461448 0
0 0.461616 0
0 0.461753 0
0 0.46186 0
0 0.461997 0
0 0.462104 0
0 0.46215 0
0 0.462104 0
0 0.461769 0
0 0.460945 0
0.00836194 0.45922 0
0.0653086 0.456046 0
0.140902 0.450767 0
0.239399 0.442786 0
0.359609 0.427161 0
0.497368 0.411154 0
0.647944 0.398062 0
0.806912 0.389975 0.0252079
0.967178 0.388891 0.0644694
1 0.397024 0.110948
1 0.41622 0.165301
1 0.446952 0.226719
1 0.487648 0.293416
1 0.535653 0.36286
1 0.58764 0.432395
1 0.640467 0.499825
1 0.691737 0.563653
1 0.73962 0.622538
1 0.783307 0.676204
1 0.822156 0.724269
1 0.856336 0.767056
0 0.566598 0
0 0.56672 0
0 0.566842 0
0 0.566934 0
0 0.56701 0
0 0.567102 0
0 0.567178 0
0 0.567224 0
0 0.567224 0
0 0.567147 0
0 0.566888 0
0 0.566232 0
0 0.564858 0
0.0401465 0.562371 0
0.106279 0.558038 0
0.193423 0.551003 0
0.305348 0.540764 0
0.43827 0.519753 0
0.585473 0.498848 0
0.73991 0.482353 0.0344244
0.896971 0.472206 0.0760662
1 0.470039 0.122728
1 0.477699 0.175677
1 0.496452 0.235126
1 0.526024 0.299718
1 0.564309 0.367422
1 0.608423 0.43563
1 0.655161 0.502098
1 0.701915 0.56524
1 0.746517 0.623621
1 0.788037 0.676921
1 0.825345 0.724743
1 0.858427 0.767361
0 0.678737 0
0 0.678767 0
0 0.678813 0
0 0.678798 0
0 0.678843 0
0 0.678782 0
0 0.678767 0
0 0.678691 0
0 0.678584 0
0 0.67837 0
0 0.677974 0
0 0.677226 0
0 0.675868 0
0.0264897 0.673625 0
0.0830091 0.669825 0
0.157656 0.663691 0
0.254704 0.654368 0
0.377737 0.641184 0
0.519402 0.613748 0.00540169
0.670085 0.587518 0.0454108
0.822507 0.567346 0.0909743
0.972274 0.55465 0.139208
1 0.550622 0.191012
1 0.556725 0.247684
1 0.573602 0.309316
1 0.600427 0.374319
1 0.634897 0.440436
1 0.674159 0.505455
1 0.715068 0.567361
1 0.755703 0.625116
1 0.794079 0.677867
1 0.829358 0.725429
1 0.861143 0.767834
0 0.792737 0
0 0.792599 0
0 0.792554 0
0 0.792432 0
0 0.792355 0
0 0.792233 0
0 0.792142 0
0 0.791943 0
0 0.791638 0
0 0.791211 0
0 0.79057 0
0 0.789624 0
0 0.788083 0
0.0263981 0.785779 0
0.0737469 0.782086 0
0.136172 0.776471 0
0.217838 0.767941 0.000167849
0.322713 0.755596 0.00825513
0.453529 0.738903 0.0216373
0.598978 0.704448 0.0579843
0.747692 0.67274 0.107607
0.892927 0.648981 0.15938
1 0.633631 0.211627
1 0.627283 0.265766
1 0.630961 0.323384
1 0.645045 0.384665
1 0.668254 0.447593
1 0.698192 0.510201
1 0.732174 0.570611
1 0.767407 0.627222
1 0.802075 0.67921
1 0.83476 0.726284
1 0.864729 0.768399
0 0.902861 0.0282597
0 0.902678 0.0283207
0 0.902541 0.0283818
0 0.902342 0.0284581
0 0.902159 0.0285344
0 0.901991 0.0285954
0 0.901762 0.0287022
0 0.901411 0.0288396
0 0.900999 0.0290227
0 0.900404 0.0292515
0 0.89955 0.0295872
0 0.898314 0.0300908
0.0115969 0.89662 0.0308385
0.0407263 0.894102 0.0318914
0.079469 0.890349 0.0336004
0.130556 0.884932 0.0362249
0.197711 0.876951 0.0404822
0.284627 0.865446 0.0474861
0.394827 0.84947 0.0588846
0.529686 0.828763 0.0771801
0.674022 0.786984 0.125017
0.815747 0.750912 0.180789
0.950271 0.723964 0.236072
1 0.706065 0.28957
1 0.697307 0.343435
1 0.698283 0.399664
1 0.709178 0.458198
1 0.728435 0.517418
1 0.753826 0.575311
1 0.782605 0.630304
1 0.812497 0.681285
1 0.841856 0.727611
1 0.869413 0.769268
0 1 0.0763104
0 1 0.0764172
0 1 0.076524
0 1 0.0766003
0 1 0.0766918
0 1 0.0767681
0 1 0.0769055
0 1 0.0770428
0 1 0.0772869
0.00520333 1 0.0775616
0.0151217 0.99968 0.0780041
0.0282292 0.998337 0.0785534
0.0458381 0.996384 0.0793622
0.0691844 0.993713 0.0805066
0.100237 0.989929 0.0822156
0.141176 0.984665 0.0847181
0.19527 0.977005 0.0886397
0.265599 0.966308 0.0947127
0.355657 0.951476 0.104433
0.468299 0.931533 0.120119
0.603387 0.906462 0.14493
0.742077 0.858701 0.202029
0.873304 0.819471 0.260975
0.994644 0.790249 0.316915
1 0.770184 0.369192
1 0.759243 0.4206
1 0.757702 0.473487
1 0.765423 0.527916
1 0.780911 0.5823
1 0.801892 0.634821
1 0.825864 0.684169
1 0.850935 0.729442
1 0.875608 0.770443
0.0342565 1 0.131212
0.0362402 1 0.131304
0.0383307 1 0.131411
0.040238 1 0.131502
0.0421912 1 0.131594
0.0441901 1 0.131716
0.0465705 1 0.131838
0.049897 1 0.132021
0.0542153 1 0.132219
0.0599832 1 0.132555
0.0678416 1 0.132982
0.0782177 1 0.133593
0.0919051 1 0.134386
0.110338 1 0.135561
0.13463 1 0.137209
0.167071 1 0.139605
0.209613 1 0.143175
0.265278 1 0.148531
0.337285 1 0.156954
0.428855 1 0.170275
0.541451 0.998108 0.191943
0.672923 0.969024 0.224445
0.801801 0.918349 0.28452
0.920424 0.877317 0.343847
1 0.846738 0.398032
1 0.825452 0.44715
1 0.81268 0.494636
1 0.809003 0.542992
1 0.813855 0.592493
1 0.825818 0.641367
1 0.842863 0.68838
1 0.862684 0.732113
1 0.883574 0.772198
0.103639 1 0.19118
0.105074 1 0.191257
0.106661 1 0.191348
0.108141 1 0.19147
0.109697 1 0.191592
0.111177 1 0.191653
0.113161 1 0.191791
0.115602 1 0.191959
0.11899 1 0.192218
0.123476 1 0.192538
0.129412 1 0.192981
0.137469 1 0.193576
0.14818 1 0.194385
0.162295 1 0.195529
0.181155 1 0.197131
0.206104 1 0.199374
0.239139 1 0.202701
0.28246 1 0.207507
0.338872 1 0.214908
0.411521 1 0.226551
0.502907 1 0.245304
0.612955 1 0.274022
0.735622 1 0.308171
0.852644 0.966079 0.368093
0.957748 0.924651 0.425544
1 0.893721 0.476188
1 0.871717 0.520928
1 0.857908 0.563607
1 0.852445 0.606958
1 0.854948 0.651026
1 0.863905 0.69453
1 0.877577 0.736034
1 0.893767 0.774639
0.178408 1 0.254856
0.179629 1 0.254932
0.180758 1 0.255039
0.181888 1 0.255131
0.183078 1 0.255268
0.184192 1 0.255329
0.185672 1 0.255436
0.187579 1 0.255634
0.190036 1 0.255909
0.193545 1 0.256199
0.198093 1 0.256672
0.20415 1 0.257267
0.212222 1 0.258076
0.223117 1 0.25922
0.2374 1 0.260792
0.25655 1 0.262959
0.28188 1 0.266117
0.315114 1 0.270665
0.358755 1 0.277455
0.415579 1 0.288029
0.488365 1 0.304967
0.576898 1 0.328527
0.678492 1 0.357656
0.790799 1 0.391608
0.894881 1 0.449393
0.986786 0.962127 0.503212
1 0.931701 0.549279
1 0.909819 0.589029
1 0.895476 0.626612
1 0.888823 0.664759
1 0.889464 0.703517
1 0.896025 0.741802
1 0.906767 0.778225
0.257801 1 0.321752
0.258656 1 0.321889
0.259434 1 0.321965
0.260395 1 0.322103
0.261311 1 0.32221
0.26215 1 0.322347
0.263188 1 0.322469
0.264683 1 0.322621
0.266575 1 0.322866
0.269245 1 0.323278
0.272572 1 0.32372
0.277226 1 0.324315
0.283375 1 0.32517
0.291539 1 0.326345
0.302464 1 0.327932
0.316991 1 0.330159
0.336263 1 0.333288
0.361898 1 0.337881
0.395438 1 0.344594
0.43978 1 0.354894
0.495674 1 0.368978
0.564095 1 0.387366
0.645014 1 0.410422
0.737316 1 0.438788
0.838102 1 0.471565
0.929397 1 0.525689
1 0.991211 0.574868
1 0.961959 0.615915
1 0.940673 0.650538
1 0.92639 0.683131
1 0.91902 0.716289
1 0.918242 0.750149
1 0.92285 0.783429
0.342535 1 0.39324
0.343282 1 0.393378
0.343923 1 0.393454
0.344411 1 0.393561
0.34519 1 0.393744
0.345815 1 0.393835
0.346792 1 0.394034
0.347784 1 0.394217
0.349264 1 0.394507
0.351232 1 0.394888
0.353826 1 0.395407
0.35729 1 0.396109
0.362219 1 0.397055
0.368322 1 0.398322
0.376852 1 0.400168
0.387961 1 0.402716
0.40267 1 0.405997
0.422171 1 0.410605
0.44712 1 0.416587
0.479591 1 0.424491
0.520439 1 0.434913
0.571359 1 0.448524
0.633127 1 0.466041
0.706081 1 0.488228
0.788617 1 0.515068
0.877836 1 0.5458
0.957137 1 0.595514
1 1 0.639673
1 0.985733 0.675578
1 0.96553 0.705364
1 0.951629 0.733288
1 0.943923 0.76173
1 0.942077 0.790997
0.43267 1 0.469917
0.433188 1 0.470039
0.433707 1 0.470085
0.434073 1 0.470146
0.434516 1 0.470283
0.43505 1 0.470405
0.435569 1 0.470573
0.436316 1 0.47068
0.43743 1 0.470954
