OpenDRT/JzDT-LogC3LinRec2020.cube
TITLE "Generated by Resolve"
LUT_3D_SIZE 33
0 0 0
0 0 0
0 0 0
0 0 0
0 0 0
0 0 0
0.000701915 0 0
0.00392157 0 0
0.010605 0 0
0.0218662 0 0
0.0391852 0 0
0.0643626 0 0
0.0996872 0 0
0.147173 0 0
0.207675 0 0
0.282551 0 0
0.369085 0.00411994 0
0.464805 0.0277867 0
0.568521 0.0623484 0.0185855
0.676875 0.10779 0.0486458
0.785183 0.16321 0.0875563
0.887953 0.226886 0.134569
0.980224 0.296376 0.188388
1 0.369375 0.247608
1 0.443748 0.311376
1 0.519066 0.380346
1 0.592187 0.451865
1 0.65861 0.520256
1 0.717693 0.584024
1 0.769329 0.64242
1 0.813825 0.695064
1 0.851865 0.741878
1 0.884215 0.783246
0 0 0
0 0 0
0 0 0
0 0 0
0 0 0
0.000228885 0 0
0.00173953 0 0
0.0053254 0 0
0.0121004 0 0
0.0233463 0 0
0.040589 0 0
0.0656901 0 0
0.101015 0 0
0.148272 0 0
0.208301 0 0
0.282811 0 0
0.369635 0.0090486 0
0.465324 0.0322728 0
0.568856 0.0663615 0.0181888
0.677043 0.111284 0.0483406
0.785092 0.166201 0.0873426
0.887755 0.229313 0.134447
0.979873 0.298344 0.188312
1 0.370871 0.247578
1 0.444938 0.311437
1 0.519982 0.380453
1 0.592782 0.451957
1 0.659007 0.520241
1 0.717937 0.5841
1 0.769543 0.642512
1 0.813962 0.695079
1 0.851957 0.741878
1 0.88423 0.783215
0 0 0
0 0 0
0 0 0
0 0 0
9.15541e-05 0 0
0.000869764 0 0
0.00268559 0 0
0.0065156 0 0
0.0134279 0 0
0.0247044 0 0
0.0419165 0 0
0.0669871 0 0
0.102327 0 0
0.149355 0 0
0.208927 0 0
0.283085 0.0019379 0
0.370092 0.0140383 0
0.465782 0.0368048 0
0.569177 0.0704051 0.0178073
0.677134 0.114794 0.0480507
0.785016 0.169162 0.087129
0.88751 0.231739 0.134325
0.979507 0.300282 0.188266
1 0.372457 0.247608
1 0.446174 0.311528
1 0.520943 0.380636
1 0.593378 0.452018
1 0.65951 0.520378
1 0.718273 0.584192
1 0.769741 0.642588
1 0.81413 0.695079
1 0.852094 0.741939
1 0.884306 0.783276
0 0 0
0 0 0
0 0 0
1.5259e-05 1.5259e-05 0
0.000411994 0.000213626 0
0.00143435 0.000503548 0
0.00355535 0.000900282 0
0.00761425 0.00137331 0
0.0146487 0.00181582 0
0.0259861 0.00209049 0
0.0431983 0.00199893 0
0.0682689 0.00134279 0
0.103609 0 0
0.150378 0 0
0.209522 0.00175479 0
0.28333 0.00737011 0
0.370474 0.0190585 0
0.466178 0.0413519 0
0.569436 0.0744488 0.0174411
0.677241 0.118303 0.047776
0.784894 0.172137 0.0869459
0.887266 0.234195 0.134188
0.979156 0.302266 0.18822
1 0.373968 0.247593
1 0.447379 0.311604
1 0.521889 0.380835
1 0.594095 0.45214
1 0.659922 0.520455
1 0.718608 0.584207
1 0.769955 0.642573
1 0.814267 0.695155
1 0.85214 0.741894
1 0.884367 0.783291
0 0 0
0 0 0
0 0.000183108 0
7.62951e-05 0.000518807 0
0.000762951 0.00120546 0
0.00205997 0.00192264 0
0.00442512 0.00276188 0
0.00868238 0.0037232 0
0.0158389 0.00469978 0
0.0272221 0.00549325 0
0.0444495 0.00587472 0
0.0695506 0.0055848 0
0.10486 0.0043946 0
0.151385 0.00425727 0
0.210086 0.00709545 0
0.283574 0.0128023 0
0.370779 0.0241398 0
0.466499 0.0459297 0
0.569665 0.0785077 0.0170901
0.677287 0.121828 0.0475013
0.784817 0.175067 0.0867628
0.887007 0.236622 0.134081
0.978744 0.304234 0.188174
1 0.375494 0.247623
1 0.448569 0.311696
1 0.522759 0.380911
1 0.594675 0.452247
1 0.66041 0.520592
1 0.718883 0.584298
1 0.770077 0.642542
1 0.814389 0.695201
1 0.852186 0.741924
1 0.884337 0.783169
0 0.000320439 0
0 0.000885023 0
0 0.00149538 0
0.000213626 0.002121 0
0.00117494 0.00289921 0
0.00273136 0.00395209 0
0.0053254 0.00512703 0
0.00976577 0.00646983 0
0.0170291 0.00787366 0
0.0284581 0.0091249 0
0.0457008 0.00993362 0
0.0708629 0.00991836 0
0.106096 0.00909438 0
0.152346 0.00933852 0
0.210636 0.0124819 0
0.283772 0.0182803 0
0.370993 0.0292821 0
0.466789 0.0505379 0
0.569879 0.0826123 0.0167391
0.677317 0.125383 0.0472267
0.784665 0.178103 0.0865797
0.886702 0.239094 0.133974
0.978393 0.306203 0.188128
1 0.377066 0.247654
1 0.44976 0.311757
1 0.523735 0.381109
1 0.595376 0.452384
1 0.660822 0.520623
1 0.719173 0.584329
1 0.770275 0.642634
1 0.814481 0.695155
1 0.852323 0.742
1 0.884489 0.783337
0 0.00268559 0
0 0.00358587 0
0 0.00447089 0
0.000411994 0.0053254 0
0.00178531 0.0061799 0
0.00355535 0.00717174 0
0.00640879 0.00865187 0
0.0110628 0.0103609 0
0.0184634 0.0121614 0
0.0299535 0.0138399 0
0.0472114 0.0150759 0
0.0724804 0.0153201 0
0.10753 0.0149538 0
0.153429 0.0156558 0
0.211261 0.0191196 0
0.284016 0.024979 0
0.371176 0.0356298 0
0.467079 0.0562448 0
0.570077 0.0876478 0.0163577
0.677317 0.129763 0.046952
0.784466 0.181765 0.0863661
0.886351 0.2421 0.133852
0.977935 0.308629 0.188067
1 0.378927 0.247684
1 0.45124 0.311894
1 0.524865 0.381308
1 0.596185 0.452522
1 0.661402 0.520745
1 0.719539 0.584436
1 0.77055 0.642649
1 0.814664 0.695216
1 0.852399 0.741955
1 0.88455 0.783352
0 0.0080415 0
0 0.00914015 0
0 0.0101778 0
0.000686656 0.0111696 0
0.00257877 0.0121309 0
0.0047303 0.0130617 0
0.00773632 0.014313 0
0.012665 0.0163272 0
0.0202792 0.0184939 0
0.0318608 0.0205997 0
0.0491798 0.0222477 0
0.0745403 0.0228122 0
0.109316 0.0230106 0
0.154757 0.0242618 0
0.21207 0.0280156 0
0.284306 0.0339361 0
0.371267 0.0442054 0
0.467338 0.06392 0
0.570214 0.0944381 0.0158541
0.677272 0.135622 0.0465705
0.784192 0.186694 0.0861067
0.885878 0.246143 0.1337
0.977264 0.311864 0.188006
1 0.381521 0.24773
1 0.453208 0.312032
1 0.526329 0.381552
1 0.597238 0.45275
1 0.662104 0.520912
1 0.720073 0.584543
1 0.770916 0.642756
1 0.814878 0.695232
1 0.852567 0.742061
1 0.884565 0.783322
0 0.0175479 0
0 0.0186923 0
0 0.0197757 0
0.0010071 0.020798 0
0.00343328 0.0217899 0
0.00605783 0.0227512 0
0.00950637 0.0238804 0
0.0145571 0.0254368 0
0.022446 0.0278935 0
0.0342107 0.0303349 0
0.0516823 0.0323186 0
0.0769818 0.0333562 0
0.111437 0.0341344 0
0.156176 0.0360723 0
0.213016 0.0399634 0
0.284642 0.0459144 0
0.37113 0.055787 0
0.46746 0.0742809 0
0.57026 0.103563 0.0152895
0.677134 0.143435 0.0461128
0.783749 0.193301 0.0858167
0.885176 0.251545 0.133547
0.976425 0.316167 0.187961
1 0.384878 0.247807
1 0.455848 0.312276
1 0.528374 0.381872
1 0.598642 0.45301
1 0.663081 0.521111
1 0.720775 0.584649
1 0.771298 0.642863
1 0.815183 0.695354
1 0.85272 0.742016
1 0.884749 0.783368
0 0.0325017 0
0 0.0335851 0
0 0.034638 0
0.00134279 0.0356298 0
0.00428779 0.0365911 0
0.00737011 0.0375219 0
0.0113375 0.0386206 0
0.0168917 0.0399939 0
0.0248569 0.0417792 0
0.0369116 0.0444343 0
0.0545663 0.0466773 0
0.0796521 0.0482795 0
0.113741 0.0495918 0
0.157687 0.0521706 0
0.21413 0.0560311 0
0.284993 0.0618753 0
0.370611 0.0713664 0
0.467277 0.0882277 0
0.570108 0.115816 0.0146334
0.676707 0.154009 0.045594
0.783047 0.202136 0.0854505
0.884138 0.258824 0.133333
0.975158 0.321965 0.187915
1 0.389425 0.247898
1 0.459388 0.31252
1 0.531121 0.382391
1 0.600565 0.45333
1 0.664378 0.52137
1 0.721599 0.584787
1 0.771908 0.643046
1 0.815534 0.695354
1 0.853056 0.742199
1 0.884901 0.783398
0 0.0545357 0
0 0.0555276 0
0 0.0564889 0
0.00166323 0.0574044 0
0.005066 0.0582895 0
0.00857557 0.0591592 0
0.0130007 0.0601663 0
0.0191043 0.0614328 0
0.0276188 0.0629892 0
0.0397192 0.0647898 0
0.0574502 0.067277 0
0.0823377 0.0692912 0
0.115938 0.0711223 0
0.159411 0.0738842 0
0.215366 0.0775311 0
0.285344 0.0830854 0
0.369818 0.0920119 0
0.466545 0.107027 0
0.569497 0.13228 0.0140536
0.675898 0.168124 0.0451209
0.781872 0.213977 0.0851301
0.882689 0.268482 0.133196
0.973449 0.329702 0.187976
1 0.395499 0.248142
1 0.464179 0.313039
1 0.534707 0.383001
1 0.603082 0.453773
1 0.666102 0.521645
1 0.722835 0.585107
1 0.772671 0.643122
1 0.816098 0.695521
1 0.853361 0.742245
1 0.885115 0.783444
0 0.0857404 0
0 0.0866102 0
0 0.0874647 0
0.00181582 0.088304 0
0.00556954 0.0891127 0
0.00941482 0.0898909 0
0.0142519 0.0907912 0
0.0208896 0.0918746 0
0.0300603 0.0931563 0
0.0427405 0.0946212 0
0.0603494 0.0962081 0
0.085008 0.0984207 0
0.118044 0.100603 0
0.161334 0.103014 0
0.216693 0.106218 0
0.285603 0.111177 0
0.368719 0.119188 0
0.46482 0.132219 0
0.567971 0.154421 0.0137636
0.674296 0.187091 0.0448157
0.779995 0.229847 0.084947
0.880522 0.281392 0.13315
0.971008 0.340032 0.188128
1 0.403632 0.248539
1 0.470436 0.313664
1 0.539452 0.383841
1 0.606439 0.454444
1 0.668421 0.522087
1 0.724285 0.585382
1 0.773785 0.643381
1 0.816754 0.69575
1 0.853864 0.742321
1 0.885435 0.783566
0 0.128695 0
0 0.129397 0
0 0.130053 0
0.00207523 0.130678 0
0.00622568 0.131273 0
0.0104677 0.131838 0
0.0157321 0.132479 0
0.0228733 0.133288 0
0.032578 0.134218 0
0.0458228 0.135286 0
0.0638437 0.136431 0
0.0881056 0.137804 0
0.120775 0.139742 0
0.163561 0.141665 0
0.218143 0.144106 0
0.285817 0.148013 0
0.367269 0.154635 0
0.461738 0.165621 0
0.565011 0.183993 0.0142367
0.671397 0.212436 0.0450446
0.776974 0.251011 0.0851453
0.877241 0.29868 0.13344
0.967575 0.353826 0.188571
1 0.414466 0.249241
1 0.478889 0.314748
1 0.545876 0.385061
1 0.610895 0.455329
1 0.671519 0.522744
1 0.726421 0.585855
1 0.775158 0.64361
1 0.817685 0.695872
1 0.854398 0.742428
1 0.885832 0.783642
0 0.184161 0
0 0.184756 0
1.5259e-05 0.18526 0
0.00437934 0.185718 0
0.00880446 0.18613 0
0.0133211 0.186465 0
0.0189364 0.186786 0
0.0265049 0.187137 0
0.0366064 0.187625 0
0.0501106 0.188251 0
0.0681773 0.189044 0
0.0923171 0.18999 0
0.124422 0.191119 0
0.166445 0.192172 0
0.219959 0.193423 0
0.286137 0.195712 0
0.365545 0.200336 0
0.457694 0.208743 0
0.560037 0.22298 0.0162966
0.666453 0.246113 0.0465248
0.772045 0.279225 0.0862287
0.872206 0.321767 0.134417
0.962493 0.372274 0.189593
1 0.428946 0.250507
1 0.490135 0.316426
1 0.554223 0.386633
1 0.6168 0.456489
1 0.675608 0.523629
1 0.729168 0.586419
1 0.77702 0.644099
1 0.818998 0.696178
1 0.855177 0.742611
1 0.886381 0.783688
0.0012665 0.248707 0
0.00541695 0.249332 0
0.00958267 0.249912 0
0.0137942 0.250446 0
0.0180209 0.250965 0
0.0222934 0.251453 0
0.0275731 0.252003 0
0.0346685 0.252689 0
0.0442512 0.253452 0
0.0571603 0.254337 0
0.0746014 0.255192 0
0.098024 0.25597 0
0.12929 0.256565 0
0.170428 0.257053 0
0.222599 0.256443 0
0.286976 0.256397 0
0.363958 0.258167 0
0.453193 0.263233 0
0.552895 0.273152 0.0209812
0.658686 0.290166 0.0504158
0.764324 0.316442 0.0892805
0.864729 0.352239 0.136873
0.955154 0.396719 0.191836
1 0.448188 0.252811
1 0.505257 0.319173
1 0.56527 0.38883
1 0.624598 0.458091
1 0.680964 0.524681
1 0.73286 0.587243
1 0.779477 0.644617
1 0.820569 0.696529
1 0.85626 0.742901
1 0.887083 0.783871
0.0190585 0.324514 0
0.0229496 0.325154 0
0.0268711 0.32575 0
0.0307927 0.326345 0
0.0347601 0.326894 0
0.0387274 0.327443 0
0.0436255 0.328069 0
0.0502327 0.328847 0
0.0591135 0.329778 0
0.071046 0.330877 0
0.087129 0.332097 0
0.108751 0.333303 0
0.137743 0.334325 0
0.176272 0.334951 0
0.226703 0.335058 0
0.288899 0.332082 0
0.363165 0.329976 0
0.448936 0.330587 0.00459297
0.544793 0.335531 0.0283513
0.647822 0.346303 0.0582742
0.752865 0.364691 0.0958572
0.853452 0.392279 0.142199
0.944381 0.428992 0.196338
1 0.473793 0.257099
1 0.524987 0.323262
1 0.57966 0.391928
1 0.634806 0.460273
1 0.68809 0.526314
1 0.737728 0.588266
1 0.782757 0.64535
1 0.822797 0.697047
1 0.857801 0.743206
1 0.888045 0.784176
0.0458839 0.41181 0
0.0494698 0.41239 0
0.0530709 0.412955 0
0.0566567 0.413489 0
0.0602731 0.414008 0
0.0639048 0.414511 0
0.0683604 0.415122 0
0.0743725 0.415869 0
0.082414 0.4168 0
0.0932021 0.417945 0
0.107698 0.419242 0
0.127153 0.420645 0
0.153185 0.421988 0
0.187869 0.423011 0
0.233616 0.423392 0
0.292943 0.422889 0
0.36379 0.416983 0
0.445869 0.412024 0.0120089
0.53724 0.410712 0.038407
0.635767 0.414633 0.0701305
0.737652 0.425162 0.10782
0.83743 0.443641 0.152651
0.928847 0.471015 0.205173
1 0.507179 0.264591
1 0.550439 0.329122
1 0.598383 0.396246
1 0.648203 0.463386
1 0.697398 0.528389
1 0.744106 0.589792
1 0.787015 0.646326
1 0.825635 0.697719
1 0.859632 0.743648
1 0.889265 0.784436
0.0826429 0.509163 0
0.0858473 0.509621 0
0.0890516 0.510079 0
0.092256 0.510521 0
0.0954757 0.510933 0
0.0987106 0.511376 0
0.102663 0.511864 0
0.107988 0.512505 0
0.115114 0.513283 0
0.124651 0.514275 0
0.137392 0.515435 0
0.154467 0.516732 0
0.17731 0.518029 0
0.207645 0.519188 0
0.247761 0.519783 0
0.300252 0.519371 0
0.367361 0.517754 0.00564584
0.444694 0.507836 0.0234379
0.531472 0.499138 0.0509499
0.624537 0.495064 0.08542
0.721553 0.497063 0.124392
0.818357 0.506111 0.16849
0.909331 0.523247 0.218814
0.989075 0.548974 0.275578
1 0.582681 0.337392
1 0.622354 0.402274
1 0.665522 0.467689
1 0.709606 0.531395
1 0.752544 0.591897
1 0.792737 0.647745
1 0.829557 0.69868
1 0.862257 0.744274
1 0.890974 0.784833
0.129442 0.613504 0.0204013
0.132219 0.613825 0.0204166
0.134981 0.614176 0.0204776
0.137758 0.614466 0.0205234
0.140536 0.614801 0.0205692
0.143343 0.615076 0.0206302
0.146777 0.615442 0.020676
0.151369 0.615869 0.0207675
0.157504 0.616449 0.0208896
0.165698 0.617151 0.0210575
0.176638 0.618021 0.0213321
0.191287 0.618967 0.0217288
0.210788 0.619928 0.022385
0.236683 0.620798 0.0234684
0.270939 0.621225 0.0253147
0.315877 0.620768 0.0284581
0.373922 0.618967 0.0339513
0.447181 0.615442 0.0431983
0.528206 0.60032 0.0673686
0.615839 0.58706 0.103365
0.706798 0.579568 0.144884
0.798672 0.57879 0.189425
0.887327 0.585336 0.237766
0.967559 0.599939 0.291035
1 0.62269 0.349264
1 0.652583 0.41091
1 0.687602 0.473777
1 0.725399 0.535683
1 0.763455 0.594659
1 0.80032 0.649683
1 0.834546 0.699916
1 0.865553 0.745144
1 0.893202 0.785428
0.185351 0.720546 0.0576791
0.187716 0.720684 0.0577401
0.190036 0.720897 0.0578317
0.192386 0.72105 0.0578927
0.194705 0.721233 0.0579843
0.19707 0.721386 0.0580606
0.199908 0.72163 0.0581826
0.203754 0.721859 0.0583352
0.208911 0.722179 0.0585184
0.215763 0.722545 0.058793
0.224918 0.723003 0.0591897
0.23711 0.723507 0.0597391
0.253407 0.723934 0.0605325
0.274922 0.724285 0.0617533
0.303487 0.724178 0.0635996
0.340917 0.723354 0.0665141
0.389548 0.721202 0.0713207
0.451637 0.717189 0.0791791
0.528786 0.711025 0.0918441
0.610269 0.689815 0.123751
0.695293 0.671504 0.167834
0.780835 0.660273 0.214496
0.864866 0.656321 0.262211
0.943603 0.659739 0.312184
1 0.67097 0.36582
1 0.689937 0.423209
1 0.715419 0.482414
1 0.745373 0.541527
1 0.777615 0.598688
1 0.809995 0.652354
1 0.841138 0.70164
1 0.870008 0.746273
1 0.896162 0.786175
0.248615 0.82504 0.103471
0.250523 0.825086 0.103563
0.252399 0.825177 0.103655
0.254307 0.825223 0.103761
0.256214 0.825269 0.103853
0.258106 0.825315 0.10396
0.260456 0.825376 0.104082
0.263584 0.825422 0.104265
0.267765 0.825513 0.104494
0.273335 0.825605 0.104814
0.280781 0.825666 0.105241
0.2907 0.825681 0.105852
0.303853 0.82562 0.106722
0.32134 0.82533 0.107927
0.344488 0.824582 0.109758
0.374868 0.823163 0.112474
0.414557 0.820508 0.11667
0.465599 0.816007 0.123354
0.529992 0.809064 0.133974
0.608576 0.799558 0.150744
0.687434 0.771649 0.192279
0.766888 0.748913 0.241382
0.844816 0.734051 0.290715
0.919432 0.726818 0.339101
0.987686 0.726955 0.388357
1 0.734569 0.440253
1 0.749569 0.494667
1 0.77052 0.549996
1 0.795575 0.604334
1 0.822568 0.656092
1 0.849744 0.704173
1 0.875853 0.747906
1 0.900008 0.787243
0.316579 0.922057 0.156252
0.31809 0.922026 0.156359
0.31957 0.921996 0.156466
0.321126 0.92192 0.156558
0.322591 0.921889 0.156664
0.324117 0.921859 0.156756
0.325948 0.921798 0.156909
0.328435 0.921721 0.157061
0.331716 0.921614 0.157321
0.336141 0.921447 0.157626
0.342046 0.921172 0.158083
0.349844 0.920851 0.158679
0.360296 0.920287 0.159518
0.374105 0.919463 0.160693
0.392416 0.918135 0.162402
0.41648 0.916152 0.164858
0.448066 0.912902 0.168582
0.48893 0.907988 0.174228
0.540963 0.900679 0.183108
0.605753 0.890303 0.197238
0.68333 0.876875 0.219471
0.757092 0.843183 0.268681
0.829053 0.816846 0.32018
0.897978 0.798993 0.36968
0.962829 0.788769 0.416541
1 0.785824 0.463172
1 0.790112 0.51162
1 0.801282 0.561852
1 0.818021 0.612375
1 0.838514 0.661402
1 0.860761 0.707622
1 0.883345 0.750134
1 0.905104 0.788693
0.386542 1 0.21413
0.387701 1 0.214206
0.388922 1 0.214328
0.390036 1 0.214405
0.39118 1 0.214511
0.39237 1 0.214633
0.393759 1 0.21474
0.395712 1 0.214923
0.39823 1 0.215137
0.401602 1 0.215442
0.406195 1 0.215869
0.412238 1 0.216449
0.420233 1 0.217227
0.43093 1 0.218326
0.445045 1 0.219883
0.463767 0.998627 0.222095
0.488273 0.995056 0.22536
0.520165 0.989853 0.230198
0.561212 0.982361 0.23772
0.613108 0.97174 0.249516
0.676677 0.957397 0.26862
0.751003 0.940093 0.297337
0.817777 0.90309 0.348775
0.881254 0.874235 0.400244
0.940917 0.854154 0.447837
0.996109 0.841749 0.491524
1 0.836149 0.534264
1 0.837552 0.578256
1 0.845335 0.623667
1 0.858289 0.668818
1 0.874784 0.712489
1 0.893019 0.753292
1 0.91165 0.790784
0.456077 1 0.275227
0.456916 1 0.275303
0.457816 1 0.27538
0.458671 1 0.275486
0.459556 1 0.275608
0.46041 1 0.275654
0.46154 1 0.275792
0.462943 1 0.275944
0.464881 1 0.276173
0.467445 1 0.276463
0.470848 1 0.276875
0.475441 1 0.277409
0.481544 1 0.278126
0.489586 1 0.279164
0.500328 1 0.280583
0.514473 1 0.282582
0.53315 1 0.285512
0.557565 1 0.289738
0.589212 1 0.296193
0.629725 1 0.306325
0.680415 1 0.322621
0.741329 1 0.347646
0.809964 0.990097 0.377615
0.869001 0.951446 0.428672
0.923796 0.921263 0.478202
0.974517 0.899855 0.522362
1 0.885847 0.561852
1 0.87837 0.599985
1 0.877379 0.639155
1 0.882368 0.679377
1 0.892149 0.719371
1 0.905272 0.757763
1 0.920027 0.793622
0.523339 1 0.338186
0.52401 1 0.338247
0.524636 1 0.338338
0.525277 1 0.338415
0.525948 1 0.338537
0.526574 1 0.338598
0.527398 1 0.338689
0.528466 1 0.338857
0.529854 1 0.339086
0.531792 1 0.339345
0.53434 1 0.339757
0.537728 1 0.340261
0.542229 1 0.340963
0.548287 1 0.341955
0.556252 1 0.343297
0.566888 1 0.345159
0.580911 1 0.347875
0.599283 1 0.351781
0.623285 1 0.357595
0.654368 1 0.366644
0.693935 1 0.381186
0.742107 1 0.401495
0.797818 1 0.426764
0.860029 1 0.456413
0.911101 0.988983 0.505394
0.957717 0.958618 0.551522
1 0.936736 0.591424
1 0.92192 0.626245
1 0.913191 0.659617
1 0.910414 0.693889
1 0.913222 0.729076
1 0.920455 0.764111
1 0.930709 0.797665
0.58761 1 0.402487
0.588083 1 0.402609
0.588495 1 0.40267
0.589029 1 0.402777
0.589517 1 0.402869
0.589975 1 0.402991
0.590539 1 0.403082
0.591363 1 0.40322
0.592401 1 0.403418
0.593835 1 0.403769
0.595666 1 0.40415
0.598199 1 0.404654
0.601541 1 0.405371
0.605982 1 0.406363
0.611933 1 0.407691
0.619791 1 0.409583
0.630243 1 0.412207
0.644068 1 0.416083
0.662104 1 0.421775
0.685802 1 0.430503
0.715679 1 0.442481
0.752361 1 0.458183
0.795972 1 0.477974
0.846128 1 0.502495
0.901457 1 0.531014
0.945052 1 0.576699
0.984176 0.987686 0.618631
1 0.966018 0.653941
1 0.950988 0.684047
1 0.941604 0.712779
1 0.937636 0.742412
1 0.938735 0.773007
1 0.943923 0.803372
0.649287 1 0.469337
0.649653 1 0.469444
0.650004 1 0.46952
0.650278 1 0.469612
0.650675 1 0.469764
0.651011 1 0.469841
0.65153 1 0.470008
0.652049 1 0.470161
0.652827 1 0.470405
0.65388 1 0.470726
0.655268 1 0.471153
0.657099 1 0.471733
0.659678 1 0.472526
0.662928 1 0.473579
0.667414 1 0.475135
0.673274 1 0.477272
0.681025 1 0.480003
0.691279 1 0.483879
0.704448 1 0.488914
0.721584 1 0.495567
0.743191 1 0.504372
0.770184 1 0.515923
0.803037 1 0.530831
0.842039 1 0.549844
0.886503 1 0.572961
0.935103 1 0.599619
0.971908 1 0.641413
1 1 0.678859
1 0.988983 0.70956
1 0.974243 0.735302
1 0.964645 0.759762
1 0.959915 0.785046
1 0.959716 0.811353
0.708721 1 0.539376
0.708965 1 0.539483
0.709255 1 0.539513
0.709453 1 0.539559
0.709682 1 0.539681
0.709957 1 0.539788
0.710231 1 0.539925
0.710628 1 0.540017
0.711208 1 0.54023
