OpenDRT/JzDT-LogC3LinRec709.cube
TITLE "Generated by Resolve"
LUT_3D_SIZE 5
0 0 0
0.0206607 0 0
0.611551 0 0
1 0.360967 0.283436
1 0.850217 0.766186
0 0.0205844 0
0.0220493 0.0289464 0
0.584833 0.0171359 0
1 0.375265 0.283314
1 0.850874 0.766262
0 0.461051 0
0 0.46215 0
0.359609 0.427161 0
1 0.487648 0.293416
1 0.856336 0.767056
0.178408 1 0.254856
0.190036 1 0.255909
0.28188 1 0.266117
0.894881 1 0.449393
1 0.906767 0.778225
0.763333 1 0.762798
0.763851 1 0.762936
0.768688 1 0.764157
0.813474 1 0.776669
1 1 0.871199
0 0 0.0231937
0.0339513 0 0.0251469
0.613245 0 0.0292058
1 0.354162 0.297948
1 0.849683 0.767025
0 0.0205692 0.0191653
0.0196078 0.0196231 0.0196231
0.583612 0.00474556 0.0202029
1 0.368444 0.29752
1 0.850324 0.767071
0 0.46305 0
0 0.463142 0
0.35906 0.41735 0
1 0.481285 0.305547
1 0.855985 0.767926
0.172717 1 0.263142
0.184619 1 0.26421
0.277195 1 0.274037
0.895552 1 0.454109
1 0.90634 0.778836
0.763058 1 0.763302
0.763729 1 0.763455
0.768307 1 0.764599
0.813306 1 0.777142
1 1 0.871443
0 0 0.375463
0.0106661 0 0.412772
0.515846 0 0.407614
1 0.311086 0.412085
1 0.846098 0.773602
0 0 0.397192
0.00273136 0 0.425772
0.510079 0 0.412207
1 0.325216 0.410132
1 0.846876 0.773678
0 0.372961 0.352361
0 0.369192 0.351522
0.341817 0.341741 0.341741
1 0.438651 0.403723
1 0.852399 0.774243
0.132601 1 0.331914
0.145296 1 0.332586
0.245487 1 0.340032
0.899702 0.991119 0.491585
1 0.903243 0.783627
0.761242 1 0.767071
0.761852 1 0.767269
0.766674 1 0.768475
0.811795 1 0.780438
1 1 0.872801
0.0721294 0.521248 1
0.0789807 0.521965 1
0.357626 0.400671 1
1 0.340963 1
1 0.818372 0.838895
0.0579232 0.538674 1
0.0680095 0.537179 1
0.361227 0.405997 1
1 0.348226 1
1 0.818967 0.838804
0.137682 0.548547 1
0.170336 0.532998 1
0.363592 0.461036 1
1 0.405112 0.999359
1 0.824582 0.838224
0.230991 0.966857 0.916259
0.239475 0.965911 0.916396
0.305959 0.958679 0.917281
0.902663 0.901091 0.900908
1 0.876509 0.834577
0.745113 1 0.805753
0.745678 1 0.805829
0.75079 1 0.806607
0.798413 1 0.814435
1 1 0.886671
0.620279 0.966079 1
0.6206 0.966125 1
0.622461 0.966583 1
0.787396 0.877623 1
1 0.826368 1
0.620172 0.966598 1
0.620432 0.966659 1
0.622309 0.967071 1
0.787915 0.877653 1
1 0.826505 1
0.619104 0.970596 1
0.619303 0.970642 1
0.621927 0.970489 1
0.791302 0.878065 1
1 0.828946 1
0.686137 0.948287 1
0.687678 0.947433 1
0.700191 0.940566 1
0.803861 0.894026 1
1 0.851514 1
0.787121 1 1
0.787335 1 1
0.790036 1 1
0.816205 1 1
1 1 1
