OpenDRT/JzDT-LogC3LinP3D65.cube
TITLE "Generated by Resolve"
LUT_3D_SIZE 5
0 0 0
0.0158694 0 0
0.495674 0 0
1 0.401144 0.311055
1 0.867002 0.782345
0 0.0193027 0
0.02327 0.0287175 0
0.484047 0.0359808 0
1 0.414481 0.311727
1 0.867613 0.782452
0 0.440314 0
0 0.44329 0
0.371603 0.424918 0
1 0.518883 0.326863
1 0.872648 0.783444
0.362585 1 0.323125
0.37171 1 0.324102
0.443473 1 0.333425
0.914031 0.999146 0.497063
1 0.918959 0.796002
0.840742 1 0.794415
0.841123 1 0.794537
0.84477 1 0.79559
0.878477 1 0.80647
1 1 0.889265
0 0 0.0197147
0.0241855 0 0.0219425
0.494606 0 0.0330816
1 0.394797 0.323888
1 0.866514 0.783078
0 0.0188907 0.0184329
0.0196078 0.0196231 0.0196231
0.480842 0.0239719 0.0287175
1 0.408103 0.324285
1 0.867109 0.783154
0 0.441489 0.00205997
0 0.443565 0.000488289
0.369406 0.415412 0.0227817
1 0.512947 0.337575
1 0.872312 0.784207
0.358068 1 0.330632
0.367376 1 0.331609
0.439689 1 0.340581
0.914336 0.997879 0.501274
1 0.918578 0.796551
0.840513 1 0.794873
0.841016 1 0.794995
0.84448 1 0.795987
0.87834 1 0.806897
1 1 0.889479
0 0 0.335195
0 0 0.370367
0.407462 0 0.373098
1 0.354208 0.425238
1 0.863172 0.788876
0 0 0.35906
0 0 0.385092
0.409857 0 0.380087
1 0.367407 0.424247
1 0.86389 0.788983
0 0.353857 0.344366
0 0.352285 0.344411
0.341817 0.341741 0.341741
1 0.472999 0.424521
1 0.868986 0.789776
0.325673 1 0.392813
0.335592 1 0.393423
0.413535 1 0.400107
0.915938 0.988083 0.534722
1 0.915709 0.800748
0.839017 1 0.798276
0.839475 1 0.798444
0.843091 1 0.799481
0.877073 1 0.809873
1 1 0.890684
0.151873 0.50634 1
0.157626 0.507271 1
0.36527 0.399237 1
1 0.369375 0.962234
1 0.837186 0.846738
0.143267 0.522713 1
0.151308 0.521599 1
0.369177 0.404517 1
1 0.376257 0.961929
1 0.837751 0.846693
0.210636 0.534905 0.996216
0.234714 0.520958 1
0.380896 0.457801 1
1 0.430182 0.959091
1 0.842924 0.846433
0.361639 0.942443 0.908217
0.368444 0.941802 0.908415
0.421851 0.937011 0.909834
0.902388 0.901152 0.900938
1 0.890837 0.845701
0.825467 1 0.833097
0.825895 1 0.833158
0.829755 1 0.833814
0.865736 1 0.840452
1 1 0.903075
0.681666 0.954589 1
0.681941 0.95465 1
0.683543 0.955154 1
0.803418 0.874632 1
1 0.837797 1
0.681682 0.955108 1
0.681895 0.955169 1
0.683528 0.955627 1
0.803845 0.874678 1
1 0.837934 1
0.681498 0.958923 1
0.681682 0.958984 1
0.683818 0.958923 1
0.806699 0.875181 1
1 0.840238 1
0.732677 0.93959 1
0.733791 0.938811 1
0.74287 0.932586 1
0.819867 0.891035 1
1 0.86157 1
0.837919 1 1
0.838087 1 1
0.840253 1 1
0.861143 1 1
1 1 1
