OpenDRT/OpenDRT_v1.0.0_Colorful__filmlight-egamut2-tloge_to_rec1886.cube
LUT_3D_SIZE 5
DOMAIN_MIN 0.000000 0.000000 0.000000
DOMAIN_MAX 0.851064 0.851064 0.851064
0.00193973 0.00193973 0.00193973
0.121269 0.00162041 0
0.633592 0.0322668 0
1 0.606581 0.180002
1 0.91611 0.850856
0 0.0942421 0
0.117174 0.102121 0
0.639797 0.0701898 0
1 0.611032 0.177915
1 0.91619 0.850867
0 0.510963 0
0 0.510594 0
0.616739 0.565226 0
1 0.666454 0.147142
1 0.917263 0.851014
0.439506 1 0
0.447144 1 0
0.533913 1 0
1 1 0.565781
1 0.931884 0.853094
0.901747 1 0.839043
0.901841 1 0.839107
0.903093 1 0.839958
0.919433 1 0.851001
1 1 0.940416
0 0 0.0984472
0.130664 0 0.111117
0.641753 0.0284107 0
1 0.606628 0.205041
1 0.91613 0.850985
0 0.102247 0.116417
0.114933 0.114933 0.114933
0.650804 0.0632505 0
1 0.611071 0.2032
1 0.91621 0.850996
0 0.522396 0
0 0.52106 0
0.617208 0.570927 0
1 0.666406 0.175519
1 0.917282 0.851143
0.438221 1 0
0.445941 1 0
0.533492 1 0
1 1 0.574577
1 0.931899 0.853226
0.901743 1 0.839127
0.901836 1 0.839191
0.903089 1 0.840042
0.919434 1 0.851086
1 1 0.940525
0 0 0.585955
0.00702193 0 0.593545
0.666198 0 0.58244
1 0.607185 0.396265
1 0.916388 0.852704
0 0.0323244 0.5987
0 0.0233608 0.606677
0.670574 0 0.587883
1 0.611527 0.395667
1 0.916467 0.852715
0 0.556872 0.5969
0 0.557794 0.592725
0.578242 0.578242 0.578242
1 0.665447 0.385644
1 0.917536 0.852864
0.412453 1 0.0847418
0.42123 1 0.0898437
0.518318 1 0.158586
0.995453 1 0.669706
1 0.932101 0.854979
0.901681 1 0.840249
0.901775 1 0.840312
0.903032 1 0.841165
0.919444 1 0.852234
1 1 0.941971
0 0.635662 1
0 0.634903 1
0.00404528 0.628706 1
1 0.771178 0.971411
1 0.920027 0.875507
0 0.640348 1
0 0.639517 1
0.00284787 0.633539 1
1 0.773705 0.971062
1 0.920103 0.875521
0 0.69767 1
0 0.697005 1
0 0.694404 1
1 0.804951 0.966528
1 0.921119 0.875697
0.172895 1 0.964244
0.194334 1 0.964077
0.452995 1 0.961632
0.946906 0.946906 0.946906
1 0.935123 0.878223
0.900661 1 0.856269
0.900761 1 0.856332
0.902099 1 0.857183
0.919468 1 0.868348
1 1 0.959627
0.74889 0.949276 1
0.749216 0.949262 1
0.753557 0.949078 1
0.809767 0.946843 1
1 0.977013 1
0.748914 0.949353 1
0.749239 0.949339 1
0.753579 0.949154 1
0.809789 0.94692 1
1 0.977046 1
0.74922 0.950376 1
0.749544 0.950362 1
0.753874 0.950176 1
0.810089 0.947943 1
1 0.977485 1
0.755035 0.96397 1
0.755346 0.963954 1
0.759514 0.96375 1
0.817131 0.961732 1
1 0.98297 1
0.90062 1 1
0.90078 1 1
0.902916 1 1
0.930091 1 1
0.99906 0.99906 0.99906
