OpenDRT/OpenDRT-LogC3LinP3D65.cube
TITLE "Generated by Resolve"
LUT_3D_SIZE 33
0 0 0
0 0 0
0 0 0
0 0 0
0 0 0
0 0 0
0 0 0
0 0 0
0.00267033 0 0
0.0152285 0 0
0.03505 0 0
0.0632486 0 0
0.101656 0 0
0.152316 0 0
0.216999 0 0
0.296452 0 0
0.389319 0.00117494 0
0.491554 0.00515755 0
0.596506 0.013611 0
0.69633 0.0296178 0.00216678
0.78378 0.0572213 0.014313
0.853925 0.100618 0.038819
0.904875 0.162615 0.0810712
0.937957 0.242954 0.144533
0.956924 0.337362 0.228473
0.966522 0.438636 0.32755
0.971145 0.538781 0.43331
0.973892 0.631174 0.537011
0.976425 0.711788 0.631876
0.979309 0.779141 0.714046
0.982498 0.833631 0.782345
0.985763 0.876677 0.8374
0.988846 0.91014 0.880812
0 0 0
0 0 0
0 0 0
0 0 0
0 0 0
0 0 0
0 0 0
0.000350958 0 0
0.00709545 0 0
0.0194553 0 0
0.0385138 0 0
0.0658274 0 0
0.103365 0 0
0.153201 0 0
0.217166 0 0
0.296025 1.5259e-05 0
0.388342 0.00187686 0
0.489982 0.00619516 0
0.594461 0.0149233 0
0.693996 0.0311437 0.00213626
0.781415 0.0588235 0.0144808
0.851728 0.10219 0.0392004
0.903014 0.164065 0.0816205
0.936492 0.244175 0.145144
0.95584 0.338323 0.229084
0.965774 0.439353 0.328069
0.970657 0.539269 0.433722
0.973587 0.631495 0.537316
0.976226 0.711986 0.632074
0.979187 0.779263 0.714183
0.982437 0.833707 0.782422
0.985718 0.876722 0.837446
0.988815 0.910155 0.880842
0 0 0
0 0 0
0 0 0
0 0 0
0 0 0
0 0 0
6.10361e-05 0 0
0.00347906 0 0
0.0106966 0 0
0.0228122 0 0
0.0413214 0 0
0.0679789 0 0
0.104799 0 0
0.153948 0 0
0.217243 0.00030518 0
0.295491 0.0012665 0
0.387366 0.00337224 0
0.48864 0.00781262 0
0.592538 0.0166171 0
0.691722 0.0329137 0.00209049
0.779065 0.0605936 0.0146639
0.849531 0.103868 0.0395972
0.901152 0.16556 0.0821698
0.935027 0.245426 0.145769
0.954757 0.339315 0.229679
0.965026 0.44007 0.328603
0.970153 0.539757 0.434134
0.973266 0.631815 0.537606
0.976043 0.712184 0.632273
0.97908 0.779385 0.714305
0.982361 0.833768 0.782498
0.985687 0.876768 0.837491
0.9888 0.910185 0.880873
0 0 0
0 0 0
0 0 0
0 0 0
0 0 0
0.000244144 6.10361e-05 0
0.00209049 0.000350958 0
0.00616464 0.000686656 0
0.0135195 0.00103761 0
0.0254978 0.00135805 0
0.0436561 0.00163272 0
0.0698253 0.00184634 0
0.106126 0.00202945 0
0.154711 0.00230411 0
0.217472 0.00277714 0
0.295201 0.00375372 0
0.386603 0.00581369 0
0.487526 0.0101625 0
0.591211 0.0188296 0
0.689708 0.0349584 0.00207523
0.776715 0.0625467 0.0148623
0.847333 0.105653 0.0399939
0.89926 0.167132 0.0827344
0.933547 0.246723 0.146395
0.953674 0.340307 0.230304
0.964263 0.440787 0.329122
0.969665 0.540261 0.434546
0.972961 0.632136 0.537911
0.975845 0.712398 0.632486
0.978958 0.779507 0.714443
0.9823 0.833844 0.782589
0.985641 0.876814 0.837537
0.988785 0.910201 0.880903
0 0 0
0 0 0
0 0 0
0 0 0
0.000335698 0.00047303 0
0.00148013 0.00109865 1.5259e-05
0.00384527 0.00178531 1.5259e-05
0.00823987 0.00256352 0
0.0157473 0.00337224 0
0.0276646 0.00416571 0
0.045594 0.00488289 0
0.0714275 0.00546273 0
0.107332 0.0059205 0
0.155505 0.0062562 0
0.217823 0.00662242 0
0.295125 0.00737011 0
0.38613 0.0091249 0
0.486717 0.013138 0
0.590158 0.0214847 0
0.688563 0.0372931 0.00216678
0.774746 0.0646372 0.0150607
0.845121 0.107546 0.0404212
0.897368 0.16875 0.083299
0.932052 0.248035 0.147036
0.952575 0.341329 0.230915
0.9635 0.441535 0.329656
0.969162 0.540764 0.434958
0.972641 0.632471 0.538201
0.975662 0.712596 0.632685
0.978851 0.779629 0.714565
0.982238 0.833921 0.782666
0.985611 0.876844 0.837598
0.988754 0.910231 0.880934
0 0 0
0 0 0
0 0.000274662 0
1.5259e-05 0.00128176 0
0.000885023 0.00225834 3.0518e-05
0.00247196 0.0031281 4.57771e-05
0.00517281 0.00408942 6.10361e-05
0.00985733 0.00514229 3.0518e-05
0.0175021 0.00627146 0
0.0294194 0.00740063 0
0.0472114 0.00843824 0
0.0728161 0.00935378 0
0.1084 0.010071 0
0.156222 0.010605 0
0.218219 0.011017 0
0.295171 0.0116121 0
0.38584 0.0130465 0
0.486122 0.0166171 0
0.589334 0.024506 0
0.687602 0.0398871 0.00227359
0.77377 0.0668345 0.0153048
0.842969 0.109529 0.0408484
0.89546 0.170443 0.0838941
0.930541 0.249393 0.147707
0.951461 0.342367 0.231556
0.962737 0.442267 0.330205
0.968658 0.541268 0.435386
0.97232 0.632792 0.538506
0.975464 0.71281 0.632898
0.978729 0.779767 0.714702
0.982162 0.833997 0.782757
0.985565 0.87689 0.837644
0.988739 0.910262 0.880964
0 0.000198367 0
0 0.00166323 0
1.5259e-05 0.0031281 1.5259e-05
3.0518e-05 0.00442512 3.0518e-05
0.0012665 0.00560006 4.57771e-05
0.00328069 0.00662242 9.15541e-05
0.00636301 0.00773632 0.000137331
0.0113222 0.00901808 0.000137331
0.0191501 0.0103914 4.57771e-05
0.0311284 0.0117952 0
0.0488289 0.013138 0
0.0742199 0.0143282 0
0.109514 0.0153201 0
0.157 0.0160525 0
0.218647 0.0165713 0
0.295277 0.0170901 0
0.385626 0.0182498 0
0.485618 0.0213321 0
0.588556 0.0286107 0
0.686641 0.0433661 0.00241093
0.772732 0.0697337 0.01561
0.841993 0.111925 0.0413214
0.893095 0.17258 0.0846418
0.928679 0.251102 0.148516
0.950088 0.343648 0.232334
0.961791 0.443198 0.330861
0.968032 0.541894 0.435904
0.971939 0.633204 0.538888
0.975235 0.713054 0.633143
0.978592 0.779919 0.71487
0.982086 0.834089 0.782849
0.985519 0.876951 0.837705
0.988708 0.910292 0.880995
1.5259e-05 0.00540169 1.5259e-05
3.0518e-05 0.007187 3.0518e-05
4.57771e-05 0.00875868 4.57771e-05
6.10361e-05 0.010132 6.10361e-05
0.00134279 0.011368 9.15541e-05
0.00381476 0.0124666 0.000122072
0.00732433 0.0136568 0.000167849
0.012665 0.0150454 0.000259403
0.0207218 0.0166018 0.000213626
0.0328069 0.0182345 1.5259e-05
0.0504921 0.0198367 0
0.0757305 0.0213169 0
0.110735 0.0225681 0
0.157885 0.0234989 0
0.21915 0.0241245 0
0.295415 0.0245975 0
0.385443 0.0254673 0
0.48513 0.0280156 0
0.587808 0.0345159 0
0.685664 0.0483864 0.00262455
0.771603 0.0738994 0.0160372
0.840848 0.115297 0.0419623
0.8916 0.175326 0.0854963
0.926162 0.253468 0.14963
0.948241 0.345418 0.233402
0.96051 0.44445 0.331762
0.967193 0.542748 0.436606
0.971405 0.633753 0.539391
0.974899 0.713405 0.633478
0.978393 0.780118 0.715084
0.981964 0.834211 0.782986
0.985458 0.877012 0.837797
0.988663 0.910323 0.881041
7.62951e-05 0.0148623 6.10361e-05
7.62951e-05 0.0165255 7.62951e-05
9.15541e-05 0.0179904 9.15541e-05
0.000106813 0.0193027 0.000106813
0.000946059 0.0204776 0.000106813
0.00387579 0.021561 0.000137331
0.00784314 0.0227665 0.000183108
0.0136263 0.0241855 0.000259403
0.0220645 0.0257725 0.000366217
0.034287 0.0275578 0.000244144
0.052018 0.0293889 0
0.0771649 0.0310979 0
0.111955 0.032578 0
0.158785 0.0336919 0
0.219684 0.0343786 0
0.295567 0.0347448 0
0.38526 0.0352941 0
0.484672 0.037232 0
0.587106 0.0428016 0
0.684703 0.0555428 0.00294499
0.770459 0.0798352 0.0166323
0.839612 0.120089 0.0428473
0.89044 0.179095 0.0865949
0.924147 0.256489 0.150958
0.945739 0.347845 0.234836
0.958785 0.446159 0.332998
0.966064 0.543893 0.437552
0.970703 0.634485 0.540063
0.974472 0.713863 0.633936
0.978149 0.780392 0.715389
0.981826 0.834363 0.783169
0.985367 0.877104 0.837903
0.988617 0.910384 0.881117
0.000122072 0.02916 0.000106813
0.000122072 0.0305638 0.000122072
0.000137331 0.0318303 0.000122072
0.000137331 0.0329747 0.000122072
0.000411994 0.0340276 0.000122072
0.00320439 0.0350347 0.000137331
0.00762951 0.0361791 0.000183108
0.0138857 0.0375525 0.000228885
0.0227817 0.0391394 0.000320439
0.0353552 0.0408942 0.000457771
0.0531472 0.0428321 0.000213626
0.0782788 0.0447547 0
0.112963 0.0464027 0
0.159579 0.0476387 0
0.220157 0.0483101 0
0.29572 0.0484779 0
0.385077 0.0485542 0
0.484215 0.0496986 0
0.586419 0.0541695 0
0.683803 0.065507 0.00341802
0.769329 0.0882124 0.0174868
0.838331 0.126848 0.0440833
0.889158 0.18436 0.0880903
0.923033 0.260456 0.152529
0.94342 0.350973 0.236606
0.956451 0.448508 0.334646
0.964538 0.545464 0.438819
0.969741 0.635493 0.540978
0.973892 0.714473 0.634562
0.977798 0.780774 0.715785
0.981613 0.834592 0.783429
0.985245 0.877241 0.838056
0.988556 0.91046 0.881209
0.00015259 0.0493782 0.000106813
0.00015259 0.0504768 0.000106813
0.00015259 0.0514992 0.000106813
0.00015259 0.05243 9.15541e-05
0.000244144 0.0532998 7.62951e-05
0.00177005 0.054139 7.62951e-05
0.00639353 0.0551919 0.000106813
0.0131075 0.0564889 0.000137331
0.0224918 0.0580148 0.000198367
0.0355383 0.0597391 0.000289921
0.0536355 0.0615702 0.000457771
0.0787366 0.0635538 4.57771e-05
0.113405 0.0654002 0
0.159945 0.0667277 0
0.220401 0.0673075 0
0.29575 0.0670939 0
0.384863 0.066453 0
0.483772 0.0665141 0
0.585763 0.0695354 0
0.682963 0.0790875 0.0041352
0.768261 0.0997787 0.0187076
0.837079 0.136309 0.0457771
0.887816 0.191745 0.0901198
0.921798 0.26598 0.154665
0.942428 0.35494 0.23859
0.95404 0.45156 0.336736
0.962478 0.547585 0.440558
0.968444 0.636851 0.542214
0.973098 0.715312 0.635386
0.977325 0.781277 0.71632
0.981338 0.834882 0.783749
0.985092 0.877409 0.838254
0.988464 0.910552 0.881315
0.000137331 0.0768292 3.0518e-05
0.000137331 0.0776379 1.5259e-05
0.000137331 0.0783856 0
0.000137331 0.0790875 0
0.000167849 0.0797284 0
0.000640879 0.0803693 0
0.00396735 0.081239 0
0.010956 0.0824598 0
0.020737 0.0839399 0
0.0342565 0.0856489 4.57771e-05
0.0528267 0.08748 0.00015259
0.0781415 0.0892348 0.000350958
0.112688 0.0911116 0
0.159335 0.092607 0
0.219959 0.09308 0
0.29543 0.0923476 0
0.384573 0.0906844 0
0.483391 0.089189 0
0.585214 0.0901961 0
0.6822 0.0973831 0.00523384
0.767285 0.11548 0.0204318
0.835874 0.149264 0.048127
0.886488 0.201968 0.0928969
0.920501 0.27364 0.157565
0.941329 0.360403 0.24126
0.953231 0.455283 0.338949
0.960159 0.550408 0.442771
0.966674 0.638712 0.543893
0.97203 0.716457 0.636515
0.976699 0.781949 0.717037
0.980972 0.835279 0.784207
0.984878 0.877638 0.838529
0.988342 0.910689 0.881483
7.62951e-05 0.112963 0
7.62951e-05 0.113466 0
7.62951e-05 0.113939 0
7.62951e-05 0.114366 0
9.15541e-05 0.114778 0
0.000244144 0.115175 0
0.00148013 0.115724 0
0.00717174 0.116793 0
0.0171664 0.118288 0
0.0309911 0.120089 0
0.0499275 0.122087 0
0.0757153 0.12401 0
0.110338 0.125521 0.00015259
0.156786 0.126986 0
0.217884 0.127642 0
0.294102 0.126436 0
0.383902 0.123461 0
0.483055 0.119814 0
0.584894 0.117998 0
0.681651 0.121935 0.0069276
0.766415 0.136538 0.0229191
0.834745 0.166735 0.0513924
0.885206 0.215869 0.0966964
0.919203 0.284169 0.161471
0.940169 0.367941 0.244846
0.952331 0.46041 0.341924
0.959548 0.553735 0.445029
0.964599 0.641169 0.546059
0.970581 0.717998 0.638041
0.97583 0.782879 0.718013
0.980468 0.835828 0.784817
0.984588 0.877943 0.838895
0.988174 0.910857 0.881697
1.5259e-05 0.158907 0
1.5259e-05 0.159121 0
1.5259e-05 0.159304 0
1.5259e-05 0.159487 0
4.57771e-05 0.15964 0
0.000106813 0.159792 0
0.000488289 0.160006 0
0.00297551 0.160555 0
0.0115816 0.16199 0
0.025391 0.164034 0
0.0443885 0.166445 0
0.0703288 0.168963 0
0.105348 0.171069 0
0.151659 0.172 9.15541e-05
0.212604 0.17261 0
0.290211 0.171633 0
0.381857 0.167514 0
0.482444 0.161181 0
0.584894 0.155489 0.000900282
0.681544 0.154864 0.00955215
0.765881 0.16466 0.0265354
0.833783 0.190051 0.0559548
0.883986 0.234501 0.101869
0.917952 0.298375 0.166735
0.93904 0.378195 0.249668
0.951415 0.467414 0.345922
0.958892 0.558267 0.448051
0.964172 0.643992 0.54818
0.968795 0.720058 0.64004
0.97467 0.784115 0.719341
0.979797 0.836545 0.785626
0.984207 0.87837 0.839384
0.987961 0.911101 0.881987
0.000122072 0.215106 0
0.000137331 0.215045 0
0.00015259 0.214954 0
0.000167849 0.214878 0
0.000198367 0.214786 0
0.000259403 0.214694 0
0.000427253 0.214603 0
0.0011902 0.214588 0
0.00543221 0.215244 0
0.0174868 0.217395 0
0.0360113 0.220432 0
0.0614939 0.223987 0
0.0962539 0.227543 0
0.14284 0.230015 0
0.203311 0.229923 0.000808728
0.281071 0.229007 0.000137331
0.375952 0.225208 0
0.480201 0.216526 0
0.584894 0.205966 0.00408942
0.682109 0.199069 0.0136873
0.765988 0.202152 0.0318303
0.833188 0.220966 0.0623331
0.882918 0.259174 0.108934
0.916747 0.317266 0.173831
0.937926 0.391959 0.256123
0.950515 0.47689 0.351232
0.958221 0.564462 0.452079
0.963729 0.647852 0.551003
0.968521 0.722377 0.641917
0.973175 0.785794 0.721096
0.978866 0.837537 0.78674
0.983673 0.878935 0.840055
0.987671 0.911421 0.882383
0.000885023 0.280751 0
0.0009308 0.28043 0
0.000991836 0.28011 0
0.00103761 0.279789 0
0.00109865 0.279484 0
0.00117494 0.279179 0
0.00129702 0.278813 0
0.00164797 0.27837 0
0.00300603 0.278065 0
0.00941482 0.279026 0
0.0254978 0.282383 0
0.0496223 0.287114 0
0.0829328 0.292622 0
0.12842 0.29807 0
0.188952 0.301335 0.00122072
0.265812 0.299687 0.00373846
0.361761 0.296284 0.00419623
0.472465 0.28809 0.00497444
0.583185 0.273152 0.0096437
0.683162 0.258274 0.020264
0.767132 0.252125 0.0396735
0.833387 0.26183 0.0713207
0.882261 0.291615 0.118578
0.915694 0.342107 0.183352
0.936889 0.410147 0.264698
0.949676 0.489525 0.358297
0.95761 0.572793 0.45742
0.963317 0.653086 0.554772
0.968261 0.725536 0.644404
0.973022 0.787655 0.722667
0.977661 0.838865 0.78822
0.982956 0.879698 0.840955
0.987259 0.911849 0.882918
0.0033875 0.353536 0
0.00349432 0.353033 0
0.00358587 0.352544 0
0.00369268 0.352056 0
0.00381476 0.351568 0
0.00392157 0.351095 0
0.00408942 0.350515 0
0.00436408 0.349798 0
0.00500496 0.348943 0
0.00720226 0.348348 0
0.0161593 0.349889 0
0.0367132 0.354971 0
0.0672007 0.362142 0.000640879
0.109468 0.370626 0.00170901
0.167346 0.379095 0.00344854
0.243885 0.383917 0.00640879
0.338476 0.380118 0.0115816
0.452186 0.373144 0.0146487
0.574258 0.358846 0.0193179
0.682734 0.336507 0.0307164
0.769329 0.318471 0.0513008
0.834928 0.315724 0.0840314
0.882475 0.334051 0.131762
0.915053 0.374456 0.196094
0.936019 0.43386 0.276051
0.948928 0.506142 0.36762
0.957076 0.583856 0.464485
0.962966 0.66009 0.559747
0.968048 0.729793 0.647715
0.9729 0.790158 0.724758
0.9776 0.840299 0.789502
0.981994 0.880735 0.842176
0.986709 0.912428 0.88365
0.00965896 0.430076 0.00177005
0.00984207 0.42948 0.00187686
0.0100099 0.428901 0.00196841
0.010193 0.428321 0.00207523
0.0103761 0.427741 0.00216678
0.0105592 0.427176 0.00227359
0.0108034 0.42649 0.00239567
0.0111391 0.425589 0.00256352
0.0117037 0.424475 0.00280766
0.0127871 0.423194 0.00314336
0.016083 0.422385 0.00361639
0.0278477 0.424735 0.00433356
0.0531777 0.431907 0.00540169
0.090425 0.442039 0.00698863
0.142229 0.454368 0.00935378
0.213397 0.467063 0.0130007
0.30695 0.474449 0.0188602
0.418967 0.468101 0.0284733
0.547509 0.45655 0.0361944
0.673655 0.43476 0.047364
0.770596 0.405219 0.0685435
0.838041 0.386374 0.101946
0.884199 0.389258 0.149737
0.915312 0.416297 0.213077
0.935561 0.464469 0.291005
0.948363 0.527642 0.379812
0.956664 0.598306 0.473716
0.962722 0.669367 0.566293
0.96791 0.7355 0.652064
0.972824 0.79353 0.727535
0.977554 0.842252 0.791196
0.981979 0.881834 0.843198
0.985962 0.913237 0.884627
0.0230259 0.506569 0.0104677
0.0232853 0.505974 0.0106355
0.0235447 0.505379 0.0108186
0.0238193 0.504799 0.0110018
0.0240787 0.504219 0.0111849
0.0243534 0.503655 0.011368
0.0246891 0.502953 0.0115969
0.0251621 0.502037 0.0119173
0.025803 0.500847 0.0123293
0.0267948 0.499382 0.0129091
0.0285801 0.497734 0.0136873
0.0332189 0.496803 0.014786
0.0479591 0.500023 0.0163424
0.0779889 0.509255 0.0186007
0.121828 0.522408 0.0218051
0.182834 0.538842 0.0263981
0.266773 0.556527 0.0331731
0.376471 0.567483 0.0434577
0.503319 0.558572 0.0595102
0.641108 0.541909 0.0740368
0.762554 0.512352 0.0941024
0.841016 0.47744 0.127077
0.887892 0.460517 0.17406
0.917144 0.469917 0.235554
0.935973 0.503578 0.310521
0.948226 0.555169 0.395651
0.956481 0.616907 0.48571
0.962631 0.681437 0.574807
0.967895 0.743008 0.657786
0.972839 0.798032 0.731182
0.977569 0.844877 0.793439
0.981994 0.883314 0.844541
0.985977 0.914061 0.885405
0.0479896 0.579583 0.0293278
0.0483253 0.579065 0.0296025
0.048661 0.578531 0.0298772
0.049012 0.578012 0.0301366
0.0493629 0.577493 0.0304112
0.0496986 0.576989 0.0306859
0.0501411 0.576364 0.0310216
0.050721 0.57554 0.0314794
0.0515297 0.574456 0.0320897
0.0526436 0.573037 0.032929
0.0542611 0.571313 0.0340429
0.0569619 0.569436 0.0355535
0.0631571 0.568505 0.0376287
0.0808118 0.572473 0.0405432
0.115068 0.583291 0.0446021
0.164553 0.598856 0.050248
0.233188 0.618799 0.0581216
0.327474 0.64126 0.0692302
0.449943 0.656367 0.0853132
0.586603 0.645441 0.109239
0.726162 0.624048 0.13196
0.834958 0.587991 0.161975
0.892256 0.550866 0.206531
0.921126 0.537957 0.264897
0.937942 0.553002 0.335714
0.948928 0.58996 0.415976
0.95671 0.640543 0.501106
0.962768 0.696895 0.585779
0.968048 0.752758 0.665187
0.972976 0.803967 0.735958
0.977676 0.848356 0.796399
0.982071 0.885313 0.846311
0.986023 0.915175 0.886458
0.0892653 0.64654 0.0636759
0.089662 0.646113 0.0640116
0.0900587 0.645685 0.0643626
0.0904555 0.645258 0.0646983
0.0908522 0.644846 0.0650492
0.0912642 0.644434 0.0653849
0.0917678 0.643915 0.0658122
0.0924392 0.643244 0.0663767
0.0933394 0.642359 0.067155
0.0945754 0.641199 0.0681773
0.0962844 0.639689 0.0695811
0.0986954 0.637842 0.071458
0.102464 0.635904 0.0739452
0.110307 0.635081 0.077348
0.130465 0.639521 0.0820325
0.167895 0.651148 0.0884565
0.221256 0.667994 0.0972
0.294682 0.690089 0.109056
0.394995 0.71603 0.125216
0.524437 0.735027 0.147616
0.663996 0.723171 0.179477
0.797589 0.698421 0.210269
0.888701 0.658625 0.249195
0.926452 0.622721 0.30251
0.942077 0.614694 0.367636
0.951064 0.633356 0.441657
0.957717 0.670161 0.520592
0.963333 0.716426 0.599741
0.968429 0.765194 0.674678
0.973281 0.811627 0.742107
0.977905 0.852934 0.800244
0.982208 0.887968 0.84863
0.986099 0.916686 0.887831
0.150072 0.705882 0.117769
0.150484 0.705562 0.118151
0.150896 0.705242 0.118532
0.151324 0.704936 0.118914
0.151736 0.704631 0.11928
0.152148 0.704311 0.119661
0.152667 0.703929 0.120134
0.153368 0.703441 0.12076
0.154299 0.70277 0.121599
0.15555 0.7019 0.122728
0.157244 0.700755 0.124239
0.159579 0.699275 0.126299
0.162814 0.697475 0.12903
0.167666 0.695644 0.132631
0.176974 0.694987 0.137499
0.19884 0.69958 0.144121
0.237812 0.711177 0.153094
0.292561 0.728054 0.165057
0.367056 0.750607 0.180896
0.467872 0.778058 0.201831
0.597025 0.799817 0.229725
0.732082 0.788296 0.267826
0.853361 0.76231 0.304738
0.925414 0.722164 0.349599
0.947921 0.690242 0.407141
0.955245 0.686732 0.473426
0.960006 0.706691 0.544808
0.964569 0.740719 0.617227
0.969207 0.780835 0.686671
0.9738 0.821378 0.749981
0.978271 0.858839 0.805203
0.982467 0.891447 0.851667
0.986267 0.918685 0.889632
0.230182 0.757183 0.192721
0.230564 0.756954 0.193088
0.230961 0.756741 0.193454
0.231342 0.756527 0.19382
0.231739 0.756313 0.194202
0.232136 0.7561 0.194568
0.232609 0.75584 0.195026
0.233249 0.755505 0.195636
0.234119 0.755047 0.196445
0.235264 0.754452 0.197543
0.23682 0.753658 0.199008
0.238911 0.752621 0.200977
0.241779 0.751278 0.203632
0.245716 0.74966 0.207156
0.251423 0.748074 0.211765
0.261707 0.747646 0.217945
0.284138 0.752102 0.226261
0.322698 0.762997 0.237385
0.376028 0.778851 0.251987
0.447639 0.800305 0.270924
0.543435 0.827207 0.295262
0.665217 0.85005 0.326589
0.789334 0.840009 0.36791
0.894453 0.814954 0.407797
0.94902 0.777554 0.454673
0.961227 0.75111 0.511635
0.964111 0.75108 0.574182
0.966918 0.770428 0.638666
0.970565 0.800183 0.701564
0.97467 0.833616 0.759869
0.978851 0.866346 0.811521
0.982849 0.895933 0.855573
0.986511 0.921294 0.891981
0.32517 0.800885 0.28513
0.325505 0.800748 0.285451
0.325826 0.800626 0.285771
0.326162 0.800488 0.286091
0.326482 0.800351 0.286412
0.326818 0.800214 0.286748
0.327214 0.800046 0.287144
0.327764 0.799832 0.287678
0.328481 0.799542 0.28838
0.329458 0.799161 0.289326
0.330755 0.798657 0.290608
0.332494 0.798001 0.292302
0.334829 0.797131 0.294591
0.338018 0.796002 0.297673
0.342367 0.794659 0.301747
0.348516 0.793408 0.307027
0.359091 0.79324 0.314061
0.380819 0.797375 0.323461
0.417029 0.807095 0.335866
0.466392 0.821256 0.351934
0.531762 0.840528 0.372396
0.618143 0.865263 0.398077
0.727123 0.887541 0.430182
0.836011 0.879576 0.471321
0.923644 0.857176 0.510872
0.963851 0.824613 0.5561
0.969909 0.803937 0.608698
0.970794 0.806165 0.664271
0.972854 0.823682 0.719646
0.976043 0.848661 0.772061
0.979706 0.875731 0.819425
0.983413 0.901625 0.860517
0.986877 0.924651 0.895003
0.427512 0.837964 0.387823
0.427771 0.837888 0.388083
0.428031 0.837812 0.388327
0.428275 0.83772 0.388586
0.428534 0.837644 0.388846
0.428779 0.837568 0.389105
0.429099 0.837476 0.38941
0.429511 0.837339 0.389838
0.43006 0.837171 0.390402
0.430808 0.836957 0.39115
0.4318 0.836652 0.392157
0.433143 0.836255 0.3935
0.434913 0.835752 0.395285
0.437308 0.835081 0.397696
0.440574 0.834211 0.400931
0.444968 0.833173 0.405219
0.451102 0.832288 0.410727
0.46125 0.832349 0.418006
0.481178 0.836057 0.427665
0.513527 0.844419 0.440299
0.557061 0.85655 0.456443
0.614008 0.873121 0.476722
0.68838 0.894728 0.501686
0.781567 0.915129 0.532128
0.87335 0.909361 0.57026
0.944183 0.890532 0.606867
0.973388 0.863706 0.647822
0.976165 0.848295 0.693828
0.976379 0.851728 0.740993
0.978149 0.866865 0.78677
0.980987 0.887251 0.829145
0.984207 0.908721 0.866712
0.987381 0.928908 0.898817
0.528954 0.869398 0.492119
0.529137 0.869352 0.492302
0.52932 0.869307 0.492485
0.529503 0.869261 0.492683
0.529671 0.86923 0.492866
0.529854 0.869184 0.49305
0.530083 0.869123 0.493278
0.530373 0.869062 0.493584
0.53077 0.868971 0.493996
0.531304 0.868849 0.494545
0.532006 0.868681 0.495277
0.532952 0.868467 0.496254
0.534218 0.868193 0.497566
0.535912 0.867811 0.499306
0.538186 0.867338 0.50164
0.541268 0.866712 0.504768
0.545419 0.86598 0.508919
0.55111 0.865415 0.514214
0.560311 0.865675 0.521187
0.577691 0.868894 0.530373
0.605341 0.875883 0.542275
0.642161 0.885939 0.557351
0.689799 0.899702 0.576043
0.751385 0.91783 0.598703
0.828092 0.935592 0.625788
0.902922 0.931762 0.659159
0.958801 0.916686 0.691295
0.979934 0.895552 0.72668
0.981125 0.88452 0.765301
0.981231 0.888441 0.803967
0.982849 0.901091 0.840787
0.985336 0.917403 0.874281
0.988083 0.934203 0.903593
0.622721 0.895994 0.590402
0.622843 0.895964 0.590524
0.622965 0.895949 0.590646
0.623087 0.895933 0.590784
0.623209 0.895903 0.590906
0.623331 0.895888 0.591028
0.623484 0.895857 0.591196
0.623682 0.895827 0.591394
0.623941 0.895781 0.591684
0.624292 0.89572 0.59205
0.624765 0.895628 0.592554
0.625406 0.895521 0.59321
0.626261 0.895384 0.59411
0.62739 0.895186 0.595285
0.628901 0.894942 0.596872
0.63093 0.894621 0.598993
0.633677 0.894209 0.601846
0.637354 0.893736 0.6056
0.642359 0.893431 0.610361
0.650263 0.893812 0.616617
0.66482 0.896544 0.624811
0.687587 0.902235 0.63537
0.717647 0.910384 0.648615
0.756191 0.921508 0.664897
0.8056 0.936233 0.684382
0.86685 0.95108 0.707347
0.926223 0.94873 0.735286
0.969467 0.937148 0.762387
0.984756 0.92108 0.791897
0.98526 0.913497 0.823377
0.985443 0.917433 0.854322
0.986908 0.927794 0.88333
0.989029 0.940673 0.909407
0.704707 0.918334 0.677607
0.704784 0.918318 0.677684
0.70486 0.918318 0.677775
0.704952 0.918303 0.677852
0.705028 0.918288 0.677928
0.705104 0.918288 0.678019
0.705196 0.918273 0.678111
0.705318 0.918257 0.678248
0.705486 0.918242 0.678431
