OpenDRT/OpenDRT_v1.0.0_Umbra__filmlight-egamut2-tloge_to_rec2100-pq.cube
LUT_3D_SIZE 48
0.0141773 0.0140878 0.0138827
0.0161561 0.0142336 0.0139161
0.0181031 0.0141588 0.0137043
0.0199757 0.0140495 0.0134479
0.0218348 0.014019 0.0132655
0.0241091 0.0141724 0.0132375
0.0270393 0.0146892 0.0135376
0.0309119 0.0157392 0.0143278
0.0361317 0.0174052 0.0156572
0.0431722 0.0196796 0.0174436
0.0524883 0.0225236 0.0195089
0.0644337 0.0259411 0.0215633
0.0792136 0.0300712 0.0230944
0.0968587 0.0352623 0.0231228
0.117126 0.0419071 0.0195278
0.140043 0.0504295 0.00953227
0.165689 0.0611052 7.30956e-07
0.194677 0.0743671 7.30956e-07
0.227579 0.0907079 7.30956e-07
0.264776 0.110697 7.30956e-07
0.303748 0.133271 7.30956e-07
0.342532 0.157452 7.30956e-07
0.379533 0.182328 7.30956e-07
0.41388 0.207389 7.30956e-07
0.445281 0.232506 7.30956e-07
0.473669 0.257744 7.30956e-07
0.49905 0.283121 7.30956e-07
0.521458 0.30854 7.30956e-07
0.541059 0.33394 7.30956e-07
0.55823 0.359768 7.30956e-07
0.573611 0.38722 0.027621
0.587964 0.417761 0.0746773
0.601923 0.45181 0.107952
0.615784 0.487847 0.138089
0.627593 0.521419 0.177925
0.6368 0.54993 0.352695
0.64542 0.574521 0.446818
0.653151 0.595075 0.499495
0.659935 0.611967 0.535354
0.665763 0.625697 0.561496
0.67068 0.636788 0.581174
0.674779 0.645704 0.596256
0.678156 0.652849 0.607946
0.680916 0.658571 0.617078
0.683154 0.663145 0.624253
0.684963 0.666798 0.629912
0.686423 0.669721 0.634394
0.687598 0.67206 0.637954
0.0148102 0.016407 0.0143952
0.0169485 0.0168437 0.0146451
0.0189937 0.0169333 0.0145424
0.0209675 0.0168417 0.014262
0.0229194 0.0167353 0.0139779
0.0252781 0.0167264 0.0137759
0.0282589 0.0170173 0.0138571
0.0321211 0.0178481 0.0144431
0.0372626 0.0193806 0.0156256
0.0441752 0.0216381 0.0173079
0.0533429 0.0245557 0.019267
0.0651443 0.0280674 0.0211803
0.0798031 0.0322011 0.0225174
0.0974013 0.0372263 0.0222595
0.117862 0.0436451 0.0181756
0.140836 0.0518631 0.00784038
0.166715 0.0623766 7.30956e-07
0.195699 0.0754823 7.30956e-07
0.228353 0.0916052 7.30956e-07
0.265142 0.111301 7.30956e-07
0.304071 0.1338 7.30956e-07
0.342809 0.157921 7.30956e-07
0.379766 0.182745 7.30956e-07
0.414075 0.207754 7.30956e-07
0.44544 0.232827 7.30956e-07
0.473797 0.258019 7.30956e-07
0.499149 0.283357 7.30956e-07
0.521535 0.308738 7.30956e-07
0.54112 0.334111 7.30956e-07
0.55828 0.359912 7.30956e-07
0.573649 0.387338 0.0280449
0.587998 0.417857 0.0747959
0.60194 0.451878 0.108017
0.615798 0.487894 0.138126
0.627605 0.521448 0.177924
0.636806 0.549951 0.352671
0.64542 0.574532 0.446814
0.653158 0.595078 0.49949
0.659935 0.611967 0.535359
0.665763 0.625703 0.561496
0.67068 0.636791 0.581171
0.674782 0.645704 0.596253
0.678156 0.652849 0.607943
0.680916 0.658568 0.617078
0.683158 0.663142 0.62425
0.684963 0.666798 0.629912
0.686423 0.669721 0.634394
0.687598 0.67206 0.637954
0.0154197 0.0187222 0.0148871
0.0176677 0.0192474 0.015117
0.019881 0.0196018 0.0152422
0.0219599 0.0196657 0.0150677
0.0240039 0.0195797 0.0147591
0.0264579 0.0194761 0.0144254
0.0295133 0.0195612 0.0142854
0.0333945 0.0201346 0.0146304
0.0384797 0.0214574 0.0156291
0.0452731 0.0236217 0.0171949
0.0542896 0.026563 0.0190545
0.0659356 0.030164 0.0208366
0.0804509 0.0343573 0.0219849
0.0979283 0.039286 0.021435
0.118394 0.045456 0.0168885
0.141431 0.0533546 0.0064413
0.167155 0.0635138 7.30956e-07
0.196228 0.076455 7.30956e-07
0.228959 0.0924979 7.30956e-07
0.265508 0.111932 7.30956e-07
0.304392 0.134349 7.30956e-07
0.343082 0.1584 7.30956e-07
0.379994 0.183166 7.30956e-07
0.414264 0.208124 7.30956e-07
0.445592 0.233146 7.30956e-07
0.473918 0.258293 7.30956e-07
0.499249 0.283592 7.30956e-07
0.521616 0.308934 7.30956e-07
0.541179 0.334279 7.30956e-07
0.558325 0.360056 7.30956e-07
0.57369 0.387459 0.0284615
0.58802 0.417948 0.0749152
0.601957 0.451947 0.108083
0.61581 0.487938 0.138163
0.627614 0.521476 0.177921
0.636815 0.549969 0.35265
0.645426 0.57454 0.446808
0.653158 0.595086 0.49949
0.659935 0.611972 0.535354
0.665763 0.6257 0.561496
0.670687 0.636794 0.581171
0.674779 0.645704 0.59625
0.678159 0.652852 0.607946
0.680913 0.658568 0.617078
0.683154 0.663145 0.624253
0.684963 0.666801 0.629912
0.686423 0.669721 0.634394
0.687601 0.67206 0.637954
0.0160185 0.0210038 0.0153883
0.0183421 0.0215901 0.0155031
0.0207142 0.0220615 0.0157109
0.0229596 0.0223291 0.0157264
0.0251053 0.0223814 0.0155057
0.0276513 0.0222996 0.0151276
0.0307891 0.0222559 0.0148041
0.0347082 0.0225825 0.0148889
0.0397556 0.0236451 0.0156607
0.046436 0.0256423 0.0170856
0.0552965 0.0285453 0.0188462
0.0667783 0.0322059 0.0205052
0.0811424 0.0364817 0.0214656
0.098494 0.0413938 0.0206113
0.118861 0.047348 0.0155876
0.142011 0.0549742 0.00515267
0.167719 0.0647943 7.30956e-07
0.196772 0.0774788 7.30956e-07
0.229461 0.0933417 7.30956e-07
0.265572 0.112477 7.30956e-07
0.304712 0.134914 7.30956e-07
0.343357 0.158891 7.30956e-07
0.380222 0.183594 7.30956e-07
0.414453 0.208497 7.30956e-07
0.445746 0.23347 7.30956e-07
0.47404 0.258572 7.30956e-07
0.499348 0.283826 7.30956e-07
0.521693 0.309136 7.30956e-07
0.541241 0.334449 7.30956e-07
0.558376 0.360198 7.30956e-07
0.573725 0.387574 0.0288716
0.588048 0.418043 0.0750346
0.601977 0.452014 0.108147
0.615824 0.487979 0.138201
0.62762 0.521503 0.17792
0.636821 0.549982 0.352626
0.645429 0.574554 0.446799
0.653158 0.595095 0.499488
0.659941 0.611978 0.535354
0.665763 0.625706 0.561493
0.670687 0.636788 0.581169
0.674779 0.645704 0.596253
0.678159 0.652855 0.607946
0.680916 0.658571 0.617075
0.683154 0.663142 0.624253
0.68497 0.666801 0.629912
0.686423 0.669721 0.634397
0.687601 0.67206 0.637957
0.0166515 0.0233233 0.0159482
0.0190292 0.0239738 0.015899
0.0214958 0.0244976 0.0160612
0.0239345 0.0248827 0.0162029
0.0262484 0.0250986 0.0161429
0.0289096 0.0251507 0.0158317
0.0321321 0.0250978 0.0154009
0.0361005 0.0252376 0.0152311
0.0411251 0.026021 0.0157304
0.0476985 0.0277853 0.0169745
0.0563954 0.0305831 0.0186272
0.0676984 0.0342607 0.0201683
0.0818981 0.0386179 0.0209389
0.0991094 0.0435673 0.0197599
0.11937 0.0493839 0.0142725
0.142594 0.0567566 0.0039617
0.168291 0.0662181 7.30956e-07
0.197326 0.0786111 7.30956e-07
0.229973 0.0942615 7.30956e-07
0.265939 0.113194 7.30956e-07
0.304675 0.13537 7.30956e-07
0.343638 0.159409 7.30956e-07
0.380462 0.184042 7.30956e-07
0.414648 0.208886 7.30956e-07
0.445901 0.233804 7.30956e-07
0.47417 0.258858 7.30956e-07
0.49945 0.28407 7.30956e-07
0.521775 0.309343 7.30956e-07
0.541305 0.334623 7.30956e-07
0.558426 0.360347 7.30956e-07
0.57376 0.387701 0.0292884
0.588076 0.418141 0.0751579
0.601994 0.452084 0.108214
0.615836 0.488026 0.13824
0.627629 0.521532 0.177917
0.636827 0.550003 0.352606
0.645435 0.574562 0.446793
0.653164 0.595098 0.499483
0.659941 0.611981 0.535351
0.665769 0.625706 0.56149
0.670687 0.636794 0.581171
0.674779 0.64571 0.596253
0.678156 0.652852 0.607946
0.680913 0.658571 0.617078
0.683154 0.663145 0.624253
0.68497 0.666798 0.629912
0.686423 0.669724 0.634397
0.687601 0.672063 0.637957
0.0174929 0.0262099 0.016736
0.0199125 0.0269328 0.0164555
0.0224385 0.0275109 0.0164659
0.0250293 0.0279636 0.0166109
0.0275961 0.0282966 0.0167068
0.0305013 0.0285324 0.0165832
0.0338695 0.0286147 0.0161687
0.037907 0.0286747 0.0157561
0.0429193 0.0291625 0.0158839
0.0493726 0.030588 0.0168394
0.0578636 0.0331693 0.0183338
0.06893 0.036797 0.0197369
0.0829086 0.0412252 0.0202782
0.0999338 0.0462589 0.0186806
0.12005 0.0520055 0.0126911
0.143314 0.0591263 0.00270599
0.168999 0.0681499 7.30956e-07
0.198012 0.0801442 7.30956e-07
0.230615 0.0954941 7.30956e-07
0.266495 0.114199 7.30956e-07
0.30508 0.13616 7.30956e-07
0.343561 0.159902 7.30956e-07
0.380758 0.184618 7.30956e-07
0.414895 0.209381 7.30956e-07
0.446102 0.234231 7.30956e-07
0.474328 0.25922 7.30956e-07
0.499578 0.284379 7.30956e-07
0.521874 0.309602 7.30956e-07
0.541392 0.334845 7.30956e-07
0.558487 0.360534 7.30956e-07
0.573809 0.387854 0.0298044
0.588112 0.418256 0.075311
0.60202 0.452172 0.108298
0.615854 0.488083 0.138288
0.627647 0.521569 0.177915
0.636833 0.550024 0.352576
0.645441 0.574575 0.446784
0.653164 0.595109 0.499481
0.659948 0.611987 0.535346
0.665766 0.625712 0.561493
0.670687 0.636794 0.581171
0.674785 0.64571 0.59625
0.678156 0.652852 0.607943
0.680916 0.658571 0.617078
0.683154 0.663142 0.624253
0.684963 0.666798 0.629912
0.686423 0.669721 0.634397
0.687601 0.672063 0.637957
0.0186727 0.0299403 0.0178979
0.0211212 0.0307303 0.0173247
0.0236762 0.0313739 0.0170702
0.026339 0.0318878 0.0170583
0.029113 0.032292 0.0171666
0.0324063 0.0326499 0.0172473
0.0361381 0.0329301 0.0170426
0.0403418 0.033102 0.0165252
0.0453617 0.0334001 0.0162067
0.0516805 0.0344087 0.0166885
0.0599081 0.0366114 0.0179082
0.0706509 0.0400587 0.0191361
0.0843185 0.0445016 0.0193992
0.101081 0.0496482 0.0172555
0.120996 0.0554203 0.0108411
0.144131 0.0622832 0.00164917
0.169904 0.0708634 7.30956e-07
0.198895 0.0823163 7.30956e-07
0.231439 0.0972242 7.30956e-07
0.26723 0.115598 7.30956e-07
0.305605 0.13724 7.30956e-07
0.344015 0.160807 7.30956e-07
0.380647 0.185184 7.30956e-07
0.414654 0.209815 7.30956e-07
0.446358 0.234791 7.30956e-07
0.474539 0.259698 7.30956e-07
0.499744 0.284781 7.30956e-07
0.52201 0.309942 7.30956e-07
0.541495 0.335132 7.30956e-07
0.558569 0.360776 7.30956e-07
0.573874 0.388055 0.0304631
0.588154 0.418417 0.075512
0.602054 0.452286 0.108407
0.615874 0.488162 0.138353
0.627662 0.521621 0.177913
0.636845 0.550052 0.352537
0.645448 0.574595 0.446774
0.653176 0.595117 0.499474
0.659948 0.61199 0.535346
0.665769 0.625712 0.561488
0.67069 0.6368 0.581169
0.674785 0.64571 0.596253
0.678159 0.652855 0.607946
0.680916 0.658574 0.617075
0.683154 0.663145 0.62425
0.684963 0.666801 0.629912
0.686423 0.669721 0.634397
0.687601 0.672063 0.637957
0.0203271 0.0347828 0.0195872
0.0227978 0.0356149 0.018692
0.0253575 0.0363188 0.018083
0.0280256 0.0368992 0.0177559
0.0308716 0.0373738 0.0176559
0.0344631 0.037811 0.0177182
0.0387871 0.0381941 0.0177721
0.0435087 0.0385415 0.0174497
0.0486813 0.0388887 0.0168026
0.0548719 0.0395692 0.0165875
0.0627738 0.0412468 0.017277
0.0730797 0.0443058 0.0182338
0.0863046 0.0486235 0.0181683
0.102695 0.053854 0.015368
0.122325 0.0597452 0.00896087
0.145246 0.0664789 0.0017197
0.171058 0.0746305 7.30956e-07
0.200023 0.085406 7.30956e-07
0.232497 0.0996817 7.30956e-07
0.268176 0.117563 7.30956e-07
0.306287 0.13874 7.30956e-07
0.344599 0.162037 7.30956e-07
0.381138 0.186214 7.30956e-07
0.41506 0.210686 7.30956e-07
0.44607 0.235292 7.30956e-07
0.474812 0.260324 7.30956e-07
0.499964 0.28531 7.30956e-07
0.522183 0.310388 7.30956e-07
0.541631 0.335509 7.30956e-07
0.55868 0.361099 7.30956e-07
0.573953 0.388321 0.0313054
0.588215 0.418624 0.0757728
0.602094 0.452436 0.108551
0.6159 0.488262 0.138435
0.627685 0.521678 0.177908
0.63686 0.550091 0.352488
0.645454 0.574616 0.446759
0.653176 0.595131 0.499471
0.659948 0.612001 0.535341
0.665769 0.625718 0.561488
0.670687 0.636806 0.581166
0.674782 0.64571 0.596253
0.678156 0.652852 0.607946
0.680916 0.658574 0.617075
0.683154 0.663148 0.624253
0.68497 0.666801 0.629912
0.686423 0.669724 0.634394
0.687598 0.67206 0.637951
0.022614 0.0410822 0.0219498
0.0250975 0.0419176 0.0207435
0.0276566 0.0426552 0.0197483
0.0302952 0.0432872 0.0190012
0.0331119 0.0438314 0.0184938
0.036768 0.0443622 0.0181884
0.0415133 0.0448259 0.0181437
0.047103 0.0452101 0.0181317
0.0529812 0.0456508 0.0176009
0.059254 0.0462727 0.0166909
0.0668027 0.047471 0.0163908
0.0765352 0.0499196 0.0167681
0.0891394 0.0538645 0.0162917
0.104989 0.0590425 0.0129341
0.124202 0.065079 0.00760075
0.146812 0.0718639 0.003167
0.17254 0.0797176 7.30956e-07
0.201456 0.0897679 7.30956e-07
0.233848 0.1032 7.30956e-07
0.26939 0.120349 7.30956e-07
0.307171 0.140857 7.30956e-07
0.345356 0.163733 7.30956e-07
0.381779 0.187609 7.30956e-07
0.415591 0.211852 7.30956e-07
0.446507 0.236272 7.30956e-07
0.474476 0.260896 7.30956e-07
0.500246 0.286003 7.30956e-07
0.522413 0.31097 7.30956e-07
0.541808 0.336003 7.30956e-07
0.55882 0.361512 7.30956e-07
0.574062 0.388665 0.0323693
0.588293 0.418896 0.0761117
0.602148 0.452625 0.108738
0.615935 0.488389 0.138543
0.627706 0.521765 0.177902
0.636878 0.550141 0.352423
0.645469 0.574646 0.446738
0.653189 0.595145 0.499464
0.65996 0.612007 0.535339
0.665775 0.625724 0.561488
0.670687 0.636803 0.581166
0.674785 0.645713 0.59625
0.678156 0.652855 0.607946
0.680916 0.658574 0.617078
0.683158 0.663142 0.624253
0.684963 0.666801 0.629912
0.686423 0.669721 0.634394
0.687598 0.67206 0.637951
0.0258143 0.049239 0.0250825
0.0281621 0.0500365 0.0236023
0.0307254 0.0507681 0.0222495
0.0333403 0.0514191 0.0210651
0.0360943 0.0520043 0.0200523
0.0396651 0.0526178 0.019103
0.0444486 0.053206 0.0183967
0.0506093 0.0536579 0.0181196
0.0577119 0.0539997 0.0179497
0.0649098 0.0545528 0.0169728
0.0723998 0.0555442 0.015366
0.081469 0.0573667 0.0143485
0.0932238 0.0606443 0.0132588
0.108282 0.0654922 0.0103345
0.126873 0.0715604 0.00740385
0.149025 0.0785101 0.00523651
0.174476 0.0862921 7.30956e-07
0.203285 0.0957617 7.30956e-07
0.235563 0.108213 7.30956e-07
0.270937 0.12434 7.30956e-07
0.308311 0.143892 7.30956e-07
0.346336 0.166107 7.30956e-07
0.382602 0.189518 7.30956e-07
0.416279 0.213423 7.30956e-07
0.447065 0.237579 7.30956e-07
0.474927 0.261985 7.30956e-07
0.499864 0.286644 7.30956e-07
0.522703 0.311735 7.30956e-07
0.542044 0.336646 7.30956e-07
0.559 0.362058 7.30956e-07
0.574198 0.38912 0.0337016
0.588393 0.419247 0.0765546
0.602219 0.452883 0.10898
0.615988 0.488554 0.138684
0.627745 0.521871 0.177899
0.636902 0.550206 0.352339
0.645487 0.574684 0.446717
0.653195 0.595168 0.49945
0.659966 0.612027 0.535334
0.665781 0.625736 0.561485
0.670696 0.636809 0.581166
0.674785 0.645713 0.59625
0.678159 0.652858 0.607943
0.680916 0.658574 0.617078
0.683158 0.663148 0.62425
0.684963 0.666804 0.629912
0.686427 0.669727 0.634394
0.687598 0.672063 0.637951
0.030604 0.0596609 0.0290037
0.0322723 0.0603853 0.0272868
0.0346716 0.0610752 0.0256282
0.0372739 0.0617152 0.024051
0.0399905 0.0622999 0.0225487
0.0434547 0.0629461 0.0208675
0.0480711 0.0636323 0.0191029
0.05422 0.0642468 0.0176174
0.0620698 0.06463 0.0168336
0.0709372 0.0648637 0.0162809
0.0796128 0.065534 0.0142582
0.0884115 0.0669757 0.0114492
0.0991381 0.0695027 0.0100834
0.11307 0.0736581 0.00922469
0.13072 0.0794546 0.00849656
0.152171 0.0865065 0.00762529
0.177087 0.0943931 0.00553792
0.205648 0.103617 7.30956e-07
0.237739 0.115172 7.30956e-07
0.272898 0.130042 7.30956e-07
0.309967 0.148358 7.30956e-07
0.347602 0.169482 7.30956e-07
0.383669 0.192166 7.30956e-07
0.417166 0.215555 7.30956e-07
0.447793 0.239327 7.30956e-07
0.475515 0.26343 7.30956e-07
0.500339 0.287843 7.30956e-07
0.522287 0.31244 7.30956e-07
0.542347 0.337492 7.30956e-07
0.559235 0.362767 7.30956e-07
0.574382 0.389707 0.0353568
0.588527 0.419711 0.0771328
0.602305 0.453212 0.109295
0.616043 0.488774 0.138867
0.627789 0.52201 0.177892
0.636933 0.550289 0.352227
0.645505 0.574733 0.446683
0.65321 0.595199 0.499436
0.659973 0.612042 0.535326
0.665788 0.625745 0.56148
0.670699 0.636818 0.581166
0.674785 0.645722 0.596247
0.678162 0.652861 0.607946
0.680916 0.658577 0.617078
0.683154 0.663148 0.624253
0.68497 0.666804 0.629912
0.68643 0.669727 0.634394
0.687601 0.67206 0.637951
0.0373912 0.0723889 0.0334795
0.0383493 0.07334 0.0317054
0.0398968 0.0739622 0.0297767
0.0421865 0.074558 0.0278625
0.0448458 0.0751378 0.0259138
0.0482545 0.0757647 0.0235536
0.0527113 0.0764747 0.0206432
0.0585878 0.0772074 0.017327
0.0663513 0.077809 0.0145029
0.0761712 0.0780572 0.013201
0.087069 0.0780977 0.0124589
0.0973876 0.078879 0.0112093
0.107577 0.0808492 0.0106877
0.120075 0.0841555 0.0105998
0.136323 0.0892531 0.0105626
0.156523 0.0959807 0.0103638
0.180713 0.104042 0.00940176
0.208792 0.113354 0.0062651
0.240536 0.124379 7.30956e-07
0.275378 0.137992 7.30956e-07
0.31212 0.154744 7.30956e-07
0.34923 0.174336 7.30956e-07
0.385051 0.195891 7.30956e-07
0.418304 0.218483 7.30956e-07
0.448732 0.241683 7.30956e-07
0.476281 0.265355 7.30956e-07
0.500953 0.289426 7.30956e-07
0.522774 0.313754 7.30956e-07
0.541898 0.33826 7.30956e-07
0.559551 0.363701 7.30956e-07
0.574619 0.390478 0.0373946
0.588696 0.420322 0.0778816
0.60243 0.453647 0.109712
0.616124 0.489057 0.139106
0.627851 0.522193 0.177885
0.636975 0.550399 0.352084
0.645533 0.574801 0.446638
0.653229 0.595238 0.499419
0.659985 0.612062 0.535321
0.665791 0.625759 0.561477
0.670699 0.636821 0.581163
0.674792 0.645728 0.596247
0.678166 0.652865 0.60794
0.680919 0.65858 0.617075
0.683154 0.663151 0.624253
0.68497 0.666804 0.629912
0.686427 0.669727 0.634397
0.687598 0.67206 0.637951
0.0460888 0.0875268 0.0382902
0.0469128 0.0888276 0.0364953
0.0477663 0.0897505 0.0344704
0.0489444 0.0902901 0.0322308
0.0509155 0.0908271 0.0298736
0.0540721 0.0914678 0.0268224
0.0584257 0.0921442 0.022842
0.0640879 0.0928988 0.0180574
0.0714759 0.0936586 0.0153902
0.0811191 0.0942145 0.014875
0.0931908 0.0942652 0.0144808
0.106397 0.0940213 0.0138957
0.118498 0.0948779 0.0134668
0.130012 0.0973541 0.0133959
0.144307 0.101469 0.0134475
0.162881 0.107534 0.0134739
0.185888 0.115464 0.0131594
0.213114 0.124933 0.0117785
0.244217 0.135852 0.00729949
0.278545 0.148562 7.30956e-07
0.314838 0.163647 7.30956e-07
0.351371 0.181337 7.30956e-07
0.386822 0.201191 7.30956e-07
0.419781 0.222557 7.30956e-07
0.449943 0.244888 7.30956e-07
0.477264 0.267935 7.30956e-07
0.501747 0.291528 7.30956e-07
0.523414 0.315487 7.30956e-07
0.542403 0.339704 7.30956e-07
0.559074 0.364534 7.30956e-07
0.574926 0.391481 0.0398804
0.588928 0.421109 0.0788454
0.602587 0.454227 0.11026
0.616229 0.489428 0.139418
0.627929 0.522428 0.177876
0.637026 0.55054 0.351896
0.645567 0.574883 0.446585
0.65325 0.595292 0.499395
0.659995 0.612097 0.535308
0.6658 0.625774 0.561472
0.670706 0.636839 0.581158
0.674798 0.645731 0.596247
0.678166 0.652865 0.60794
0.680922 0.65858 0.617078
0.683161 0.663151 0.624247
0.68497 0.666804 0.629912
0.686427 0.669727 0.634394
0.687601 0.672063 0.637951
0.0569378 0.105622 0.0433887
0.0576556 0.106854 0.0412997
0.0584348 0.108089 0.0391183
0.0592682 0.109193 0.0367662
0.060034 0.109692 0.0339484
0.0617611 0.110293 0.0301958
0.0653223 0.111036 0.0251011
0.0707619 0.111751 0.0206146
0.0778838 0.112545 0.019426
0.0869501 0.113256 0.0193189
0.0984292 0.113454 0.0190813
0.112982 0.113229 0.0185442
0.128868 0.11269 0.0176893
0.142958 0.113638 0.0171197
0.156018 0.116869 0.0171096
0.172318 0.121994 0.0172449
0.193425 0.129253 0.017293
0.219228 0.13855 0.0168567
0.249233 0.149489 0.0150016
0.282685 0.161782 0.00893404
0.318289 0.175504 7.30956e-07
0.354274 0.191094 7.30956e-07
0.389103 0.208752 7.30956e-07
0.42169 0.228278 7.30956e-07
0.451512 0.249299 7.30956e-07
0.478538 0.27141 7.30956e-07
0.502778 0.294328 7.30956e-07
0.52424 0.317775 7.30956e-07
0.543061 0.341601 7.30956e-07
0.559596 0.366117 7.30956e-07
0.574445 0.392375 0.0437164
0.589223 0.422139 0.0800863
0.602795 0.454973 0.110967
0.616369 0.489927 0.139838
0.62803 0.522737 0.177869
0.637098 0.550727 0.35165
0.645612 0.574997 0.446509
0.653281 0.595354 0.499365
0.660019 0.612137 0.535288
0.665813 0.625801 0.561464
0.670718 0.636851 0.581152
0.674801 0.645737 0.596242
0.678169 0.652871 0.60794
0.680922 0.65858 0.617078
0.683161 0.663154 0.624253
0.684966 0.666804 0.629912
0.686427 0.669727 0.634397
0.687598 0.672063 0.637951
0.0702199 0.127003 0.048491
0.0708913 0.128153 0.0459894
0.0715861 0.129312 0.0433431
0.072314 0.130472 0.0405193
0.0731212 0.13166 0.0373902
0.0739561 0.13258 0.0330178
0.0754178 0.133301 0.0279224
0.0791094 0.134188 0.0253655
0.0856428 0.134935 0.0250395
0.0942506 0.135598 0.025053
0.104807 0.135807 0.0248853
0.118642 0.135998 0.0245667
0.136137 0.135636 0.023833
0.155153 0.134807 0.0226292
0.171581 0.135983 0.0218687
0.186265 0.140126 0.0219681
0.204586 0.146373 0.0222285
0.228085 0.154878 0.0223206
0.256288 0.165467 0.0217538
0.288293 0.1775 0.0193309
0.322774 0.190374 0.0115217
0.357948 0.204086 7.30956e-07
0.392069 0.219302 7.30956e-07
0.424143 0.23634 7.30956e-07
0.453535 0.255419 7.30956e-07
0.480187 0.276147 7.30956e-07
0.504105 0.298076 7.30956e-07
0.525312 0.320812 7.30956e-07
0.543916 0.3441 7.30956e-07
0.560264 0.368189 7.30956e-07
0.574956 0.394073 0.0471958
0.588744 0.423055 0.0819009
0.603069 0.455946 0.111884
0.616553 0.49058 0.140385
0.628169 0.523151 0.177925
0.637186 0.55097 0.351327
0.645673 0.575144 0.446413
0.653321 0.595444 0.49932
0.660044 0.612181 0.535268
0.665832 0.625833 0.56145
0.670725 0.636872 0.581149
0.674808 0.64575 0.596242
0.678169 0.652877 0.60794
0.680922 0.658587 0.617072
0.683161 0.663154 0.624253
0.68497 0.666808 0.629912
0.686427 0.669727 0.634394
0.687598 0.672066 0.637951
0.0863151 0.152024 0.0531541
0.0869589 0.153097 0.050055
0.0876096 0.154167 0.0467435
0.0882664 0.155231 0.0432341
0.0889487 0.156298 0.0395609
0.0897949 0.157548 0.0355679
0.0909045 0.158947 0.0328733
0.0924938 0.160183 0.0322038
0.0960365 0.161257 0.0323253
0.103398 0.16197 0.0324222
0.11322 0.161978 0.0322449
0.12588 0.162218 0.0320329
0.142384 0.162472 0.0316347
0.163237 0.162049 0.0306777
0.185823 0.160972 0.0290409
0.204814 0.162482 0.0280578
0.221065 0.167656 0.028331
0.24114 0.174999 0.0287547
0.266463 0.184525 0.0288849
0.296159 0.195883 0.0281054
0.328832 0.208099 0.0249331
0.362703 0.220436 0.0154323
0.395948 0.233245 7.30956e-07
0.42728 0.247576 7.30956e-07
0.456141 0.263935 7.30956e-07
0.482319 0.282643 7.30956e-07
0.505826 0.303135 7.30956e-07
0.526693 0.32485 7.30956e-07
0.54502 0.347397 7.30956e-07
0.561132 0.37091 7.30956e-07
0.575623 0.396289 0.0513484
0.589237 0.424789 0.0838939
0.60261 0.456824 0.113126
0.616792 0.491428 0.141094
0.628344 0.523704 0.17803
0.637306 0.551299 0.350984
0.64575 0.575332 0.446291
0.653371 0.595551 0.499265
0.660072 0.61225 0.535242
0.665851 0.625869 0.561432
0.670737 0.636893 0.581141
0.674817 0.645765 0.596233
0.678175 0.652889 0.607934
0.680925 0.658593 0.617072
0.683161 0.663161 0.624247
0.68497 0.666811 0.629909
0.68643 0.669727 0.634394
0.687601 0.672066 0.637951
0.105614 0.180982 0.0567118
0.106219 0.181953 0.0528797
0.10681 0.182892 0.0490336
0.107376 0.183774 0.0455543
0.107926 0.184604 0.0428577
0.108575 0.185547 0.0410127
0.109404 0.186687 0.0403144
0.11056 0.188131 0.0404302
0.112413 0.189937 0.0409538
0.116178 0.191794 0.0414986
0.124003 0.192315 0.0415419
0.135647 0.192376 0.0413393
0.150664 0.192706 0.0410937
0.170171 0.193118 0.0406264
0.194781 0.192747 0.0394281
0.221201 0.191525 0.0372852
0.242697 0.193475 0.0360678
0.260198 0.199644 0.0365694
0.281349 0.207771 0.037151
0.307474 0.217685 0.0372197
0.337319 0.228814 0.0360132
0.3691 0.240028 0.0318602
0.400947 0.250884 0.0210503
0.431355 0.262356 7.30956e-07
0.459492 0.275682 7.30956e-07
0.485067 0.291583 7.30956e-07
0.508056 0.310012 7.30956e-07
0.528482 0.330252 7.30956e-07
0.546444 0.351754 7.30956e-07
0.562256 0.374471 7.30956e-07
0.576488 0.399176 0.0562688
0.589876 0.427033 0.0864227
0.603066 0.45845 0.11463
0.616384 0.492195 0.142008
0.628576 0.524414 0.178175
0.637466 0.551743 0.350642
0.645856 0.575583 0.446149
0.653439 0.595703 0.499197
0.660119 0.612343 0.535212
0.665873 0.625922 0.561421
0.670756 0.636927 0.58113
0.674824 0.645783 0.596233
0.678182 0.652902 0.607928
0.680935 0.658599 0.617072
0.683167 0.663161 0.62425
0.684976 0.666811 0.629912
0.68643 0.669727 0.634394
0.687598 0.672066 0.637951
0.128321 0.213834 0.0591436
0.12882 0.214594 0.0557194
0.129284 0.215284 0.0531676
0.129718 0.215915 0.0515644
0.130147 0.216523 0.0506951
0.130676 0.217262 0.0502816
0.13137 0.218212 0.0502705
0.13231 0.219457 0.0505846
0.133632 0.221094 0.0511391
0.135689 0.223191 0.0518467
0.139677 0.225493 0.0526003
0.148351 0.226365 0.0527656
0.161955 0.226552 0.0525595
0.179569 0.22706 0.0522994
0.202386 0.227735 0.0517809
0.230952 0.227528 0.0503255
0.261 0.226304 0.0476405
0.284482 0.228726 0.0462074
0.302617 0.235596 0.0469376
0.32385 0.243881 0.0475777
0.349488 0.253211 0.0473535
0.378055 0.262951 0.04541
0.407661 0.272187 0.040136
0.436623 0.281106 0.0287619
0.463799 0.291246 7.30956e-07
0.488607 0.30379 7.30956e-07
0.510935 0.319371 7.30956e-07
0.530793 0.337534 7.30956e-07
