OpenDRT/OpenDRT_v1.0.0_Default__filmlight-egamut2-tloge_to_display-p3.cube
LUT_3D_SIZE 48
0.000569058 0.000569058 0.000569058
0.0029277 0.000919848 0.000961051
0.00591241 0.00110865 0.00107325
0.00916907 0.00122177 0.000534613
0.0126468 0.001345 0.000148086
0.0171733 0.00152332 0
0.0232159 0.00177864 0
0.0311747 0.00212932 0
0.041492 0.00259693 0
0.0546426 0.00320773 0
0.0711429 0.00399503 0
0.0915984 0.00500416 0
0.116787 0.00630145 0
0.147728 0.00798685 0
0.185614 0.0102074 0
0.231456 0.0131655 0
0.285447 0.0171195 0
0.346387 0.0223953 0
0.411852 0.0294416 0
0.479133 0.0389444 0
0.546112 0.0519819 0
0.611422 0.0702207 0
0.674152 0.0961593 0
0.733514 0.13323 0
0.78865 0.184969 0
0.838808 0.252444 0
0.884116 0.332304 0
0.925797 0.41913 0
0.95239 0.501907 0.111845
0.969863 0.578259 0.303336
0.98248 0.64754 0.429311
0.99132 0.708697 0.531114
0.997332 0.761468 0.616265
1 0.806174 0.687574
1 0.843493 0.746895
1 0.874291 0.795851
1 0.899483 0.835956
1 0.91995 0.868612
1 0.936496 0.895074
1 0.94982 0.91644
1 0.960522 0.933643
1 0.969101 0.947468
1 0.97597 0.958563
1 0.981464 0.967459
1 0.985856 0.974589
1 0.989367 0.980302
1 0.992173 0.984878
1 0.994416 0.988545
0.000111083 0.00223011 0.000883223
0.00304032 0.00278426 0.000521475
0.00575533 0.00365929 4.1108e-05
0.00887041 0.00453201 0
0.0123406 0.00529907 0
0.0169334 0.0060263 0
0.0231093 0.00660763 0
0.0312447 0.00694476 0
0.0417378 0.00710605 0
0.0550374 0.0072899 0
0.0716646 0.00765882 0
0.0922437 0.00830191 0
0.117572 0.00928771 0
0.148676 0.0107085 0
0.186729 0.0127031 0
0.232688 0.0154649 0
0.286778 0.019217 0
0.347477 0.0243259 0
0.412711 0.0312174 0
0.479808 0.0405864 0
0.54665 0.0535202 0
0.611855 0.0716868 0
0.674492 0.0975708 0
0.733763 0.134569 0
0.78881 0.186166 0
0.838897 0.253409 0
0.884164 0.333004 0
0.925824 0.419607 0
0.952428 0.50223 0.111593
0.969892 0.578471 0.303253
0.982502 0.647677 0.429273
0.991336 0.708785 0.531094
0.997343 0.761524 0.616254
1 0.806209 0.687569
1 0.843516 0.746893
1 0.874305 0.795849
1 0.899492 0.835955
1 0.919956 0.868612
1 0.936499 0.895074
1 0.949822 0.91644
1 0.960523 0.933643
1 0.969102 0.947468
1 0.97597 0.958563
1 0.981464 0.967459
1 0.985857 0.974589
1 0.989367 0.980302
1 0.992173 0.984878
1 0.994417 0.988545
0 0.00431245 0.00094681
0.00339457 0.00474321 0
0.00606971 0.00547999 0
0.00893742 0.00648338 0
0.0122164 0.00755134 0
0.0166497 0.0088071 0
0.0227115 0.0101845 0
0.0308194 0.0114932 0
0.0414168 0.0124644 0
0.0549322 0.0128895 0
0.0717913 0.0128859 0
0.0925412 0.0128659 0
0.117969 0.0131887 0
0.149122 0.0140558 0
0.187199 0.0156146 0
0.233175 0.0180354 0
0.28718 0.0215378 0
0.347978 0.0264174 0
0.41316 0.0331132 0
0.480468 0.0422629 0
0.547178 0.0550806 0
0.61228 0.0731664 0
0.674827 0.0989897 0
0.734008 0.135911 0
0.788967 0.187362 0
0.838985 0.254372 0
0.884211 0.333704 0
0.925851 0.420084 0
0.952466 0.502554 0.111342
0.969922 0.578682 0.30317
0.982524 0.647814 0.429234
0.991352 0.708873 0.531074
0.997354 0.76158 0.616244
1 0.806245 0.687563
1 0.843538 0.74689
1 0.874319 0.795847
1 0.899501 0.835954
1 0.919961 0.868611
1 0.936503 0.895074
1 0.949825 0.91644
1 0.960525 0.933643
1 0.969103 0.947468
1 0.975971 0.958563
1 0.981465 0.96746
1 0.985857 0.974589
1 0.989368 0.980302
1 0.992173 0.984878
1 0.994417 0.988545
0 0.00664809 0.000430389
0.00349028 0.0070197 0
0.00653596 0.00752371 0
0.00936498 0.00841129 0
0.0124486 0.00951821 0
0.0166664 0.0109471 0
0.0225335 0.0126943 0
0.0304856 0.0146226 0
0.0409887 0.016474 0
0.0545213 0.0178759 0
0.0715476 0.0184764 0
0.0925454 0.0183176 0
0.118181 0.0179785 0
0.149462 0.0180869 0
0.187608 0.0190015 0
0.233625 0.0209244 0
0.287662 0.0240449 0
0.348483 0.0286229 0
0.41367 0.035076 0
0.480566 0.0440911 0
0.547695 0.056663 0
0.612697 0.0746598 0
0.675156 0.100416 0
0.73425 0.137255 0
0.789124 0.188557 0
0.839073 0.255334 0
0.884259 0.334404 0
0.925879 0.420561 0
0.952505 0.502877 0.11109
0.969952 0.578894 0.303087
0.982546 0.647952 0.429196
0.991367 0.708961 0.531054
0.997364 0.761636 0.616233
1 0.80628 0.687557
1 0.843561 0.746886
1 0.874334 0.795846
1 0.899509 0.835953
1 0.919967 0.868611
1 0.936506 0.895074
1 0.949827 0.91644
1 0.960526 0.933643
1 0.969104 0.947468
1 0.975971 0.958563
1 0.981465 0.96746
1 0.985857 0.974589
1 0.989368 0.980302
1 0.992173 0.984878
1 0.994417 0.988545
0 0.00915848 2.44631e-05
0.00308899 0.00961633 0
0.0068845 0.00992444 0
0.00990636 0.0105998 0
0.0129471 0.011597 0
0.0169652 0.0130403 0
0.0225936 0.0149371 0
0.0303312 0.0172067 0
0.0406653 0.0196421 0
0.0540924 0.0218869 0
0.0711205 0.0234595 0
0.0922754 0.0239441 0
0.118164 0.0234761 0
0.149662 0.0228842 0
0.187944 0.0230001 0
0.234043 0.0242553 0
0.288132 0.0268638 0
0.348986 0.0310501 0
0.414186 0.0372 0
0.481069 0.0459842 0
0.547572 0.0584785 0
0.613121 0.0762141 0
0.675491 0.101895 0
0.734496 0.138643 0
0.789283 0.18979 0
0.839163 0.256325 0
0.884307 0.335124 0
0.925907 0.421052 0
0.952544 0.503211 0.110831
0.969982 0.579113 0.303001
0.982569 0.648093 0.429156
0.991383 0.709052 0.531033
0.997375 0.761694 0.616222
1 0.806317 0.687551
1 0.843584 0.746883
1 0.874348 0.795844
1 0.899518 0.835953
1 0.919973 0.86861
1 0.936509 0.895074
1 0.949829 0.91644
1 0.960528 0.933643
1 0.969105 0.947468
1 0.975972 0.958563
1 0.981465 0.96746
1 0.985857 0.974589
1 0.989368 0.980302
1 0.992173 0.984878
1 0.994417 0.988545
0 0.0124617 0
0.001379 0.0130477 0
0.00704053 0.0132217 0
0.010448 0.0136911 0
0.0136565 0.0144554 0
0.0176152 0.0157479 0
0.02298 0.0176527 0
0.0304054 0.020106 0
0.0404656 0.0229626 0
0.0536842 0.0259217 0
0.0705891 0.0285121 0
0.091758 0.0301415 0
0.117852 0.0303632 0
0.149666 0.0294962 0
0.188213 0.0286912 0
0.234481 0.0289619 0
0.288675 0.0307657 0
0.349593 0.0343383 0
0.414819 0.0400256 0
0.481691 0.0484667 0
0.548153 0.0607167 0
0.61288 0.0783924 0
0.675905 0.103769 0
0.734801 0.140398 0
0.789481 0.191342 0
0.839276 0.257572 0
0.884369 0.336031 0
0.925942 0.421672 0
0.952593 0.503631 0.110506
0.970021 0.579388 0.302893
0.982597 0.648272 0.429106
0.991404 0.709166 0.531007
0.997389 0.761767 0.616208
1 0.806363 0.687544
1 0.843613 0.746879
1 0.874366 0.795842
1 0.89953 0.835952
1 0.91998 0.86861
1 0.936514 0.895073
1 0.949832 0.91644
1 0.960529 0.933643
1 0.969106 0.947468
1 0.975972 0.958563
1 0.981466 0.96746
1 0.985857 0.97459
1 0.989368 0.980302
1 0.992174 0.984878
1 0.994417 0.988545
0 0.0169229 0
0.00030749 0.0174155 0
0.00652333 0.0178214 0
0.0108084 0.0180794 0
0.014375 0.0186069 0
0.0185458 0.0195829 0
0.0238275 0.0212715 0
0.0308976 0.0237244 0
0.0405439 0.0268128 0
0.053409 0.0303058 0
0.0700546 0.0337936 0
0.0910799 0.0366856 0
0.117213 0.038282 0
0.14931 0.0381337 0
0.188266 0.0368236 0
0.234872 0.0358706 0
0.289283 0.0364397 0
0.350327 0.0390221 0
0.415611 0.0439677 0
0.482482 0.0518706 0
0.548897 0.0637436 0
0.613541 0.0811624 0
0.675529 0.106455 0
0.734095 0.142758 0
0.789735 0.193366 0
0.83942 0.259195 0
0.884449 0.337212 0
0.925989 0.422479 0
0.952658 0.50418 0.110083
0.970071 0.579747 0.302752
0.982635 0.648504 0.429041
0.99143 0.709316 0.530973
0.997408 0.761862 0.61619
1 0.806423 0.687534
1 0.843651 0.746874
1 0.87439 0.795839
1 0.899545 0.83595
1 0.919989 0.868609
1 0.93652 0.895073
1 0.949835 0.916439
1 0.960531 0.933642
1 0.969107 0.947468
1 0.975973 0.958563
1 0.981466 0.967459
1 0.985858 0.97459
1 0.989368 0.980302
1 0.992174 0.984878
1 0.994417 0.988545
0 0.0228735 0
0 0.023266 0
0.0037051 0.0240755 0
0.0105021 0.0241481 0
0.0148179 0.0244527 0
0.0194451 0.0251082 0
0.0250091 0.0263586 0
0.0319691 0.0285106 0
0.0411477 0.0315856 0
0.0534764 0.0353652 0
0.0696757 0.0395191 0
0.0903846 0.0435269 0
0.116356 0.0466791 0
0.148535 0.0481623 0
0.187889 0.0475497 0
0.235029 0.0457713 0
0.289865 0.0447445 0
0.351168 0.0457986 0
0.416577 0.0495536 0
0.483474 0.0565973 0
0.54984 0.0678761 0
0.614385 0.0848924 0
0.676233 0.109892 0
0.73463 0.145904 0
0.788811 0.195986 0
0.839608 0.261308 0
0.884553 0.33875 0
0.92605 0.423532 0
0.952743 0.504896 0.10953
0.970136 0.580217 0.302569
0.982683 0.648808 0.428956
0.991465 0.709511 0.53093
0.997432 0.761986 0.616167
1 0.806502 0.687521
1 0.8437 0.746867
1 0.874421 0.795836
1 0.899564 0.835948
1 0.920001 0.868608
1 0.936527 0.895073
1 0.94984 0.916439
1 0.960535 0.933642
1 0.969109 0.947468
1 0.975975 0.958563
1 0.981467 0.967459
1 0.985858 0.97459
1 0.989369 0.980302
1 0.992174 0.984878
1 0.994417 0.988545
0 0.0306958 0
0 0.0310131 0
0.000842291 0.0317704 0
0.0079318 0.0323754 0
0.0143493 0.0324275 0
0.019912 0.0327976 0
0.0260793 0.0336158 0
0.0334168 0.035173 0
0.0424581 0.0378385 0
0.0541897 0.0415911 0
0.0697115 0.0460976 0
0.0898691 0.0509309 0
0.115462 0.0554666 0
0.147472 0.0588619 0
0.186988 0.0601524 0
0.23469 0.0589553 0
0.290212 0.0566599 0
0.352022 0.0556715 0
0.417702 0.0575835 0
0.484688 0.0632525 0
0.551021 0.0735804 0
0.61545 0.0899548 0
0.677126 0.11449 0
0.735309 0.150065 0
0.789267 0.19958 0
0.838485 0.263926 0
0.884688 0.340752 0
0.92613 0.424905 0
0.952853 0.50583 0.108813
0.970222 0.580829 0.302331
0.982747 0.649205 0.428846
0.99151 0.709765 0.530872
0.997463 0.762148 0.616136
1 0.806605 0.687505
1 0.843765 0.746859
1 0.874462 0.795831
1 0.89959 0.835946
1 0.920017 0.868607
1 0.936537 0.895072
1 0.949846 0.916439
1 0.960538 0.933642
1 0.969111 0.947468
1 0.975976 0.958563
1 0.981468 0.96746
1 0.985859 0.97459
1 0.989369 0.980302
1 0.992174 0.984878
1 0.994417 0.988545
0 0.0408072 0
0 0.04107 0
0.000149687 0.0416535 0
0.0022866 0.0425849 0
0.0109543 0.0430666 0
0.0191048 0.0431179 0
0.0264847 0.0435641 0
0.0346111 0.0445575 0
0.0441671 0.0464473 0
0.0557465 0.0496606 0
0.0705279 0.0541329 0
0.0898517 0.0594072 0
0.114778 0.0649706 0
0.14635 0.0700867 0
0.185716 0.0737136 0
0.233717 0.0746581 0
0.290013 0.0726599 0
0.352661 0.0698163 0
0.418888 0.0692013 0
0.48611 0.0727398 0
0.55246 0.0815455 0
0.616774 0.0968854 0
0.678245 0.120679 0
0.736165 0.155585 0
0.789845 0.204299 0
0.838834 0.267647 0
0.883436 0.343131 0
0.926235 0.426694 0
0.952998 0.507049 0.10788
0.970334 0.581628 0.302021
0.98283 0.649723 0.428702
0.991569 0.710098 0.530798
0.997503 0.76236 0.616096
1 0.806738 0.687483
1 0.843849 0.746847
1 0.874515 0.795825
1 0.899623 0.835943
1 0.920038 0.868605
1 0.93655 0.895071
1 0.949854 0.916438
1 0.960543 0.933642
1 0.969115 0.947468
1 0.975978 0.958563
1 0.981469 0.96746
1 0.985859 0.974589
1 0.989369 0.980302
1 0.992174 0.984878
1 0.994417 0.988545
0 0.0536488 0
0 0.0538705 0
0 0.0543168 0
0.000533242 0.0550504 0
0.00327374 0.0560646 0
0.0144241 0.0566495 0
0.0251421 0.0566924 0
0.0348178 0.0572171 0
0.0453973 0.0583954 0
0.057691 0.0606381 0
0.0723513 0.0644439 0
0.0907722 0.0696904 0
0.114697 0.0758259 0
0.14548 0.0822362 0
0.184365 0.0880035 0
0.232284 0.0917435 0
0.289083 0.0919875 0
0.352733 0.0889149 0
0.419899 0.0857593 0
0.487645 0.0863264 0
0.554148 0.0927722 0
0.618378 0.106453 0
0.679622 0.129052 0
0.737229 0.162927 0
0.790573 0.210497 0
0.839281 0.272503 0
0.883702 0.346641 0
0.924937 0.428743 0
0.953188 0.50864 0.106671
0.970481 0.582672 0.301619
0.982938 0.650399 0.428517
0.991646 0.710532 0.530702
0.997556 0.762636 0.616045
1 0.806913 0.687456
1 0.843959 0.746832
1 0.874584 0.795817
1 0.899666 0.835939
1 0.920065 0.868603
1 0.936567 0.895071
1 0.949865 0.916438
1 0.96055 0.933642
1 0.969119 0.947468
1 0.975981 0.958563
1 0.981471 0.96746
1 0.98586 0.974589
1 0.98937 0.980302
1 0.992175 0.984878
1 0.994417 0.988545
0 0.0696947 0
0 0.0698829 0
0 0.0702288 0
0 0.0707771 0
0.000770733 0.0715813 0
0.00430828 0.0728683 0
0.018761 0.0736283 0
0.0326838 0.0736579 0
0.0452199 0.0742695 0
0.0588391 0.0756531 0
0.0744962 0.0782897 0
0.0929101 0.0827697 0
0.115749 0.0889206 0
0.145354 0.0961025 0
0.183334 0.10351 0
0.230765 0.109869 0
0.287613 0.113299 0
0.352008 0.112285 0
0.420355 0.108131 0
0.489045 0.105489 0
0.555979 0.108612 0
0.620241 0.119724 0
0.681271 0.140426 0
0.738526 0.172709 0
0.791476 0.218637 0
0.839849 0.278835 0
0.884048 0.351212 0
0.925149 0.431871 0
0.951976 0.510381 0.105741
0.970673 0.584034 0.301096
0.983079 0.651282 0.428275
0.991747 0.711098 0.530577
0.997626 0.762997 0.615977
1 0.807141 0.687419
1 0.844103 0.746813
1 0.874674 0.795807
1 0.899723 0.835934
1 0.9201 0.868601
1 0.936589 0.895069
1 0.949879 0.916438
1 0.960558 0.933642
1 0.969124 0.947468
1 0.975984 0.958563
1 0.981473 0.96746
1 0.985862 0.97459
1 0.989371 0.980302
1 0.992175 0.984878
1 0.994418 0.988545
0 0.0895028 0
0 0.0896617 0
0 0.0899333 0
0 0.0903444 0
0 0.0909386 0
0.00103208 0.0919518 0
0.00562015 0.0936182 0
0.0241169 0.0946018 0
0.0419951 0.0946225 0
0.058066 0.0953496 0
0.0754415 0.0969962 0
0.0952539 0.100129 0
0.118312 0.105458 0
0.146656 0.112761 0
0.183232 0.121217 0
0.229664 0.129621 0
0.286066 0.136116 0
0.350688 0.138431 0
0.419997 0.135755 0
0.48993 0.131213 0
0.55771 0.130568 0
0.622254 0.138057 0
0.683162 0.155867 0
0.740065 0.185732 0
0.792579 0.22931 0
0.840567 0.287075 0
0.884498 0.357156 0
0.92543 0.435943 0
0.9523 0.513136 0.104016
0.969525 0.585468 0.300719
0.983265 0.652435 0.427964
0.991878 0.711837 0.530415
0.997716 0.763467 0.615891
1 0.807439 0.687373
1 0.844291 0.746787
1 0.874792 0.795794
1 0.899797 0.835927
1 0.920146 0.868597
1 0.936618 0.895068
1 0.949897 0.916437
1 0.96057 0.933642
1 0.969131 0.947467
1 0.975988 0.958563
1 0.981475 0.96746
1 0.985864 0.97459
1 0.989372 0.980302
1 0.992176 0.984878
1 0.994418 0.988545
0 0.11381 0
0 0.113943 0
0 0.114158 0
0 0.114471 0
0 0.11491 0
0 0.115653 0
0.00138101 0.116957 0
0.0072857 0.119096 0
0.0306968 0.12037 0
0.0534316 0.120406 0
0.0738647 0.121316 0
0.0959013 0.123353 0
0.120902 0.127187 0
0.149776 0.133653 0
0.184954 0.142405 0
0.229714 0.152199 0
0.285057 0.161117 0
0.34932 0.166736 0
0.419037 0.167088 0
0.490049 0.163054 0
0.55899 0.159604 0
0.624192 0.162844 0
0.685197 0.176622 0
0.741826 0.202968 0
0.793903 0.243243 0
0.841467 0.297761 0
0.885082 0.364864 0
0.925802 0.441238 0
0.952725 0.516726 0.101805
0.969849 0.587815 0.299949
0.982206 0.653607 0.427759
0.99205 0.712803 0.530207
0.997834 0.764082 0.615779
1 0.807828 0.687313
1 0.844536 0.746755
1 0.874946 0.795776
1 0.899893 0.835918
1 0.920206 0.868593
1 0.936655 0.895066
1 0.94992 0.916436
1 0.960584 0.933641
1 0.96914 0.947468
1 0.975994 0.958563
1 0.981479 0.96746
1 0.985866 0.97459
1 0.989373 0.980302
1 0.992177 0.984878
1 0.994419 0.988545
0 0.143619 0
0 0.143732 0
0 0.143905 0
0 0.144148 0
0 0.144479 0
0 0.145028 0
0 0.145983 0
0.00185583 0.147655 0
0.00942342 0.150388 0
0.038793 0.152043 0
0.0674869 0.152144 0
0.0933161 0.153363 0
0.121163 0.156003 0
0.152661 0.160837 0
0.18874 0.168758 0
0.231991 0.179057 0
0.285411 0.189704 0
0.348609 0.197945 0
0.418085 0.201427 0
0.489637 0.199558 0
0.559634 0.195354 0
0.625788 0.194889 0
0.687211 0.203847 0
0.74375 0.225466 0
0.795455 0.261273 0
0.842587 0.31154 0
0.885842 0.374824 0
0.926296 0.448108 0
0.953281 0.521398 0.0989905
0.970274 0.590874 0.29896
0.982517 0.655583 0.427289
0.991096 0.713756 0.530087
0.997989 0.764885 0.615635
1 0.808336 0.687234
1 0.844855 0.746713
1 0.875146 0.795754
1 0.900018 0.835907
1 0.920285 0.868587
1 0.936704 0.895063
1 0.94995 0.916435
1 0.960603 0.933641
1 0.969152 0.947468
1 0.976001 0.958563
1 0.981483 0.96746
1 0.985869 0.97459
1 0.989375 0.980302
1 0.992178 0.984878
1 0.994419 0.988545
0 0.180143 0
0 0.180246 0
0 0.180395 0
0 0.180593 0
0 0.180855 0
0 0.181276 0
0 0.181989 0
0 0.183224 0
0.00251984 0.185371 0
0.0122187 0.188854 0
0.0488 0.191009 0
0.0847808 0.191257 0
0.117268 0.192954 0
0.152312 0.19646 0
0.191791 0.202578 0
0.236365 0.212046 0
0.288236 0.223399 0
0.349392 0.233598 0
0.417889 0.239554 0
0.489333 0.240067 0
0.559918 0.23661 0
0.626973 0.233911 0
0.689064 0.238162 0
0.745773 0.254146 0
0.797246 0.284282 0
0.843975 0.329152 0
0.88683 0.387622 0
0.926957 0.456992 0
0.954012 0.527468 0.0954406
0.97083 0.594859 0.297701
0.982922 0.65816 0.426691
0.991383 0.715406 0.529768
0.997148 0.765658 0.615568
1 0.809 0.687135
1 0.845273 0.74666
1 0.875408 0.795726
1 0.900182 0.835892
1 0.920387 0.86858
1 0.936768 0.89506
1 0.94999 0.916434
1 0.960628 0.933641
1 0.969167 0.947467
1 0.976011 0.958563
1 0.981489 0.96746
1 0.985872 0.97459
1 0.989377 0.980302
1 0.992179 0.984878
1 0.99442 0.988545
0 0.224426 0
0 0.224537 0
0 0.224682 0
0 0.224864 0
0 0.225091 0
0 0.225441 0
0 0.22601 0
0 0.22696 0
0 0.228578 0
0.0034768 0.231348 0
0.0159565 0.235779 0
0.0611818 0.238563 0
0.105912 0.239057 0
0.146462 0.241405 0
0.190167 0.24598 0
0.238974 0.253431 0
0.292718 0.263989 0
0.352547 0.275109 0
0.419186 0.283041 0
0.489865 0.285406 0
0.560472 0.282972 0
0.628075 0.279141 0
0.690827 0.279496 0
0.747899 0.289592 0
0.799313 0.313096 0
0.8457 0.351413 0
0.888121 0.403956 0
0.927842 0.468434 0
0.954972 0.535338 0.0910285
0.971559 0.600045 0.29611
0.983454 0.661522 0.425935
0.991757 0.71756 0.529364
0.997404 0.767026 0.615345
1 0.809626 0.687101
1 0.845819 0.746592
1 0.875751 0.79569
1 0.900397 0.835874
1 0.920521 0.868571
1 0.936852 0.895056
1 0.950042 0.916432
1 0.960661 0.93364
1 0.969187 0.947467
1 0.976023 0.958564
1 0.981497 0.96746
1 0.985877 0.97459
1 0.98938 0.980303
1 0.992181 0.984878
1 0.994421 0.988545
0 0.276634 0
0 0.276775 0
0 0.276941 0
0 0.277133 0
0 0.277359 0
0 0.277687 0
0 0.278193 0
0 0.278991 0
0 0.280287 0
0.000703383 0.282436 0
0.00489493 0.286027 0
0.0210719 0.291629 0
0.0764024 0.29514 0
0.131181 0.295976 0
0.181085 0.299087 0
0.234674 0.30475 0
0.293605 0.313185 0
0.356257 0.323783 0
0.422337 0.332966 0
0.491758 0.337062 0
0.561942 0.335355 0
0.62968 0.330662 0
0.692862 0.327687 0
0.750305 0.332106 0
0.801771 0.34844 0
0.847872 0.379188 0
0.88982 0.424638 0
0.929039 0.483105 0
0.956232 0.545516 0.0856628
0.972514 0.606789 0.294128
0.98415 0.665906 0.424994
0.992247 0.720372 0.528859
0.99774 0.768814 0.615066
1 0.810755 0.686947
1 0.846326 0.74658
1 0.876198 0.795644
1 0.900677 0.83585
1 0.920696 0.868559
1 0.936961 0.89505
1 0.95011 0.91643
1 0.960703 0.933639
1 0.969214 0.947467
1 0.97604 0.958564
1 0.981507 0.967461
1 0.985884 0.974591
1 0.989384 0.980302
1 0.992184 0.984879
1 0.994423 0.988545
0 0.335507 0
0 0.335694 0
0 0.335899 0
0 0.336121 0
0 0.336371 0
0 0.336714 0
0 0.337215 0
0 0.33796 0
0 0.339099 0
0 0.340885 0
0.00172465 0.343751 0
0.00704629 0.34839 0
0.0282372 0.355371 0
0.0948966 0.359605 0
0.160391 0.360877 0
0.220477 0.364797 0
0.284607 0.371394 0
0.353721 0.380199 0
0.424288 0.389637 0
0.494631 0.395512 0
0.564545 0.395028 0
0.63229 0.389514 0
0.695683 0.383435 0
0.753361 0.382165 0
0.80486 0.391033 0
0.850674 0.413404 0
0.892081 0.450608 0
0.93067 0.501818 0
0.957888 0.558641 0.0793386
0.973769 0.615546 0.291704
0.985063 0.671621 0.423842
0.992889 0.724046 0.528237
0.998179 0.771151 0.61472
1 0.812231 0.686755
1 0.847254 0.746474
1 0.876609 0.795647
