OpenDRT/OpenDRT-LogC3LinRec709.cube
TITLE "Generated by Resolve"
LUT_3D_SIZE 5
0 0 0
0.0087129 0 0
0.467643 0.00189212 0
0.997955 0.374716 0.260456
0.995315 0.920821 0.893782
3.0518e-05 0.00965896 3.0518e-05
0.0203861 0.0249332 0.000335698
0.448096 0.0217594 0
0.99025 0.379477 0.264286
0.995224 0.920943 0.893919
0.00141909 0.383185 0
0.00222782 0.374472 0
0.332082 0.385885 0.00862135
0.962844 0.437415 0.295903
0.994492 0.921874 0.895094
0.358724 0.885664 0.318624
0.362188 0.882994 0.322057
0.388891 0.864927 0.348745
0.873945 0.924651 0.545937
0.991958 0.932708 0.90573
0.917571 0.983505 0.908904
0.917662 0.98349 0.908995
0.918395 0.983368 0.909789
0.925261 0.982498 0.917296
0.989685 0.994537 0.957671
0 0 0
0.025452 0 0.0191348
0.469856 0.00231937 0.0241703
0.997055 0.376806 0.265858
0.995315 0.920882 0.893904
0.000167849 0.0169223 0.0158694
0.0213474 0.0213474 0.0213474
0.447074 0.013611 0.0147555
0.989334 0.381491 0.269429
0.995224 0.920989 0.894041
0.00190738 0.370993 0
0.00283818 0.36286 0
0.327626 0.374929 0.010605
0.957977 0.438834 0.300328
0.994492 0.92192 0.895201
0.360937 0.883345 0.320821
0.364385 0.880751 0.324254
0.390936 0.863203 0.350805
0.873152 0.923018 0.547158
0.991882 0.932754 0.905852
0.917632 0.98349 0.908965
0.917723 0.983474 0.909056
0.918456 0.983352 0.90985
0.925307 0.982483 0.917357
0.98967 0.994522 0.957687
0 0 0.374762
0.0184787 0.000457771 0.377768
0.485939 0.00357061 0.385733
1 0.391287 0.329168
0.995315 0.921309 0.894881
0 0.000762951 0.364858
0 0.00190738 0.361883
0.461967 0.00520333 0.373907
0.99971 0.395499 0.331441
0.995239 0.921416 0.895018
0.00425727 0.337362 0.321752
0.00561532 0.33196 0.318273
0.295689 0.295689 0.295689
0.930098 0.450492 0.35874
0.994507 0.922347 0.896132
0.378286 0.866773 0.338354
0.381582 0.864713 0.34165
0.406928 0.850965 0.367163
0.867185 0.910338 0.559915
0.991165 0.933165 0.906905
0.918105 0.983352 0.909468
0.918196 0.983352 0.909575
0.918914 0.98323 0.910353
0.925704 0.982406 0.917784
0.989639 0.994415 0.95787
0.090837 0.265049 1
0.0948501 0.27039 1
0.19205 0.304341 1
1 0.492195 0.988296
0.997192 0.925124 0.907027
0.0950332 0.270878 1
0.0990158 0.276173 1
0.190997 0.310109 1
1 0.494636 0.984512
0.997116 0.925231 0.907118
0.128985 0.315557 0.992126
0.132906 0.320439 0.984802
0.189059 0.354482 0.953902
1 0.513512 0.957061
0.99646 0.92604 0.907942
0.487938 0.920989 0.900587
0.490105 0.918791 0.898802
0.50695 0.902861 0.885908
0.830915 0.830915 0.830915
0.985016 0.937179 0.919844
0.922621 0.98233 0.914443
0.922698 0.982315 0.914534
0.923354 0.982254 0.915251
0.929549 0.981842 0.922026
0.989334 0.993332 0.960311
0.814817 0.886671 1
0.815137 0.886885 1
0.817594 0.888457 1
0.851347 0.900313 1
1 0.948714 1
0.815152 0.8869 1
0.815457 0.887098 1
0.817914 0.88867 1
0.851499 0.900496 1
1 0.94876 1
0.817792 0.888624 1
0.818097 0.888823 1
0.820478 0.890349 1
0.85275 0.901961 1
1 0.949126 1
0.841398 0.90396 0.995254
0.841627 0.904112 0.995163
0.843473 0.905303 0.99443
0.864729 0.915206 0.991348
1 0.952682 0.998901
0.946807 0.994858 0.992569
0.946853 0.994827 0.992554
0.947188 0.994659 0.992416
0.950423 0.993118 0.991272
0.988479 0.988479 0.988479
