OpenDRT/OpenDRT_v1.0.0_Umbra__filmlight-egamut2-tloge_to_rec2100-pq.cube
LUT_3D_SIZE 8
DOMAIN_MIN 0.000000 0.000000 0.000000
DOMAIN_MAX 0.893617 0.893617 0.893617
0.0141773 0.0140878 0.0138827
0.0270393 0.0146892 0.0135376
0.0792136 0.0300712 0.0230944
0.227579 0.0907079 7.30956e-07
0.445281 0.232506 7.30956e-07
0.573611 0.38722 0.027621
0.64542 0.574521 0.446818
0.678156 0.652849 0.607946
0.0186727 0.0299403 0.0178979
0.0361381 0.0329301 0.0170426
0.0843185 0.0445016 0.0193992
0.231439 0.0972242 7.30956e-07
0.446358 0.234791 7.30956e-07
0.573874 0.388055 0.0304631
0.645448 0.574595 0.446774
0.678159 0.652855 0.607946
0.0460888 0.0875268 0.0382902
0.0584257 0.0921442 0.022842
0.118498 0.0948779 0.0134668
0.244217 0.135852 0.00729949
0.449943 0.244888 7.30956e-07
0.574926 0.391481 0.0398804
0.645567 0.574883 0.446585
0.678166 0.652865 0.60794
0.154203 0.249908 0.0647619
0.156611 0.25319 0.0625362
0.176606 0.263338 0.0660994
0.328525 0.267264 0.0585861
0.469358 0.310958 0.0388917
0.579049 0.407847 0.0688493
0.64618 0.576389 0.445907
0.678204 0.652936 0.60792
0.337462 0.477661 0.166785
0.338647 0.478366 0.167166
0.344908 0.480846 0.168466
0.398699 0.486673 0.170337
0.556086 0.502945 0.167258
0.603006 0.486267 0.141914
0.64871 0.583624 0.443873
0.678406 0.6533 0.607891
0.556007 0.627142 0.256356
0.556383 0.627202 0.256376
0.557897 0.627439 0.256468
0.565141 0.628662 0.256948
0.59492 0.634352 0.260056
0.663527 0.646797 0.425635
0.664679 0.619086 0.446316
0.679307 0.655201 0.608107
0.65906 0.672755 0.571681
0.659078 0.672755 0.571722
0.659166 0.672755 0.571879
0.659589 0.672758 0.572637
0.661605 0.672768 0.576378
0.669677 0.672997 0.592443
0.686449 0.676521 0.612838
0.684895 0.665222 0.611033
0.684776 0.680209 0.634457
0.684779 0.680209 0.634457
0.684785 0.680209 0.63446
0.684808 0.680209 0.634505
0.684915 0.680199 0.634685
0.685449 0.680164 0.635579
0.687491 0.680051 0.639448
0.691185 0.680726 0.644061
0.0159834 0.0152963 0.0275921
0.0304582 0.0150154 0.0307544
0.0803346 0.0284335 0.0398925
0.228783 0.0910006 0.0196557
0.445787 0.232648 7.30956e-07
0.573755 0.387196 0.0269202
0.645426 0.574516 0.446969
0.678156 0.652849 0.607948
0.0185816 0.0309272 0.0368557
0.0370147 0.0367543 0.0361551
0.0863632 0.0431108 0.038433
0.23481 0.098196 7.30956e-07
0.446857 0.234914 7.30956e-07
0.574018 0.388038 0.0298621
0.645454 0.574589 0.44692
0.678156 0.652855 0.607948
0.0468169 0.0868805 0.0609471
0.0537477 0.094871 0.0510197
0.117317 0.100264 0.033424
0.247083 0.135108 0.00490605
0.450437 0.244952 7.30956e-07
0.575073 0.39147 0.0394611
0.645579 0.574877 0.446729
0.678162 0.652868 0.607943
0.154768 0.250091 0.098303
0.158018 0.255 0.0737484
0.174387 0.266384 0.0673363
0.328705 0.269831 0.0598308
0.469659 0.310718 0.0382336
0.579186 0.407843 0.0686748
0.646186 0.576387 0.446081
0.678204 0.652936 0.607925
0.337854 0.478327 0.16716
0.338998 0.479031 0.167543
0.345016 0.481549 0.168872
0.398251 0.487339 0.17075
0.555962 0.503575 0.167734
0.6031 0.486314 0.141921
0.648716 0.583624 0.444054
0.678409 0.6533 0.607894
0.556154 0.627291 0.256457
0.556528 0.62735 0.256479
0.55804 0.627587 0.25657
0.565283 0.628805 0.257046
0.594929 0.634346 0.260349
0.663452 0.646763 0.427406
0.664685 0.61908 0.446519
0.67931 0.655201 0.608112
0.659066 0.672758 0.571752
0.659085 0.672755 0.571792
0.659172 0.672758 0.571944
0.659599 0.672755 0.57271
0.661612 0.672768 0.576444
0.669677 0.67299 0.592505
0.686443 0.676512 0.612879
0.684895 0.665216 0.61103
0.684779 0.680209 0.634454
0.684782 0.680209 0.63446
0.684785 0.680209 0.634472
0.684808 0.680209 0.634505
0.684915 0.680199 0.634688
0.685449 0.680164 0.635582
0.687491 0.680051 0.639454
0.691185 0.680726 0.644055
0.0214763 0.0137737 0.0815322
0.0370434 0.0155399 0.0842016
0.0861237 0.0273641 0.0935598
0.228911 0.0906543 0.119819
0.447882 0.233206 7.30956e-07
0.574347 0.38713 0.0238713
0.645466 0.574488 0.447574
0.678159 0.652846 0.60796
0.027559 0.0355541 0.0875196
0.041454 0.0380682 0.0900022
0.0940131 0.0336666 0.0978279
0.235186 0.0967266 0.116761
0.448926 0.235395 7.30956e-07
0.574608 0.38797 0.0272146
0.645493 0.574556 0.447528
0.678162 0.652852 0.60796
0.0506056 0.0785154 0.121226
0.0550557 0.0892816 0.119428
0.113937 0.112979 0.11075
0.253534 0.130367 0.103634
0.453098 0.245461 7.30956e-07
0.575653 0.391399 0.037662
0.645618 0.574847 0.447341
0.678169 0.652865 0.607954
0.156651 0.248873 0.175073
0.159549 0.253692 0.166497
0.171882 0.271789 0.12696
0.328972 0.280607 0.0650803
0.470844 0.309833 0.0355988
0.57976 0.407821 0.0679435
0.646232 0.576376 0.446778
0.678207 0.652936 0.607934
0.339722 0.481163 0.16876
0.340709 0.481866 0.169149
0.345865 0.484486 0.170563
0.396692 0.490143 0.172482
0.555475 0.506176 0.169697
0.603482 0.486523 0.141964
0.648762 0.583621 0.444776
0.678412 0.6533 0.607911
0.556739 0.627902 0.25687
0.557111 0.627958 0.256892
0.558627 0.628199 0.256981
0.565869 0.629391 0.257441
0.594971 0.634352 0.262472
0.663154 0.646644 0.434299
0.664713 0.61908 0.447364
0.679313 0.655204 0.608127
0.659091 0.672761 0.572044
0.659113 0.672761 0.572079
0.6592 0.672761 0.572231
0.659624 0.672765 0.572995
0.66164 0.672768 0.576722
0.669696 0.672978 0.592737
0.68642 0.676486 0.613047
0.684898 0.665222 0.611053
0.684782 0.680209 0.634472
0.684782 0.680209 0.634469
0.684782 0.680209 0.634478
0.684808 0.680209 0.634517
0.684921 0.680199 0.6347
0.685449 0.680161 0.635594
0.687491 0.680058 0.63946
0.691185 0.680723 0.644064
0.0803093 0.0455065 0.229375
0.0809501 0.0459135 0.230718
0.0896063 0.0494517 0.240184
0.243693 0.102469 0.262841
0.453598 0.235 0.225281
0.577328 0.386668 7.30956e-07
0.645673 0.574391 0.450704
0.678169 0.65284 0.608023
0.0824406 0.04729 0.233743
0.0841628 0.0483413 0.237322
0.0915986 0.0515515 0.246209
0.249167 0.105278 0.265432
0.45463 0.236989 0.224477
0.57758 0.387516 7.30956e-07
0.645704 0.574469 0.450685
0.678172 0.652846 0.608017
0.0940613 0.0796607 0.2509
0.0953582 0.0803939 0.253585
0.101265 0.080152 0.265167
0.266333 0.11616 0.275468
0.458788 0.246345 0.219913
0.578595 0.390965 0.0253414
0.645829 0.574788 0.4506
0.678182 0.652858 0.608017
0.169022 0.229178 0.325642
0.171179 0.234061 0.325239
0.179466 0.251674 0.323523
0.315849 0.312314 0.303767
0.475283 0.307046 0.172423
0.583461 0.408108 0.0635924
0.646449 0.576346 0.450174
0.678217 0.652923 0.607997
0.345681 0.486586 0.313591
0.346622 0.487713 0.310977
0.350826 0.492265 0.299572
0.392977 0.502116 0.204666
0.552571 0.518664 0.182902
0.605418 0.48806 0.142617
0.648974 0.583594 0.448278
0.678428 0.653309 0.607997
0.559598 0.630803 0.258837
0.559953 0.630829 0.258838
0.561379 0.630946 0.258842
0.568123 0.631498 0.259218
0.595388 0.634379 0.323563
0.66169 0.646033 0.462493
0.664836 0.619068 0.451546
0.679329 0.655213 0.608216
0.659222 0.67279 0.573445
0.659244 0.67279 0.573481
0.659331 0.67279 0.573633
0.659754 0.672787 0.574391
0.661765 0.672781 0.578083
0.669765 0.672917 0.593894
0.686294 0.676339 0.613842
0.684902 0.665222 0.611145
0.684789 0.680215 0.634526
0.684789 0.680209 0.634532
0.684795 0.680209 0.634535
0.684814 0.680209 0.634574
0.684931 0.680202 0.63476
0.685458 0.680164 0.635654
0.687494 0.680045 0.639512
0.691178 0.680717 0.644101
0.216848 0.152293 0.464764
0.216889 0.151982 0.464872
0.2172 0.150808 0.465532
0.224775 0.1506 0.476925
0.474868 0.251181 0.483409
0.592774 0.394133 0.227867
0.646791 0.574181 0.465864
0.678242 0.652837 0.608368
0.217906 0.155926 0.465934
0.217985 0.155496 0.466133
0.218267 0.154122 0.46678
0.225665 0.152784 0.478098
0.475915 0.252348 0.484137
0.592942 0.39507 0.227762
0.646818 0.574255 0.46585
0.678242 0.65284 0.608368
0.222742 0.176319 0.470377
0.22273 0.175324 0.470542
0.222787 0.171533 0.471315
0.2294 0.165573 0.482397
0.48011 0.258014 0.486985
0.593621 0.398899 0.227363
0.646941 0.574575 0.465795
0.678255 0.652861 0.608368
0.259864 0.30866 0.483276
0.259864 0.308532 0.483382
0.259925 0.307978 0.483964
0.264514 0.308464 0.493455
0.496197 0.320446 0.496696
0.597023 0.418127 0.225874
0.64754 0.576138 0.465506
0.678294 0.652942 0.608374
0.363869 0.484828 0.517446
0.364342 0.485514 0.517488
0.366371 0.488415 0.517738
0.382943 0.504796 0.520441
0.534654 0.527302 0.508538
0.615315 0.507584 0.287024
0.6505 0.58366 0.464079
0.678515 0.653346 0.608417
0.565095 0.633291 0.452748
0.565462 0.633309 0.453055
0.566936 0.633357 0.454315
0.573782 0.633567 0.460551
0.599389 0.634382 0.488639
0.655151 0.642811 0.537139
0.665536 0.619399 0.472179
0.679413 0.655244 0.608636
0.659876 0.672908 0.580018
0.659895 0.672908 0.580059
0.659985 0.672901 0.580207
0.6604 0.672889 0.580924
0.662381 0.672809 0.584428
0.670117 0.672606 0.599202
0.685698 0.675662 0.617486
0.684957 0.665241 0.611625
0.684827 0.680212 0.634808
0.684831 0.680215 0.634814
0.684831 0.680215 0.63482
0.684853 0.680209 0.634856
0.684963 0.680202 0.635039
0.685491 0.680161 0.635928
0.687513 0.680022 0.639759
0.691142 0.680665 0.644274
0.390362 0.482875 0.615158
0.390412 0.482866 0.615298
0.390629 0.482843 0.615886
0.391978 0.482841 0.619047
0.46293 0.480351 0.626192
0.625881 0.537623 0.605392
0.655616 0.586309 0.539322
0.678675 0.653 0.610383
0.390716 0.483554 0.615181
0.390757 0.483535 0.615315
0.390975 0.483512 0.6159
0.392334 0.483531 0.619059
0.463381 0.481307 0.626165
0.625961 0.538227 0.605389
0.65564 0.586392 0.539337
0.678678 0.653006 0.610383
0.392159 0.486293 0.615266
0.3922 0.486272 0.615402
0.392375 0.486191 0.615967
0.393755 0.486297 0.619106
0.465216 0.485088 0.626049
0.626286 0.540634 0.605375
0.65574 0.586706 0.539403
0.678691 0.653022 0.610386
0.399099 0.499043 0.615688
0.399142 0.499043 0.615824
0.399344 0.499043 0.616369
0.400602 0.499187 0.619337
0.474897 0.502409 0.625328
0.62778 0.551364 0.605312
0.656239 0.588265 0.539736
0.67873 0.653105 0.610391
0.428247 0.54692 0.617936
0.428367 0.547042 0.618062
0.428885 0.547589 0.618579
0.432481 0.550999 0.621405
0.523779 0.56195 0.61922
0.633477 0.586853 0.605143
0.658664 0.59561 0.541356
0.678941 0.653503 0.610443
0.581967 0.63494 0.609742
0.582294 0.63494 0.609731
0.583613 0.63494 0.609702
0.589703 0.634919 0.609564
0.611605 0.634787 0.608981
0.647363 0.637607 0.611666
0.67075 0.630773 0.562834
0.679965 0.655455 0.610669
0.662722 0.673079 0.604837
0.662747 0.673073 0.604863
0.662829 0.67306 0.604968
0.663223 0.672997 0.605478
0.665074 0.672698 0.607911
0.671714 0.671504 0.617638
0.683551 0.673238 0.629554
0.685248 0.665436 0.614254
0.685015 0.680215 0.636153
0.685015 0.680215 0.636156
0.685021 0.680215 0.636162
0.685044 0.680215 0.636201
0.685157 0.680199 0.636379
0.685672 0.680135 0.637246
0.687614 0.679907 0.640894
0.690986 0.680463 0.645066
0.614553 0.633839 0.654798
0.614594 0.633839 0.654801
0.61476 0.63383 0.654801
0.615574 0.6338 0.654783
0.619534 0.633651 0.654715
0.63831 0.633905 0.653327
0.676988 0.650266 0.641303
0.682223 0.65743 0.624164
0.614568 0.633866 0.654795
0.614608 0.633869 0.654795
0.614774 0.63386 0.654795
0.615592 0.63383 0.654783
0.619548 0.633678 0.654712
0.638331 0.633944 0.653324
0.676994 0.650291 0.641303
0.682229 0.657433 0.624161
0.61464 0.633989 0.654786
0.614678 0.633986 0.654783
0.614841 0.633983 0.654783
0.615661 0.63395 0.654771
0.619607 0.633797 0.654702
0.638415 0.634091 0.653293
0.677007 0.650398 0.641303
0.682235 0.657449 0.624167
0.614983 0.634574 0.654724
0.615018 0.634568 0.654724
0.615184 0.634562 0.654721
0.615988 0.634529 0.654712
0.619917 0.634385 0.654641
0.638832 0.634838 0.653161
0.6771 0.650927 0.641285
0.682271 0.65753 0.624194
0.616704 0.63736 0.654399
0.616745 0.637357 0.654399
0.616903 0.637351 0.654396
0.617679 0.637324 0.654387
0.62147 0.637195 0.654331
0.641103 0.638491 0.652368
0.677503 0.653318 0.641216
0.682438 0.657924 0.624332
0.626346 0.649106 0.652306
0.626384 0.649109 0.652303
0.626556 0.649118 0.652294
0.627415 0.649164 0.652223
0.631937 0.649532 0.65173
0.653136 0.652905 0.647494
0.678867 0.661352 0.641052
0.683267 0.659798 0.624976
0.668324 0.671974 0.641594
0.668343 0.671971 0.641597
0.668403 0.671968 0.6416
0.668703 0.671936 0.641616
0.670091 0.671793 0.641688
0.675066 0.671251 0.641931
0.682271 0.671695 0.643158
0.687283 0.669278 0.631205
0.685805 0.680141 0.641503
0.685798 0.680141 0.641503
0.685805 0.680141 0.64151
0.685827 0.680135 0.64154
0.685931 0.680109 0.641676
0.686398 0.679984 0.642335
0.688013 0.679522 0.64488
0.69048 0.679804 0.647617
0.673945 0.669977 0.654826
0.673951 0.669977 0.654826
0.673954 0.669977 0.654826
0.673992 0.669977 0.654826
0.674187 0.669984 0.654808
0.67512 0.670012 0.654724
0.679669 0.670398 0.653961
0.689099 0.674664 0.649937
0.673945 0.669977 0.654823
0.673948 0.669977 0.654826
0.673957 0.669977 0.654823
0.673995 0.669977 0.654823
0.674187 0.669984 0.654808
0.67512 0.670012 0.654727
0.679669 0.670398 0.653957
0.689096 0.674671 0.649937
0.673948 0.669984 0.654826
0.673951 0.669984 0.654823
0.673961 0.669984 0.654826
0.674002 0.669984 0.65482
0.674193 0.66999 0.654808
0.675123 0.670015 0.654727
0.679676 0.670408 0.653954
0.689103 0.674677 0.649937
0.67397 0.670015 0.65482
0.67397 0.670015 0.65482
0.67398 0.670015 0.654817
0.674018 0.670018 0.654814
0.674209 0.670025 0.654801
0.675136 0.670047 0.654721
0.679701 0.670449 0.653942
0.689103 0.674703 0.649937
0.674066 0.670167 0.654783
0.674066 0.670167 0.654786
0.674072 0.670167 0.654783
0.67411 0.67017 0.65478
0.674301 0.67018 0.654767
0.675229 0.670205 0.654684
0.679817 0.670636 0.653886
0.689122 0.67483 0.649931
0.674537 0.670905 0.6546
0.67454 0.670905 0.654604
0.67455 0.670908 0.654604
0.674588 0.670908 0.6546
0.674773 0.670911 0.654585
0.675669 0.67094 0.654508
0.680427 0.671561 0.653556
0.689226 0.67541 0.64991
0.677078 0.674015 0.653574
0.677084 0.674021 0.653571
0.67709 0.674021 0.653571
0.677129 0.674021 0.653562
0.677337 0.67404 0.653531
0.678412 0.674174 0.653321
0.683561 0.675197 0.651786
0.689523 0.677308 0.649851
0.687088 0.679634 0.649919
0.687091 0.679634 0.649919
0.687095 0.679634 0.649922
0.687114 0.679634 0.649919
0.687182 0.679621 0.649925
0.687523 0.679573 0.649953
0.688716 0.679406 0.65003
0.690242 0.679477 0.650315
