OpenDRT/OpenDRT_v1.0.0_Umbra__filmlight-egamut2-tloge_to_rec1886.cube
LUT_3D_SIZE 5
DOMAIN_MIN 0.000000 0.000000 0.000000
DOMAIN_MAX 0.851064 0.851064 0.851064
0.0149052 0.0147065 0.0144493
0.0545295 0.0145681 0.0174118
0.402358 0.0308521 0
0.863531 0.288762 0
0.983919 0.817309 0.665951
0 0.0512497 0.0202878
0.0764872 0.0545596 0
0.413211 0.0546584 0
0.865388 0.293713 0
0.983949 0.817375 0.665923
0 0.356899 0
0 0.364378 0
0.611773 0.379234 0
0.88586 0.360844 0
0.98436 0.818262 0.665548
0.612259 0.896949 0
0.616875 0.897344 0
0.674918 0.902952 0
1 0.909659 0.401593
0.989592 0.833424 0.664617
0.966026 0.933473 0.751602
0.966064 0.933468 0.751639
0.96657 0.933402 0.752138
0.973257 0.932508 0.75917
1 0.930764 0.788874
0.0146975 0.015828 0.0491491
0.0613596 0.00453742 0.056405
0.408481 0.0290259 0.0198781
0.865102 0.288222 0
0.983938 0.8173 0.666008
0 0.0496065 0.0713883
0.068188 0.0667356 0.0648291
0.424682 0.0513298 0.00519855
0.86696 0.29322 0
0.983969 0.817366 0.66598
0 0.368931 0
0 0.373724 0
0.606857 0.39006 0
0.887359 0.360569 0
0.98438 0.81826 0.665618
0.613509 0.898397 0
0.618141 0.898783 0
0.676324 0.904269 0
1 0.909191 0.409535
0.989611 0.833427 0.664698
0.966036 0.933472 0.75166
0.966074 0.933467 0.751697
0.96658 0.933401 0.752197
0.973267 0.932504 0.759228
1 0.930754 0.788913
0 0.0148505 0.362627
0 0.0129523 0.36623
0.439212 0 0.404328
0.887599 0.281414 0
0.9842 0.817178 0.666783
0 0.0400989 0.377012
0 0.0352257 0.385079
0.456057 0.0133504 0.412307
0.889351 0.286739 0
0.984231 0.817244 0.666755
0 0.364933 0.49733
0 0.374896 0.492938
0.500976 0.474515 0.437684
0.910659 0.359029 0
0.984655 0.818312 0.66666
0.623986 0.906522 0.105042
0.628502 0.906426 0.112566
0.683695 0.905054 0.213895
0.996401 0.902957 0.496224
0.989861 0.833467 0.665775
0.96617 0.933456 0.752444
0.966208 0.933451 0.752481
0.966714 0.933383 0.75298
0.973398 0.932457 0.759997
1 0.930617 0.789434
0.039047 0.600747 0.874933
0.0434728 0.60106 0.876614
0.170553 0.602511 0.896268
0.964117 0.646026 0.788431
0.988429 0.818166 0.681675
0.038934 0.60397 0.874593
0.0432105 0.604199 0.87623
0.169372 0.605924 0.895934
0.963797 0.649806 0.788066
0.988458 0.818248 0.681677
0.0390562 0.645316 0.870025
0.0431647 0.64571 0.871541
0.158927 0.649402 0.890776
0.959505 0.693565 0.783561
0.988841 0.81936 0.681704
0.691113 0.887942 0.769672
0.695023 0.887663 0.769643
0.741886 0.884035 0.769206
0.935359 0.867753 0.76973
0.994344 0.835263 0.682443
0.968055 0.933156 0.76299
0.968094 0.933149 0.763026
0.9686 0.933055 0.763506
0.9752 0.931783 0.770138
1 0.928907 0.795897
0.914963 0.893546 0.843377
0.915026 0.893542 0.843373
0.915874 0.893489 0.843324
0.927779 0.892748 0.842473
1 0.904104 0.817636
0.914976 0.893578 0.843365
0.915039 0.893574 0.843362
0.915887 0.893521 0.843312
0.927788 0.89278 0.842462
1 0.904135 0.817632
0.91515 0.894008 0.84321
0.915214 0.894004 0.843206
0.916058 0.893952 0.843158
0.927918 0.893214 0.842313
1 0.904534 0.817571
0.917997 0.899796 0.840891
0.918057 0.899792 0.840888
0.918856 0.899745 0.840842
0.930063 0.899057 0.840069
1 0.90946 0.816809
0.977974 0.927535 0.814605
0.978001 0.927531 0.814606
0.978361 0.927471 0.814621
0.982963 0.926689 0.814799
0.999039 0.924375 0.815525
