OpenDRT/OpenDRT_v1.0.0_Default__filmlight-egamut2-tloge_to_display-p3.cube
LUT_3D_SIZE 8
DOMAIN_MIN 0.000000 0.000000 0.000000
DOMAIN_MAX 0.893617 0.893617 0.893617
0.000569058 0.000569058 0.000569058
0.0232159 0.00177864 0
0.116787 0.00630145 0
0.411852 0.0294416 0
0.78865 0.184969 0
0.98248 0.64754 0.429311
1 0.899483 0.835956
1 0.97597 0.958563
0 0.0169229 0
0.0238275 0.0212715 0
0.117213 0.038282 0
0.415611 0.0439677 0
0.789735 0.193366 0
0.982635 0.648504 0.429041
1 0.899545 0.83595
1 0.975973 0.958563
0 0.0895028 0
0.00562015 0.0936182 0
0.118312 0.105458 0
0.419997 0.135755 0
0.792579 0.22931 0
0.983265 0.652435 0.427964
1 0.899797 0.835927
1 0.975988 0.958563
0 0.335507 0
0 0.337215 0
0.0282372 0.355371 0
0.424288 0.389637 0
0.80486 0.391033 0
0.985063 0.671621 0.423842
1 0.901042 0.83582
1 0.976061 0.958564
0.00464924 0.726419 0
0.00616947 0.728514 0
0.0143859 0.737846 0
0.229451 0.77423 0
0.81451 0.813576 0
1 0.765794 0.418574
1 0.907102 0.835554
1 0.976422 0.958571
0.563172 0.990967 0.51965
0.564211 0.991029 0.519558
0.568408 0.991287 0.519184
0.591259 0.992022 0.520881
0.690121 0.998412 0.52944
0.976168 0.994148 0.689538
1 0.938605 0.838997
1 0.978175 0.95868
0.878834 1 0.862626
0.878885 1 0.862622
0.879089 1 0.862608
0.8801 1 0.862538
0.886572 1 0.864089
0.916095 1 0.871781
1 1 0.92548
1 0.987211 0.960549
0.970177 1 0.965463
0.970179 1 0.965463
0.970191 1 0.965462
0.970246 1 0.965458
0.970518 1 0.96544
0.972466 1 0.966106
0.981251 1 0.969416
1 1 0.984921
0 0.000186142 0.0177914
0.0261158 0 0.0244355
0.118846 0.00418837 0.0379465
0.415543 0.0277602 0
0.790449 0.183783 0
0.982529 0.647454 0.431187
1 0.899486 0.836046
1 0.97597 0.958568
0 0.0199181 0.0231638
0.0257669 0.0257669 0.0257669
0.124711 0.0305844 0.0314307
0.420839 0.0408085 0
0.791519 0.192211 0
0.982682 0.648418 0.430919
1 0.899547 0.83604
1 0.975974 0.958568
0 0.0913134 0.0380136
0.0016587 0.0965417 0.0323579
0.122259 0.111479 0.00139005
0.425836 0.128106 0
0.79423 0.227774 0
0.983311 0.652347 0.429854
1 0.899799 0.836017
1 0.975989 0.958568
0 0.34063 0
0 0.342068 0
0.0226325 0.359159 0
0.42613 0.393317 0
0.806299 0.390601 0
0.985108 0.671526 0.425743
1 0.901044 0.835911
1 0.976062 0.958569
0.00421412 0.728597 0
0.00573602 0.730662 0
0.0137442 0.739906 0
0.227268 0.776375 0
0.815406 0.81452 0
1 0.765673 0.420563
1 0.907104 0.835645
1 0.976422 0.958576
0.562847 0.991148 0.520594
0.563887 0.99121 0.520502
0.568092 0.991465 0.52013
0.591074 0.992166 0.521949
0.690041 0.998477 0.530534
0.97598 0.993843 0.69102
1 0.9386 0.839089
1 0.978175 0.958686
0.878818 1 0.862668
0.878869 1 0.862665
0.879074 1 0.862651
0.880084 1 0.862581
0.886569 1 0.864145
0.916096 1 0.871839
1 1 0.925565
1 0.987211 0.960555
0.970176 1 0.965465
0.970179 1 0.965465
0.97019 1 0.965465
0.970245 1 0.965461
0.970517 1 0.965443
0.972466 1 0.966109
0.981252 1 0.969419
1 1 0.984926
0 0 0.0926487
0.0243424 0 0.100395
0.12533 0 0.116738
0.421413 0.0214818 0.123408
0.798195 0.179075 0
0.982727 0.647121 0.438725
1 0.899496 0.836414
1 0.975972 0.95859
0 0.0214465 0.0991262
0.0128504 0.0180582 0.109546
0.130178 0.00844377 0.119653
0.427455 0.0322398 0.115999
0.799227 0.1876 0
0.982878 0.648084 0.43847
1 0.899558 0.836408
1 0.975976 0.95859
0 0.0981615 0.114726
0 0.103342 0.115031
0.122206 0.122206 0.122206
0.441895 0.101541 0.0806394
0.802648 0.222492 0
0.983499 0.652008 0.437453
1 0.899809 0.836385
1 0.975991 0.95859
0 0.348338 0.137365
0 0.350574 0.132735
0.00983377 0.37076 0.114998
0.436787 0.409983 0
0.812407 0.389344 0
0.985292 0.671152 0.433394
1 0.901054 0.83628
1 0.976064 0.958591
0.00215021 0.737971 0
0.00399815 0.739967 0
0.0113165 0.748761 0
0.218018 0.785579 0
0.817465 0.816785 0.0169003
1 0.765186 0.428566
1 0.90711 0.836016
1 0.976425 0.958599
0.561512 0.991885 0.524426
0.562559 0.991945 0.524335
0.566797 0.992192 0.523972
0.590311 0.992752 0.526264
0.689711 0.998745 0.534954
0.975217 0.992609 0.696962
1 0.938578 0.839465
1 0.978177 0.958708
0.878754 1 0.862843
0.878804 1 0.86284
0.87901 1 0.862826
0.880021 1 0.862756
0.886556 1 0.864373
0.916102 1 0.872075
1 1 0.925908
1 0.987211 0.960577
0.970172 1 0.965475
0.970176 1 0.965475
0.970186 1 0.965474
0.970241 1 0.96547
0.970514 1 0.965452
0.972466 1 0.966123
0.981253 1 0.969433
1 1 0.984944
0 0 0.352742
0 0 0.35686
0.0697012 0 0.38211
0.42812 0 0.405586
0.818639 0.157347 0.253601
0.983733 0.645842 0.474178
1 0.899554 0.838226
1 0.975983 0.958698
0 0.0107791 0.358508
0 0.00890189 0.363969
0.0540854 0.00600608 0.388408
0.431129 0.00505832 0.408299
0.819977 0.166356 0.253084
0.983876 0.646799 0.47397
1 0.899616 0.838221
1 0.975987 0.958698
0 0.0981023 0.376374
0 0.0880082 0.38213
0.0157322 0.0589004 0.406608
0.441713 0.0370017 0.418903
0.82407 0.204808 0.250948
0.984457 0.650696 0.473145
1 0.899867 0.838199
1 0.976001 0.958699
0 0.366066 0.405778
0 0.368169 0.40526
0 0.381848 0.40901
0.418979 0.418979 0.418979
0.827187 0.389179 0.246359
0.98739 0.67002 0.469568
1 0.901106 0.838098
1 0.976074 0.958699
0 0.76446 0.258352
0 0.766186 0.257597
0.00140158 0.773898 0.254715
0.181153 0.805364 0.255475
0.80219 0.802585 0.390232
1 0.763452 0.468332
1 0.907145 0.837845
1 0.976435 0.958707
0.5552 0.995431 0.543845
0.556495 0.995436 0.543984
0.561704 0.995461 0.54454
0.58627 0.995694 0.547118
0.687946 1 0.556147
0.971532 0.986739 0.724174
1 0.938476 0.841316
1 0.978186 0.958817
0.878435 1 0.863707
0.878486 1 0.863704
0.878692 1 0.86369
0.879709 1 0.863622
0.88649 1 0.865497
0.916128 1 0.873233
1 1 0.927578
1 0.987209 0.960687
0.970155 1 0.965521
0.970158 1 0.965521
0.970169 1 0.96552
0.970224 1 0.965516
0.970497 1 0.965499
0.972469 1 0.966191
0.98126 1 0.969503
1 1 0.985036
0 0.22023 0.788643
0 0.21804 0.789961
0 0.208759 0.796298
0.171201 0.194243 0.844336
0.80784 0.338317 0.779154
0.98805 0.652419 0.624629
1 0.899974 0.847152
1 0.976036 0.959231
0 0.230859 0.78896
0 0.228087 0.790178
0 0.219177 0.796457
0.168842 0.207046 0.844538
0.807544 0.346613 0.779018
0.988107 0.653455 0.624718
1 0.900035 0.847148
1 0.97604 0.959231
0 0.272287 0.789639
0 0.269926 0.790825
0 0.26012 0.796473
0.159289 0.25763 0.841835
0.806201 0.378856 0.778329
0.988334 0.657679 0.625121
1 0.90028 0.84713
1 0.976055 0.959231
0 0.425146 0.788993
0 0.424543 0.789826
0 0.423365 0.793528
0.12856 0.445323 0.827963
0.798029 0.505321 0.773661
0.989333 0.678657 0.628003
1 0.901495 0.847052
1 0.976127 0.959232
0 0.766653 0.752811
0 0.767151 0.753347
0 0.769751 0.756137
0.159316 0.789615 0.777497
0.762473 0.762473 0.762473
0.991085 0.777032 0.660037
1 0.907581 0.846852
1 0.976486 0.959241
0.529148 1 0.644826
0.530666 1 0.644929
0.536764 1 0.645343
0.56529 1 0.647298
0.695266 1 0.673532
0.95492 0.961874 0.8235
1 0.938265 0.851074
1 0.97823 0.959354
0.877093 1 0.868372
0.877168 1 0.868394
0.877472 1 0.868483
0.878962 1 0.86892
0.886064 1 0.870977
0.916197 1 0.878831
0.999241 1 0.935338
1 0.987202 0.961226
0.970068 1 0.96575
0.970071 1 0.96575
0.970082 1 0.965749
0.970138 1 0.965746
0.970412 1 0.965728
0.972478 1 0.966523
0.981295 1 0.969846
1 1 0.985482
0.380449 0.743351 1
0.383156 0.743173 1
0.393967 0.742449 1
0.443336 0.738813 1
0.665249 0.743058 1
0.956692 0.830035 0.942758
1 0.906477 0.891281
1 0.976337 0.961849
0.380159 0.744067 1
0.382845 0.743885 1
0.393663 0.743161 1
0.443064 0.739536 1
0.66543 0.743928 1
0.956633 0.830508 0.942733
1 0.906541 0.891294
1 0.97634 0.961849
0.379005 0.746962 1
0.381697 0.746782 1
0.392453 0.746049 1
0.441976 0.742463 1
0.66618 0.74744 1
0.956394 0.832413 0.942631
1 0.9068 0.891349
1 0.976355 0.96185
0.373909 0.76094 1
0.376619 0.760772 1
0.387453 0.760088 1
0.437154 0.756658 1
0.670285 0.764168 1
0.955225 0.841395 0.942135
1 0.908082 0.891632
1 0.976425 0.961852
0.366021 0.82327 1
0.368978 0.823178 1
0.38125 0.822842 1
0.444615 0.821991 1
0.696405 0.831495 0.989194
0.949974 0.876221 0.940043
1 0.914524 0.893365
1 0.976775 0.961867
0.57111 0.987854 0.952028
0.573104 0.987674 0.951988
0.581206 0.98693 0.951819
0.620609 0.98298 0.950809
0.773499 0.962275 0.943983
0.93954 0.93954 0.93954
1 0.945551 0.908148
1 0.978525 0.961992
0.87395 1 0.896776
0.874033 1 0.896795
0.87437 1 0.896873
0.876019 1 0.897251
0.883857 1 0.899047
0.921755 1 0.912523
0.99329 0.995401 0.962972
1 0.98725 0.964047
0.969741 1 0.967034
0.969746 1 0.967035
0.969765 1 0.967043
0.969859 1 0.967081
0.970318 1 0.967265
0.972495 1 0.968132
0.981443 1 0.971491
1 1 0.987541
0.844496 0.93554 1
0.844598 0.935533 1
0.845011 0.935503 1
0.847043 0.93536 1
0.856914 0.934645 1
0.912993 0.938273 1
0.993766 0.96497 0.990068
1 0.978977 0.974588
0.844493 0.935583 1
0.844595 0.935575 1
0.845008 0.935547 1
0.84704 0.935403 1
0.85691 0.934688 1
0.913011 0.938323 1
0.993763 0.964995 0.990067
1 0.978981 0.974589
0.844481 0.935757 1
0.844582 0.93575 1
0.844995 0.935721 1
0.847026 0.935577 1
0.856896 0.934863 1
0.913082 0.938526 1
0.993747 0.965096 0.990061
1 0.978996 0.974593
0.844423 0.936614 1
0.844524 0.936607 1
0.844936 0.936578 1
0.846966 0.936435 1
0.856827 0.935723 1
0.913441 0.939523 1
0.99367 0.96559 0.990036
1 0.979068 0.974614
0.844263 0.940783 1
0.844364 0.940776 1
0.844775 0.940748 1
0.846794 0.940607 1
0.856631 0.939911 1
0.915312 0.944276 1
0.9933 0.967897 0.989912
1 0.979428 0.974723
0.84662 0.959699 1
0.84673 0.959694 1
0.847177 0.959675 1
0.849458 0.959593 1
0.862063 0.959466 1
0.925723 0.963224 1
0.991766 0.9764 0.989422
1 0.981228 0.975348
0.896135 1 0.993734
0.896234 1 0.993731
0.896633 1 0.993717
0.89861 1 0.993648
0.908454 1 0.993252
0.949317 0.996709 0.990827
0.989566 0.989566 0.989566
1 0.989724 0.980013
0.9695 1 0.975231
0.969505 1 0.975232
0.969526 1 0.975239
0.969629 1 0.975272
0.970133 1 0.975434
0.972515 1 0.976202
0.983515 1 0.980968
1 1 0.994613
0.962278 0.986542 1
0.962283 0.986542 1
0.962307 0.986541 1
0.962426 0.986538 1
0.963008 0.98652 1
0.96583 0.986435 1
0.981284 0.987927 1
1 0.994975 1
0.962278 0.986545 1
0.962283 0.986544 1
0.962307 0.986544 1
0.962426 0.98654 1
0.963008 0.986523 1
0.96583 0.986437 1
0.981285 0.98793 1
1 0.994976 1
0.962278 0.986555 1
0.962284 0.986554 1
0.962308 0.986553 1
0.962427 0.98655 1
0.963009 0.986532 1
0.96583 0.986447 1
0.98129 0.987941 1
1 0.994981 1
0.962281 0.986603 1
0.962286 0.986603 1
0.96231 0.986602 1
0.962429 0.986599 1
0.963011 0.986581 1
0.965832 0.986496 1
0.981313 0.987995 1
1 0.995007 1
0.962293 0.986844 1
0.962299 0.986843 1
0.962322 0.986843 1
0.962441 0.986839 1
0.963023 0.986821 1
0.965843 0.986735 1
0.981428 0.988261 1
1 0.99513 1
0.962386 0.98801 1
0.962391 0.988009 1
0.962416 0.988009 1
0.962533 0.988005 1
0.963114 0.987986 1
0.965927 0.987896 1
0.98202 0.989525 1
1 0.995701 1
0.963602 0.993232 1
0.963608 0.993232 1
0.963634 0.993231 1
0.963762 0.993228 1
0.964409 0.993216 1
0.967931 0.993233 1
0.985109 0.994448 1
1 0.997742 1
0.976753 1 1
0.976758 1 1
0.976781 1 1
0.976892 1 1
0.977442 1 1
0.980156 1 1
0.99106 1 1
1 1 1
