OpenDRT/OpenDRT-LogC3LinRec2020.cube
TITLE "Generated by Resolve"
LUT_3D_SIZE 9
0 0 0
0 0 0
0 0 0
0.0667582 0 0
0.298238 0.00793469 0
0.686885 0.066743 0.00550851
0.915694 0.308171 0.176181
0.960525 0.678187 0.577157
0.98175 0.895171 0.856809
0 0 0
0.000259403 0.000366217 0
0.0107424 0.00335698 0
0.0773327 0.00976577 0
0.302129 0.0245518 0
0.687266 0.0797131 0.00639353
0.915419 0.31397 0.178622
0.960525 0.679377 0.578042
0.98175 0.895308 0.856931
9.15541e-05 0.01561 7.62951e-05
0.00457771 0.0199283 0.00015259
0.0210727 0.0249027 0.000366217
0.0882429 0.0348363 0
0.307851 0.0509346 0
0.688228 0.0995651 0.00790417
0.915084 0.322774 0.182345
0.960525 0.681163 0.579416
0.981781 0.895521 0.85713
0.00222782 0.106874 0
0.0148318 0.109804 0
0.0363012 0.113878 0
0.106996 0.122774 0.00015259
0.322835 0.136294 0
0.693141 0.161761 0.0138857
0.914427 0.34995 0.194125
0.96054 0.686732 0.583658
0.981842 0.896178 0.85774
0.0285344 0.335912 0
0.0413825 0.339483 0
0.0615396 0.344808 9.15541e-05
0.127337 0.359442 0.00181582
0.330571 0.374121 0.0113985
0.712688 0.352514 0.0430152
0.915511 0.43093 0.231388
0.96083 0.703838 0.596811
0.98204 0.898253 0.859663
0.151629 0.633433 0.0779431
0.159014 0.635889 0.0791943
0.170352 0.639658 0.081117
0.206622 0.65156 0.0872663
0.3252 0.687633 0.107485
0.654521 0.716869 0.177813
0.93109 0.640238 0.340307
0.96318 0.751751 0.634485
0.982712 0.904585 0.865553
0.492607 0.834882 0.419516
0.494652 0.835447 0.42034
0.49778 0.836301 0.421576
0.507607 0.839017 0.425452
0.538643 0.847791 0.437583
0.633906 0.875731 0.473564
0.868116 0.906233 0.56849
0.97554 0.859007 0.721675
0.98497 0.921889 0.881819
0.804669 0.937804 0.770947
0.804959 0.937881 0.771099
0.805386 0.937987 0.771328
0.80676 0.938354 0.772045
0.811124 0.939513 0.774319
0.824689 0.943221 0.781338
0.864668 0.954971 0.801236
0.956909 0.97055 0.848173
0.991592 0.958297 0.916655
0.944732 0.982315 0.934554
0.944747 0.98233 0.934585
0.944793 0.98233 0.9346
0.94493 0.982376 0.934691
0.945373 0.982483 0.934951
0.946746 0.982864 0.93579
0.951003 0.98407 0.938354
0.963195 0.987732 0.945556
0.989517 0.99295 0.962081
0 0 0
0 0 0
0.00331121 0 0.000701915
0.0699931 0 0.0041352
0.300679 0.00442512 0.00381476
0.682506 0.0652628 0.0126497
0.912077 0.308843 0.18024
0.95967 0.678492 0.578225
0.981628 0.895216 0.856962
0 0 0
0.0009308 0.0009308 0.0009308
0.0161135 0.00166323 0.000946059
0.0835889 0.00588998 0.00184634
0.304997 0.0200809 0.00205997
0.682826 0.0781872 0.0133669
0.911849 0.314626 0.182666
0.959686 0.679667 0.57911
0.981643 0.895354 0.857084
0.000122072 0.0166781 0.00132753
0.00273136 0.0206607 0
0.0213626 0.0241855 0
0.0910811 0.031754 0.000503548
0.309377 0.0467842 0.000915541
0.683757 0.0979934 0.0146487
0.911543 0.323384 0.186358
0.959686 0.681453 0.580468
0.981659 0.895567 0.857282
0.00114443 0.104982 0
0.0132601 0.107774 0
0.0348211 0.111666 0
0.106065 0.119966 0.000366217
0.322194 0.132616 0
0.688701 0.160052 0.0200198
0.911055 0.350469 0.198016
0.959731 0.687022 0.58471
0.98172 0.896223 0.857893
0.0276341 0.332326 4.57771e-05
0.0404059 0.335912 0.000366217
0.060502 0.341253 0.000900282
0.126162 0.355901 0.00297551
0.328893 0.370398 0.0139773
0.708858 0.350301 0.0479896
0.912581 0.431174 0.234913
0.960067 0.704082 0.597803
0.981933 0.898299 0.859815
0.152193 0.631357 0.0794842
0.159564 0.633799 0.080766
0.170886 0.637552 0.0827344
0.207065 0.649409 0.0889906
0.325338 0.685298 0.109606
0.653376 0.714473 0.18117
0.929152 0.639857 0.342962
0.96257 0.751904 0.63534
0.982605 0.904631 0.86569
0.493141 0.834455 0.420386
0.495186 0.835019 0.421195
0.498314 0.835874 0.422446
0.508125 0.83859 0.426322
0.539117 0.847349 0.438468
0.634211 0.875212 0.474525
0.867857 0.905669 0.56968
0.975204 0.858991 0.72224
0.984894 0.921904 0.881941
0.804776 0.937758 0.771115
0.805066 0.937835 0.771252
0.805508 0.937942 0.771481
0.806867 0.938308 0.772213
0.811231 0.939467 0.774487
0.824796 0.943175 0.781506
0.864729 0.95491 0.801404
0.956878 0.970489 0.848386
0.991547 0.958297 0.916732
0.944747 0.982315 0.934585
0.944762 0.982315 0.9346
0.944808 0.98233 0.93463
0.944945 0.982361 0.934707
0.945388 0.982483 0.934966
0.946761 0.982864 0.935805
0.951019 0.98407 0.938384
0.963195 0.987732 0.945571
0.989517 0.992935 0.962097
0 0 0
1.5259e-05 0 0.000915541
0.00869764 0 0.0113375
0.0736858 0 0.0238193
0.301167 0.0021973 0.027451
0.676432 0.0631266 0.0266728
0.906401 0.309957 0.186908
0.958373 0.678965 0.579889
0.981445 0.895293 0.857206
0 0 0.00775158
0.000885023 0 0.0126802
0.0152743 0 0.0179294
0.0848707 0.00187686 0.0246738
0.309789 0.0140536 0.0236515
0.676188 0.0759442 0.0272068
0.906203 0.315709 0.189288
0.958373 0.68014 0.580774
0.98146 0.89543 0.857328
0.000167849 0.0162814 0.0173342
0 0.0196231 0.0205692
0.0213474 0.0213474 0.0213474
0.106264 0.0231479 0.018143
0.317021 0.0388342 0.0187686
0.677028 0.0956893 0.0283055
0.905989 0.324407 0.192935
0.958389 0.68191 0.582116
0.981491 0.895644 0.857527
0.000198367 0.102953 0.0192264
0.00325017 0.108278 0.0121767
0.0229038 0.112703 0.00683604
0.104524 0.116899 0.00732433
0.324498 0.126268 0.0146181
0.681819 0.157595 0.033051
0.905715 0.351339 0.204425
0.958465 0.687449 0.586328
0.981552 0.8963 0.858122
0.024506 0.327855 0.00526436
0.0372625 0.331395 0.00579843
0.057435 0.336675 0.00666819
0.12343 0.35111 0.00981155
0.326345 0.364858 0.0236667
0.702632 0.347097 0.0590982
0.907927 0.431632 0.240803
0.958892 0.704463 0.599359
0.98175 0.898375 0.860044
0.153277 0.628168 0.0827344
0.160616 0.630594 0.084062
0.171893 0.634302 0.0860914
0.20795 0.646067 0.0925917
0.32578 0.681682 0.114031
0.651637 0.710796 0.187762
0.92607 0.639307 0.347478
0.961624 0.752148 0.636667
0.982452 0.904692 0.865904
0.494011 0.833799 0.42179
0.496056 0.834363 0.422614
0.499153 0.835203 0.42385
0.508949 0.837919 0.427741
0.539864 0.846632 0.439918
0.634714 0.874403 0.476112
0.867491 0.904814 0.571649
0.974655 0.858976 0.723125
0.984771 0.92195 0.882124
0.804959 0.937682 0.771359
0.805234 0.937758 0.771511
0.805676 0.937881 0.77174
0.80705 0.938231 0.772473
0.811399 0.939391 0.774746
0.824948 0.943099 0.781765
0.864836 0.954818 0.801678
0.956847 0.970382 0.848692
0.991485 0.958312 0.916838
0.944762 0.9823 0.934615
0.944793 0.982315 0.93463
0.944839 0.98233 0.934661
0.944976 0.982361 0.934737
0.945403 0.982483 0.935012
0.946777 0.982864 0.935836
0.951034 0.984054 0.938415
0.963211 0.987716 0.945602
0.989517 0.992935 0.962142
0 0 0.0577249
0 0 0.0680247
0.0124361 0 0.0788739
0.0780957 0 0.0962081
0.305409 0 0.104845
0.690791 0.0571756 0.0802625
0.888136 0.313771 0.209476
0.954162 0.680461 0.585306
0.980896 0.895521 0.857954
0 0 0.0742351
0 0 0.0797436
0.0148318 0 0.0863508
0.0820325 0 0.0982681
0.308537 0.00401312 0.10338
0.684138 0.069688 0.0795148
0.888045 0.319402 0.21181
0.954177 0.68162 0.586175
0.980896 0.895659 0.858076
0 0.00708019 0.0857862
0 0.00796521 0.0896468
0.0178988 0.00822461 0.103761
0.0958572 0.00967422 0.110933
0.319493 0.0248264 0.100649
0.673976 0.0894636 0.0787213
0.887999 0.327962 0.215366
0.954223 0.683391 0.587503
0.980926 0.895872 0.858274
0 0.09131 0.0959029
0.00175479 0.0942397 0.098558
0.014847 0.0986343 0.10251
0.0995804 0.0995804 0.0995804
0.327276 0.106554 0.0844739
0.659831 0.150805 0.081178
0.888319 0.354437 0.226596
0.954376 0.688869 0.591638
0.980987 0.896529 0.858885
0.0196231 0.328496 0.0706951
0.0297856 0.329274 0.0686656
0.0470436 0.330129 0.06598
0.112444 0.337682 0.0673075
0.318517 0.347692 0.0855116
0.68159 0.338003 0.108568
0.892332 0.433433 0.261982
0.955047 0.705715 0.60444
0.981216 0.898589 0.860777
0.160159 0.616999 0.107515
0.167391 0.619333 0.109056
0.178546 0.62295 0.111406
0.21416 0.634379 0.118914
0.330068 0.669108 0.143496
0.646296 0.698756 0.222263
0.915358 0.637873 0.364874
0.95848 0.752941 0.641108
0.981949 0.904875 0.866606
0.497169 0.831556 0.427237
0.499199 0.832105 0.428061
0.502281 0.832944 0.429313
0.511986 0.835615 0.433249
0.542672 0.844236 0.445579
0.636683 0.871656 0.482292
0.8663 0.902037 0.579049
0.972885 0.858946 0.726131
0.984375 0.922072 0.882704
0.805524 0.937453 0.772229
0.805798 0.93753 0.772381
0.806241 0.937652 0.77261
0.807599 0.938003 0.773327
0.811933 0.939162 0.775601
0.825437 0.942855 0.782635
0.865202 0.954513 0.802579
0.956725 0.970047 0.84976
0.991287 0.958328 0.917205
0.944823 0.982284 0.934707
0.944854 0.9823 0.934737
0.9449 0.982315 0.934752
0.945037 0.982345 0.934844
0.94548 0.982467 0.935103
0.946853 0.982849 0.935943
0.951095 0.984039 0.938506
0.963256 0.987701 0.945708
0.989502 0.992905 0.962249
0 0 0.325475
0 0 0.326543
0 0 0.327825
0.0631723 0.000244144 0.33962
0.290852 0.000289921 0.354192
0.737423 0.0478065 0.269673
0.909804 0.314382 0.27425
0.940688 0.685374 0.603006
0.979049 0.896269 0.860426
0 0 0.325811
0 0 0.32604
0 0.000137331 0.32665
0.0640421 0.000762951 0.337896
0.291066 0.000808728 0.351461
0.731167 0.0541695 0.267063
0.904509 0.320699 0.276539
0.940764 0.686488 0.603845
0.979065 0.896406 0.860548
0 0.000289921 0.323583
0 0.000564584 0.323049
0 0.000976577 0.323354
0.0652171 0.00172427 0.334569
0.291447 0.00231937 0.347402
0.72137 0.0691997 0.26331
0.896635 0.330312 0.280095
0.940871 0.688197 0.605112
0.979095 0.896605 0.860746
0 0.0443427 0.319875
0 0.0454719 0.319814
0.00263981 0.0469673 0.325429
0.0681621 0.0512856 0.34255
0.300389 0.0613718 0.344594
0.689525 0.133547 0.253605
0.873747 0.359808 0.291752
0.941238 0.693507 0.609079
0.979171 0.897246 0.861326
0.0141146 0.296483 0.309056
0.0226444 0.296834 0.308843
0.0398566 0.297322 0.308476
0.102739 0.297368 0.305669
0.295689 0.295689 0.295689
0.623285 0.314702 0.252125
0.846174 0.440024 0.328664
0.942596 0.709834 0.621347
0.979431 0.89929 0.863203
0.175204 0.626551 0.233371
0.184237 0.625071 0.235798
0.19791 0.622919 0.23949
0.239185 0.616953 0.250904
0.351507 0.63035 0.28278
0.630503 0.663478 0.359625
0.879881 0.634928 0.42948
0.947921 0.755703 0.656443
0.980301 0.905501 0.868894
0.514824 0.821149 0.461692
0.516762 0.821698 0.462547
0.519707 0.822522 0.463828
0.529 0.825132 0.467857
0.558358 0.833585 0.480491
0.647944 0.860517 0.518349
0.862638 0.892592 0.61471
0.966522 0.858991 0.737408
0.983063 0.922484 0.884657
0.80766 0.936584 0.775586
0.807935 0.93666 0.775738
0.808362 0.936767 0.775967
0.80972 0.937118 0.776699
0.814008 0.938262 0.778988
0.827359 0.941894 0.786053
0.866606 0.953399 0.80618
0.956344 0.968948 0.853788
0.9906 0.958373 0.918471
0.945068 0.982223 0.935058
0.945098 0.982238 0.935073
0.945129 0.982254 0.935103
0.945266 0.982284 0.93518
0.945708 0.982406 0.935439
0.947082 0.982788 0.936278
0.951308 0.983978 0.938857
0.963409 0.98761 0.946059
0.989487 0.992813 0.962646
0 0.0237278 0.819959
0 0.0248569 0.813581
0 0.026627 0.80415
0 0.0319982 0.785412
0.159045 0.0453956 0.807492
0.678492 0.0781872 0.815518
0.996277 0.320073 0.502571
0.953323 0.689494 0.64123
0.973373 0.898619 0.868208
0 0.0259709 0.806607
0 0.0271611 0.800488
0 0.0289769 0.791455
0 0.0344549 0.774533
0.158862 0.0479744 0.798749
0.67541 0.0806592 0.8094
0.991562 0.324102 0.502251
0.952239 0.690806 0.642191
0.973404 0.898756 0.86833
0 0.0295567 0.787228
0 0.0307927 0.781506
0 0.0327001 0.773098
0.00128176 0.0383154 0.758816
0.15874 0.0519875 0.786007
0.670878 0.0844892 0.80032
0.984085 0.330846 0.501823
0.950607 0.692805 0.643656
0.973434 0.898955 0.868498
0 0.0419318 0.733669
0 0.0433051 0.729107
0 0.0454261 0.722606
0.0065919 0.0513008 0.715801
0.159503 0.0652781 0.750072
0.657176 0.0991073 0.772732
0.95877 0.356313 0.501091
0.945647 0.699016 0.648249
0.973556 0.89958 0.869062
0 0.16939 0.678126
0.00149538 0.170947 0.675731
0.0055848 0.173327 0.671901
0.0374762 0.180957 0.657374
0.174563 0.205585 0.650752
0.600061 0.257221 0.670314
0.887083 0.443992 0.506706
0.93196 0.717693 0.662547
0.973922 0.901534 0.870832
0.183291 0.615549 0.632319
0.191897 0.614176 0.630472
0.205768 0.612085 0.627649
0.250584 0.606012 0.61944
0.367956 0.594629 0.60293
0.592126 0.592126 0.592126
0.809125 0.62948 0.564141
0.919829 0.76405 0.699489
0.975097 0.9075 0.876234
0.547234 0.827512 0.571984
0.550042 0.826963 0.573404
0.554284 0.826169 0.57554
0.567193 0.823835 0.582071
0.603738 0.818173 0.600809
0.684947 0.830014 0.641367
0.852247 0.867918 0.720333
0.946792 0.859831 0.774456
0.978744 0.923873 0.891173
0.819593 0.931426 0.795941
0.819852 0.931502 0.796078
0.820249 0.931609 0.796307
0.8215 0.93196 0.797024
0.825483 0.933104 0.799252
0.837842 0.936751 0.806195
0.874113 0.948287 0.826108
0.955184 0.965103 0.872038
0.988174 0.958602 0.923049
0.945968 0.981964 0.9364
0.945998 0.981979 0.936416
0.946029 0.981979 0.936446
0.946166 0.982025 0.936522
0.946593 0.982132 0.936797
0.947951 0.982513 0.937636
0.952117 0.983688 0.940215
0.964034 0.987274 0.947463
0.989425 0.992523 0.964126
0.0585946 0.217975 1
0.0596628 0.219654 1
0.0612955 0.222187 1
0.0666667 0.230167 1
0.104021 0.253117 1
0.335424 0.306127 1
0.939941 0.410285 1
1 0.700481 0.76733
0.978515 0.900862 0.881437
0.0606851 0.221256 1
0.0617533 0.222919 1
0.0634012 0.225452 1
0.0688182 0.233387 1
0.106462 0.256184 1
0.336629 0.308751 1
0.938231 0.411963 1
1 0.70135 0.767498
0.978393 0.901015 0.88159
0.0638895 0.226246 1
0.0649729 0.227893 1
0.0666361 0.230411 1
0.0721141 0.2383 1
0.110185 0.260838 1
0.338491 0.312718 1
0.935699 0.414511 1
1 0.702724 0.767742
0.978195 0.901259 0.881819
0.0741894 0.241794 1
0.0753033 0.243412 1
0.0770123 0.245869 1
0.0826581 0.253574 1
0.121981 0.275288 1
0.344564 0.325032 1
0.928023 0.422492 1
0.999985 0.707271 0.768566
0.977584 0.902007 0.882536
0.108217 0.289265 0.962982
0.109392 0.290761 0.96083
0.111208 0.293034 0.957626
0.117418 0.300084 0.948272
0.159609 0.319097 0.938094
0.365362 0.362371 0.972793
0.904921 0.449699 1
0.98323 0.723674 0.771695
0.975753 0.904356 0.88481
0.229541 0.481361 0.887846
0.231067 0.482292 0.886732
0.233555 0.483711 0.884947
0.243381 0.488045 0.878141
0.29546 0.500877 0.845045
0.453178 0.538369 0.818936
0.816892 0.614298 0.862852
0.941573 0.773541 0.786007
0.971023 0.911299 0.891661
0.573312 0.846479 0.85568
0.576074 0.845914 0.854978
0.580316 0.84506 0.853941
0.593744 0.842435 0.850721
0.63331 0.835523 0.842145
0.715511 0.826276 0.82974
0.830915 0.830915 0.830915
0.916732 0.862287 0.835523
0.968536 0.927718 0.907683
0.838849 0.933761 0.8448
0.839261 0.933684 0.84506
0.839887 0.933577 0.845457
0.841825 0.933227 0.846677
0.847654 0.93225 0.850385
0.863249 0.930266 0.860426
0.894057 0.936553 0.879881
0.951919 0.956313 0.91458
0.981277 0.959457 0.936538
0.950927 0.980117 0.944274
0.950957 0.980133 0.944289
0.950988 0.980148 0.94432
0.95111 0.980179 0.944396
0.951492 0.980301 0.94464
0.952712 0.980682 0.945449
0.956451 0.981903 0.947906
0.967117 0.985595 0.954849
0.989242 0.991485 0.970291
0.427649 0.607904 1
0.428321 0.608469 1
0.429343 0.609308 1
0.432578 0.611994 1
0.442786 0.62031 1
0.485481 0.642908 1
0.655833 0.689235 1
0.992004 0.764065 1
1 0.906172 0.92401
0.428962 0.609003 1
0.429633 0.609567 1
0.430655 0.610407 1
0.433875 0.613062 1
0.444053 0.621347 1
0.486656 0.643809 1
0.656413 0.689891 1
0.99173 0.764385 1
0.999908 0.906279 0.924041
0.430976 0.610681 1
0.431647 0.611231 1
0.432654 0.61207 1
0.435843 0.61471 1
0.445975 0.622934 1
0.488441 0.645197 1
0.657298 0.690898 1
0.991333 0.764889 1
0.999741 0.906447 0.924102
0.437232 0.615869 1
0.437888 0.616403 1
0.43888 0.617227 1
0.442023 0.619806 1
0.451972 0.627832 1
0.49398 0.6495 1
0.660075 0.694011 1
0.990097 0.76643 1
0.999191 0.906981 0.924269
0.456489 0.631693 1
0.457115 0.632197 1
0.458045 0.632959 1
0.461006 0.63534 1
0.470436 0.642771 1
0.511086 0.662623 1
0.668727 0.703624 1
0.986297 0.771298 1
0.997314 0.908766 0.924834
0.51104 0.675242 0.987228
0.511559 0.675639 0.986893
0.512337 0.676234 0.986389
0.514824 0.678126 0.984833
0.522927 0.684001 0.980301
0.559609 0.699138 0.975845
0.694392 0.730938 0.993286
0.974609 0.78732 1
0.990723 0.915068 0.926863
0.642649 0.792782 0.955215
0.643061 0.79295 0.955047
0.643687 0.793225 0.954757
0.645747 0.794049 0.95378
0.653681 0.796506 0.949554
0.690517 0.80293 0.927687
0.776257 0.823102 0.91371
0.929213 0.865583 0.944503
0.976394 0.932754 0.934493
0.853208 0.948455 0.9514
0.853635 0.948363 0.951293
0.854276 0.948226 0.951125
0.856321 0.947799 0.950622
0.862669 0.946517 0.949096
0.879835 0.943511 0.945434
0.909972 0.940963 0.941848
0.946166 0.946166 0.946166
0.973342 0.96144 0.954879
0.958129 0.980941 0.959319
0.958175 0.980941 0.95935
0.958236 0.980926 0.959396
0.958419 0.980896 0.959533
0.95903 0.980804 0.95996
0.960815 0.98056 0.961242
0.965377 0.980224 0.964569
0.973846 0.982666 0.970779
0.988769 0.989593 0.981659
0.783871 0.866651 1
0.783978 0.866743 1
0.784161 0.86685 1
0.784726 0.867231 1
0.786526 0.868421 1
0.792157 0.872084 1
0.812787 0.881819 1
0.88188 0.901106 1
0.99913 0.931273 1
0.7841 0.866819 1
0.784222 0.866896 1
0.78439 0.867002 1
0.78497 0.867384 1
0.786755 0.868574 1
0.79237 0.872236 1
0.81297 0.881941 1
0.881971 0.901198 1
0.999115 0.931304 1
0.784451 0.867048 1
0.784573 0.867124 1
0.784756 0.867247 1
0.785306 0.867613 1
0.787106 0.868788 1
0.792706 0.87245 1
0.81326 0.882124 1
0.882109 0.90132 1
0.999069 0.931365 1
0.785565 0.867781 1
0.785672 0.867857 1
0.785855 0.867979 1
0.786419 0.868345 1
0.78819 0.869505 1
0.793744 0.873121 1
0.81416 0.882704 1
0.882536 0.901717 1
0.998962 0.931548 1
0.789044 0.870085 1
0.789151 0.870161 1
0.789319 0.870268 1
0.789868 0.870619 1
0.791592 0.871763 1
0.796994 0.875273 1
0.816999 0.884535 1
0.883909 0.902983 1
0.998596 0.932128 1
0.799527 0.876997 1
0.799634 0.877058 1
0.799786 0.877165 1
0.80029 0.877485 1
0.801862 0.878523 1
0.806806 0.881697 1
0.825589 0.890043 0.997909
0.888121 0.906828 1
0.997513 0.933959 1
0.827543 0.895293 0.991897
0.827619 0.895354 0.991867
0.827741 0.89543 0.991821
0.828122 0.895674 0.991699
0.829343 0.896437 0.991272
0.833234 0.898833 0.990082
0.84889 0.904906 0.989395
0.900084 0.917525 0.99646
0.993912 0.939971 1
0.886564 0.938201 0.985229
0.88661 0.938231 0.985214
0.886702 0.938262 0.985183
0.886961 0.938354 0.985077
0.887861 0.938643 0.98471
0.891325 0.939467 0.982986
0.906523 0.941451 0.97409
0.935622 0.948928 0.970153
0.979477 0.965576 0.982895
0.964019 0.986847 0.987533
0.964065 0.986831 0.987518
0.964126 0.986831 0.987503
0.96434 0.986786 0.987457
0.964996 0.986664 0.987305
0.96698 0.986297 0.986862
0.971939 0.985565 0.985962
0.979644 0.985534 0.985702
0.988479 0.988479 0.988479
