OpenDRT/OpenDRT-LogC3LinP3D65.cube
TITLE "Generated by Resolve"
LUT_3D_SIZE 5
0 0 0
0.00267033 0 0
0.389319 0.00117494 0
0.956924 0.337362 0.228473
0.988846 0.91014 0.880812
7.62951e-05 0.0148623 6.10361e-05
0.0220645 0.0257725 0.000366217
0.38526 0.0352941 0
0.945739 0.347845 0.234836
0.988617 0.910384 0.881117
0.0033875 0.353536 0
0.00500496 0.348943 0
0.338476 0.380118 0.0115816
0.936019 0.43386 0.276051
0.986709 0.912428 0.88365
0.427512 0.837964 0.387823
0.43006 0.837171 0.390402
0.451102 0.832288 0.410727
0.87335 0.909361 0.57026
0.987381 0.928908 0.898817
0.934371 0.98143 0.927275
0.934417 0.98143 0.927337
0.934859 0.981445 0.927825
0.939376 0.981704 0.932647
0.990036 0.993286 0.962203
0 0 0
0.0151064 0 0.0136873
0.391745 0.0010071 0.0281987
0.958404 0.338354 0.235615
0.988891 0.91017 0.880949
0.000198367 0.0166781 0.0162814
0.0213474 0.0213474 0.0213474
0.389364 0.0238956 0.0197604
0.947387 0.348486 0.241642
0.988663 0.910414 0.881254
0.00395209 0.345251 0.00306706
0.00540169 0.341268 0.00392157
0.333333 0.370138 0.0211643
0.929473 0.435004 0.283528
0.986755 0.912459 0.883772
0.428977 0.837095 0.389425
0.431525 0.836332 0.392004
0.452613 0.831449 0.412451
0.872648 0.907988 0.572641
0.987228 0.928969 0.899031
0.934401 0.981414 0.927321
0.934447 0.98143 0.927382
0.93489 0.981445 0.927855
0.939406 0.981689 0.932677
0.990036 0.993286 0.962249
0 0 0.330861
0 0 0.334951
0.388113 0 0.359686
0.978332 0.346899 0.304372
0.989273 0.91046 0.882094
0 0 0.330144
0 0.000747692 0.329015
0.376455 0.00122072 0.351476
0.968673 0.354528 0.308278
0.989059 0.910689 0.882383
0.0055848 0.316899 0.311345
0.00706493 0.314076 0.309194
0.295689 0.295689 0.295689
0.884489 0.444877 0.352056
0.987198 0.912703 0.88481
0.439979 0.834073 0.409064
0.44242 0.833478 0.411551
0.463249 0.829038 0.432105
0.867216 0.896132 0.60885
0.985946 0.929427 0.900771
0.934646 0.981399 0.927611
0.934707 0.981414 0.927672
0.935149 0.98143 0.928145
0.939681 0.981659 0.933013
0.990005 0.993179 0.962631
0.0485084 0.201617 1
0.0516518 0.20679 1
0.100664 0.244953 1
1 0.428565 1
0.993561 0.913375 0.895308
0.0532235 0.209354 1
0.0564279 0.214481 1
0.103761 0.252369 1
1 0.432212 1
0.993408 0.913558 0.895506
0.09308 0.268818 1
0.0965133 0.273533 0.998383
0.134005 0.308751 0.951629
1 0.460502 0.985031
0.992065 0.915129 0.897124
0.509529 0.884077 0.877348
0.511315 0.882841 0.876249
0.525872 0.873777 0.868132
0.830915 0.830915 0.830915
0.976028 0.933654 0.91664
0.937057 0.981628 0.931319
0.937118 0.981643 0.931365
0.93753 0.981659 0.931823
0.942016 0.981826 0.936645
0.989685 0.991928 0.969345
0.771588 0.858457 1
0.771984 0.858717 1
0.775113 0.860807 1
0.808209 0.878416 1
1 0.935943 1
0.772168 0.858854 1
0.772564 0.859113 1
0.775692 0.861189 1
0.808606 0.878721 1
1 0.936034 1
0.776837 0.861952 1
0.777218 0.862211 1
0.780224 0.86421 1
0.811795 0.881117 1
1 0.93666 1
0.81622 0.887907 0.997971
0.816495 0.888075 0.997848
0.818616 0.889464 0.996902
0.840009 0.901625 0.990707
1 0.942672 1
0.950912 0.991363 0.990631
0.950942 0.991363 0.990631
0.951202 0.991272 0.990555
0.953948 0.990524 0.989929
0.988479 0.988479 0.988479
