OpenDRT/OpenDRT-LogC3LinRec709.cube
TITLE "Generated by Resolve"
LUT_3D_SIZE 33
0 0 0
0 0 0
0 0 0
0 0 0
0 0 0
0 0 0
0 0 0
0 0 0
0.0087129 0 0
0.0259556 0 0
0.0513619 0 0
0.0865644 0 0
0.1337 0 0
0.194888 0 0
0.27158 0 0
0.363485 0 0
0.467643 0.00189212 0
0.578058 0.0068513 0
0.68661 0.0172427 0
0.784939 0.0366522 0.00117494
0.866346 0.0695048 0.0165713
0.927123 0.119799 0.046891
0.967041 0.189334 0.0971084
0.989013 0.276219 0.169192
0.997955 0.374716 0.260456
0.999252 0.476905 0.363897
0.997284 0.575036 0.470481
0.994842 0.663432 0.572
0.993255 0.739116 0.662745
0.992782 0.801465 0.739986
0.99321 0.851377 0.803388
0.994156 0.890532 0.854047
0.995315 0.920821 0.893782
0 0 0
0 0 0
0 0 0
0 0 0
0 0 0
0 0 0
0 0 0
0.00254826 0 0
0.0124819 0 0
0.0289616 0 0
0.0533761 0 0
0.087602 0 0
0.133822 0 0
0.194186 0 0
0.27013 0 0
0.361379 0 0
0.465003 0.00207523 0
0.575067 0.00715648 0
0.683528 0.0176547 0
0.78201 0.0372015 0.00122072
0.863783 0.0701457 0.0167544
0.925032 0.12047 0.0471809
0.965454 0.18999 0.0974746
0.987869 0.276783 0.169604
0.997192 0.375174 0.260838
0.998764 0.477241 0.364202
0.996979 0.575265 0.47071
0.994675 0.663584 0.572152
0.993164 0.739208 0.662837
0.992721 0.801526 0.740047
0.993179 0.851408 0.803433
0.994141 0.890562 0.854078
0.995315 0.920836 0.893797
0 0 0
0 0 0
0 0 0
0 0 0
0 0 0
0 0 0
0.000503548 0 0
0.00556954 0 0
0.0153658 0 0
0.0312505 0 0
0.054902 0 0
0.0883192 0 0
0.133761 0 0
0.193378 0 0
0.26865 0 0
0.359304 0.000106813 0
0.462394 0.00233463 0
0.572122 0.0075227 0
0.680476 0.018143 0
0.77911 0.0377813 0.0012665
0.861219 0.0708171 0.0169223
0.922942 0.121172 0.0474861
0.963851 0.190646 0.0978561
0.98674 0.277363 0.170001
0.996429 0.375631 0.261204
0.998276 0.477577 0.364508
0.996689 0.575509 0.470954
0.994507 0.663737 0.57232
0.993057 0.739315 0.662943
0.992676 0.801587 0.740124
0.993149 0.851453 0.803464
0.994125 0.890578 0.854109
0.9953 0.920851 0.893812
0 0 0
0 0 0
0 0 0
0 0 0
0 0 0
0.000137331 3.0518e-05 0
0.00248722 0.000274662 0
0.0078584 0.000488289 0
0.0174868 0.000549325 0
0.032929 0.000411994 0
0.0559854 0.000183108 0
0.0887617 0 0
0.133532 0 0
0.192508 0 0
0.267124 0 0
0.357214 0.000488289 0
0.459876 0.00271611 0
0.569238 0.00798047 0
0.67747 0.0186923 0
0.776226 0.0384222 0.00132753
0.858686 0.0715038 0.0171054
0.920867 0.121874 0.047776
0.962264 0.191318 0.0982376
0.985595 0.277943 0.170413
0.995666 0.376089 0.261585
0.997787 0.477928 0.364813
0.996399 0.575738 0.471183
0.994324 0.66389 0.572473
0.992966 0.739406 0.66305
0.992615 0.801633 0.740185
0.993118 0.851484 0.80351
0.99411 0.890593 0.854124
0.9953 0.920851 0.893828
0 0 0
0 0 0
0 0 0
0 0 0
9.15541e-05 0.000137331 0
0.00120546 0.000823987 0
0.00396735 0.00157168 0
0.00947585 0.00230411 0
0.0190127 0.00292973 0
0.034165 0.00328069 0
0.0568093 0.00328069 0
0.0890669 0.00280766 0
0.133288 0.00198367 0
0.191669 0.0011902 0
0.265705 0.000854505 0
0.35523 0.00135805 0
0.457435 0.00344854 0
0.566461 0.00862135 0
0.67451 0.0193484 0
0.773373 0.0391241 0.00138857
0.856153 0.0722362 0.0172885
0.918791 0.122606 0.0480964
0.960693 0.192004 0.0986343
0.984466 0.278523 0.170825
0.994904 0.376562 0.261952
0.997299 0.478264 0.365133
0.996094 0.575967 0.471412
0.994156 0.664042 0.572641
0.992859 0.739498 0.663157
0.992569 0.801694 0.740246
0.993088 0.851514 0.803555
0.994095 0.890623 0.854154
0.995285 0.920867 0.893843
0 0 0
0 0 0
0 0 0
0 0.000320439 0
0.000366217 0.00149538 1.5259e-05
0.00187686 0.00254826 3.0518e-05
0.00489815 0.00364691 4.57771e-05
0.0105287 0.00476081 1.5259e-05
0.0200351 0.00578317 0
0.0350042 0.00657664 0
0.0573434 0.00697337 0
0.0892348 0.00683604 0
0.133059 0.00608835 0
0.190997 0.00480659 0
0.264515 0.00352483 0
0.353491 0.00315862 0
0.455177 0.00471504 0
0.563867 0.00959792 0
0.671595 0.0201572 0
0.770535 0.0399176 0.00144961
0.853635 0.0730297 0.0174868
0.916716 0.123369 0.0484016
0.959091 0.192706 0.0990311
0.983322 0.279133 0.171237
0.994141 0.377035 0.262333
0.996811 0.478614 0.365438
0.995804 0.576211 0.471641
0.993988 0.664195 0.572793
0.992767 0.739605 0.663264
0.992508 0.801755 0.740322
0.993057 0.851545 0.803586
0.994079 0.890639 0.85417
0.99527 0.920882 0.893858
0 0 0
0 0 0
0 0.00108339 0
1.5259e-05 0.00282292 1.5259e-05
0.000198367 0.00436408 3.0518e-05
0.00210575 0.00567636 6.10361e-05
0.00544747 0.00701915 0.000106813
0.0112306 0.0084535 0.000106813
0.0207523 0.00982681 1.5259e-05
0.035584 0.0109865 0
0.0576486 0.0117647 0
0.089189 0.0119936 0
0.132631 0.0115358 0
0.190204 0.0103151 0
0.26334 0.00852979 0
0.351781 0.00698863 0
0.452842 0.00730907 0
0.561013 0.0113527 0
0.668482 0.0214847 0
0.767102 0.0410468 0.0015259
0.850553 0.0740826 0.0177462
0.914168 0.124361 0.0487984
0.957153 0.193576 0.0995193
0.981933 0.279866 0.17174
0.993194 0.377615 0.262806
0.996216 0.479026 0.36582
0.995438 0.576501 0.471931
0.993759 0.664393 0.572992
0.992645 0.739712 0.663401
0.992432 0.801831 0.740398
0.993011 0.851591 0.803647
0.994049 0.890669 0.8542
0.99527 0.920897 0.893874
0 0.00103761 0
1.5259e-05 0.00360113 1.5259e-05
3.0518e-05 0.00593576 3.0518e-05
4.57771e-05 0.00794995 4.57771e-05
6.10361e-05 0.0096437 6.10361e-05
0.00157168 0.0111086 7.62951e-05
0.00531014 0.0126192 0.000137331
0.0113985 0.0142367 0.000213626
0.0209812 0.0158999 0.000167849
0.0357366 0.0174105 0
0.0575875 0.0185702 0
0.0887922 0.0191653 0
0.131853 0.019028 0
0.189059 0.0180209 0
0.261875 0.0161593 0
0.349981 0.013901 0
0.450477 0.0126497 0
0.5579 0.0149844 0
0.664851 0.0239261 0
0.763134 0.0428779 0.00167849
0.846448 0.0756542 0.0180972
0.91078 0.12575 0.0493477
0.954543 0.194812 0.100175
0.980056 0.280888 0.172442
0.991943 0.378408 0.263432
0.995407 0.479606 0.366339
0.994934 0.576898 0.472313
0.993484 0.664637 0.573266
0.992477 0.739879 0.663569
0.992355 0.801923 0.740505
0.992966 0.851652 0.803708
0.994018 0.8907 0.854246
0.995254 0.920913 0.893889
3.0518e-05 0.00965896 3.0518e-05
4.57771e-05 0.0123751 4.57771e-05
6.10361e-05 0.0146944 6.10361e-05
7.62951e-05 0.0166781 7.62951e-05
9.15541e-05 0.0183719 9.15541e-05
0.000198367 0.0198367 0.000106813
0.00401312 0.0214084 0.000137331
0.0105287 0.0231327 0.000213626
0.0203861 0.0249332 0.000335698
0.035111 0.0267185 0.000198367
0.0567941 0.0282292 0
0.0877394 0.0291752 0
0.130465 0.0293431 0
0.18732 0.0285344 0
0.259876 0.026688 0
0.347814 0.024094 0
0.448096 0.0217594 0
0.55494 0.0220188 0
0.661036 0.0287175 0
0.758846 0.0461128 0.00195315
0.841611 0.0781109 0.0186007
0.906233 0.127825 0.0501106
0.951049 0.196536 0.101091
0.977554 0.282277 0.173373
0.99025 0.379477 0.264286
0.994324 0.480385 0.367025
0.994278 0.577417 0.472831
0.993088 0.664988 0.573617
0.992264 0.740093 0.663813
0.992218 0.802045 0.740658
0.992889 0.851728 0.8038
0.993988 0.890745 0.854292
0.995224 0.920943 0.893919
7.62951e-05 0.024033 7.62951e-05
9.15541e-05 0.0263981 9.15541e-05
0.000106813 0.0284581 0.000106813
0.000122072 0.0302434 0.000106813
0.000122072 0.0317845 0.000122072
0.000137331 0.0331579 0.000122072
0.00106813 0.0346075 0.000122072
0.00796521 0.036347 0.000183108
0.018265 0.0382086 0.000259403
0.0332341 0.0400702 0.000427253
0.0547799 0.0418402 0.00015259
0.0855573 0.043122 0
0.128038 0.0435798 0
0.18468 0.0429236 0
0.257084 0.0410163 0
0.344991 0.038056 0
0.445365 0.0348974 0
0.552132 0.0334936 0
0.657603 0.0375219 0
0.754498 0.0521096 0.00238041
0.836912 0.0821851 0.0192874
0.900694 0.130953 0.0511788
0.946349 0.199039 0.102373
0.974182 0.284245 0.17467
0.987976 0.380941 0.265446
0.992874 0.481437 0.367971
0.993408 0.578134 0.473518
0.992569 0.665446 0.574105
0.991958 0.740368 0.664118
0.992065 0.802213 0.740856
0.992813 0.85182 0.803922
0.993942 0.890791 0.854368
0.995209 0.920974 0.893965
0.000137331 0.0449989 0.000122072
0.000137331 0.046891 0.000122072
0.000137331 0.0485542 0.000122072
0.00015259 0.0500343 0.000122072
0.00015259 0.0513466 0.000106813
0.00015259 0.0525216 0.000106813
0.000167849 0.0537728 9.15541e-05
0.00300603 0.0552834 9.15541e-05
0.0137484 0.057145 0.00015259
0.02916 0.0590677 0.000259403
0.0509499 0.060853 0.000442512
0.0815137 0.0623789 0
0.123919 0.0631571 0
0.18056 0.062623 0
0.253056 0.0605631 0
0.341192 0.0570382 0
0.441917 0.0528573 0
0.549065 0.0498817 0
0.654566 0.0514687 0
0.750744 0.0626688 0.00306706
0.832227 0.0893568 0.0203403
0.895827 0.135805 0.0525216
0.940368 0.202777 0.104143
0.969619 0.287053 0.176455
0.984909 0.383001 0.267033
0.990936 0.482872 0.369238
0.992218 0.579095 0.474464
0.991882 0.666056 0.574746
0.991562 0.740749 0.664546
0.991836 0.802457 0.741115
0.992691 0.851957 0.804074
0.993881 0.890883 0.854459
0.995178 0.921019 0.894026
0.00015259 0.073991 0.000106813
0.00015259 0.0753643 9.15541e-05
0.00015259 0.0766155 7.62951e-05
0.00015259 0.0777295 6.10361e-05
0.00015259 0.0787213 4.57771e-05
0.000137331 0.0796368 3.0518e-05
0.000137331 0.0806134 1.5259e-05
0.000167849 0.0817273 0
0.00601205 0.0832685 0
0.0218204 0.0852827 1.5259e-05
0.0440528 0.0872511 0.000122072
0.0747997 0.0887312 0.000350958
0.117021 0.0897536 0
0.173983 0.0895094 0
0.247059 0.0872511 0
0.335943 0.0829175 0
0.437461 0.0772717 0
0.545373 0.0722362 0
0.651438 0.0712139 0
0.747646 0.0790265 0.00415045
0.828321 0.101549 0.0218814
0.891066 0.14403 0.0544594
0.935653 0.20824 0.106294
0.963592 0.291218 0.178958
0.980728 0.385916 0.269215
0.988281 0.484855 0.370962
0.990616 0.580407 0.475731
0.990936 0.666896 0.575616
0.991028 0.741268 0.66511
0.991547 0.802762 0.741482
0.992523 0.85214 0.804288
0.99379 0.890974 0.854597
0.995117 0.92108 0.894102
0.000122072 0.112688 0
0.000122072 0.113573 0
0.000122072 0.114366 0
0.000106813 0.115099 0
0.000106813 0.11574 0
9.15541e-05 0.11632 0
9.15541e-05 0.116945 0
7.62951e-05 0.117662 0
0.000213626 0.118441 0
0.0102388 0.120058 0
0.0326696 0.122408 0
0.063859 0.124468 0
0.106249 0.125399 0.00015259
0.16321 0.125444 0
0.237552 0.123415 0
0.328191 0.118242 0
0.431479 0.110613 0
0.540825 0.102663 0
0.647898 0.0981003 0
0.744656 0.101976 0.00579843
0.825238 0.120027 0.0241703
0.88716 0.157504 0.0572519
0.93106 0.217182 0.109285
0.959274 0.296986 0.181872
0.97499 0.390204 0.272312
0.984649 0.487678 0.373373
0.988418 0.582223 0.47747
0.98967 0.66804 0.576806
0.990311 0.74197 0.665873
0.99115 0.803174 0.741955
0.992309 0.852384 0.804578
0.993667 0.891127 0.854765
0.995056 0.921157 0.894194
6.10361e-05 0.162722 0
4.57771e-05 0.163119 0
4.57771e-05 0.16347 0
3.0518e-05 0.163775 0
3.0518e-05 0.16405 0
3.0518e-05 0.164263 0
3.0518e-05 0.164492 0
1.5259e-05 0.164706 0
1.5259e-05 0.164874 0
0.000427253 0.164965 0
0.0159304 0.166949 0
0.0468757 0.170108 0
0.0896162 0.172503 0
0.146777 0.172564 0
0.22179 0.170947 0
0.315648 0.165881 0
0.422644 0.156176 0
0.534951 0.144274 0
0.643854 0.134691 0
0.741527 0.13315 0.00830091
0.822446 0.145724 0.0274662
0.884169 0.177539 0.0612039
0.927337 0.231388 0.113527
0.955108 0.306157 0.185901
0.971298 0.395941 0.275792
0.979568 0.491798 0.376776
0.985397 0.584787 0.479881
0.98793 0.669612 0.578424
0.989334 0.742916 0.666926
0.9906 0.803738 0.742596
0.992004 0.85272 0.804974
0.993515 0.89131 0.854994
0.99498 0.921263 0.894331
1.5259e-05 0.225086 0
1.5259e-05 0.22501 0
1.5259e-05 0.224918 0
3.0518e-05 0.224796 0
3.0518e-05 0.224659 0
3.0518e-05 0.224506 0
4.57771e-05 0.224277 0
6.10361e-05 0.223941 0
9.15541e-05 0.223423 0
0.000137331 0.222644 0
0.00105287 0.221653 0
0.0233768 0.224598 0
0.0649729 0.22945 0
0.122316 0.232807 0
0.197681 0.231601 0.000350958
0.293751 0.227314 0
0.407507 0.217441 0
0.526223 0.201282 0
0.639033 0.184787 0.00189212
0.738384 0.175479 0.0120851
0.819776 0.180453 0.0322423
0.881559 0.205142 0.0667582
0.924514 0.252155 0.119402
0.951766 0.320394 0.191485
0.967758 0.404822 0.280552
0.976486 0.497154 0.380514
0.981125 0.58851 0.483284
0.985489 0.671824 0.580667
0.987976 0.744228 0.668345
0.989853 0.804517 0.743481
0.991608 0.853162 0.805508
0.993286 0.891569 0.855314
0.994858 0.921416 0.894514
0.000259403 0.299367 0
0.000274662 0.298863 0
0.00030518 0.298344 0
0.000335698 0.297826 0
0.000366217 0.297292 0
0.000396735 0.296742 0
0.000442512 0.296071 0
0.000503548 0.295171 0
0.000595102 0.293935 0
0.000732433 0.292271 0
0.000946059 0.290059 0
0.00271611 0.287572 0
0.0331426 0.292424 0
0.0875715 0.300435 0
0.162753 0.305913 9.15541e-05
0.259617 0.303044 0.00244144
0.378668 0.294774 0.00222782
0.509743 0.277806 0.00228885
0.63183 0.253498 0.00672923
0.735225 0.23331 0.0178836
0.817563 0.227359 0.0391546
0.879271 0.242176 0.0745403
0.922118 0.280446 0.127489
0.949233 0.340841 0.199115
0.964935 0.418311 0.287083
0.973663 0.505287 0.38558
0.978668 0.593256 0.486992
0.98201 0.675029 0.583856
0.986068 0.746075 0.670329
0.98883 0.80557 0.744686
0.991043 0.853773 0.806226
0.992996 0.89192 0.855726
0.994705 0.921614 0.894759
0.00141909 0.383185 0
0.00149538 0.382315 0
0.00157168 0.38143 0
0.00164797 0.38056 0
0.00172427 0.37969 0
0.00180056 0.37882 0
0.00189212 0.377752 0
0.00202945 0.376333 0
0.00222782 0.374472 0
0.00250248 0.372015 0
0.00288396 0.368811 0
0.00347906 0.364691 0
0.00657664 0.360388 0
0.0461891 0.368292 0
0.115312 0.381262 0.00114443
0.211215 0.390616 0.00369268
0.332082 0.385885 0.00862135
0.473869 0.372061 0.0108644
0.6159 0.345602 0.0149996
0.730678 0.312535 0.0268711
0.816175 0.291051 0.0492103
0.877791 0.291752 0.0854353
0.920134 0.318074 0.138521
0.947143 0.368429 0.20943
0.962844 0.437415 0.295903
0.97145 0.517418 0.392462
0.976532 0.600336 0.49192
0.980133 0.679042 0.587259
0.983307 0.748714 0.673136
0.987366 0.80705 0.746365
0.99028 0.854612 0.807202
0.992584 0.892393 0.856306
0.994492 0.921874 0.895094
0.00488289 0.472114 0
0.00502022 0.470985 0
0.00515755 0.469856 0
0.00529488 0.468742 0
0.00544747 0.467643 0
0.00560006 0.466545 0
0.00578317 0.465202 0
0.00602731 0.463432 0
0.00636301 0.461112 0
0.00683604 0.458091 0.000228885
0.00750744 0.45417 0.000549325
0.00843824 0.449149 0.00103761
0.00979629 0.442893 0.00175479
0.0148318 0.436728 0.0028687
0.0642557 0.448569 0.00479133
0.149065 0.468116 0.00794995
0.267384 0.483452 0.0132753
0.412909 0.476997 0.0226902
0.57406 0.456168 0.0296941
0.717357 0.418479 0.0409705
0.81474 0.377874 0.0638743
0.877836 0.35845 0.100649
0.919188 0.36791 0.153552
0.94551 0.404761 0.22327
0.961151 0.462974 0.307652
0.969879 0.534417 0.401679
0.974929 0.610742 0.498589
0.978607 0.684947 0.59173
0.981918 0.751995 0.676097
0.985214 0.809171 0.748745
0.989166 0.855772 0.808576
0.99202 0.893034 0.857084
0.994186 0.92224 0.895537
0.0130617 0.560555 0.0037995
0.0132906 0.559319 0.00393683
0.0135195 0.558099 0.00408942
0.0137484 0.556893 0.00422675
0.0139773 0.555703 0.00436408
0.0142214 0.554513 0.00451667
0.0145113 0.553063 0.00469978
0.0149081 0.551156 0.00494392
0.0154421 0.548638 0.00527962
0.0161593 0.545373 0.00575265
0.0171664 0.541131 0.00639353
0.0185397 0.535729 0.00729381
0.0204471 0.528923 0.00857557
0.0231785 0.520607 0.0104067
0.0309148 0.512871 0.0130922
0.0901656 0.528817 0.017258
0.190158 0.55555 0.0236057
0.330251 0.578561 0.033463
0.498207 0.571023 0.0496681
0.671916 0.542397 0.0639963
0.80557 0.493416 0.08542
0.879164 0.448463 0.121828
0.920211 0.434089 0.173877
0.944976 0.452308 0.241657
0.95996 0.496315 0.323171
0.968688 0.55697 0.41384
0.973877 0.625223 0.507439
0.977539 0.693553 0.597757
0.98088 0.756756 0.679942
0.984207 0.81178 0.751202
0.987518 0.85745 0.810544
0.99118 0.893935 0.858198
0.993774 0.922728 0.896162
0.0297246 0.643061 0.0153048
0.0300603 0.641886 0.0155337
0.0303807 0.640711 0.0157778
0.0307012 0.639551 0.016022
0.0310369 0.638392 0.0162509
0.0313726 0.637247 0.016495
0.0317845 0.635843 0.0168002
0.0323339 0.633997 0.0172122
0.0330663 0.631586 0.0177615
0.0340734 0.628412 0.0185092
0.0354314 0.624292 0.0195163
0.0372778 0.619028 0.0209201
0.0397955 0.61236 0.0228275
0.0432441 0.604105 0.0254826
0.0480659 0.594202 0.0292058
0.0593423 0.585397 0.0344549
0.127504 0.60473 0.0422065
0.240238 0.637736 0.0533608
0.39823 0.668849 0.0695659
0.582879 0.661341 0.0944381
0.759777 0.625406 0.11809
0.874693 0.567391 0.151232
0.923552 0.522271 0.201053
0.946593 0.51458 0.265843
0.959838 0.539452 0.343404
0.967971 0.58613 0.429664
0.97319 0.644266 0.51902
0.976928 0.705409 0.605707
0.980224 0.763638 0.6851
0.983536 0.815534 0.754391
0.986816 0.85948 0.812528
0.989929 0.895232 0.85977
0.993164 0.92343 0.897032
0.0596017 0.71545 0.0387274
0.0600137 0.714412 0.0390631
0.0604257 0.71339 0.0393988
0.0608377 0.712383 0.0397345
0.0612497 0.711376 0.0400702
0.0616617 0.710369 0.0404059
0.0621805 0.709148 0.0408331
0.0628672 0.70753 0.0413825
0.0637827 0.705409 0.0421454
0.0650187 0.702617 0.0431678
0.0666819 0.698985 0.0445411
0.0689403 0.694286 0.0463874
0.0719615 0.688319 0.0489052
0.076051 0.680858 0.0523232
0.0816052 0.671717 0.0569924
0.0892042 0.66096 0.063386
0.104585 0.651804 0.0722057
0.179644 0.67306 0.0847486
0.300649 0.710063 0.101976
0.469322 0.747936 0.125597
0.66183 0.741711 0.159701
0.831983 0.700481 0.19295
0.923339 0.63772 0.237003
0.951171 0.596368 0.297124
0.961837 0.595163 0.369406
0.968261 0.623499 0.449989
0.97293 0.668742 0.533944
0.976654 0.720943 0.616037
0.979965 0.773083 0.69189
0.983185 0.820905 0.758618
0.986404 0.862364 0.815076
0.989441 0.896788 0.861341
0.992218 0.924407 0.898283
0.107134 0.775387 0.0792706
0.107591 0.774563 0.0796826
0.108049 0.773739 0.0800946
0.108522 0.772931 0.0804913
0.10898 0.772122 0.0809033
0.109453 0.771313 0.0813153
0.110018 0.770336 0.0818189
0.110796 0.769039 0.0824903
0.111818 0.767315 0.0833906
0.113191 0.765057 0.084596
0.115038 0.762112 0.0862135
0.117494 0.758282 0.0883955
0.120806 0.753368 0.0913252
0.125231 0.747158 0.0952621
0.131167 0.739452 0.100557
0.139116 0.730159 0.107683
0.149813 0.719371 0.117266
0.169238 0.710582 0.13019
0.248066 0.732158 0.147997
0.371344 0.770214 0.171542
0.541329 0.812039 0.202243
0.731258 0.808087 0.244114
0.886366 0.764721 0.285145
0.954192 0.702296 0.336828
0.966964 0.667308 0.402121
0.970504 0.671168 0.475608
0.973571 0.69984 0.55288
0.976776 0.740795 0.629267
0.97998 0.785397 0.700648
0.983139 0.828244 0.764187
0.986236 0.866484 0.818463
0.989212 0.898985 0.86334
0.991897 0.925597 0.899504
0.174578 0.822583 0.140414
0.175036 0.821973 0.140841
0.175509 0.821378 0.141268
0.175982 0.820768 0.141695
0.17644 0.820172 0.142138
0.176913 0.819577 0.142565
0.177478 0.818845 0.143099
0.178256 0.817868 0.143801
0.179278 0.816587 0.144762
0.180652 0.814908 0.146029
0.182483 0.81268 0.147723
0.184924 0.809796 0.149996
0.18819 0.806058 0.153033
0.192538 0.801297 0.157092
0.198337 0.795316 0.162493
0.206027 0.787961 0.169711
0.216205 0.779187 0.179278
0.229679 0.769192 0.191974
0.252323 0.761379 0.208713
0.330938 0.781903 0.231159
0.450019 0.818296 0.259846
0.611841 0.860685 0.295628
0.789441 0.859449 0.342046
0.9243 0.817365 0.387442
0.972015 0.759777 0.442191
0.975708 0.732097 0.507103
0.975921 0.739116 0.576379
0.977676 0.765835 0.645853
0.980362 0.801053 0.711803
0.983352 0.837781 0.771344
0.986328 0.872099 0.822889
0.989166 0.902098 0.86598
0.991775 0.92723 0.90103
0.260334 0.858518 0.22179
0.260746 0.858091 0.222202
0.261173 0.857679 0.222614
0.261585 0.857267 0.223011
0.262013 0.85684 0.223423
0.262425 0.856428 0.223819
0.262943 0.855924 0.224323
0.263645 0.855253 0.224994
0.264561 0.854368 0.225879
0.265797 0.853193 0.22707
0.267445 0.851652 0.228656
0.269642 0.849622 0.230777
0.272557 0.846983 0.2336
0.276448 0.843595 0.237354
0.28159 0.839307 0.242359
0.288411 0.833936 0.248966
0.297383 0.827405 0.25771
0.309133 0.819715 0.269184
0.324468 0.811109 0.284169
0.34876 0.8047 0.303593
0.423163 0.823224 0.328984
0.532433 0.856062 0.360494
0.678492 0.896086 0.398337
0.836545 0.897353 0.44538
0.949264 0.859312 0.491203
0.98172 0.809445 0.54461
0.980865 0.788754 0.60473
0.979965 0.797223 0.666224
0.981369 0.820722 0.725704
0.983856 0.849882 0.780407
0.986618 0.879362 0.82858
0.989319 0.906325 0.869429
0.991791 0.929564 0.903075
0.358724 0.885664 0.318624
0.35906 0.885405 0.318959
0.359411 0.88513 0.319295
0.359747 0.884871 0.319646
0.360098 0.884596 0.319982
0.360449 0.884337 0.320333
0.360861 0.884001 0.320745
0.361425 0.883574 0.321309
0.362188 0.882994 0.322057
0.363195 0.882231 0.323064
0.364538 0.881224 0.324407
0.366323 0.879896 0.326192
0.368704 0.878172 0.328573
0.371878 0.875929 0.331731
0.376074 0.87306 0.335912
0.381613 0.869429 0.341451
0.388891 0.864927 0.348745
0.398413 0.85951 0.358297
0.410773 0.853208 0.370733
0.426688 0.846296 0.38674
0.450828 0.841474 0.407172
0.517784 0.857542 0.43331
0.613413 0.885863 0.464958
0.739208 0.921508 0.501762
0.873945 0.924651 0.545937
0.965255 0.892256 0.588952
0.986999 0.851286 0.637751
0.984436 0.83653 0.690455
0.983505 0.845182 0.742596
0.984863 0.865019 0.791653
0.987167 0.888563 0.835752
0.989639 0.911788 0.873869
0.991958 0.932708 0.90573
0.461707 0.906722 0.422889
0.461967 0.906554 0.423148
0.462211 0.906401 0.423407
0.46247 0.906233 0.423682
0.46273 0.906065 0.423941
0.462989 0.905913 0.424201
0.46331 0.905715 0.424521
0.463737 0.90544 0.424964
0.464302 0.905104 0.425544
0.465049 0.904631 0.426307
0.466072 0.904021 0.427344
0.467414 0.903197 0.428717
0.4692 0.902144 0.430533
0.471565 0.90074 0.432975
0.474723 0.898955 0.436194
0.478889 0.896651 0.440452
0.484352 0.893782 0.446067
0.491524 0.890227 0.453407
0.500832 0.886 0.462974
0.51281 0.881163 0.475303
0.528084 0.875944 0.49102
0.550515 0.872618 0.510811
0.608103 0.886168 0.535683
0.688426 0.909712 0.565179
0.792584 0.940063 0.598566
0.903365 0.944259 0.637552
0.975555 0.917983 0.675715
0.990158 0.885695 0.718151
0.987381 0.875624 0.762478
0.986755 0.883741 0.805234
0.988113 0.900008 0.844617
0.990158 0.918685 0.879438
0.992279 0.936767 0.909133
0.561288 0.923781 0.526009
0.561471 0.923674 0.526207
0.561654 0.923583 0.52639
0.561837 0.923491 0.526574
0.562005 0.9234 0.526757
0.562188 0.923308 0.526955
0.562417 0.923201 0.527184
0.562707 0.923049 0.527489
0.563104 0.922835 0.527901
0.563638 0.922576 0.52845
0.56434 0.92221 0.529183
0.56527 0.921736 0.530159
0.566522 0.921126 0.531456
0.568185 0.920302 0.533196
0.570397 0.919249 0.5355
0.573312 0.917891 0.538537
0.577157 0.916152 0.54255
0.582208 0.913985 0.547814
0.588785 0.911345 0.554696
0.597284 0.908217 0.563592
0.608164 0.904692 0.57499
0.621912 0.900999 0.58938
0.641611 0.898909 0.607309
0.68925 0.910048 0.629511
0.754452 0.929107 0.65539
0.837995 0.954009 0.684077
0.926436 0.958556 0.716869
0.982437 0.938048 0.74931
0.99237 0.913451 0.784894
0.98999 0.906889 0.821073
0.989715 0.914122 0.855283
0.990982 0.92723 0.88632
0.992737 0.941863 0.913405
0.65153 0.938155 0.621103
0.651652 0.938109 0.621225
0.651774 0.938048 0.621363
0.651881 0.938003 0.621485
0.652003 0.937957 0.621607
0.652125 0.937896 0.621729
0.652262 0.937835 0.621881
0.652461 0.937758 0.622095
0.65272 0.937636 0.62237
