OpenDRT/OpenDRT_v1.0.0_Default__filmlight-egamut2-tloge_to_rec1886.cube
LUT_3D_SIZE 5
DOMAIN_MIN 0.000000 0.000000 0.000000
DOMAIN_MAX 0.851064 0.851064 0.851064
0.00106062 0.00106062 0.00106062
0.0957868 0.00251086 0
0.620551 0.0382 0
1 0.653417 0.415946
1 0.96193 0.935633
0 0.0683733 0
0.091094 0.0798486 0
0.626464 0.0725329 0
1 0.656325 0.414506
1 0.961956 0.93563
0 0.488368 0
0 0.488564 0
0.591696 0.55363 0
1 0.695203 0.398515
1 0.962312 0.935594
0.422382 1 0.486645
0.427915 1 0.48619
0.503691 1 0.489226
0.974366 0.99532 0.674409
1 0.967449 0.935428
0.94273 1 0.94385
0.942754 1 0.943848
0.943078 1 0.943821
0.94972 1 0.945637
1 1 0.972751
0 0 0.074943
0.105779 0 0.0931577
0.629198 0.0344069 0
1 0.65315 0.422838
1 0.961933 0.935674
0 0.0781052 0.0895248
0.093459 0.093459 0.093459
0.635419 0.0632383 0
1 0.656057 0.421449
1 0.961959 0.935672
0 0.501189 0
0 0.500535 0
0.593235 0.559558 0
1 0.694905 0.405884
1 0.962315 0.935636
0.420225 1 0.490073
0.425814 1 0.489626
0.50272 1 0.493125
0.973928 0.99448 0.679414
1 0.967451 0.93547
0.94272 1 0.943868
0.942744 1 0.943866
0.943068 1 0.943838
0.94972 1 0.945663
1 1 0.972789
0 0.0262976 0.552812
0 0.0211081 0.561193
0.649033 0 0.584641
1 0.650859 0.504514
1 0.961974 0.936229
0 0.0705975 0.563877
0 0.0540804 0.570432
0.652053 0.0299689 0.589455
1 0.653729 0.503585
1 0.962 0.936226
0 0.545988 0.570973
0 0.547115 0.5683
0.571918 0.571918 0.571918
1 0.692278 0.492617
1 0.962355 0.936191
0.392745 1 0.537429
0.400438 1 0.537822
0.487943 1 0.542475
0.968102 0.983738 0.738284
1 0.967476 0.936034
0.942593 1 0.944109
0.942617 1 0.944107
0.942943 1 0.94408
0.949721 1 0.946009
1 1 0.973288
0.259026 0.772169 1
0.27291 0.771519 1
0.432488 0.762906 1
0.983965 0.837579 0.954691
1 0.962747 0.944082
0.256151 0.774217 1
0.269954 0.773559 1
0.430826 0.765087 1
0.983539 0.838953 0.954534
1 0.962772 0.94408
0.221388 0.800647 1
0.235111 0.800066 1
0.414361 0.793686 1
0.978047 0.855977 0.952522
1 0.963111 0.944059
0.439142 1 0.95856
0.449923 1 0.958422
0.575799 0.99102 0.956022
0.944436 0.944436 0.944436
1 0.968057 0.944016
0.941442 1 0.94836
0.941484 1 0.948373
0.942048 1 0.948545
0.949546 1 0.950809
1 1 0.979683
0.935785 0.979931 1
0.935836 0.979927 1
0.936531 0.97988 1
0.94631 0.979269 1
1 0.989902 0.999512
0.935781 0.979949 1
0.935832 0.979945 1
0.936527 0.979898 1
0.946308 0.979288 1
1 0.989911 0.99951
0.935729 0.98019 1
0.935781 0.980186 1
0.936476 0.980139 1
0.946286 0.979537 1
1 0.990041 0.999494
0.935212 0.983535 1
0.935262 0.983531 1
0.935952 0.983483 1
0.946435 0.98304 1
1 0.991715 0.999283
0.954507 1 1
0.954557 1 1
0.955241 1 1
0.964938 1 1
0.998698 0.998698 0.998698
