OpenDRT/OpenDRT_v1.0.0_Umbra__filmlight-egamut2-tloge_to_rec1886.cube
LUT_3D_SIZE 48
0.0149052 0.0147065 0.0144493
0.0174178 0.0146177 0.0144286
0.0198045 0.0142833 0.014188
0.021992 0.0138819 0.0139013
0.0240604 0.0135166 0.0136695
0.0264742 0.0132129 0.0135455
0.0294526 0.0130984 0.01367
0.0332726 0.0132849 0.0141692
0.0383611 0.0137411 0.0150563
0.0452548 0.0142639 0.0162117
0.0545295 0.0145681 0.0174118
0.0667216 0.0144509 0.0182806
0.0821598 0.0139637 0.0180638
0.101325 0.0134585 0.0151421
0.124501 0.0132448 0.00816338
0.152185 0.0135244 0.00326066
0.185632 0.0144753 0
0.226269 0.0162809 0
0.275749 0.0192512 0
0.335663 0.0239986 0
0.402358 0.0308521 0
0.471741 0.0402416 0
0.539497 0.0525531 0
0.602457 0.0681022 0
0.658827 0.0870501 0
0.707805 0.109303 0
0.749309 0.134617 0
0.783977 0.16314 0
0.813239 0.19626 0
0.839106 0.236982 0
0.863531 0.288762 0
0.887768 0.352718 0
0.912399 0.425793 0
0.934267 0.500746 0.0273965
0.94394 0.566609 0.209745
0.952705 0.626004 0.357659
0.960636 0.677993 0.453286
0.967727 0.722545 0.525762
0.97396 0.760126 0.583057
0.979344 0.791446 0.628978
0.983919 0.817309 0.665951
0.987752 0.838522 0.695753
0.990926 0.85583 0.719775
0.99353 0.869897 0.73913
0.99565 0.881299 0.754719
0.997365 0.890523 0.76727
0.998748 0.897974 0.777374
0.999858 0.903987 0.785509
0.0145529 0.0167832 0.0146977
0.0172987 0.0169749 0.0148512
0.0198747 0.0168269 0.0146971
0.0222779 0.0164823 0.0143835
0.0245479 0.0160867 0.0140577
0.0271568 0.015672 0.0137752
0.0302872 0.0153793 0.0137
0.0341756 0.0153892 0.0140131
0.0392385 0.0157691 0.0147644
0.046038 0.0163724 0.015813
0.0551899 0.0168838 0.0168814
0.0672907 0.0169728 0.0175506
0.0828491 0.0165281 0.0170141
0.102055 0.0157982 0.0133883
0.125245 0.0152553 0.00660882
0.153057 0.0152513 0.00253604
0.186931 0.0159571 0
0.227663 0.0176219 0
0.276879 0.0204653 0
0.336225 0.0250413 0
0.402907 0.0317915 0
0.472262 0.0410777 0
0.539979 0.0532846 0
0.60289 0.068732 0
0.659205 0.0875872 0
0.708129 0.109763 0
0.74958 0.135018 0
0.784198 0.163496 0
0.813413 0.19658 0
0.839235 0.237263 0
0.863619 0.288997 0
0.887825 0.352898 0
0.912434 0.425918 0
0.934295 0.500832 0.0273512
0.94396 0.566664 0.209679
0.952719 0.626039 0.357635
0.960645 0.678014 0.453273
0.967733 0.722559 0.525756
0.973964 0.760134 0.583054
0.979346 0.791451 0.628976
0.98392 0.817312 0.665949
0.987753 0.838524 0.695753
0.990927 0.855831 0.719775
0.99353 0.869898 0.73913
0.99565 0.8813 0.754719
0.997365 0.890523 0.76727
0.998748 0.897974 0.777374
0.999858 0.903987 0.785509
0.0139878 0.0188089 0.0149005
0.017046 0.0190889 0.0150229
0.0198617 0.0191945 0.0150564
0.0224499 0.019019 0.0148249
0.0249154 0.0186753 0.0144688
0.0277426 0.0182128 0.0140607
0.0310739 0.0177696 0.0137798
0.0350897 0.0175749 0.0138711
0.040175 0.0178017 0.0144549
0.0469062 0.0183972 0.0153901
0.0559422 0.0190639 0.0163352
0.0679177 0.0193906 0.0167971
0.0834086 0.0190866 0.0158729
0.102748 0.0182594 0.0115935
0.125895 0.0173899 0.00535679
0.153726 0.0170506 0.00187651
0.187414 0.017543 0
0.228299 0.019053 0
0.277668 0.0218214 0
0.336788 0.0261115 0
0.403456 0.032749 0
0.472784 0.0419253 0
0.540461 0.0540231 0
0.603322 0.069366 0
0.659584 0.0881273 0
0.708452 0.110225 0
0.749851 0.135419 0
0.784419 0.163852 0
0.813587 0.1969 0
0.839364 0.237544 0
0.863708 0.289231 0
0.887882 0.353078 0
0.912469 0.426044 0
0.934324 0.500917 0.0273052
0.943979 0.566718 0.209611
0.952732 0.626073 0.35761
0.960654 0.678036 0.453261
0.967738 0.722572 0.525749
0.973967 0.760142 0.583049
0.979349 0.791456 0.628973
0.983922 0.817316 0.665948
0.987754 0.838526 0.695752
0.990927 0.855832 0.719774
0.993531 0.869899 0.73913
0.99565 0.8813 0.754718
0.997366 0.890524 0.76727
0.998748 0.897974 0.777374
0.999858 0.903987 0.785509
0.0132079 0.0207737 0.015092
0.016623 0.0211147 0.0150902
0.0197637 0.0213306 0.0151859
0.0225936 0.0213495 0.0151107
0.0252302 0.0211533 0.0148191
0.0282558 0.0207448 0.0143564
0.0318018 0.0202245 0.0138946
0.0359858 0.0198425 0.013738
0.0411368 0.0198702 0.0141123
0.0478258 0.0203773 0.0149156
0.0567519 0.0211264 0.0157408
0.0685975 0.0216742 0.0159928
0.0839683 0.0215844 0.0146265
0.103409 0.020788 0.00977661
0.12653 0.0196479 0.00431045
0.154392 0.0189634 0.00112002
0.188112 0.0191603 0
0.229018 0.0204526 0
0.278386 0.0230641 0
0.336709 0.0273482 0
0.404006 0.0337246 0
0.473306 0.0427845 0
0.540942 0.0547691 0
0.603755 0.0700045 0
0.659962 0.08867 0
0.708776 0.110689 0
0.750121 0.135822 0
0.78464 0.16421 0
0.81376 0.197221 0
0.839493 0.237828 0
0.863797 0.289466 0
0.887939 0.353257 0
0.912504 0.426169 0
0.934353 0.501002 0.0272597
0.943999 0.566773 0.209545
0.952745 0.626107 0.357585
0.960662 0.678057 0.453249
0.967744 0.722585 0.525743
0.973971 0.76015 0.583046
0.979351 0.791461 0.628971
0.983923 0.817319 0.665947
0.987755 0.838528 0.695751
0.990928 0.855833 0.719774
0.993531 0.869899 0.73913
0.99565 0.881301 0.754718
0.997366 0.890524 0.76727
0.998748 0.897974 0.777374
0.999858 0.903987 0.785508
0.0121695 0.0227471 0.015312
0.016025 0.0231517 0.0151316
0.0194952 0.0234214 0.015169
0.0226657 0.0235482 0.0151973
0.0255477 0.0235075 0.0150369
0.0287659 0.0232432 0.0146131
0.0325141 0.0227523 0.0140271
0.0368872 0.0222434 0.0136111
0.0421433 0.0220593 0.0137212
0.0488189 0.022412 0.0143552
0.0576428 0.0231683 0.015054
0.0693516 0.0238951 0.0150856
0.0845909 0.0240587 0.0132165
0.103935 0.0233741 0.00798465
0.12717 0.0220741 0.00341071
0.155073 0.0210463 0
0.188832 0.0209155 0
0.22976 0.0219577 0
0.279128 0.0243876 0
0.337281 0.0285132 0
0.403715 0.0349396 0
0.473845 0.0436831 0
0.541439 0.0555459 0
0.6042 0.0706677 0
0.660352 0.0892327 0
0.70911 0.111168 0
0.7504 0.136238 0
0.784867 0.164578 0
0.813939 0.197553 0
0.839626 0.238121 0
0.863889 0.289708 0
0.887998 0.353443 0
0.91254 0.426299 0
0.934382 0.501091 0.0272133
0.944019 0.566829 0.209474
0.952758 0.626143 0.357561
0.960671 0.678079 0.453237
0.96775 0.722599 0.525736
0.973975 0.760159 0.583042
0.979353 0.791466 0.628969
0.983925 0.817322 0.665945
0.987756 0.83853 0.69575
0.990928 0.855834 0.719773
0.993531 0.8699 0.739129
0.995651 0.881301 0.754718
0.997366 0.890524 0.767269
0.998748 0.897975 0.777374
0.999858 0.903988 0.785508
0.0104265 0.02518 0.0156454
0.0150458 0.0256562 0.0152059
0.0189456 0.0259844 0.0150687
0.02252 0.0261786 0.0150808
0.0258278 0.0262439 0.015051
0.0294049 0.026154 0.0147761
0.0334088 0.0258172 0.0141606
0.0380072 0.0252868 0.0134596
0.0434238 0.0248918 0.0131729
0.050123 0.0250038 0.0135191
0.0588391 0.0256724 0.0140367
0.0703756 0.0265358 0.0137767
0.0854394 0.0270039 0.0112354
0.104639 0.0265711 0.00602241
0.127957 0.0252145 0.00246764
0.155923 0.0238099 0
0.189735 0.0232493 0
0.230695 0.0239437 0
0.280062 0.0261172 0
0.338164 0.030043 0
0.404417 0.0362623 0
0.47341 0.0450839 0
0.542065 0.0565362 0
0.604762 0.0715105 0
0.660843 0.089946 0
0.70953 0.111776 0
0.750752 0.136764 0
0.785154 0.165045 0
0.814164 0.19797 0
0.839794 0.238491 0
0.864004 0.290014 0
0.888072 0.353676 0
0.912586 0.426462 0
0.93442 0.501202 0.027154
0.944045 0.5669 0.209387
0.952775 0.626188 0.357529
0.960683 0.678107 0.453221
0.967757 0.722616 0.525727
0.97398 0.76017 0.583037
0.979356 0.791473 0.628966
0.983927 0.817326 0.665944
0.987757 0.838532 0.695749
0.990929 0.855836 0.719773
0.993532 0.869901 0.739129
0.995651 0.881302 0.754718
0.997366 0.890524 0.767269
0.998748 0.897975 0.777374
0.999858 0.903988 0.785508
0.00713751 0.0283021 0.0161777
0.0133232 0.028847 0.0153967
0.01793 0.0292461 0.0149433
0.0219757 0.029509 0.0147574
0.0257938 0.0296465 0.0147105
0.0300226 0.0296655 0.0146081
0.0345682 0.0295168 0.014143
0.0394899 0.0291322 0.0132329
0.0451198 0.0286367 0.0123661
0.0518948 0.0284561 0.0121495
0.0605088 0.0289006 0.01233
0.0718276 0.0297973 0.0116435
0.0866499 0.0305727 0.00839541
0.105642 0.0305466 0.00405509
0.12896 0.0293329 0.00137699
0.15701 0.0275912 0
0.190905 0.0264826 0
0.231912 0.0266814 0
0.281282 0.028477 0
0.339339 0.0321118 0
0.405332 0.0380375 0
0.474279 0.0466167 0
0.541484 0.0581631 0
0.603815 0.0729987 0
0.661484 0.0908837 0
0.710078 0.112573 0
0.751211 0.137454 0
0.785528 0.165655 0
0.814458 0.198517 0
0.840013 0.238973 0
0.864154 0.290412 0
0.888169 0.353981 0
0.912645 0.426674 0
0.934468 0.501347 0.0270767
0.944077 0.566993 0.209273
0.952798 0.626246 0.357487
0.960697 0.678144 0.4532
0.967767 0.722639 0.525716
0.973985 0.760184 0.58303
0.97936 0.791481 0.628962
0.983929 0.817331 0.665941
0.987758 0.838536 0.695747
0.99093 0.855838 0.719772
0.993532 0.869902 0.739128
0.995651 0.881303 0.754718
0.997366 0.890525 0.767269
0.998748 0.897975 0.777374
0.999858 0.903988 0.785508
0.00311995 0.0322247 0.0169324
0.00992013 0.0329373 0.0158177
0.0160471 0.0334054 0.0149096
0.0208145 0.0337467 0.0143028
0.0251753 0.033967 0.0139578
0.0301499 0.0340709 0.0137707
0.0356935 0.0340112 0.0135178
0.0414051 0.0337939 0.0126736
0.0474072 0.0334053 0.0111224
0.0543139 0.0330308 0.00969759
0.0628473 0.0331345 0.00903425
0.0739039 0.0338843 0.00784859
0.0883976 0.0348696 0.00496903
0.107092 0.0353393 0.00229503
0.130258 0.0345411 0
0.158395 0.0326802 0
0.19241 0.030969 0
0.233491 0.0304903 0
0.28287 0.0317299 0
0.340871 0.0349308 0
0.406532 0.0404429 0
0.475411 0.0486695 0
0.542528 0.0599061 0
0.604752 0.074467 0
0.660341 0.0925401 0
0.710792 0.113619 0
0.751808 0.138358 0
0.786015 0.166454 0
0.814841 0.199231 0
0.840299 0.239604 0
0.864352 0.29094 0
0.888295 0.354379 0
0.912723 0.426952 0
0.934531 0.501536 0.0269765
0.944121 0.567114 0.209124
0.952827 0.626322 0.357433
0.960717 0.678191 0.453173
0.967779 0.722668 0.525701
0.973993 0.760202 0.583022
0.979365 0.791493 0.628957
0.983932 0.817338 0.665938
0.98776 0.83854 0.695746
0.990932 0.855841 0.719771
0.993533 0.869904 0.739128
0.995652 0.881304 0.754717
0.997367 0.890526 0.767269
0.998748 0.897976 0.777374
0.999858 0.903988 0.785508
0.00122291 0.0369019 0.0178037
0.00458445 0.0382298 0.0165588
0.0120924 0.0387459 0.0151028
0.018492 0.0391554 0.0138535
0.0236856 0.0394646 0.0128347
0.0294116 0.0396866 0.0119722
0.0360421 0.0397234 0.0113863
0.0432349 0.0395296 0.010707
0.0503559 0.0392302 0.008681
0.0576445 0.0388905 0.00524119
0.066138 0.0387125 0.0035458
0.0768922 0.0391234 0.00301676
0.0909475 0.0401002 0.0020729
0.109183 0.0409946 0
0.132004 0.0408364 0
0.160165 0.0392834 0
0.194329 0.0371241 0
0.235528 0.0358134 0
0.284931 0.0362586 0
0.342864 0.0388108 0
0.408106 0.0437361 0
0.476887 0.0514412 0
0.543888 0.0622361 0
0.605972 0.0764161 0
0.661408 0.0941694 0
0.709456 0.11543 0
0.752587 0.139545 0
0.786649 0.1675 0
0.81534 0.200166 0
0.840671 0.240428 0
0.864611 0.291632 0
0.888459 0.354897 0
0.912823 0.427314 0
0.934614 0.501783 0.0268458
0.944177 0.567272 0.208929
0.952864 0.626421 0.357362
0.960741 0.678253 0.453138
0.967795 0.722707 0.525682
0.974004 0.760226 0.583011
0.979372 0.791508 0.628951
0.983936 0.817348 0.665934
0.987763 0.838546 0.695744
0.990933 0.855844 0.719769
0.993534 0.869906 0.739127
0.995652 0.881305 0.754717
0.997367 0.890527 0.767269
0.998749 0.897976 0.777373
0.999858 0.903988 0.785508
0.000444096 0.0430972 0.0189778
0.00167563 0.0443896 0.0173144
0.00537693 0.0456533 0.0155538
0.013185 0.0461042 0.0134809
0.0204512 0.0464798 0.0113216
0.0274264 0.0468192 0.00862064
0.0351104 0.0470255 0.00577672
0.0438422 0.0469334 0.00409147
0.0531034 0.0465218 0.00301163
0.0619419 0.0461119 0.00147687
0.0707636 0.0458652 0
0.0811537 0.0459023 0
0.0945837 0.0465773 0
0.112076 0.0476135 0
0.134478 0.0481788 0
0.162494 0.0474035 0
0.19677 0.0452937 0
0.238134 0.0431997 0
0.287593 0.0426013 0
0.345448 0.0442041 0
0.41017 0.0483002 0
0.47882 0.0552258 0
0.545659 0.0653724 0
0.607561 0.0790169 0
0.662799 0.0963299 0
0.710646 0.117244 0
0.751069 0.141505 0
0.787477 0.168875 0
0.81599 0.20139 0
0.841155 0.241505 0
0.864949 0.292535 0
0.888676 0.355583 0
0.912955 0.427786 0
0.934722 0.502106 0.0266756
0.944251 0.567477 0.208674
0.952913 0.62655 0.35727
0.960774 0.678334 0.453092
0.967816 0.722757 0.525657
0.974018 0.760257 0.582996
0.979381 0.791527 0.628942
0.983942 0.817359 0.665929
0.987767 0.838553 0.695741
0.990935 0.855849 0.719768
0.993536 0.869909 0.739126
0.995653 0.881307 0.754716
0.997368 0.890528 0.767268
0.998749 0.897977 0.777373
0.999859 0.903989 0.785508
0 0.0512497 0.0202878
0.000578896 0.0524038 0.0181432
0.00182659 0.053708 0.0157583
0.00503519 0.0550717 0.012905
0.0125055 0.0554775 0.00897594
0.0227515 0.0558906 0.00393302
0.032386 0.0562537 0.00111263
0.0425191 0.0563313 0
0.0538244 0.0559496 0
0.065645 0.0551872 0
0.0764872 0.0545596 0
0.0870307 0.0543974 0
0.0997695 0.0547224 0
0.116441 0.0556386 0
0.13814 0.0566872 0
0.165728 0.0569011 0
0.199935 0.0555443 0
0.241447 0.0531605 0
0.291001 0.0514462 0
0.348781 0.0517501 0
0.413211 0.0546584 0
0.481351 0.0604537 0
0.54797 0.069639 0
0.609629 0.0825097 0
0.664609 0.0992089 0
0.712195 0.119647 0
0.752365 0.143556 0
0.785795 0.170993 0
0.816836 0.202996 0
0.841786 0.242914 0
0.865388 0.293713 0
0.888962 0.356493 0
0.913127 0.428401 0
0.934862 0.502526 0.0264539
0.944347 0.567746 0.208342
0.952978 0.626719 0.35715
0.960817 0.678439 0.453033
0.967844 0.722823 0.525624
0.974035 0.760298 0.582978
0.979392 0.791552 0.628931
0.983949 0.817375 0.665923
0.987771 0.838563 0.695737
0.990938 0.855855 0.719765
0.993537 0.869912 0.739124
0.995654 0.881309 0.754715
0.997368 0.890529 0.767268
0.99875 0.897977 0.777373
0.999859 0.903989 0.785508
0 0.0618111 0.0213528
0 0.0628443 0.0185905
0.000513182 0.0639903 0.0152756
0.00159704 0.0652502 0.0108942
0.00388605 0.066529 0.00548045
0.0112465 0.0674651 0.00160686
0.0255194 0.0679146 0
0.038494 0.0678562 0
0.0516185 0.0676658 0
0.0662487 0.0670449 0
0.0813685 0.0658699 0
0.0948219 0.0650468 0
0.107546 0.0650728 0
0.123114 0.06569 0
0.143707 0.0668062 0
0.170469 0.0678071 0
0.204244 0.0676591 0
0.245708 0.0658812 0
0.295336 0.0634829 0
0.353047 0.0622802 0
0.41723 0.0635261 0
0.48466 0.0677643 0
0.55099 0.0755132 0
0.61232 0.0872434 0
0.666964 0.103068 0
0.71421 0.122846 0
0.754052 0.146271 0
0.787169 0.173357 0
0.815012 0.205286 0
0.842607 0.244759 0
0.865959 0.295252 0
0.889335 0.35768 0
0.913357 0.429228 0
0.935046 0.503074 0.0261655
0.944472 0.568096 0.207908
0.953062 0.626939 0.356992
0.960872 0.678576 0.452955
0.96788 0.722908 0.525581
0.974059 0.760351 0.582953
0.979407 0.791585 0.628917
0.983959 0.817395 0.665914
0.987777 0.838575 0.695732
0.990942 0.855862 0.719762
0.99354 0.869917 0.739122
0.995656 0.881312 0.754714
0.997369 0.890531 0.767267
0.99875 0.897979 0.777372
0.999859 0.90399 0.785507
0 0.0752799 0.0214045
0 0.0762254 0.0175712
0 0.0772185 0.0125491
0 0.0781345 0.00664358
0.00113554 0.0789675 0.00263243
0.00301933 0.0801432 0
0.00987673 0.0818318 0
0.0283788 0.082586 0
0.0459485 0.0823098 0
0.0630223 0.081998 0
0.0818788 0.0810383 0
0.101227 0.0792602 0
0.117967 0.0781327 0
0.13331 0.0783828 0
0.152317 0.0793146 0
0.177667 0.0806193 0
0.21047 0.0815668 0
0.251427 0.0811211 0
0.300888 0.0790571 0
0.358465 0.0766728 0
0.422359 0.075881 0
0.489074 0.0780446 0
0.554933 0.0836969 0
0.615832 0.0937409 0
0.670024 0.108282 0
0.71683 0.127127 0
0.756244 0.149879 0
0.788955 0.176482 0
0.816415 0.208034 0
0.840666 0.247205 0
0.866703 0.297262 0
0.88982 0.359228 0
0.913663 0.430325 0
0.935285 0.503792 0.0257959
0.944636 0.568553 0.207339
0.953172 0.627227 0.356787
0.960944 0.678756 0.452853
0.967927 0.72302 0.525525
0.974089 0.76042 0.582921
0.979426 0.791628 0.628898
0.983971 0.817422 0.665903
0.987785 0.838592 0.695725
0.990947 0.855872 0.719758
0.993543 0.869923 0.73912
0.995658 0.881316 0.754712
0.99737 0.890533 0.767266
0.998751 0.89798 0.777372
0.99986 0.903991 0.785507
0 0.0922341 0.0185545
0 0.0930548 0.01248
0 0.0936939 0.00643891
0 0.0942207 0.00276924
0 0.0948104 0
0.000628997 0.0956955 0
0.00246354 0.097124 0
0.00871502 0.0993043 0
0.0311674 0.100864 0
0.0549731 0.1005 0
0.0770984 0.100041 0
0.101364 0.0986465 0
0.126207 0.0960399 0
0.147162 0.0944852 0
0.165684 0.0950352 0
0.188861 0.0963304 0
0.219864 0.0978311 0
0.259575 0.0987287 0
0.308267 0.0979718 0
0.365379 0.0954722 0
0.428854 0.0928023 0
0.495072 0.0922294 0
0.560062 0.0952219 0
0.620409 0.102763 0
0.674009 0.115419 0
0.72023 0.132897 0
0.75909 0.1547 0
0.791274 0.180626 0
0.818237 0.211656 0
0.842025 0.250341 0
0.864681 0.299774 0
0.890453 0.361246 0
0.914061 0.431755 0
0.935599 0.504778 0.0254008
0.94485 0.569148 0.206594
0.953315 0.627602 0.356519
0.961039 0.67899 0.452721
0.967989 0.723165 0.525453
0.974129 0.76051 0.582879
0.979451 0.791684 0.628874
0.983987 0.817456 0.665889
0.987795 0.838613 0.695716
0.990953 0.855886 0.719753
0.993547 0.869932 0.739117
0.99566 0.881321 0.75471
0.997372 0.890536 0.767265
0.998752 0.897982 0.777371
0.99986 0.903992 0.785506
0 0.113082 0.00956157
0 0.113497 0.00477537
0 0.113877 0.00196727
0 0.114293 0
0 0.114777 0
0 0.115482 0
0 0.116579 0
0.00210358 0.118346 0
0.00793136 0.121056 0
0.0336574 0.123726 0
0.065754 0.123345 0
0.0943733 0.12274 0
0.125617 0.120837 0
0.157678 0.117151 0
0.18408 0.115045 0
0.206426 0.116016 0
0.234474 0.117716 0
0.271773 0.119359 0
0.31867 0.120049 0
0.374502 0.118606 0
0.437106 0.115087 0
0.502637 0.111691 0
0.566783 0.111331 0
0.626351 0.115429 0
0.679195 0.125304 0
0.724649 0.140772 0
0.762778 0.161179 0
0.794279 0.186145 0
0.820598 0.216442 0
0.843786 0.254458 0
0.865912 0.303168 0
0.88841 0.363665 0
0.914581 0.433616 0
0.936008 0.506064 0.0248874
0.94513 0.56997 0.205805
0.953502 0.628091 0.356168
0.961162 0.679296 0.452547
0.968069 0.723355 0.525358
0.97418 0.760628 0.582825
0.979484 0.791757 0.628842
0.984008 0.817501 0.665869
0.987808 0.838641 0.695704
0.990961 0.855903 0.719746
0.993552 0.869942 0.739112
0.995663 0.881327 0.754708
0.997374 0.89054 0.767263
0.998753 0.897984 0.77737
0.999861 0.903993 0.785506
0 0.138131 0.00248694
0 0.138468 0
0 0.138832 0
0 0.139228 0
0 0.139674 0
0 0.140293 0
0 0.141208 0
0 0.142605 0
0.00189117 0.14482 0
0.00762672 0.148149 0
0.0359825 0.152199 0
0.0787166 0.151982 0
0.115687 0.15127 0
0.155954 0.148821 0
0.197435 0.143796 0
0.230734 0.141027 0
0.257449 0.142538 0
0.290664 0.144574 0
0.334133 0.14606 0
0.387267 0.145939 0
0.447922 0.142896 0
0.512201 0.137555 0
0.575448 0.133232 0
0.634017 0.133322 0
0.685914 0.139144 0
0.730387 0.151648 0
0.767559 0.169984 0
0.798164 0.193531 0
0.82365 0.222784 0
0.846065 0.259871 0
0.867506 0.307604 0
0.889457 0.367053 0
0.912599 0.435802 0
0.936543 0.507738 0.0242204
0.945496 0.571061 0.204855
0.953747 0.62876 0.355785
0.961322 0.679694 0.452321
0.968173 0.723603 0.525233
0.974248 0.760782 0.582754
0.979527 0.791852 0.6288
0.984035 0.81756 0.665845
0.987825 0.838677 0.695689
0.990972 0.855925 0.719737
0.993559 0.869956 0.739107
0.995668 0.881336 0.754705
0.997377 0.890545 0.767261
0.998755 0.897988 0.777369
0.999862 0.903996 0.785505
0 0.168833 0
0 0.169189 0
0 0.169567 0
0 0.169965 0
0 0.170401 0
0 0.170986 0
0 0.171815 0
0 0.173017 0
0 0.174819 0
0.00187747 0.177621 0
0.00800553 0.181738 0
0.0393167 0.187375 0
0.0948596 0.187573 0
0.142384 0.186843 0
0.194131 0.183841 0
0.247446 0.177246 0
0.288911 0.173733 0
0.320096 0.175785 0
0.357889 0.177798 0
0.406122 0.17834 0
0.462949 0.176205 0
0.524646 0.170346 0
0.586349 0.16265 0
0.643805 0.157678 0
0.694561 0.158658 0
0.737804 0.16683 0
0.773751 0.182096 0
0.803184 0.203507 0
0.827586 0.231219 0
0.849006 0.266997 0
0.869569 0.313401 0
0.890817 0.371464 0
0.913462 0.43892 0
0.934665 0.509614 0.0242906
0.945974 0.572483 0.203607
0.954069 0.629673 0.355385
0.961534 0.680234 0.452062
0.96831 0.723927 0.525071
0.974335 0.760982 0.582661
0.979583 0.791976 0.628746
0.984071 0.817637 0.665812
0.987848 0.838725 0.69567
0.990986 0.855955 0.719725
0.993567 0.869974 0.7391
0.995673 0.881347 0.7547
0.99738 0.890553 0.767259
0.998757 0.897992 0.777367
0.999863 0.903998 0.785504
0 0.20619 0
0 0.206553 0
0 0.206931 0
0 0.207324 0
0 0.207746 0
0 0.208304 0
0 0.209074 0
0 0.210158 0
0 0.211715 0
0 0.21402 0
0.00229736 0.217556 0
0.00951268 0.222759 0
0.0462248 0.230151 0
0.116137 0.230884 0
0.176342 0.230281 0
0.242028 0.226728 0
0.309038 0.218426 0
0.359075 0.214134 0
0.394051 0.216444 0
0.434693 0.217633 0
0.484945 0.215888 0
0.541763 0.210213 0
0.600415 0.200591 0
0.656084 0.190615 0
0.705508 0.185645 0
0.747315 0.18816 0
0.781727 0.198905 0
0.809668 0.21713 0
0.832656 0.242507 0
0.852791 0.276389 0
0.872233 0.320976 0
0.892582 0.377201 0
0.914587 0.442971 0
0.935561 0.512421 0.0231644
0.944272 0.574041 0.203983
0.954489 0.630865 0.354862
0.961812 0.680994 0.451837
0.968489 0.724359 0.524877
0.97445 0.761244 0.58254
0.979657 0.792138 0.628675
0.984117 0.817737 0.66577
0.987877 0.838786 0.695644
0.991005 0.855993 0.71971
0.993579 0.869998 0.73909
0.99568 0.881361 0.754694
0.997384 0.890561 0.767255
0.99876 0.897998 0.777365
0.999865 0.904002 0.785503
0 0.250559 0
0 0.250901 0
0 0.251256 0
0 0.251622 0
0 0.252012 0
0 0.252523 0
0 0.253222 0
0 0.254189 0
0 0.25555 0
0 0.257506 0
0 0.260397 0
0.0035599 0.264821 0
0.013111 0.271569 0
0.0606614 0.280754 0
0.145278 0.281837 0
0.219472 0.281554 0
0.300682 0.277438 0
0.381659 0.267495 0
0.439301 0.262416 0
0.476614 0.264335 0
0.517553 0.263484 0
0.566414 0.257868 0
0.619471 0.247392 0
0.671775 0.233756 0
0.719139 0.222116 0
0.759339 0.217862 0
0.791913 0.222348 0
0.817991 0.235849 0
0.83919 0.257754 0
0.857661 0.288815 0
0.875665 0.330865 0
0.89487 0.384654 0
0.916053 0.448231 0
0.936732 0.516071 0.0217032
0.945074 0.576426 0.201849
0.952983 0.632148 0.355149
