OpenDRT/OpenDRT_v1.0.0_Default__filmlight-egamut2-tloge_to_display-p3.cube
LUT_3D_SIZE 5
DOMAIN_MIN 0.000000 0.000000 0.000000
DOMAIN_MAX 0.851064 0.851064 0.851064
0.000569058 0.000569058 0.000569058
0.0711429 0.00399503 0
0.546112 0.0519819 0
0.98248 0.64754 0.429311
1 0.960522 0.933643
0 0.0536488 0
0.0723513 0.0644439 0
0.554148 0.0927722 0
0.982938 0.650399 0.428517
1 0.96055 0.933642
0 0.463687 0
0 0.471295 0
0.56352 0.531831 0
0.987835 0.688769 0.420914
1 0.960924 0.933636
0.563172 0.990967 0.51965
0.56624 0.991153 0.519378
0.610824 0.992704 0.522952
0.976168 0.994148 0.689538
1 0.966312 0.933892
0.951711 1 0.944536
0.951733 1 0.944535
0.952021 1 0.944515
0.957769 1 0.946386
1 1 0.973545
0 0 0.0554751
0.0769835 0 0.0719211
0.555012 0.0475312 0
0.982624 0.64729 0.434841
1 0.960525 0.933684
0 0.0600276 0.0702307
0.0753427 0.0753427 0.0753427
0.563455 0.0825721 0
0.983077 0.650147 0.434072
1 0.960553 0.933683
0 0.47721 0
0 0.483452 0
0.567436 0.539327 0
0.987945 0.688483 0.426613
1 0.960927 0.933677
0.562205 0.991503 0.522443
0.565289 0.991685 0.522175
0.610352 0.993092 0.526107
0.975611 0.993246 0.693903
1 0.966314 0.933933
0.951704 1 0.944554
0.951726 1 0.944552
0.952014 1 0.944533
0.95777 1 0.946412
1 1 0.973581
0 0.016889 0.492618
0 0.0142164 0.501724
0.562153 0.0187417 0.536516
0.984658 0.6452 0.50335
1 0.960569 0.934232
0 0.0490274 0.506966
0 0.0383423 0.514178
0.568583 0.0380059 0.543357
0.985054 0.648015 0.502832
1 0.960596 0.934231
0 0.501757 0.533282
0 0.505762 0.533156
0.543593 0.543593 0.543593
0.990569 0.686062 0.497474
1 0.960969 0.934226
0.550349 0.998348 0.561844
0.554288 0.998334 0.562238
0.603169 0.998511 0.567038
0.968301 0.981713 0.746089
1 0.966341 0.934489
0.951614 1 0.944797
0.951635 1 0.944795
0.951924 1 0.944776
0.957779 1 0.946755
1 1 0.97406
0.380449 0.743351 1
0.388411 0.742824 1
0.483776 0.735944 1
0.956692 0.830035 0.942758
1 0.96138 0.94202
0.379598 0.745467 1
0.387506 0.74493 1
0.483353 0.738192 1
0.956517 0.831431 0.942683
1 0.961406 0.94202
0.370273 0.772862 1
0.378271 0.772394 1
0.481914 0.767843 1
0.954214 0.848746 0.941713
1 0.961762 0.942027
0.57111 0.987854 0.952028
0.577015 0.987318 0.951908
0.653617 0.979254 0.949738
0.93954 0.93954 0.93954
1 0.966955 0.942386
0.950851 1 0.949049
0.950887 1 0.949062
0.951366 1 0.949235
0.957765 1 0.951522
1 1 0.980193
0.938888 0.976579 1
0.938932 0.976577 1
0.939536 0.976551 1
0.948055 0.976242 1
1 0.989443 0.998766
0.938888 0.976598 1
0.938932 0.976596 1
0.939535 0.97657 1
0.948057 0.976261 1
1 0.989453 0.998766
0.938891 0.976851 1
0.938936 0.976848 1
0.939539 0.976822 1
0.948087 0.976524 1
1 0.989588 0.998759
0.939116 0.980362 1
0.93916 0.98036 1
0.939757 0.980333 1
0.948923 0.980222 1
0.999866 0.991326 0.998667
0.961063 1 1
0.961105 1 1
0.961681 1 1
0.969852 1 1
0.998579 0.998579 0.998579
