OpenDRT/OpenDRT_v1.0.0_Colorful__filmlight-egamut2-tloge_to_display-p3.cube
LUT_3D_SIZE 8
DOMAIN_MIN 0.000000 0.000000 0.000000
DOMAIN_MAX 0.893617 0.893617 0.893617
0.00109944 0.00109944 0.00109944
0.0334807 0.00228031 0
0.141691 0.00598371 0
0.418715 0.0244971 0
0.798169 0.188927 0
0.971467 0.601583 0.265294
1 0.839092 0.719584
1 0.935945 0.886901
0 0.0270911 0
0.0351609 0.0312048 0
0.142987 0.0490219 0
0.422667 0.0411799 0
0.799536 0.198894 0
0.971653 0.603041 0.265232
1 0.839231 0.719605
1 0.935958 0.886904
0 0.119078 0
0.00776462 0.124101 0
0.145506 0.129038 0
0.426917 0.144169 0
0.802775 0.238938 0
0.972412 0.608923 0.264964
1 0.839796 0.719691
1 0.936009 0.886915
0 0.359797 0
0 0.361405 0
0.0320028 0.379676 0
0.437909 0.396444 0
0.817169 0.403514 0
0.974695 0.636405 0.262992
1 0.84257 0.72011
1 0.936262 0.886973
0.0157769 0.74351 0
0.018833 0.746081 0
0.0376468 0.756928 0
0.294667 0.785221 0
0.84937 0.836224 0
0.996119 0.759178 0.265744
1 0.855598 0.722073
1 0.937505 0.887255
0.575863 0.997159 0.125374
0.577317 0.997193 0.127039
0.583157 0.997341 0.133677
0.610485 0.998314 0.163029
0.722505 1 0.251577
1 1 0.601448
1 0.916964 0.735566
1 0.943348 0.888608
0.844721 1 0.707319
0.844852 1 0.707414
0.845381 1 0.707799
0.847966 1 0.709673
0.860147 1 0.7184
0.910281 1 0.752242
1 1 0.878815
1 0.971054 0.896995
0.940844 1 0.884676
0.940856 1 0.884686
0.940905 1 0.884724
0.941148 1 0.884918
0.942331 1 0.885865
0.947895 1 0.890305
0.970346 1 0.907897
1 1 0.960608
5.23978e-05 0.000219825 0.0268702
0.036946 0 0.0331531
0.142843 0.00385677 0.0481434
0.422125 0.022954 0
0.800016 0.187719 0
0.971507 0.601602 0.269806
1 0.839117 0.719805
1 0.935948 0.886919
0 0.0303225 0.035016
0.0365279 0.0365279 0.0365279
0.147147 0.0400044 0.0419045
0.42724 0.0387421 0
0.801379 0.197712 0
0.971691 0.603059 0.269748
1 0.839256 0.719826
1 0.935961 0.886922
0 0.120942 0.0502356
0.00233233 0.127103 0.0424778
0.147874 0.133765 0.000845637
0.432291 0.139729 0
0.804626 0.237937 0
0.972447 0.608936 0.269494
1 0.839821 0.719912
1 0.936012 0.886934
0 0.36467 0
0 0.365982 0
0.0246872 0.386908 0
0.439288 0.399629 0
0.818648 0.403411 0
0.974729 0.636406 0.267581
1 0.842594 0.720332
1 0.936266 0.886992
0.0149953 0.745174 0
0.017932 0.747716 0
0.0360213 0.758473 0
0.292664 0.786903 0
0.849716 0.83681 0
0.996083 0.759086 0.270508
1 0.85562 0.722295
1 0.937508 0.887274
0.575588 0.997357 0.131093
0.577045 0.99739 0.132747
0.582895 0.997533 0.139326
0.610267 0.99848 0.168227
0.722474 1 0.255994
1 1 0.603847
1 0.916965 0.735794
1 0.94335 0.888627
0.844714 1 0.707465
0.844844 1 0.707561
0.845374 1 0.707945
0.84796 1 0.709819
0.860143 1 0.718546
0.910291 1 0.752427
1 1 0.878998
1 0.971054 0.897014
0.940844 1 0.884688
0.940856 1 0.884698
0.940906 1 0.884737
0.941148 1 0.88493
0.942331 1 0.885877
0.947895 1 0.890317
0.970348 1 0.907912
1 1 0.960623
0 0 0.116985
0.0365545 0 0.123871
0.146711 0 0.131959
0.425366 0.0169511 0.133867
0.807969 0.182633 0
0.971672 0.601672 0.287213
1 0.839218 0.720701
1 0.935962 0.886997
0 0.0279284 0.126754
0.0224444 0.0261149 0.134724
0.151483 0.00774921 0.135241
0.43187 0.0294543 0.130364
0.809321 0.192734 0
0.971854 0.603125 0.287167
1 0.839357 0.720722
1 0.935975 0.886999
0 0.12255 0.142325
0 0.127321 0.141324
0.141859 0.141859 0.141859
0.451355 0.116443 0.106536
0.813838 0.233805 0
0.972598 0.608987 0.286965
1 0.839921 0.720809
1 0.936026 0.887011
0 0.37009 0.146777
0 0.372255 0.141625
0.0106634 0.397197 0.115715
0.449423 0.416155 0
0.825017 0.40125 0
0.974873 0.636405 0.285265
1 0.842691 0.72123
1 0.936279 0.887068
0.0121174 0.75264 0
0.0146243 0.755062 0
0.0300334 0.765418 0
0.284276 0.794208 0
0.851567 0.839632 0
0.995945 0.758712 0.288826
1 0.855706 0.723196
1 0.937522 0.887352
0.574462 0.998165 0.153701
0.575929 0.998193 0.155266
0.581822 0.998316 0.161457
0.609376 0.999162 0.188261
0.722303 1 0.273102
1 1 0.613392
1 0.916971 0.736718
1 0.943363 0.888705
0.844683 1 0.708058
0.844814 1 0.708153
0.845344 1 0.708538
0.847933 1 0.710412
0.860127 1 0.71914
0.910332 1 0.753179
1 1 0.879742
1 0.971058 0.897095
0.940844 1 0.884736
0.940856 1 0.884746
0.940906 1 0.884786
0.941148 1 0.88498
0.942331 1 0.885925
0.947896 1 0.890367
0.970354 1 0.907977
1 1 0.960685
0 0 0.374479
0 0 0.377667
0.100656 0 0.395237
0.435397 0 0.397166
0.831485 0.151751 0.247394
0.972651 0.601948 0.357978
1 0.839713 0.725071
1 0.936028 0.887375
0 0.00297647 0.381165
0 0 0.386836
0.0854018 0 0.404747
0.439611 0 0.400263
0.833092 0.161909 0.247114
0.972819 0.603384 0.357971
1 0.839851 0.725092
1 0.936041 0.887378
0 0.0884951 0.40284
0 0.080493 0.408211
0.0294177 0.0567804 0.432955
0.452704 0.0250971 0.411801
0.837932 0.205237 0.2418
0.973506 0.609175 0.35793
1 0.840413 0.72518
1 0.936092 0.887389
0 0.376008 0.423919
0 0.377789 0.42265
0 0.391288 0.425188
0.420063 0.420063 0.420063
0.843311 0.383784 0.210861
0.977014 0.636708 0.357162
1 0.843169 0.725608
1 0.936345 0.887447
0 0.789339 0.187007
0.00320592 0.791451 0.185445
0.0112206 0.800743 0.17953
0.252179 0.822504 0.16425
0.840384 0.832863 0.311122
0.995381 0.756812 0.361741
1 0.85613 0.727586
1 0.937586 0.887731
0.568688 1 0.243
0.57021 1 0.244058
0.576318 1 0.248259
0.604806 1 0.266872
0.721976 1 0.344587
1 1 0.655665
1 0.917001 0.74122
1 0.943421 0.889086
0.84453 1 0.710982
0.844662 1 0.711076
0.845195 1 0.711461
0.847797 1 0.713334
0.860049 1 0.722063
0.910544 1 0.756887
1 1 0.883346
1 0.971073 0.897489
0.940845 1 0.884979
0.940857 1 0.884988
0.940907 1 0.885028
0.941149 1 0.885221
0.942333 1 0.886168
0.947903 1 0.890612
0.970384 1 0.908291
1 1 0.960989
0 0.0543278 0.85246
0 0.053316 0.852546
0 0.049392 0.853892
0.145757 0.039759 0.887264
0.832042 0.151178 0.794376
0.981293 0.605576 0.571523
1 0.842101 0.745565
1 0.936352 0.889222
0 0.0621364 0.855269
0 0.0604214 0.855235
0 0.0561383 0.856497
0.140382 0.0457938 0.889874
0.83261 0.161374 0.795112
0.981393 0.606924 0.571554
1 0.842236 0.745588
1 0.936364 0.889225
0 0.103568 0.865503
0 0.100843 0.8655
0 0.090669 0.866126
0.119164 0.0769423 0.899381
0.833991 0.203398 0.797274
0.981802 0.612354 0.571675
1 0.842785 0.745681
1 0.936416 0.889238
0 0.364408 0.872381
0 0.362767 0.872675
0 0.356786 0.874209
0.0478517 0.345454 0.901827
0.828594 0.390426 0.796548
0.983873 0.637961 0.572208
1 0.845476 0.746136
1 0.936666 0.889295
0 0.77869 0.776967
0 0.779093 0.777241
0 0.781249 0.778886
0.0583367 0.80288 0.798308
0.770874 0.770874 0.770874
0.992044 0.759147 0.601593
1 0.85844 0.748259
1 0.937901 0.889583
0.533666 1 0.484419
0.535506 1 0.48486
0.542869 1 0.486633
0.577466 1 0.4959
0.732122 1 0.588691
0.97486 0.980649 0.795441
1 0.917182 0.762142
1 0.943709 0.890947
0.843715 1 0.725354
0.843849 1 0.725448
0.844396 1 0.725829
0.847065 1 0.727686
0.859608 1 0.736369
0.911905 1 0.7756
1 1 0.899642
1 0.971151 0.89941
0.940847 1 0.88617
0.940859 1 0.886179
0.940909 1 0.886219
0.941153 1 0.886413
0.942343 1 0.887361
0.947938 1 0.891817
0.970535 1 0.90985
1 1 0.962459
0 0.594838 1
0 0.594783 1
0 0.594599 1
0.0104306 0.594544 1
0.482247 0.612825 1
0.973154 0.763552 0.955969
1 0.854907 0.829202
1 0.937919 0.897958
0 0.596528 1
0 0.596439 1
0 0.596259 1
0.0103916 0.596227 1
0.482593 0.614745 1
0.973051 0.764408 0.955895
1 0.855027 0.829225
1 0.937931 0.897961
0 0.603319 1
0 0.603237 1
0 0.602943 1
0.0102415 0.603003 1
0.484054 0.62246 1
0.972633 0.767857 0.955595
1 0.855512 0.829315
1 0.937981 0.897974
0 0.635158 1
0 0.63511 1
0 0.63495 1
0.00970573 0.635 1
0.492382 0.658455 1
0.970568 0.784156 0.954132
1 0.857889 0.829756
1 0.938226 0.898036
0 0.762146 1
0 0.76233 1
0 0.763182 1
0.01904 0.76992 1
0.549268 0.79104 1
0.961165 0.845744 0.948007
1 0.869319 0.831973
1 0.939429 0.898336
0.447615 1 0.958262
0.451445 1 0.958213
0.466599 1 0.958008
0.533018 1 0.956929
0.738383 0.976885 0.95071
0.942221 0.942221 0.942221
1 0.92503 0.856928
1 0.945235 0.899776
0.837692 1 0.794502
0.837844 1 0.794581
0.838459 1 0.794902
0.841462 1 0.796475
0.8558 1 0.804354
0.922486 1 0.861514
1 1 0.951789
1 0.971552 0.908417
0.940835 1 0.892054
0.940848 1 0.892064
0.940899 1 0.892104
0.941148 1 0.892299
0.942367 1 0.893251
0.948085 1 0.897736
0.971413 1 0.917698
1 1 0.969081
0.547643 0.876066 1
0.548215 0.876049 1
0.550532 0.875978 1
0.561752 0.875634 1
0.612575 0.87403 1
0.81342 0.882014 1
1 0.941073 0.994322
1 0.946047 0.934572
0.547701 0.876207 1
0.548273 0.87619 1
0.550589 0.876119 1
0.561806 0.875774 1
0.612617 0.874169 1
0.813491 0.882162 1
1 0.941137 0.994315
1 0.946058 0.934575
0.547938 0.87678 1
0.54851 0.876762 1
0.550821 0.876691 1
0.562026 0.876345 1
0.612792 0.874736 1
0.813778 0.88276 1
1 0.941396 0.994289
1 0.946101 0.934587
0.549135 0.879581 1
0.549703 0.879563 1
0.552003 0.879491 1
0.563138 0.87914 1
0.613676 0.87751 1
0.815208 0.885683 1
0.999898 0.942653 0.994158
1 0.946315 0.934648
0.555691 0.892875 1
0.556244 0.892857 1
0.558479 0.892782 1
0.569315 0.892416 1
0.618665 0.890695 1
0.822528 0.899347 1
0.9989 0.948444 0.993546
1 0.947364 0.934944
0.603957 0.946395 1
0.604495 0.946381 1
0.606684 0.946321 1
0.617484 0.946047 1
0.669866 0.945126 1
0.860029 0.948626 1
0.994948 0.968318 0.991346
1 0.952411 0.936424
0.831317 1 0.995843
0.83155 1 0.995839
0.832498 1 0.995824
0.837115 1 0.995745
0.858559 1 0.995318
0.932628 1 0.992764
0.99031 0.99031 0.99031
1 0.976568 0.949495
0.939992 1 0.920753
0.940006 1 0.920762
0.940063 1 0.920798
0.94034 1 0.920973
0.941696 1 0.921832
0.948149 1 0.926091
0.977039 1 0.953376
1 1 0.989311
0.835041 0.956274 1
0.835078 0.956274 1
0.835233 0.956271 1
0.835987 0.956257 1
0.839677 0.956193 1
0.857113 0.955942 1
0.933944 0.961518 1
1 0.984892 1
0.835047 0.956287 1
0.835084 0.956286 1
0.835238 0.956283 1
0.835992 0.956269 1
0.839683 0.956205 1
0.857118 0.955954 1
0.933951 0.96153 1
1 0.984897 1
0.83507 0.956336 1
0.835107 0.956335 1
0.835261 0.956333 1
0.836016 0.956319 1
0.839707 0.956255 1
0.857138 0.956003 1
0.93398 0.961579 1
1 0.984917 1
0.835187 0.956581 1
0.835224 0.95658 1
0.835377 0.956577 1
0.836131 0.956564 1
0.83982 0.956499 1
0.85724 0.956243 1
0.934124 0.961822 1
1 0.985016 1
0.835766 0.957778 1
0.835804 0.957778 1
0.835957 0.957775 1
0.836708 0.95776 1
0.840384 0.957692 1
0.857746 0.957417 1
0.934838 0.963008 1
1 0.985499 1
0.838823 0.963458 1
0.83886 0.963457 1
0.839009 0.963453 1
0.839747 0.963436 1
0.843356 0.96335 1
0.860444 0.962991 1
0.938423 0.968521 1
1 0.987698 1
0.858497 0.986043 1
0.858535 0.986042 1
0.85869 0.986037 1
0.859453 0.986015 1
0.86324 0.985915 1
0.882133 0.985617 1
0.955532 0.98769 1
1 0.994842 1
0.940942 1 1
0.940961 1 1
0.941041 1 1
0.941429 1 1
0.943325 1 1
0.952125 1 1
0.98192 1 1
1 1 1
