OpenDRT/OpenDRT-LogC3LinRec2020.cube
TITLE "Generated by Resolve"
LUT_3D_SIZE 5
0 0 0
0 0 0
0.298238 0.00793469 0
0.915694 0.308171 0.176181
0.98175 0.895171 0.856809
9.15541e-05 0.01561 7.62951e-05
0.0210727 0.0249027 0.000366217
0.307851 0.0509346 0
0.915084 0.322774 0.182345
0.981781 0.895521 0.85713
0.0285344 0.335912 0
0.0615396 0.344808 9.15541e-05
0.330571 0.374121 0.0113985
0.915511 0.43093 0.231388
0.98204 0.898253 0.859663
0.492607 0.834882 0.419516
0.49778 0.836301 0.421576
0.538643 0.847791 0.437583
0.868116 0.906233 0.56849
0.98497 0.921889 0.881819
0.944732 0.982315 0.934554
0.944793 0.98233 0.9346
0.945373 0.982483 0.934951
0.951003 0.98407 0.938354
0.989517 0.99295 0.962081
0 0 0
0.00869764 0 0.0113375
0.301167 0.0021973 0.027451
0.906401 0.309957 0.186908
0.981445 0.895293 0.857206
0.000167849 0.0162814 0.0173342
0.0213474 0.0213474 0.0213474
0.317021 0.0388342 0.0187686
0.905989 0.324407 0.192935
0.981491 0.895644 0.857527
0.024506 0.327855 0.00526436
0.057435 0.336675 0.00666819
0.326345 0.364858 0.0236667
0.907927 0.431632 0.240803
0.98175 0.898375 0.860044
0.494011 0.833799 0.42179
0.499153 0.835203 0.42385
0.539864 0.846632 0.439918
0.867491 0.904814 0.571649
0.984771 0.92195 0.882124
0.944762 0.9823 0.934615
0.944839 0.98233 0.934661
0.945403 0.982483 0.935012
0.951034 0.984054 0.938415
0.989517 0.992935 0.962142
0 0 0.325475
0 0 0.327825
0.290852 0.000289921 0.354192
0.909804 0.314382 0.27425
0.979049 0.896269 0.860426
0 0.000289921 0.323583
0 0.000976577 0.323354
0.291447 0.00231937 0.347402
0.896635 0.330312 0.280095
0.979095 0.896605 0.860746
0.0141146 0.296483 0.309056
0.0398566 0.297322 0.308476
0.295689 0.295689 0.295689
0.846174 0.440024 0.328664
0.979431 0.89929 0.863203
0.514824 0.821149 0.461692
0.519707 0.822522 0.463828
0.558358 0.833585 0.480491
0.862638 0.892592 0.61471
0.983063 0.922484 0.884657
0.945068 0.982223 0.935058
0.945129 0.982254 0.935103
0.945708 0.982406 0.935439
0.951308 0.983978 0.938857
0.989487 0.992813 0.962646
0.0585946 0.217975 1
0.0612955 0.222187 1
0.104021 0.253117 1
0.939941 0.410285 1
0.978515 0.900862 0.881437
0.0638895 0.226246 1
0.0666361 0.230411 1
0.110185 0.260838 1
0.935699 0.414511 1
0.978195 0.901259 0.881819
0.108217 0.289265 0.962982
0.111208 0.293034 0.957626
0.159609 0.319097 0.938094
0.904921 0.449699 1
0.975753 0.904356 0.88481
0.573312 0.846479 0.85568
0.580316 0.84506 0.853941
0.63331 0.835523 0.842145
0.830915 0.830915 0.830915
0.968536 0.927718 0.907683
0.950927 0.980117 0.944274
0.950988 0.980148 0.94432
0.951492 0.980301 0.94464
0.956451 0.981903 0.947906
0.989242 0.991485 0.970291
0.783871 0.866651 1
0.784161 0.86685 1
0.786526 0.868421 1
0.812787 0.881819 1
0.99913 0.931273 1
0.784451 0.867048 1
0.784756 0.867247 1
0.787106 0.868788 1
0.81326 0.882124 1
0.999069 0.931365 1
0.789044 0.870085 1
0.789319 0.870268 1
0.791592 0.871763 1
0.816999 0.884535 1
0.998596 0.932128 1
0.827543 0.895293 0.991897
0.827741 0.89543 0.991821
0.829343 0.896437 0.991272
0.84889 0.904906 0.989395
0.993912 0.939971 1
0.964019 0.986847 0.987533
0.964126 0.986831 0.987503
0.964996 0.986664 0.987305
0.971939 0.985565 0.985962
0.988479 0.988479 0.988479
