OpenDRT/OpenDRT_v1.0.0_Umbra__filmlight-egamut2-tloge_to_display-p3.cube
LUT_3D_SIZE 5
DOMAIN_MIN 0.000000 0.000000 0.000000
DOMAIN_MAX 0.851064 0.851064 0.851064
0.010169 0.0100489 0.00986772
0.0385601 0.0125573 0.0132003
0.343414 0.0367932 0
0.801999 0.299717 0
0.966818 0.820537 0.671779
0.005788 0.0403591 0.0182174
0.0582111 0.0429871 0.00795923
0.355253 0.0634431 0
0.804119 0.304565 0
0.966857 0.820607 0.671761
0.0104194 0.35205 0
0.033492 0.363389 0
0.561951 0.36484 0
0.828551 0.369182 0
0.967383 0.821548 0.671511
0.666317 0.899345 0.0793465
0.669693 0.899467 0.085118
0.712579 0.901081 0.171566
1 0.917913 0.461353
0.974706 0.837572 0.672325
0.970243 0.941855 0.763658
0.970276 0.941852 0.763693
0.970726 0.941801 0.764173
0.97668 0.94111 0.770935
1 0.940534 0.79998
0.0101688 0.0108654 0.035998
0.0435388 0.00447458 0.0422273
0.348815 0.0348295 0.0310552
0.803595 0.299364 0
0.966835 0.820529 0.671833
0.0005288 0.0375561 0.055568
0.0534172 0.0524107 0.0508745
0.366191 0.0602647 0.0165432
0.805718 0.304257 0
0.966874 0.820598 0.671814
0.00678676 0.359334 0.0536178
0.0217642 0.371632 0.00186394
0.559106 0.375231 0
0.830072 0.369079 0
0.967402 0.821548 0.671577
0.66669 0.899582 0.0970822
0.670071 0.899694 0.103304
0.712982 0.901174 0.187672
1 0.917377 0.466984
0.974724 0.837576 0.6724
0.970252 0.941855 0.763713
0.970285 0.941851 0.763749
0.970735 0.9418 0.764229
0.976688 0.941106 0.770989
1 0.940522 0.800016
0 0.00826641 0.311453
0 0.00758586 0.315899
0.367279 0.00546119 0.359682
0.826524 0.295149 0
0.967063 0.820414 0.672552
0 0.025614 0.327478
0 0.0231247 0.336057
0.385948 0.0174144 0.369383
0.82854 0.300367 0
0.967102 0.820484 0.672534
0 0.327567 0.460098
0 0.339566 0.45825
0.470466 0.448604 0.413619
0.853855 0.370003 0
0.967669 0.821613 0.672564
0.672303 0.902163 0.284231
0.675754 0.902159 0.287683
0.718944 0.901984 0.332118
0.992182 0.910242 0.532622
0.974965 0.837629 0.673415
0.970371 0.941843 0.764459
0.970405 0.941839 0.764495
0.970855 0.941787 0.764974
0.976799 0.941062 0.77172
1 0.940373 0.800501
0.0951043 0.580852 0.868015
0.103504 0.581048 0.869363
0.254714 0.573612 0.872945
0.923715 0.644218 0.775633
0.971202 0.821637 0.686736
0.0958732 0.584373 0.86794
0.104037 0.584477 0.869245
0.25513 0.577144 0.872756
0.923859 0.647976 0.775489
0.971242 0.821724 0.686747
0.110003 0.629653 0.866663
0.118673 0.629844 0.867783
0.264909 0.622382 0.869587
0.925239 0.691767 0.773694
0.971777 0.822898 0.686891
0.720744 0.884097 0.770365
0.723869 0.883902 0.770372
0.761936 0.881316 0.770383
0.929695 0.870791 0.773438
0.979468 0.839705 0.689303
0.972039 0.941598 0.774507
0.972073 0.941592 0.774541
0.972519 0.941512 0.775002
0.978325 0.940417 0.781368
1 0.938503 0.806517
0.916189 0.897609 0.84752
0.916246 0.897607 0.847517
0.917005 0.897583 0.847482
0.927694 0.897251 0.846831
0.999374 0.912292 0.825268
0.916207 0.897643 0.847511
0.916263 0.897641 0.847509
0.917023 0.897617 0.847474
0.927708 0.897285 0.846823
0.999373 0.912324 0.825266
0.916447 0.898105 0.847399
0.916503 0.898103 0.847396
0.91726 0.898079 0.847361
0.927907 0.897749 0.846716
0.999363 0.912741 0.82524
0.92013 0.904336 0.845675
0.920183 0.904334 0.845672
0.920899 0.904314 0.84564
0.930956 0.904009 0.845057
0.999171 0.917891 0.824913
0.980101 0.93604 0.823854
0.980125 0.936036 0.823855
0.980445 0.935987 0.823872
0.984533 0.935339 0.824081
0.998953 0.933539 0.824965
