OpenDRT/OpenDRT_v1.0.0_Colorful__filmlight-egamut2-tloge_to_rec1886.cube
LUT_3D_SIZE 8
DOMAIN_MIN 0.000000 0.000000 0.000000
DOMAIN_MAX 0.893617 0.893617 0.893617
0.00193973 0.00193973 0.00193973
0.0478329 0.00154884 0
0.180413 0.00172583 0
0.48703 0.0143877 0
0.875488 0.158807 0
1 0.606581 0.180002
1 0.844281 0.723102
1 0.938249 0.889741
0 0.0363483 0
0.0469924 0.0410246 0
0.180684 0.0513826 0
0.48934 0.0278543 0
0.876717 0.169058 0
1 0.608089 0.179302
1 0.844417 0.723111
1 0.938261 0.889743
0 0.141908 0
0 0.140694 0
0.172986 0.15089 0
0.492443 0.13778 0
0.879277 0.212827 0
1 0.614165 0.176404
1 0.844966 0.723148
1 0.93831 0.88975
0 0.38938 0
0 0.388499 0
0 0.389874 0
0.473405 0.422602 0
0.884088 0.403105 0
1 0.642484 0.160878
1 0.847661 0.723326
1 0.938552 0.889789
0 0.724688 0
0 0.725678 0
0 0.730523 0
0.0401822 0.778497 0
0.852998 0.837729 0
1 0.765565 0.103181
1 0.86034 0.724166
1 0.93974 0.889976
0.439506 1 0
0.442108 1 0
0.452446 1 0
0.498577 1 0
0.66044 1 0.0108581
1 1 0.565781
1 0.919425 0.732303
1 0.945339 0.890889
0.812022 1 0.693765
0.812183 1 0.693867
0.812835 1 0.694281
0.816013 1 0.696298
0.830867 1 0.705643
0.88984 1 0.741021
1 1 0.873126
1 0.971721 0.897156
0.928229 1 0.881836
0.928243 1 0.881846
0.928301 1 0.881886
0.928584 1 0.882083
0.929966 1 0.883044
0.936439 1 0.887547
0.962012 1 0.905184
1 1 0.958584
0.00010914 0.000452449 0.0383917
0.0537753 0 0.0456958
0.182723 0 0.0607585
0.490295 0.0128984 0
0.877104 0.157396 0
1 0.606597 0.188766
1 0.844306 0.723336
1 0.938252 0.88976
0 0.0416538 0.0471865
0.0481289 0.0481289 0.0481289
0.187005 0.0379099 0.0475898
0.493763 0.0259136 0
0.87833 0.16763 0
1 0.608105 0.188095
1 0.844441 0.723345
1 0.938264 0.889762
0 0.147193 0.0520953
0 0.148842 0.0296433
0.174183 0.15535 0
0.497718 0.13095 0
0.880915 0.211438 0
1 0.614177 0.185312
1 0.84499 0.723382
1 0.938313 0.88977
0 0.393611 0
0 0.392546 0
0 0.396627 0
0.473712 0.425193 0
0.885385 0.40273 0
1 0.642483 0.170289
1 0.847684 0.72356
1 0.938555 0.889808
0 0.726369 0
0 0.72732 0
0 0.731998 0
0.0383767 0.779124 0
0.852952 0.837969 0
1 0.765475 0.113255
1 0.860361 0.724402
1 0.939743 0.889995
0.439074 1 0
0.441687 1 0
0.452061 1 0
0.498339 1 0
0.660405 1 0.0148477
1 1 0.568783
1 0.919427 0.732549
1 0.945342 0.890908
0.812006 1 0.693924
0.812167 1 0.694026
0.812819 1 0.69444
0.815998 1 0.696457
0.830857 1 0.705802
0.889854 1 0.741223
1 1 0.873324
1 0.971722 0.897176
0.928229 1 0.881849
0.928243 1 0.881859
0.9283 1 0.881899
0.928583 1 0.882095
0.929965 1 0.883056
0.936439 1 0.887559
0.962014 1 0.9052
1 1 0.9586
0 0 0.14862
0.0625256 0 0.15496
0.190934 0 0.162448
0.496585 0.00508687 0.153518
0.884166 0.151551 0
1 0.606658 0.221182
1 0.844404 0.724283
1 0.938265 0.889838
0 0.0410407 0.156865
0.0306722 0.0354123 0.165533
0.193752 0.0056556 0.1645
0.501645 0.0188414 0.146325
0.885383 0.161703 0
1 0.608162 0.220619
1 0.844539 0.724292
1 0.938277 0.88984
0 0.150177 0.170934
0 0.152983 0.167308
0.166931 0.166931 0.166931
0.522656 0.10011 0.099608
0.889313 0.205557 0
1 0.614218 0.218287
1 0.845087 0.72433
1 0.938326 0.889847
0 0.409582 0.133687
0 0.409988 0.122725
0 0.419991 0.0306075
0.480531 0.440016 0
0.891255 0.399246 0
1 0.642472 0.205449
1 0.847779 0.72451
1 0.938568 0.889886
0 0.733964 0
0 0.734761 0
0 0.738769 0
0.0318326 0.782241 0
0.853374 0.839538 0
1 0.76511 0.155209
1 0.860445 0.725357
1 0.939756 0.890074
0.437296 1 0
0.439947 1 0
0.450471 1 0
0.497356 1 0
0.660209 1 0.0297364
1 1 0.580654
1 0.919434 0.733545
1 0.945354 0.890987
0.811942 1 0.69457
0.812103 1 0.694672
0.812756 1 0.695086
0.815939 1 0.697103
0.830818 1 0.706448
0.889913 1 0.742045
1 1 0.874127
1 0.971725 0.897259
0.928227 1 0.881898
0.928241 1 0.881908
0.928298 1 0.881948
0.928582 1 0.882145
0.929964 1 0.883106
0.936439 1 0.88761
0.962023 1 0.905267
1 1 0.958665
0 0 0.432161
0.00148643 0 0.435476
0.166374 0 0.449289
0.517423 0 0.445956
0.912095 0.121232 0.254377
1 0.606873 0.330978
1 0.844883 0.728895
1 0.938328 0.890221
0 0.00646168 0.437225
0 0 0.443054
0.145927 0 0.458128
0.520239 0 0.448101
0.913613 0.130585 0.252897
1 0.60836 0.330689
1 0.845018 0.728905
1 0.93834 0.890223
0 0.11885 0.453154
0 0.107757 0.458038
0.0367923 0.0727667 0.483725
0.528581 0.0178408 0.456635
0.91906 0.173495 0.241539
1 0.614347 0.329493
1 0.845564 0.728944
1 0.938389 0.89023
0 0.419501 0.464173
0 0.420235 0.461886
0 0.428087 0.45864
0.451549 0.451549 0.451549
0.918134 0.380226 0.16355
1 0.642635 0.322717
1 0.848242 0.729135
1 0.938631 0.890269
0 0.789403 0.00957529
0 0.789565 0.00720297
0 0.790799 0
0.0174091 0.819756 0
0.854214 0.845358 0.188857
1 0.763246 0.299188
1 0.860855 0.730007
1 0.939818 0.890458
0.425143 1 0.013635
0.427958 1 0.0144346
0.439111 1 0.0175054
0.48838 1 0.032108
0.659981 1 0.18149
1 1 0.631937
1 0.91947 0.738388
1 0.94541 0.891373
0.81162 1 0.697753
0.811782 1 0.697855
0.81244 1 0.698268
0.815645 1 0.700283
0.830621 1 0.709627
0.890215 1 0.746093
1 1 0.878014
1 0.971741 0.897663
0.928218 1 0.882145
0.928232 1 0.882155
0.92829 1 0.882195
0.928573 1 0.882391
0.929957 1 0.883354
0.93644 1 0.88786
0.962063 1 0.905593
1 1 0.958985
0 0.0796776 0.910951
0 0.0777618 0.910617
0 0.0703432 0.910254
0.224768 0.0486173 0.937839
0.91656 0.126849 0.831738
1 0.610015 0.584714
1 0.847193 0.750425
1 0.938638 0.89209
0 0.0902335 0.913072
0 0.087394 0.912718
0 0.0793484 0.912246
0.214012 0.0559351 0.940086
0.916751 0.136419 0.832402
1 0.611415 0.58463
1 0.847325 0.750436
1 0.93865 0.892093
0 0.144096 0.920304
0 0.139951 0.920015
0 0.124294 0.91938
0.168324 0.0929243 0.947881
0.916819 0.177966 0.834479
1 0.617047 0.584289
1 0.847858 0.750484
1 0.938699 0.892101
0 0.418804 0.917105
0 0.416606 0.917014
0 0.40826 0.91677
0.0281536 0.383431 0.934991
0.902317 0.389955 0.831783
1 0.64345 0.582559
1 0.850474 0.750717
1 0.938939 0.89214
0 0.809601 0.797572
0 0.809211 0.79716
0 0.807758 0.795637
0 0.809387 0.797051
0.787774 0.787774 0.787774
1 0.765761 0.602899
1 0.863052 0.751754
1 0.940119 0.892333
0.339759 1 0.434859
0.3438 1 0.435424
0.359741 1 0.437691
0.429513 1 0.449488
0.675459 1 0.564151
0.97573 0.98247 0.791146
1 0.919674 0.760777
1 0.945686 0.89326
0.809949 1 0.713337
0.810117 1 0.713438
0.810797 1 0.713847
0.814112 1 0.715839
0.829575 1 0.725116
0.892102 1 0.766422
1 1 0.895529
1 0.971819 0.899634
0.928171 1 0.883361
0.928185 1 0.883371
0.928244 1 0.883411
0.928529 1 0.883608
0.929922 1 0.884572
0.936444 1 0.889093
0.962268 1 0.907207
1 1 0.960536
0 0.635662 1
0 0.635401 1
0 0.634386 1
0 0.630393 1
0.477585 0.642907 1
1 0.771178 0.971411
1 0.859491 0.836608
1 0.940136 0.900916
0 0.637252 1
0 0.636964 1
0 0.635952 1
0 0.631977 1
0.477422 0.644788 1
1 0.772034 0.971293
1 0.859608 0.836622
1 0.940148 0.900918
0 0.643638 1
0 0.643357 1
0 0.642253 1
0 0.63835 1
0.476841 0.652338 1
1 0.775483 0.970814
1 0.86008 0.836676
1 0.940196 0.900927
0 0.673469 1
0 0.673219 1
0 0.672237 1
0 0.668328 1
0.475751 0.687399 1
1 0.791749 0.968492
1 0.862395 0.836944
1 0.94043 0.900971
0 0.789756 1
0 0.789683 1
0 0.789465 1
0 0.790578 1
0.504506 0.814391 1
0.986168 0.85273 0.95889
1 0.873504 0.838322
1 0.941581 0.901181
0.172895 1 0.964244
0.180016 1 0.964188
0.2101 1 0.963956
0.355958 1 0.962752
0.69311 0.986633 0.956128
0.946906 0.946906 0.946906
1 0.927437 0.859597
1 0.947131 0.902182
0.79945 1 0.787155
0.799645 1 0.787239
0.800435 1 0.787579
0.804285 1 0.789243
0.822553 1 0.797568
0.906275 1 0.857901
0.999915 1 0.950994
1 0.972223 0.90886
0.927916 1 0.889362
0.927931 1 0.889372
0.92799 1 0.889413
0.928285 1 0.889611
0.929722 1 0.890582
0.936438 1 0.895143
0.963438 1 0.915329
1 1 0.967511
0.463738 0.895703 1
0.464647 0.895674 1
0.468317 0.895556 1
0.485843 0.894978 1
0.56078 0.892239 1
0.81222 0.893833 1
1 0.943468 0.998396
1 0.94788 0.937599
0.463758 0.895836 1
0.464666 0.895806 1
0.468336 0.895688 1
0.485859 0.895111 1
0.560785 0.892371 1
0.812268 0.893973 1
1 0.94353 0.998386
1 0.94789 0.937601
0.463841 0.896375 1
0.464749 0.896346 1
0.468411 0.896227 1
0.485922 0.895649 1
0.560806 0.892907 1
0.812463 0.894538 1
1 0.943781 0.998342
1 0.947931 0.93761
0.464302 0.899012 1
0.465207 0.898982 1
0.468856 0.898864 1
0.486287 0.898282 1
0.560949 0.895529 1
0.813445 0.897297 1
1 0.945 0.998131
1 0.948137 0.937656
0.467867 0.911497 1
0.468751 0.911468 1
0.472318 0.911348 1
0.489372 0.91076 1
0.562715 0.907961 1
0.818773 0.910162 1
1 0.950618 0.997143
1 0.949144 0.937877
0.516548 0.96113 1
0.517384 0.961104 1
0.520769 0.960999 1
0.53725 0.960495 1
0.612754 0.958362 1
0.850934 0.956036 1
1 0.969872 0.993636
1 0.953983 0.938998
0.795965 1 0.996715
0.796266 1 0.996711
0.797489 1 0.996694
0.803437 1 0.996611
0.830792 1 0.996168
0.922453 1 0.993611
0.991114 0.991114 0.991114
1 0.977135 0.950446
0.92592 1 0.918587
0.925937 1 0.918596
0.926006 1 0.918633
0.926341 1 0.918812
0.92798 1 0.919692
0.935769 1 0.924053
0.970803 1 0.952071
1 1 0.988763
0.819416 0.964168 1
0.819461 0.964166 1
0.819646 0.964158 1
0.820551 0.964121 1
0.824971 0.963938 1
0.84571 0.963118 1
0.933433 0.965715 1
1 0.98538 1
0.81942 0.964179 1
0.819465 0.964177 1
0.819649 0.96417 1
0.820554 0.964132 1
0.824975 0.96395 1
0.845713 0.963129 1
0.933439 0.965726 1
1 0.985385 1
0.819435 0.964226 1
0.81948 0.964224 1
0.819664 0.964216 1
0.820569 0.964179 1
0.82499 0.963996 1
0.845725 0.963175 1
0.933461 0.965772 1
1 0.985404 1
0.819511 0.964455 1
0.819556 0.964453 1
0.819739 0.964446 1
0.820644 0.964408 1
0.825062 0.964225 1
0.845786 0.963401 1
0.933572 0.965999 1
1 0.9855 1
0.819895 0.965577 1
0.81994 0.965575 1
0.820124 0.965567 1
0.821025 0.965529 1
0.82543 0.965343 1
0.846093 0.964503 1
0.934128 0.967107 1
1 0.985965 1
0.822079 0.970886 1
0.822123 0.970884 1
0.822303 0.970876 1
0.823191 0.970835 1
0.827522 0.970635 1
0.847897 0.969727 1
0.937016 0.972247 1
1 0.988087 1
0.83974 0.991728 1
0.839786 0.991726 1
0.839972 0.991716 1
0.840888 0.991671 1
0.845428 0.991452 1
0.867876 0.990542 1
0.952336 0.989926 1
1 0.994981 1
0.929226 1 1
0.929249 1 1
0.929345 1 1
0.929814 1 1
0.932105 1 1
0.942712 1 1
0.978358 1 1
1 1 1
