OpenDRT/OpenDRT_v1.0.0_Colorful__filmlight-egamut2-tloge_to_display-p3.cube
LUT_3D_SIZE 48
0.00109944 0.00109944 0.00109944
0.00496188 0.0015818 0.001651
0.00950904 0.00183629 0.00186423
0.0142885 0.00189763 0.00102389
0.0192101 0.00195969 0.000235993
0.0254235 0.0020803 0
0.0334807 0.00228031 0
0.0437794 0.00257175 0
0.0567206 0.00296724 0
0.0726734 0.00348205 0
0.09196 0.00413607 0
0.114867 0.00495669 0
0.141691 0.00598371 0
0.172826 0.00727817 0
0.208853 0.008938 0
0.250607 0.0111244 0
0.299107 0.0141064 0
0.355186 0.0183283 0
0.418715 0.0244971 0
0.487795 0.0336669 0
0.558812 0.0472942 0
0.627726 0.0672872 0
0.691506 0.0960395 0
0.748523 0.136112 0
0.798169 0.188927 0
0.840683 0.253019 0
0.87733 0.324334 0
0.910058 0.398764 0
0.94062 0.473605 0
0.95997 0.541537 0.074561
0.971467 0.601583 0.265294
0.980335 0.655464 0.384791
0.987195 0.703133 0.477096
0.992502 0.744843 0.553491
0.996584 0.781038 0.618003
0.999691 0.812263 0.672848
1 0.839092 0.719584
1 0.862085 0.759447
1 0.881766 0.793473
1 0.898606 0.822537
1 0.913018 0.847388
1 0.925361 0.868663
1 0.935945 0.886901
1 0.945032 0.902557
1 0.952843 0.916017
1 0.959568 0.927608
1 0.965367 0.937604
1 0.970374 0.946235
0.000218453 0.00420064 0.00165328
0.00533175 0.00483098 0.000479113
0.00941172 0.00591869 9.44876e-05
0.0139378 0.00715564 0
0.0188375 0.00823681 0
0.0251557 0.0092265 0
0.0334263 0.00993615 0
0.0440134 0.0101475 0
0.0572352 0.00989233 0
0.0733956 0.00950944 0
0.0928115 0.00931155 0
0.115784 0.00942341 0
0.142626 0.00987708 0
0.173739 0.0107031 0
0.20971 0.0119731 0
0.251381 0.0138323 0
0.299899 0.01652 0
0.355905 0.0205067 0
0.419363 0.0264834 0
0.488378 0.0355057 0
0.559333 0.0490335 0
0.628181 0.0689715 0
0.691885 0.0976891 0
0.748814 0.137692 0
0.79837 0.190344 0
0.840811 0.254175 0
0.877413 0.325204 0
0.910114 0.399387 0
0.94066 0.474042 0
0.960005 0.54184 0.0745156
0.971494 0.601791 0.265286
0.980355 0.655606 0.384793
0.98721 0.703229 0.477101
0.992512 0.744907 0.553496
0.996591 0.781081 0.618008
0.999696 0.812293 0.672852
1 0.839112 0.719587
1 0.862098 0.759449
1 0.881775 0.793474
1 0.898612 0.822538
1 0.913022 0.847389
1 0.925364 0.868663
1 0.935947 0.886901
1 0.945033 0.902557
1 0.952844 0.916018
1 0.959569 0.927608
1 0.965368 0.937604
1 0.970374 0.946236
0 0.00773268 0.00170749
0.00589147 0.0082626 0
0.0100606 0.00900894 0
0.0142042 0.0101996 0
0.0188034 0.0115857 0
0.0248749 0.0132574 0
0.0329657 0.0150712 0
0.0434899 0.0167259 0
0.0568418 0.0178091 0
0.0733291 0.0179272 0
0.0931281 0.0171198 0
0.116388 0.0160253 0
0.14339 0.0152732 0
0.174568 0.0151229 0
0.210547 0.015651 0
0.25219 0.0169501 0
0.300532 0.0192301 0
0.356421 0.0228964 0
0.419736 0.0286346 0
0.488952 0.0374214 0
0.559847 0.0508228 0
0.628631 0.0706875 0
0.692261 0.0993565 0
0.749102 0.13928 0
0.798568 0.191761 0
0.840938 0.255329 0
0.877495 0.326071 0
0.91017 0.400009 0
0.940699 0.474478 0
0.960039 0.542144 0.0744702
0.97152 0.601999 0.265277
0.980374 0.655748 0.384796
0.987224 0.703325 0.477106
0.992522 0.744972 0.553502
0.996599 0.781125 0.618013
0.999701 0.812322 0.672856
1 0.839131 0.71959
1 0.862112 0.759452
1 0.881784 0.793476
1 0.898618 0.822539
1 0.913025 0.84739
1 0.925367 0.868664
1 0.935949 0.886902
1 0.945034 0.902558
1 0.952845 0.916018
1 0.959569 0.927608
1 0.965368 0.937604
1 0.970374 0.946235
0 0.0115314 0.00080228
0.00596182 0.0120096 0
0.0108275 0.0124559 0
0.0149899 0.0133667 0
0.0193051 0.0146289 0
0.025051 0.0163843 0
0.0328521 0.0186047 0
0.0431495 0.0210445 0
0.0563592 0.0233028 0
0.072844 0.0248427 0
0.0928576 0.0250991 0
0.116496 0.0239394 0
0.143841 0.0221186 0
0.175222 0.0206588 0
0.211284 0.0200808 0
0.252938 0.0205498 0
0.301254 0.0222252 0
0.357095 0.0254492 0
0.420354 0.0308626 0
0.489139 0.039487 0
0.560354 0.0526626 0
0.629075 0.0724349 0
0.692631 0.101042 0
0.749387 0.140875 0
0.798765 0.193179 0
0.841064 0.256481 0
0.877577 0.326938 0
0.910227 0.400631 0
0.940739 0.474914 0
0.960073 0.542447 0.0744251
0.971547 0.602206 0.265268
0.980394 0.655889 0.384798
0.987238 0.703421 0.477112
0.992533 0.745037 0.553508
0.996606 0.781169 0.618017
0.999706 0.812351 0.672859
1 0.839151 0.719593
1 0.862125 0.759454
1 0.881793 0.793477
1 0.898624 0.82254
1 0.91303 0.847391
1 0.925369 0.868664
1 0.935951 0.886902
1 0.945035 0.902558
1 0.952845 0.916018
1 0.95957 0.927609
1 0.965368 0.937604
1 0.970374 0.946235
0 0.0154746 0.000102715
0.00519254 0.0161126 0
0.0113079 0.016316 0
0.0158612 0.0169333 0
0.0201691 0.0179464 0
0.0256339 0.0195469 0
0.0330856 0.0218012 0
0.0430746 0.0245855 0
0.0560488 0.0275506 0
0.072386 0.0301643 0
0.0923815 0.0317582 0
0.116208 0.0316804 0
0.143919 0.0298668 0
0.175643 0.0273547 0
0.211904 0.0254507 0
0.253633 0.0248063 0
0.301953 0.0256595 0
0.357763 0.0282977 0
0.420974 0.0332954 0
0.489706 0.0416292 0
0.560345 0.0547148 0
0.629528 0.07427 0
0.693009 0.102798 0
0.749676 0.142528 0
0.798966 0.194642 0
0.841194 0.257668 0
0.877661 0.327829 0
0.910285 0.40127 0
0.94078 0.475363 0
0.960109 0.54276 0.0743776
0.971574 0.60242 0.265259
0.980414 0.656035 0.384801
0.987253 0.70352 0.477117
0.992543 0.745104 0.553513
0.996613 0.781214 0.618023
0.999711 0.812382 0.672864
1 0.839172 0.719596
1 0.862139 0.759456
1 0.881802 0.793479
1 0.89863 0.822542
1 0.913034 0.847392
1 0.925372 0.868665
1 0.935953 0.886902
1 0.945036 0.902557
1 0.952846 0.916018
1 0.959571 0.927609
1 0.965369 0.937605
1 0.970375 0.946235
0 0.0205054 0
0.00235345 0.021343 0
0.0114021 0.02141 0
0.0166175 0.0217782 0
0.0212718 0.0224617 0
0.0267159 0.0237358 0
0.0338047 0.0257817 0
0.0433506 0.0285992 0
0.0559455 0.031976 0
0.0720057 0.0354279 0
0.0918398 0.0382744 0
0.115664 0.0397206 0
0.143615 0.0390681 0
0.175775 0.0364153 0
0.212425 0.0331749 0
0.254367 0.0309483 0
0.302758 0.0305111 0
0.358561 0.0322161 0
0.421731 0.0365642 0
0.490404 0.0444545 0
0.560975 0.0572506 0
0.629389 0.0767627 0
0.693478 0.105038 0
0.750036 0.144621 0
0.799215 0.196487 0
0.841355 0.259161 0
0.877767 0.328951 0
0.910357 0.402075 0
0.940832 0.475928 0
0.960154 0.543153 0.0743182
0.971608 0.60269 0.265248
0.98044 0.656219 0.384804
0.987272 0.703644 0.477124
0.992557 0.745189 0.553521
0.996623 0.781271 0.618029
0.999718 0.81242 0.672869
1 0.839197 0.7196
1 0.862156 0.759459
1 0.881814 0.793481
1 0.898638 0.822543
1 0.913039 0.847392
1 0.925376 0.868666
1 0.935955 0.886903
1 0.945038 0.902558
1 0.952847 0.916019
1 0.959571 0.927609
1 0.965369 0.937605
1 0.970375 0.946235
0 0.0270911 0
0.000545224 0.0277401 0
0.0103753 0.0282548 0
0.0169646 0.0283763 0
0.0222334 0.0287754 0
0.0281068 0.0296076 0
0.0351609 0.0312048 0
0.0442303 0.0337389 0
0.056258 0.037149 0
0.0718501 0.0411064 0
0.0913594 0.0449703 0
0.115011 0.0479096 0
0.142987 0.0490219 0
0.175463 0.0476018 0
0.212641 0.0439858 0
0.25503 0.0400404 0
0.303649 0.0376976 0
0.359517 0.0378954 0
0.422667 0.0411799 0
0.491284 0.0483553 0
0.561778 0.0606902 0
0.630095 0.0799171 0
0.69318 0.10815 0
0.74941 0.147502 0
0.799536 0.198894 0
0.841564 0.261105 0
0.877905 0.33041 0
0.910452 0.403123 0
0.940899 0.476664 0
0.960212 0.543666 0.0742406
0.971653 0.603041 0.265232
0.980473 0.656458 0.384808
0.987296 0.703807 0.477133
0.992574 0.745299 0.55353
0.996635 0.781345 0.618037
0.999727 0.81247 0.672876
1 0.839231 0.719605
1 0.862179 0.759463
1 0.881829 0.793484
1 0.898648 0.822545
1 0.913046 0.847394
1 0.92538 0.868667
1 0.935958 0.886904
1 0.94504 0.902559
1 0.952849 0.916019
1 0.959572 0.927609
1 0.96537 0.937605
1 0.970374 0.946234
0 0.0355907 0
0 0.0360614 0
0.00587583 0.0372089 0
0.0161832 0.0371359 0
0.0226014 0.0372888 0
0.0292406 0.0377492 0
0.0368522 0.0387515 0
0.0458765 0.0406838 0
0.0572968 0.0437148 0
0.0721832 0.0476991 0
0.0911326 0.0521694 0
0.114417 0.0563197 0
0.142217 0.0591815 0
0.174756 0.0597697 0
0.21234 0.0574145 0
0.255357 0.0527799 0
0.304476 0.0482837 0
0.360585 0.0462391 0
0.423792 0.0478092 0
0.492373 0.0538151 0
0.562786 0.0654009 0
0.63099 0.0841637 0
0.693928 0.112079 0
0.749984 0.151101 0
0.798672 0.20209 0
0.841833 0.263632 0
0.878083 0.332306 0
0.910576 0.404486 0
0.940987 0.477623 0
0.960289 0.544334 0.0741392
0.971711 0.6035 0.265213
0.980517 0.656771 0.384813
0.987328 0.704019 0.477144
0.992597 0.745442 0.553542
0.996651 0.781442 0.618048
0.999738 0.812535 0.672884
1 0.839275 0.719612
1 0.862208 0.759468
1 0.881849 0.793488
1 0.898661 0.822548
1 0.913055 0.847396
1 0.925386 0.868668
1 0.935962 0.886904
1 0.945043 0.902559
1 0.952851 0.91602
1 0.959574 0.92761
1 0.965371 0.937605
1 0.970375 0.946234
0 0.0463787 0
0 0.0467292 0
0.00136988 0.0477499 0
0.0120223 0.0485462 0
0.0214712 0.0484192 0
0.0295034 0.0485764 0
0.0380989 0.0490943 0
0.0478472 0.0502495 0
0.0592254 0.0524963 0
0.0733651 0.0559873 0
0.0914651 0.0604727 0
0.114103 0.0653374 0
0.141502 0.0696189 0
0.17387 0.072231 0
0.211567 0.0721268 0
0.255094 0.068717 0
0.304949 0.0631191 0
0.361607 0.0584408 0
0.425059 0.057443 0
0.493682 0.0615672 0
0.56403 0.0719229 0
0.632107 0.0899206 0
0.694867 0.117314 0
0.750708 0.155835 0
0.799179 0.206169 0
0.840752 0.266851 0
0.878315 0.334769 0
0.910738 0.406258 0
0.941102 0.47887 0
0.960389 0.545205 0.0740052
0.971788 0.604097 0.265187
0.980574 0.657178 0.38482
0.98737 0.704296 0.477159
0.992627 0.745629 0.553558
0.996673 0.781568 0.618062
0.999753 0.81262 0.672895
1 0.839332 0.71962
1 0.862246 0.759475
1 0.881875 0.793493
1 0.898678 0.822551
1 0.913066 0.847398
1 0.925394 0.86867
1 0.935967 0.886905
1 0.945046 0.90256
1 0.952853 0.91602
1 0.959575 0.92761
1 0.965371 0.937605
1 0.970377 0.946236
0 0.059817 0
0 0.0600872 0
0.00028673 0.0608138 0
0.00352459 0.0620887 0
0.0160999 0.0626612 0
0.0277479 0.0624816 0
0.0380934 0.0626251 0
0.0490899 0.0631726 0
0.0614117 0.0644388 0
0.0755429 0.0669432 0
0.092764 0.0708105 0
0.114416 0.0756779 0
0.141093 0.0807921 0
0.173035 0.0850518 0
0.210574 0.0872686 0
0.254279 0.0863418 0
0.304769 0.081828 0
0.362271 0.0755113 0
0.426308 0.0713809 0
0.495164 0.072672 0
0.565518 0.0810493 0
0.633473 0.0977803 0
0.696029 0.124318 0
0.75161 0.162067 0
0.799817 0.211483 0
0.84118 0.271089 0
0.877081 0.337775 0
0.910948 0.408558 0
0.941252 0.480492 0
0.960519 0.546338 0.0738312
0.971887 0.604875 0.265153
0.980648 0.657709 0.384828
0.987424 0.704656 0.477179
0.992666 0.745873 0.553579
0.9967 0.781733 0.61808
0.999772 0.812731 0.67291
1 0.839406 0.719632
1 0.862296 0.759483
1 0.881908 0.793499
1 0.898701 0.822555
1 0.913081 0.847401
1 0.925404 0.868672
1 0.935974 0.886907
1 0.94505 0.902561
1 0.952856 0.916021
1 0.959577 0.927611
1 0.965373 0.937605
1 0.970378 0.946236
0 0.0762294 0
0 0.0764477 0
0 0.0769759 0
0.000832884 0.0778995 0
0.00486391 0.0792669 0
0.020563 0.0799317 0
0.0354202 0.0796718 0
0.0485789 0.0797763 0
0.0624685 0.0803138 0
0.0778367 0.0816302 0
0.0951384 0.0843067 0
0.115808 0.0884326 0
0.141383 0.0935455 0
0.172543 0.0987734 0
0.20964 0.102893 0
0.253207 0.104609 0
0.303958 0.102765 0
0.362241 0.0972111 0
0.427216 0.0907759 0
0.496659 0.0884915 0
0.567202 0.0938807 0
0.635092 0.108575 0
0.697433 0.133711 0
0.752716 0.17027 0
0.800612 0.218395 0
0.841723 0.276573 0
0.877454 0.341885 0
0.909634 0.411254 0
0.941448 0.482599 0
0.96069 0.547813 0.0736019
0.972018 0.605888 0.265107
0.980745 0.658401 0.384839
0.987495 0.705127 0.477204
0.992717 0.746192 0.553605
0.996736 0.781948 0.618104
0.999797 0.812876 0.672929
1 0.839504 0.719646
1 0.862362 0.759494
1 0.881952 0.793507
1 0.89873 0.822562
1 0.913101 0.847405
1 0.925417 0.868675
1 0.935983 0.886909
1 0.945057 0.902563
1 0.95286 0.916022
1 0.95958 0.927612
1 0.965375 0.937606
1 0.970379 0.946237
0 0.0958956 0
0 0.0960811 0
0 0.0964753 0
0 0.0971359 0
0.00114642 0.0981414 0
0.00617596 0.0998256 0
0.025924 0.10066 0
0.0446252 0.100297 0
0.0611462 0.100336 0
0.0784687 0.100825 0
0.0974009 0.10213 0
0.118327 0.10488 0
0.142865 0.109148 0
0.172835 0.114391 0
0.209103 0.119641 0
0.252215 0.12355 0
0.302858 0.12468 0
0.361516 0.121847 0
0.427427 0.115574 0
0.497853 0.110254 0
0.568925 0.111769 0
0.63691 0.123393 0
0.699075 0.146318 0
0.754043 0.181053 0
0.80159 0.22736 0
0.842408 0.28365 0
0.877935 0.347192 0
0.909977 0.415092 0
0.940112 0.484985 0
0.960913 0.54973 0.0732998
0.972188 0.607207 0.265046
0.980872 0.659302 0.384852
0.987588 0.705739 0.477237
0.992783 0.746607 0.55364
0.996783 0.782228 0.618134
0.99983 0.813064 0.672954
1 0.839631 0.719666
1 0.862447 0.759509
1 0.882009 0.793517
1 0.898768 0.822569
1 0.913127 0.847411
1 0.925434 0.868679
1 0.935994 0.886912
1 0.945064 0.902564
1 0.952865 0.916023
1 0.959583 0.927612
1 0.965377 0.937606
1 0.97038 0.946237
0 0.119078 0
0 0.119243 0
0 0.119549 0
0 0.120031 0
0 0.120742 0
0.00146514 0.121985 0
0.00776462 0.124101 0
0.0322669 0.125138 0
0.0554979 0.124655 0
0.0759815 0.124616 0
0.097335 0.125042 0
0.120417 0.126282 0
0.145506 0.129038 0
0.174449 0.133372 0
0.209466 0.138689 0
0.251708 0.143929 0
0.301886 0.14757 0
0.360483 0.147979 0
0.426917 0.144169 0
0.4984 0.138088 0
0.570403 0.135905 0
0.638786 0.143477 0
0.70091 0.163135 0
0.755593 0.195173 0
0.802775 0.238938 0
0.843268 0.292746 0
0.878553 0.354021 0
0.910424 0.420047 0
0.940434 0.488504 0
0.959678 0.551854 0.0724579
0.972412 0.608923 0.264964
0.981038 0.660475 0.384869
0.987709 0.706537 0.477279
0.99287 0.747147 0.553686
0.996844 0.782593 0.618175
0.999873 0.81331 0.672987
1 0.839796 0.719691
1 0.862558 0.759528
1 0.882084 0.793531
1 0.898818 0.822579
1 0.91316 0.847418
1 0.925457 0.868684
1 0.936009 0.886915
1 0.945075 0.902567
1 0.952872 0.916025
1 0.959588 0.927613
1 0.96538 0.937607
1 0.970382 0.946236
0 0.146083 0
0 0.146235 0
0 0.146484 0
0 0.146848 0
0 0.147364 0
0 0.148242 0
0.00186629 0.149806 0
0.009685 0.152431 0
0.0397011 0.15371 0
0.0682041 0.153104 0
0.0933128 0.153018 0
0.119384 0.153387 0
0.147317 0.154572 0
0.177251 0.157331 0
0.211323 0.161736 0
0.252272 0.16714 0
0.301531 0.172347 0
0.359651 0.17556 0
0.426106 0.17502 0
0.498271 0.170624 0
0.571348 0.166521 0
0.640496 0.169856 0
0.702833 0.185208 0
0.757346 0.213484 0
0.804192 0.253807 0
0.84434 0.304376 0
0.879347 0.362773 0
0.911007 0.426426 0
0.940855 0.493053 0
0.960049 0.555062 0.0719262
0.971219 0.610764 0.264661
0.981255 0.662002 0.384889
0.987867 0.707577 0.477334
0.992983 0.747852 0.553744
0.996924 0.783069 0.618227
0.999929 0.813631 0.673029
1 0.840012 0.719724
1 0.862703 0.759552
1 0.882181 0.793549
1 0.898884 0.822592
1 0.913204 0.847427
1 0.925486 0.86869
1 0.936029 0.88692
1 0.945088 0.90257
1 0.952881 0.916027
1 0.959594 0.927615
1 0.965384 0.937608
1 0.970384 0.946237
0 0.17735 0
0 0.177493 0
0 0.177704 0
0 0.177992 0
0 0.178381 0
0 0.17902 0
0 0.180128 0
0.00237993 0.182075 0
0.0120296 0.185297 0
0.0484003 0.186868 0
0.082979 0.186194 0
0.113478 0.186097 0
0.145081 0.186492 0
0.178737 0.187721 0
0.214408 0.190587 0
0.254562 0.195152 0
0.30248 0.200668 0
0.359614 0.205671 0
0.425594 0.208047 0
0.497902 0.206418 0
0.57177 0.202613 0
0.641862 0.202793 0
0.704721 0.213361 0
0.759268 0.236842 0
0.805866 0.272709 0
0.845679 0.31917 0
0.880369 0.373936 0
0.911768 0.434608 0
0.941409 0.498917 0
0.960538 0.559216 0.0712191
0.971591 0.613638 0.264507
0.980126 0.663597 0.384843
0.988074 0.70893 0.477403
0.993131 0.748769 0.55382
0.997029 0.783689 0.618294
1 0.814049 0.673084
1 0.840293 0.719766
1 0.862892 0.759584
1 0.882308 0.793573
1 0.898969 0.822609
1 0.913261 0.847439
1 0.925524 0.868699
1 0.936055 0.886925
1 0.945105 0.902574
1 0.952892 0.916029
1 0.959601 0.927616
1 0.96539 0.93761
1 0.970388 0.946238
0 0.213528 0
0 0.213667 0
0 0.213853 0
0 0.214092 0
0 0.2144 0
0 0.214886 0
0 0.215698 0
0 0.217089 0
0.00305938 0.219497 0
0.0149642 0.223417 0
0.0586266 0.225397 0
0.100202 0.224685 0
0.136984 0.224689 0
0.175114 0.22529 0
0.215594 0.226781 0
0.258125 0.229958 0
0.305443 0.234785 0
0.361161 0.240255 0
0.426074 0.244501 0
0.497955 0.245424 0
0.572106 0.243093 0
0.64298 0.241728 0
0.706544 0.247918 0
0.761358 0.265955 0
0.807843 0.296405 0
0.847353 0.337824 0
0.881693 0.388119 0
0.912765 0.445061 0
0.942136 0.506453 0
0.961181 0.564581 0.070275
0.972079 0.617362 0.264293
0.980488 0.666156 0.384867
0.987022 0.71031 0.477473
0.993325 0.749964 0.553918
0.997166 0.784497 0.618382
1 0.814594 0.673156
1 0.840659 0.719822
1 0.863138 0.759626
1 0.882473 0.793603
1 0.89908 0.822631
1 0.913335 0.847455
1 0.925574 0.868709
1 0.936088 0.886933
1 0.945127 0.90258
1 0.952907 0.916033
1 0.959611 0.927619
1 0.965396 0.937611
1 0.970393 0.946241
0 0.255486 0
0 0.255625 0
0 0.255798 0
0 0.256009 0
0 0.256267 0
0 0.256658 0
0 0.257285 0
0 0.258322 0
0 0.260074 0
0.00400499 0.26306 0
0.0187839 0.267852 0
0.0708661 0.270283 0
0.120428 0.269631 0
0.164538 0.269929 0
0.210393 0.271023 0
0.259023 0.273103 0
0.309655 0.276807 0
0.364987 0.281791 0
0.428394 0.28657 0
0.499183 0.289049 0
0.573035 0.288108 0
0.644293 0.286153 0
0.708497 0.288812 0
0.763721 0.30131 0
0.810226 0.325624 0
0.849473 0.361097 0
0.883422 0.406014 0
0.914088 0.458381 0
0.943099 0.516107 0
0.962031 0.571493 0.0690071
0.972722 0.622179 0.263995
0.980964 0.669476 0.384891
0.987367 0.71258 0.477584
0.992358 0.75116 0.554051
0.997345 0.785548 0.618496
1 0.815303 0.673249
1 0.841137 0.719895
1 0.863459 0.75968
1 0.882689 0.793643
1 0.899224 0.822659
1 0.913432 0.847475
1 0.925639 0.868724
1 0.936131 0.886943
1 0.945156 0.902587
1 0.952927 0.916038
1 0.959625 0.927622
1 0.965405 0.937613
1 0.970398 0.94624
0 0.304116 0
0 0.304264 0
0 0.304437 0
0 0.304636 0
0 0.304871 0
0 0.305211 0
0 0.305733 0
0 0.306558 0
0 0.307899 0
0.000728323 0.310127 0
0.00541503 0.313856 0
0.0240789 0.3197 0
0.085884 0.322625 0
0.144385 0.322191 0
0.196963 0.323053 0
0.251883 0.325017 0
0.310053 0.32802 0
0.369781 0.332261 0
0.433081 0.336768 0
0.502385 0.339587 0
0.575291 0.339195 0
0.646445 0.336577 0
0.711031 0.33619 0
0.766639 0.343319 0
0.813219 0.361067 0
0.852211 0.389799 0
0.885705 0.428408 0
0.915857 0.475261 0
0.944393 0.52846 0
0.963158 0.580378 0.0673359
0.973571 0.628397 0.263571
0.98159 0.673775 0.384908
0.98782 0.715525 0.477722
0.992681 0.753165 0.554211
0.996465 0.786587 0.618662
1 0.816227 0.67337
1 0.841759 0.719988
1 0.863878 0.759751
1 0.882969 0.793694
1 0.899413 0.822697
1 0.913559 0.847502
1 0.925724 0.868742
1 0.936188 0.886956
1 0.945194 0.902595
1 0.952952 0.916044
1 0.959642 0.927627
1 0.965416 0.937616
1 0.970406 0.946243
0 0.359797 0
0 0.359968 0
0 0.360157 0
0 0.360365 0
0 0.360599 0
0 0.360926 0
0 0.361405 0
0 0.362127 0
0 0.363243 0
0 0.365014 0
0.00183502 0.367889 0
0.00770114 0.372585 0
0.0320028 0.379676 0
0.104851 0.383051 0
0.172873 0.383054 0
0.234935 0.384813 0
0.300134 0.388027 0
0.368912 0.392126 0
0.437909 0.396444 0
0.50768 0.399201 0
0.57948 0.398541 0
0.650078 0.394666 0
0.714741 0.390974 0
0.770575 0.392678 0
0.817169 0.403514 0
0.855841 0.424811 0
0.888763 0.456188 0
0.918246 0.496511 0
0.946147 0.544194 0
0.964659 0.591788 0.065317
0.974695 0.636405 0.262992
0.982415 0.67933 0.384908
0.988416 0.719341 0.477891
0.993106 0.755767 0.554415
0.996764 0.788352 0.61885
0.999593 0.81713 0.673552
