OpenDRT/OpenDRT_v1.0.0_Umbra__filmlight-egamut2-tloge_to_display-p3.cube
LUT_3D_SIZE 8
DOMAIN_MIN 0.000000 0.000000 0.000000
DOMAIN_MAX 0.893617 0.893617 0.893617
0.010169 0.0100489 0.00986772
0.0198855 0.00961248 0.00961615
0.0603003 0.014147 0.0153517
0.227486 0.0234284 0
0.590101 0.0979065 0
0.801999 0.299717 0
0.924746 0.676447 0.465356
0.979616 0.861059 0.726444
0.00991098 0.0202178 0.0120566
0.0248751 0.0216356 0.0114991
0.0642193 0.025713 0.0127996
0.233145 0.033803 0
0.593042 0.10226 0
0.802709 0.301334 0
0.924824 0.676602 0.465304
0.979621 0.861068 0.726441
0.00277375 0.0616078 0.0231669
0.0278538 0.0651236 0.0113544
0.0935912 0.0645648 0
0.251628 0.0802242 0
0.602569 0.121396 0
0.805625 0.308032 0
0.925138 0.677234 0.465094
0.979642 0.861105 0.726432
0.00361582 0.236385 0.00752312
0.00784849 0.241299 0
0.0844166 0.254939 0
0.390058 0.244813 0
0.65444 0.233312 0
0.8165 0.34032 0
0.926734 0.680563 0.464427
0.979747 0.861286 0.726386
0.146245 0.62227 0
0.157308 0.623042 0
0.200854 0.625253 0
0.374151 0.636788 0
0.857287 0.651297 0
0.886151 0.503457 0
0.932945 0.697177 0.462854
0.980292 0.862298 0.726316
0.666317 0.899345 0.0793465
0.667459 0.899386 0.0812659
0.672076 0.899553 0.0893676
0.694146 0.900363 0.133461
0.785912 0.904967 0.294942
1 0.917913 0.461353
0.975685 0.785398 0.469491
0.982519 0.867684 0.72688
0.915414 0.941665 0.661715
0.915491 0.941659 0.661794
0.915804 0.941637 0.662114
0.917338 0.941529 0.663694
0.924624 0.940999 0.671481
0.953289 0.939107 0.705945
1 0.941546 0.748327
0.997164 0.896249 0.733775
0.983346 0.941148 0.788251
0.983351 0.941147 0.788256
0.983368 0.941145 0.788275
0.983454 0.941134 0.788368
0.983876 0.941081 0.788829
0.985865 0.940824 0.791087
0.993369 0.939847 0.800803
1 0.939997 0.811547
0.0107263 0.0106298 0.0183509
0.0220205 0.00935314 0.0203225
0.0612293 0.0119752 0.0258213
0.22935 0.0226031 0.0151782
0.591561 0.0974787 0
0.802531 0.299582 0
0.924779 0.676427 0.465506
0.979618 0.861058 0.72645
0.00757094 0.0207801 0.0240865
0.0245022 0.0241389 0.0235881
0.0660598 0.0242151 0.0247768
0.238202 0.0328364 0.0100444
0.59449 0.10183 0
0.80325 0.301227 0
0.924856 0.676583 0.465454
0.979623 0.861066 0.726448
0.000870324 0.0609815 0.0391153
0.0162938 0.0675177 0.0317113
0.0913184 0.069528 0.0194148
0.256092 0.0783503 0.00205689
0.604032 0.120979 0
0.806161 0.307932 0
0.925171 0.677215 0.465245
0.979644 0.861103 0.726439
0.00262967 0.237705 0.0433459
0.00595775 0.244401 0.014686
0.0723787 0.259752 0
0.389586 0.249077 0
0.65533 0.232825 0
0.817033 0.340257 0
0.926769 0.68056 0.464608
0.979749 0.861285 0.726392
0.143461 0.624347 0
0.154563 0.625142 0
0.198453 0.627386 0
0.372448 0.638498 0
0.856378 0.65299 0
0.886537 0.503538 0
0.93298 0.697175 0.463039
0.980295 0.862299 0.726326
0.666442 0.899426 0.0851814
0.667585 0.899466 0.0871678
0.672204 0.899628 0.0955012
0.694282 0.900416 0.139762
0.78598 0.904899 0.298239
1 0.917732 0.463268
0.975704 0.785392 0.469703
0.982522 0.867685 0.72689
0.915432 0.941665 0.661852
0.915509 0.94166 0.66193
0.915822 0.941638 0.662251
0.917356 0.941528 0.663831
0.924643 0.940996 0.671617
0.953299 0.939093 0.706069
1 0.941521 0.748419
0.997165 0.89625 0.733786
0.983348 0.941148 0.788258
0.983352 0.941147 0.788263
0.98337 0.941145 0.788282
0.983456 0.941134 0.788375
0.983877 0.941081 0.788837
0.985866 0.940824 0.791094
0.99337 0.939846 0.800809
1 0.939996 0.811552
0.00350594 0.00691097 0.0554279
0.0228646 0.00626067 0.0575278
0.0651079 0.00308771 0.0646262
0.229132 0.0190994 0.0810251
0.597669 0.0955386 0
0.804744 0.299129 0
0.924914 0.676347 0.466117
0.979627 0.861053 0.726477
0.00230764 0.0228043 0.0600566
0.0234488 0.0239595 0.0620546
0.0722479 0.0114914 0.0681644
0.2385 0.0281698 0.078185
0.600547 0.0998924 0
0.80546 0.300785 0
0.924991 0.676502 0.466066
0.979632 0.861062 0.726475
0 0.0535127 0.0880552
0.00212709 0.0623383 0.0864192
0.0828974 0.0810662 0.0782567
0.266029 0.0698561 0.0662667
0.612019 0.119071 0
0.808354 0.307515 0
0.925306 0.677134 0.465858
0.979654 0.861099 0.726466
0 0.234857 0.125711
0.00176094 0.24227 0.115709
0.0296537 0.269102 0.0693627
0.386267 0.267397 0
0.658765 0.231133 0
0.819212 0.339995 0
0.926913 0.680547 0.465346
0.979758 0.861281 0.72642
0.132733 0.633049 0
0.143938 0.633942 0
0.189121 0.636356 0
0.366195 0.645733 0
0.852652 0.660022 0
0.888099 0.503931 0
0.933123 0.697164 0.463788
0.980306 0.862303 0.726365
0.666959 0.899747 0.110261
0.668105 0.899782 0.112396
0.672734 0.899927 0.121166
0.694841 0.900624 0.164167
0.786266 0.904624 0.311174
1 0.916996 0.47091
0.975785 0.785374 0.470566
0.982533 0.867689 0.72693
0.915506 0.941667 0.662407
0.915584 0.941661 0.662486
0.915897 0.941638 0.662806
0.91743 0.941527 0.664385
0.924716 0.940984 0.672168
0.953343 0.939033 0.706571
1 0.941422 0.748792
0.997171 0.896251 0.73383
0.983353 0.941147 0.788287
0.983357 0.941147 0.788292
0.983374 0.941144 0.78831
0.98346 0.941134 0.788404
0.983882 0.94108 0.788865
0.985871 0.940822 0.791122
0.993372 0.939842 0.800835
1 0.93999 0.81157
0 0.0024095 0.203713
0 0.00240555 0.205572
0.021917 0 0.219141
0.243371 0 0.244626
0.618665 0.0894256 0.127164
0.816 0.296621 0
0.925613 0.676111 0.469404
0.979672 0.861031 0.726611
0 0.00733011 0.209726
0 0.00711542 0.214417
0.0192844 0.0068376 0.227452
0.252088 0.00568414 0.248478
0.621557 0.0939961 0.126214
0.816696 0.298309 0
0.925694 0.676286 0.469386
0.979678 0.86104 0.726609
0 0.0488286 0.232982
0 0.0489515 0.23673
0.0104029 0.0460502 0.25385
0.280013 0.02305 0.263506
0.633062 0.114572 0.120655
0.81951 0.305175 0
0.926019 0.676993 0.469315
0.979699 0.861077 0.726599
0 0.205799 0.33795
0 0.212005 0.337166
0 0.235716 0.334143
0.330951 0.317819 0.297059
0.673141 0.228928 0.0682406
0.833053 0.339138 0
0.927628 0.680481 0.468959
0.979803 0.861259 0.726553
0.0886026 0.654526 0.197962
0.0987979 0.65559 0.193122
0.145768 0.659796 0.172838
0.350846 0.678479 0.0602774
0.826493 0.688779 0.12627
0.896074 0.507366 0
0.933832 0.697108 0.467458
0.980361 0.862323 0.72656
0.6697 0.901158 0.219212
0.670859 0.901174 0.220737
0.675535 0.901235 0.226877
0.697776 0.901505 0.255762
0.787903 0.903237 0.366457
0.998121 0.913382 0.505626
0.976187 0.785327 0.474933
0.982587 0.867708 0.727126
0.915874 0.941671 0.665129
0.915951 0.941664 0.665208
0.916265 0.94164 0.665528
0.917799 0.941518 0.667105
0.92508 0.940923 0.674863
0.953559 0.938744 0.709017
1 0.940936 0.750605
0.9972 0.896257 0.734046
0.983376 0.941144 0.788428
0.98338 0.941144 0.788432
0.983398 0.941141 0.788451
0.983484 0.94113 0.788545
0.983906 0.941076 0.789006
0.985894 0.940815 0.791261
0.993385 0.939823 0.800959
1 0.939962 0.81166
0 0.0878572 0.587119
0 0.0865771 0.587479
0 0.0812118 0.589511
0.0202619 0.0583128 0.622208
0.658538 0.0785461 0.597467
0.863959 0.312259 0.203487
0.929332 0.675695 0.486604
0.979919 0.861006 0.727386
0 0.0963241 0.589553
0 0.0948037 0.590071
0 0.0894028 0.592135
0.0197534 0.0660633 0.625078
0.661313 0.0858854 0.599137
0.864455 0.314286 0.203488
0.929409 0.675869 0.486592
0.979925 0.861018 0.727387
0 0.133917 0.597855
0 0.131921 0.598393
0 0.123955 0.600841
0.0180736 0.101975 0.634662
0.67175 0.120055 0.605093
0.866465 0.322511 0.203495
0.929723 0.676577 0.486542
0.979948 0.861064 0.727392
0 0.299373 0.617034
0 0.299074 0.617406
0 0.298072 0.619276
0.0177876 0.304889 0.648299
0.699625 0.297167 0.616784
0.876358 0.362596 0.203652
0.931273 0.680063 0.486293
0.980063 0.861293 0.727413
0.018137 0.631929 0.64631
0.0211083 0.633936 0.64703
0.0385174 0.642295 0.65009
0.286634 0.664187 0.644849
0.723833 0.682935 0.616243
0.924672 0.556754 0.263617
0.938968 0.697196 0.485047
0.980633 0.862423 0.727519
0.684657 0.903955 0.464859
0.685857 0.903896 0.465511
0.690687 0.903656 0.468161
0.71333 0.902404 0.481181
0.798612 0.896204 0.538442
0.968719 0.897035 0.624682
0.978258 0.786118 0.4985
0.982853 0.867803 0.728089
0.917685 0.941627 0.678115
0.917763 0.941618 0.678192
0.918076 0.941584 0.678506
0.919611 0.941414 0.680055
0.926861 0.940587 0.687638
0.95462 0.937381 0.720373
1 0.93868 0.758913
0.997345 0.896303 0.735141
0.983493 0.941129 0.789117
0.983497 0.941128 0.789121
0.983515 0.941126 0.78914
0.983601 0.941114 0.789234
0.984022 0.941057 0.789694
0.986006 0.940782 0.791942
0.993449 0.939729 0.801567
1 0.939823 0.812096
0.0951043 0.580852 0.868015
0.0978702 0.580922 0.868476
0.109847 0.581162 0.870288
0.182706 0.577883 0.872738
0.507415 0.559796 0.868344
0.923715 0.644218 0.775633
0.954534 0.705298 0.597412
0.981317 0.861475 0.732005
0.0953602 0.582042 0.86799
0.0980544 0.582083 0.868439
0.110017 0.582326 0.870244
0.182861 0.57906 0.872673
0.507971 0.561368 0.868172
0.923764 0.645495 0.775584
0.954593 0.705479 0.597444
0.981323 0.861487 0.732007
0.0964398 0.586866 0.867884
0.0991479 0.586905 0.868328
0.110754 0.587016 0.870067
0.183554 0.583789 0.8724
0.510311 0.567649 0.867452
0.923957 0.650603 0.775387
0.954832 0.706215 0.597575
0.981345 0.861533 0.732012
0.102807 0.610149 0.867281
0.105593 0.610205 0.867696
0.117511 0.610376 0.869314
0.188358 0.606586 0.870875
0.523935 0.597861 0.863221
0.924748 0.673896 0.77445
0.95601 0.709824 0.598221
0.981456 0.861761 0.732037
0.174551 0.705686 0.858647
0.178792 0.705663 0.858587
0.196718 0.705603 0.858305
0.292732 0.706024 0.856079
0.614975 0.719218 0.83297
0.926189 0.755862 0.770602
0.961746 0.727185 0.601396
0.982001 0.862881 0.732159
0.720744 0.884097 0.770365
0.721804 0.884031 0.770367
0.726064 0.883763 0.770376
0.745949 0.882448 0.770396
0.818905 0.876773 0.770184
0.929695 0.870791 0.773438
0.988331 0.817462 0.643571
0.984686 0.868381 0.732744
0.925675 0.940151 0.730359
0.925751 0.940135 0.73042
0.926059 0.940072 0.730669
0.927557 0.939762 0.731889
0.934522 0.938258 0.737753
0.959203 0.93229 0.761243
0.995785 0.930817 0.786783
0.9981 0.896859 0.741175
0.984058 0.941039 0.792405
0.984062 0.941038 0.79241
0.98408 0.941035 0.792428
0.984166 0.941021 0.79252
0.984584 0.94095 0.792972
0.986549 0.940609 0.795169
0.993758 0.939294 0.804377
1 0.939192 0.814074
0.78796 0.837707 0.864028
0.788091 0.837699 0.864026
0.788625 0.837665 0.864018
0.791249 0.8375 0.863972
0.804047 0.836683 0.863665
0.86608 0.834924 0.858603
0.988638 0.868096 0.817634
0.990876 0.873834 0.764222
0.787993 0.837783 0.864015
0.788123 0.837775 0.864013
0.788656 0.837741 0.864004
0.791281 0.837577 0.863958
0.804076 0.83676 0.863652
0.866126 0.83502 0.858579
0.988637 0.868171 0.81763
0.99088 0.873846 0.764225
0.788128 0.838093 0.863959
0.788258 0.838085 0.863957
0.788788 0.83805 0.863949
0.79141 0.837886 0.863903
0.804193 0.837071 0.863598
0.866316 0.83541 0.858481
0.988634 0.868475 0.817612
0.990896 0.873892 0.764239
0.788804 0.839613 0.86368
0.788933 0.839604 0.863678
0.78946 0.839571 0.86367
0.792055 0.839403 0.863626
0.804778 0.838599 0.863327
0.867287 0.837344 0.857981
0.988619 0.869949 0.817528
0.990977 0.87412 0.764304
0.792338 0.846878 0.862226
0.792464 0.846871 0.862224
0.792977 0.84684 0.862216
0.795502 0.846688 0.862176
0.807852 0.845927 0.861906
0.87275 0.846861 0.855156
0.988506 0.876656 0.817137
0.991374 0.875235 0.764628
0.814755 0.877448 0.853402
0.814894 0.877449 0.853393
0.81546 0.877454 0.853352
0.818302 0.877492 0.853131
0.833291 0.877972 0.851601
0.905116 0.884501 0.838682
0.987598 0.899084 0.815791
0.993283 0.880579 0.766194
0.938742 0.929789 0.814455
0.9388 0.929781 0.814458
0.939034 0.929749 0.814469
0.940176 0.929592 0.814521
0.945494 0.928847 0.814757
0.964449 0.926014 0.815477
0.988353 0.923949 0.817121
1 0.907888 0.781175
0.986426 0.940325 0.805568
0.98643 0.940324 0.805572
0.986447 0.94032 0.805586
0.986528 0.940298 0.805659
0.986926 0.940191 0.806015
0.988763 0.939681 0.80771
0.994986 0.937768 0.814234
1 0.937155 0.820429
0.948059 0.912581 0.841919
0.948067 0.912581 0.841918
0.948097 0.912581 0.841916
0.948246 0.912578 0.841908
0.948978 0.912566 0.841863
0.952558 0.912512 0.841614
0.969802 0.912911 0.83928
1 0.922544 0.826928
0.948062 0.912586 0.841917
0.948069 0.912586 0.841917
0.948099 0.912585 0.841915
0.948248 0.912583 0.841907
0.94898 0.912571 0.841862
0.95256 0.912516 0.841613
0.969805 0.912916 0.839278
1 0.922548 0.826927
0.948071 0.912604 0.841913
0.948079 0.912604 0.841912
0.94811 0.912604 0.84191
0.948258 0.912601 0.841902
0.94899 0.912589 0.841857
0.95257 0.912534 0.841608
0.969818 0.912938 0.83927
1 0.922564 0.826926
0.948122 0.912695 0.841889
0.948129 0.912695 0.841888
0.948159 0.912694 0.841886
0.948308 0.912692 0.841878
0.94904 0.91268 0.841833
0.952615 0.912625 0.841585
0.969879 0.913049 0.839234
1 0.922643 0.826922
0.94837 0.913138 0.841769
0.948378 0.913138 0.841768
0.948408 0.913138 0.841767
0.948556 0.913135 0.841758
0.949284 0.913124 0.841714
0.95284 0.913069 0.841467
0.970192 0.913593 0.839049
1 0.923026 0.826897
0.949643 0.915255 0.841155
0.949651 0.915255 0.841155
0.94968 0.915255 0.841153
0.949824 0.915252 0.841144
0.950532 0.915242 0.841102
0.953994 0.91519 0.840864
0.971894 0.916241 0.838041
1 0.924759 0.826785
0.956965 0.923976 0.837726
0.956973 0.923976 0.837725
0.957004 0.923977 0.837722
0.957159 0.923982 0.837704
0.957938 0.92401 0.837611
0.962018 0.924231 0.837017
0.981229 0.926375 0.832709
1 0.930307 0.826418
0.989645 0.937258 0.826006
0.989648 0.937258 0.826006
0.98966 0.937256 0.826007
0.98972 0.937246 0.82601
0.990014 0.937199 0.826026
0.991376 0.93698 0.826099
0.996077 0.936183 0.826315
1 0.935655 0.826694
