OpenDRT/OpenDRT-LogC3LinRec2020.cube
TITLE "Generated by Resolve"
LUT_3D_SIZE 33
0 0 0
0 0 0
0 0 0
0 0 0
0 0 0
0 0 0
0 0 0
0 0 0
0 0 0
0.00482185 0 0
0.0180972 0 0
0.0383154 0 0
0.0667582 0 0
0.105211 0 0
0.155627 0.000457771 0
0.219745 0.00315862 0
0.298238 0.00793469 0
0.389578 0.0151827 0
0.489433 0.0259709 0
0.591104 0.0422065 0
0.686885 0.066743 0.00550851
0.770001 0.103212 0.0220798
0.836072 0.155077 0.0532845
0.884001 0.223926 0.10399
0.915694 0.308171 0.176181
0.935119 0.402686 0.267201
0.946792 0.500282 0.370184
0.954452 0.593881 0.476234
0.960525 0.678187 0.577157
0.966155 0.750439 0.667292
0.971649 0.809995 0.743923
0.976913 0.85771 0.806729
0.98175 0.895171 0.856809
0 0 0
0 0 0
0 0 0
0 0 0
0 0 0
0 0 0
0 0 0
0 0 0
0.00167849 0 0
0.00933852 0 0
0.0224002 0 0
0.0420233 0 0
0.0697642 0 0
0.107561 0.00106813 0
0.157427 0.00331121 0
0.221103 0.00682078 0
0.299199 0.011902 0
0.390204 0.0191806 0
0.489799 0.0298314 0
0.591287 0.0457923 0
0.686961 0.0699779 0.00572213
0.769985 0.106035 0.022446
0.836011 0.157443 0.0538033
0.883925 0.225834 0.104601
0.915618 0.309621 0.176791
0.935073 0.403738 0.26775
0.946761 0.501015 0.370626
0.954437 0.594354 0.476555
0.960525 0.678492 0.577371
0.966155 0.750607 0.66743
0.971649 0.810101 0.744015
0.976913 0.857771 0.806775
0.98175 0.895201 0.85684
0 0 0
0 0 0
0 0 0
0 0 0
0 0 0
0 0 0
0 0 0
0.000869764 0 0
0.00514229 0 0
0.013138 0.000106813 0
0.0260319 0.000503548 0
0.045243 0.00129702 0
0.0725109 0.00256352 0
0.109819 0.00447089 0
0.159228 0.00717174 0
0.222461 0.0109102 0
0.300175 0.0160525 0
0.39086 0.02327 0
0.490196 0.0337377 0
0.591501 0.0494087 0
0.687037 0.0732128 0.00595102
0.769985 0.108858 0.0228275
0.835966 0.159808 0.0543221
0.883848 0.227741 0.105196
0.915557 0.31107 0.177401
0.935027 0.404791 0.268299
0.946731 0.501732 0.371069
0.954421 0.594827 0.47689
0.960525 0.678782 0.5776
0.966155 0.75079 0.667582
0.971664 0.810208 0.744106
0.976928 0.857832 0.806836
0.98175 0.895247 0.85687
0 0 0
0 0 0
0 0 0
0 0 0
0 0 0
0 0 0
0.000885023 0.000228885 0
0.00337224 0.000640879 0
0.00817884 0.00123598 0
0.0163577 0.00201419 0
0.02916 0.00303655 0
0.048127 0.00434882 0
0.0750286 0.00607309 0
0.11194 0.00831617 0
0.160937 0.0112459 0
0.223804 0.0151217 0
0.301152 0.0202792 0
0.391531 0.0274052 0
0.490623 0.0376593 0
0.591745 0.0530251 0
0.687144 0.076463 0.00616464
0.769985 0.111681 0.023209
0.835904 0.162173 0.0548409
0.883772 0.229633 0.105806
0.915496 0.31252 0.178012
0.934981 0.405829 0.268849
0.946715 0.502449 0.371511
0.954421 0.5953 0.477211
0.960525 0.679072 0.577829
0.966171 0.750973 0.66772
0.971664 0.8103 0.744198
0.976928 0.857893 0.806882
0.98175 0.895277 0.856901
0 0 0
0 0 0
0 0 0
0 0 0
0.000259403 0.000366217 0
0.00103761 0.000885023 1.5259e-05
0.00260929 0.0015259 1.5259e-05
0.00560006 0.00234989 1.5259e-05
0.0107424 0.00335698 0
0.019089 0.00456245 0
0.0318761 0.0059968 0
0.0506905 0.00770581 0
0.0773327 0.00976577 0
0.113924 0.0122683 0
0.162585 0.0154116 0
0.225101 0.019379 0
0.302129 0.0245518 0
0.392203 0.0315709 0
0.491066 0.0416114 0
0.592004 0.0566567 0
0.687266 0.0797131 0.00639353
0.770016 0.114504 0.0235904
0.835874 0.164538 0.0553597
0.883711 0.23154 0.106416
0.915419 0.31397 0.178622
0.934936 0.406882 0.269398
0.946685 0.503166 0.371954
0.954406 0.595758 0.477531
0.960525 0.679377 0.578042
0.966171 0.751141 0.667872
0.971664 0.810407 0.744289
0.976928 0.857954 0.806943
0.98175 0.895308 0.856931
0 0 0
0 0 0
0 0.000549325 0
0.000213626 0.00134279 1.5259e-05
0.0010071 0.002121 3.0518e-05
0.00222782 0.00288396 4.57771e-05
0.00419623 0.00375372 7.62951e-05
0.00753796 0.00480659 6.10361e-05
0.0129702 0.00608835 3.0518e-05
0.0214694 0.00758373 0
0.0343023 0.009308 0
0.0530098 0.0113069 0
0.079469 0.0136263 0
0.115801 0.0163577 0
0.164157 0.0196536 0
0.226368 0.0236973 0
0.303105 0.0288548 0
0.392889 0.0357671 0
0.491524 0.0455787 0
0.592279 0.0603189 0
0.687388 0.0829938 0.00663767
0.770031 0.117342 0.0239719
0.835828 0.166918 0.0558938
0.88365 0.233448 0.107027
0.915358 0.315435 0.179232
0.93489 0.407935 0.269947
0.946654 0.503899 0.372396
0.954391 0.596231 0.477867
0.960525 0.679667 0.578271
0.966171 0.751324 0.668009
0.971679 0.810513 0.744381
0.976928 0.858015 0.806989
0.981765 0.895338 0.856962
0 0.00128176 0
1.5259e-05 0.00241093 1.5259e-05
1.5259e-05 0.00349432 1.5259e-05
0.000656138 0.00450141 3.0518e-05
0.0019379 0.00543221 6.10361e-05
0.00355535 0.00631724 9.15541e-05
0.0059205 0.00732433 0.000137331
0.00961318 0.00856031 0.00015259
0.0153353 0.0100404 9.15541e-05
0.0240177 0.0117494 1.5259e-05
0.0369268 0.0137331 0
0.0555734 0.0159762 0
0.0818799 0.0185397 0
0.117952 0.0214847 0
0.166003 0.0249332 0
0.227893 0.0290532 0
0.30428 0.0341802 0
0.393744 0.0409247 0
0.492103 0.0504616 0
0.59263 0.0648203 0
0.687572 0.0870069 0.0069276
0.770092 0.120836 0.0244602
0.835798 0.169833 0.0565347
0.883574 0.235782 0.107774
0.915282 0.31722 0.179995
0.934829 0.409232 0.270619
0.946624 0.504784 0.372946
0.954391 0.596811 0.478264
0.960525 0.680034 0.578546
0.966171 0.751537 0.668193
0.971679 0.810651 0.744488
0.976944 0.858091 0.807065
0.981765 0.895384 0.857008
3.0518e-05 0.00660716 3.0518e-05
4.57771e-05 0.0078584 4.57771e-05
7.62951e-05 0.00901808 6.10361e-05
0.00134279 0.0100862 7.62951e-05
0.00311284 0.0110933 0.000106813
0.00514229 0.0120394 0.000137331
0.00790417 0.0131075 0.000183108
0.0119936 0.0144198 0.000244144
0.0180209 0.016022 0.000259403
0.0269474 0.0179294 0.000122072
0.0399786 0.0200961 0
0.0586252 0.0225681 0
0.0847944 0.0253605 0
0.120623 0.0285039 0
0.168353 0.0320897 0
0.229847 0.0362707 0
0.305821 0.0413214 0
0.394903 0.047837 0
0.492897 0.0570077 0
0.593118 0.0708324 0
0.687831 0.0923781 0.00733959
0.770169 0.125475 0.0251164
0.835767 0.173724 0.0574197
0.883482 0.238895 0.108782
0.91519 0.3196 0.181003
0.934768 0.410956 0.271519
0.946578 0.505959 0.373663
0.954376 0.597589 0.478798
0.960525 0.680507 0.578912
0.966186 0.751842 0.668437
0.971695 0.810819 0.74464
0.976944 0.858198 0.807157
0.981765 0.895445 0.857053
9.15541e-05 0.01561 7.62951e-05
9.15541e-05 0.0167849 9.15541e-05
0.000411994 0.0178988 0.000106813
0.00234989 0.0189364 0.000122072
0.00457771 0.0199283 0.00015259
0.00700389 0.0208591 0.000183108
0.0101472 0.0219425 0.000213626
0.0146487 0.02327 0.000274662
0.0210727 0.0249027 0.000366217
0.0302586 0.0268864 0.000335698
0.0434577 0.0292058 7.62951e-05
0.0621653 0.0318608 0
0.0882429 0.0348363 0
0.123857 0.0381476 0
0.171252 0.0418402 0
0.232334 0.0460212 0
0.307851 0.0509346 0
0.396445 0.0571298 0
0.493996 0.0657664 0
0.593835 0.0788739 0
0.688228 0.0995651 0.00790417
0.770321 0.131701 0.0260166
0.835752 0.178912 0.0585946
0.883375 0.243061 0.110124
0.915084 0.322774 0.182345
0.934676 0.413245 0.272725
0.946532 0.50753 0.37464
0.954345 0.598611 0.479515
0.960525 0.681163 0.579416
0.966186 0.752224 0.668757
0.971695 0.811048 0.744839
0.976959 0.85832 0.807279
0.981781 0.895521 0.85713
0.000137331 0.0290074 0.000122072
0.000183108 0.030045 0.000122072
0.00128176 0.0310521 0.000122072
0.00373846 0.0320134 0.00015259
0.00639353 0.0329442 0.000167849
0.00915541 0.0338293 0.000198367
0.0126802 0.0348669 0.000228885
0.0175784 0.0361639 0.000274662
0.0244144 0.0377661 0.000335698
0.0339818 0.0396887 0.000442512
0.047364 0.0420539 0.000350958
0.0661784 0.0448157 0
0.0922408 0.0479286 0
0.127703 0.0513619 0
0.174807 0.0551003 0
0.235477 0.0592203 0
0.310475 0.0638743 0
0.398535 0.0695964 0
0.495521 0.0775006 0
0.594858 0.0896315 0
0.688823 0.109148 0.0087129
0.770565 0.139986 0.0272374
0.835752 0.18584 0.0601968
0.883268 0.2486 0.11194
0.914946 0.327001 0.184161
0.934554 0.416312 0.274342
0.946471 0.509636 0.375937
0.95433 0.599985 0.480476
0.960525 0.682017 0.580072
0.966201 0.752758 0.669184
0.97171 0.811353 0.745098
0.976974 0.858503 0.807431
0.981781 0.895613 0.857221
0.000198367 0.047837 9.15541e-05
0.000671397 0.0487221 9.15541e-05
0.00277714 0.0496071 0.000106813
0.00564584 0.0504921 0.000122072
0.00862135 0.0513313 0.000137331
0.0116884 0.0521553 0.00015259
0.0155337 0.0531167 0.000167849
0.020798 0.0543374 0.000213626
0.0280613 0.0558633 0.000259403
0.0380255 0.0577249 0.000335698
0.0517433 0.059968 0.000457771
0.070634 0.0626841 0.000259403
0.0967269 0.0658732 0
0.132113 0.0693828 0
0.179019 0.0731212 0
0.239322 0.0770733 0
0.313848 0.0813306 0
0.401297 0.0863508 0
0.497642 0.0932174 0
0.596338 0.104021 0.000335698
0.689723 0.12195 0.00984207
0.770977 0.151034 0.0289311
0.835828 0.195056 0.0623484
0.883162 0.25597 0.114366
0.914778 0.332616 0.186572
0.934432 0.420371 0.276478
0.946395 0.512428 0.377661
0.954299 0.601816 0.481743
0.960525 0.683177 0.580941
0.966217 0.753445 0.669749
0.971725 0.811765 0.745449
0.976989 0.858747 0.807645
0.981796 0.89575 0.857343
0.000579843 0.0733349 0
0.00218204 0.0740978 0
0.0049897 0.0749065 0
0.00814832 0.0757 0
0.0113832 0.076463 0
0.0146944 0.0772259 0
0.0187991 0.0781262 1.5259e-05
0.0243839 0.0792706 4.57771e-05
0.0319982 0.0807202 7.62951e-05
0.042359 0.0824903 0.000122072
0.0564736 0.0846265 0.000213626
0.0756085 0.087129 0.000350958
0.101625 0.0901656 4.57771e-05
0.136965 0.0937209 0
0.183764 0.0974441 0
0.243854 0.101137 0
0.317998 0.104829 0
0.404898 0.108858 0
0.500557 0.114305 0
0.598474 0.123247 0.00134279
0.691081 0.139025 0.01149
0.771679 0.165743 0.0312657
0.836042 0.207294 0.0652934
0.883085 0.265751 0.117632
0.914595 0.340078 0.189807
0.934264 0.425772 0.279347
0.946303 0.516152 0.379965
0.954269 0.604257 0.483452
0.960525 0.684703 0.582101
0.966247 0.754376 0.670512
0.971756 0.812314 0.745922
0.977005 0.859052 0.807935
0.981811 0.895933 0.857511
0.00222782 0.106874 0
0.00485237 0.107591 0
0.0080415 0.108339 0
0.0113985 0.109071 0
0.0148318 0.109804 0
0.0183108 0.110521 0
0.0226139 0.111376 0
0.0284276 0.112474 0
0.0363012 0.113878 0
0.0469673 0.115602 0
0.0614023 0.117693 0
0.0808881 0.120104 0
0.106996 0.122774 0.00015259
0.142016 0.126009 0
0.188724 0.129763 0
0.248798 0.133272 0
0.322835 0.136294 0
0.409415 0.13904 0
0.504463 0.142519 0
0.601526 0.148943 0.00294499
0.693141 0.161761 0.0138857
0.772824 0.18526 0.0345464
0.836469 0.223499 0.0693065
0.883085 0.278706 0.122042
0.914427 0.34995 0.194125
0.934096 0.432929 0.283162
0.946197 0.521065 0.383032
0.954238 0.607492 0.48571
0.96054 0.686732 0.583658
0.966278 0.755611 0.671519
0.971801 0.813046 0.746563
0.977035 0.85948 0.808301
0.981842 0.896178 0.85774
0.00563058 0.149722 0
0.00875868 0.150439 0
0.0121309 0.151171 0
0.0155947 0.151904 0
0.0191196 0.152621 0
0.0226902 0.153338 0
0.0271 0.154192 0
0.0330358 0.155306 0
0.0410468 0.156725 0
0.0518807 0.158511 0
0.0664988 0.160678 0
0.086183 0.16318 0
0.112505 0.165866 0
0.147341 0.168505 9.15541e-05
0.193362 0.171679 0
0.253407 0.175265 0
0.327749 0.177829 0
0.414557 0.179156 0
0.509407 0.180163 0
0.605722 0.183185 0.00549325
0.696208 0.191974 0.0174411
0.77467 0.211124 0.0391699
0.837293 0.244923 0.074815
0.883268 0.295766 0.127977
0.914321 0.362951 0.199893
0.933928 0.442359 0.288228
0.94609 0.527581 0.387091
0.954208 0.611765 0.488701
0.960571 0.689433 0.585718
0.966323 0.757259 0.672862
0.971847 0.814023 0.747387
0.977081 0.860044 0.80882
0.981872 0.896498 0.858045
0.0108034 0.202594 0
0.0141146 0.203357 0
0.0175326 0.20412 0
0.0210269 0.204898 0
0.0245518 0.205646 0
0.0281224 0.206409 0
0.0325322 0.207324 0
0.0384527 0.208515 0
0.0464485 0.21004 0
0.0572366 0.211994 0
0.071809 0.214405 0
0.0914168 0.217243 0
0.117708 0.22034 0
0.152514 0.223301 0
0.197864 0.225605 0.00077821
0.256703 0.22826 0.000808728
0.33138 0.231022 0
0.419272 0.231479 0.000274662
0.514946 0.229847 0.00296025
0.611139 0.22858 0.00962844
0.700587 0.231983 0.0227665
0.777554 0.245243 0.0457465
0.838788 0.273075 0.0823987
0.883787 0.318166 0.135973
0.914336 0.380011 0.207599
0.933806 0.454749 0.294957
0.945998 0.536126 0.392462
0.954192 0.617395 0.492668
0.960616 0.692988 0.588449
0.9664 0.759426 0.674647
0.971908 0.81532 0.748501
0.977127 0.860807 0.809491
0.981903 0.896925 0.858442
0.0181277 0.265202 0
0.0214237 0.266026 0
0.0247959 0.266865 0
0.0281987 0.267704 0
0.031632 0.268528 0
0.035111 0.269352 0
0.0393988 0.270359 0
0.045182 0.271672 0
0.0529488 0.273396 0
0.063447 0.275608 0
0.0776074 0.278401 0
0.0967269 0.281819 0
0.122454 0.28574 0
0.156756 0.289754 0.000427253
0.201724 0.293004 0.00161746
0.259144 0.294484 0.00366217
0.33196 0.295918 0.00488289
0.421103 0.296925 0.00540169
0.519295 0.293751 0.00866712
0.617105 0.287938 0.0163424
0.706355 0.284566 0.0308232
0.781842 0.290028 0.0551766
0.841306 0.309895 0.0928664
0.884901 0.347356 0.146777
0.914656 0.402228 0.217823
0.933822 0.470893 0.303838
0.945968 0.547311 0.399542
0.954223 0.624796 0.497887
0.960693 0.697688 0.592065
0.966491 0.76231 0.676997
0.972 0.817029 0.749981
0.977203 0.861799 0.810376
0.981964 0.897505 0.858961
0.0285344 0.335912 0
0.031693 0.336797 0
0.0348974 0.337697 0
0.0381323 0.338582 0
0.0413825 0.339483 0
0.0446784 0.340383 0
0.0487221 0.341466 0
0.0541848 0.342916 0
0.0615396 0.344808 9.15541e-05
0.071458 0.347295 0.000320439
0.0848402 0.3505 0.000640879
0.102922 0.354543 0.00111391
0.127337 0.359442 0.00181582
0.160189 0.364996 0.0028687
0.2038 0.370413 0.00450141
0.260227 0.37409 0.00712596
0.330571 0.374121 0.0113985
0.417227 0.373419 0.0150912
0.518563 0.37145 0.0187076
0.621073 0.363073 0.0272679
0.712688 0.352514 0.0430152
0.787671 0.34818 0.0686961
0.845243 0.357626 0.107301
0.886976 0.385107 0.161303
0.915511 0.43093 0.231388
0.934096 0.491783 0.315526
0.946075 0.561837 0.408835
0.95433 0.63444 0.504753
0.96083 0.703838 0.596811
0.966644 0.766094 0.68011
0.972137 0.819287 0.751934
0.97731 0.863111 0.811566
0.98204 0.898253 0.859663
0.0438392 0.411765 0.00375372
0.0467536 0.41268 0.00387579
0.0496986 0.413596 0.00399786
0.0526741 0.414511 0.00411994
0.0556497 0.415427 0.00424201
0.0586709 0.416342 0.00436408
0.0623941 0.417472 0.00451667
0.0673838 0.418967 0.0047303
0.0741131 0.420951 0.00502022
0.0831769 0.423575 0.00541695
0.0953994 0.427024 0.00595102
0.11191 0.431479 0.00671397
0.134249 0.437125 0.00776684
0.164446 0.444022 0.009308
0.205035 0.451804 0.0115511
0.258686 0.459236 0.0149081
0.327169 0.463539 0.0200656
0.410025 0.461509 0.0280766
0.508492 0.45771 0.0360418
0.617304 0.451606 0.0449073
0.716335 0.436973 0.0614328
0.794202 0.422217 0.0880446
0.850843 0.418723 0.127184
0.890455 0.433387 0.180758
0.91725 0.467628 0.249256
0.934874 0.518547 0.330785
0.946456 0.580514 0.420935
0.954589 0.646906 0.513695
0.961059 0.711818 0.603006
0.966857 0.771023 0.684184
0.97232 0.822263 0.754498
0.977447 0.864866 0.813138
0.982132 0.89926 0.860594
0.0669261 0.489036 0.0149996
0.0695354 0.489906 0.0151827
0.0721599 0.490776 0.0153658
0.0747997 0.491646 0.0155642
0.0774395 0.492515 0.0157626
0.0801099 0.4934 0.0159457
0.0834058 0.494469 0.0161898
0.0878157 0.495903 0.0165103
0.0937514 0.497826 0.0169528
0.101747 0.500374 0.0175479
0.112505 0.503746 0.0183566
0.127031 0.508202 0.0194553
0.146654 0.514 0.0209659
0.173205 0.521416 0.0230716
0.209079 0.530541 0.0260319
0.257252 0.540978 0.0302434
0.320668 0.550927 0.0363317
0.400427 0.556191 0.0453346
0.493706 0.55169 0.0587778
0.599908 0.544121 0.0728466
0.709682 0.533181 0.0890059
0.797665 0.512398 0.115526
0.857313 0.49514 0.154284
0.895628 0.494163 0.206561
0.920333 0.513909 0.272557
0.936461 0.552392 0.35053
0.947295 0.604242 0.436545
0.955108 0.662867 0.525246
0.961456 0.722118 0.611048
0.967178 0.777447 0.689494
0.97258 0.826139 0.75787
0.977646 0.86714 0.815183
0.982269 0.900587 0.86183
0.101625 0.563958 0.0379797
0.103868 0.564721 0.0382391
0.106111 0.565484 0.0384985
0.10837 0.566247 0.0387732
0.110628 0.56701 0.0390326
0.112902 0.567773 0.039292
0.115709 0.568719 0.0396277
0.119463 0.569986 0.0400549
0.124514 0.571664 0.04065
0.131304 0.573922 0.0414435
0.140414 0.576928 0.0425116
0.152697 0.580926 0.043946
0.169238 0.586221 0.0459144
0.191562 0.593179 0.0485695
0.221729 0.602136 0.0522164
0.262409 0.613352 0.0572213
0.316945 0.626383 0.0641794
0.388388 0.639033 0.0739605
0.476936 0.645563 0.0879377
0.576791 0.638666 0.108034
0.685145 0.627298 0.129442
0.788952 0.611704 0.153918
0.860822 0.586282 0.190661
0.901884 0.568795 0.240299
0.925078 0.571206 0.302541
0.9393 0.594507 0.375708
0.948882 0.633967 0.456443
0.956069 0.683009 0.540002
0.962112 0.735256 0.621378
0.967666 0.785702 0.696376
0.972946 0.831159 0.762249
0.977905 0.87013 0.817884
0.982452 0.902327 0.863432
0.151629 0.633433 0.0779431
0.15346 0.634043 0.0782483
0.155306 0.634653 0.0785687
0.157153 0.635279 0.0788739
0.159014 0.635889 0.0791943
0.160876 0.636515 0.0795148
0.163165 0.637278 0.0798962
0.166232 0.638285 0.080415
0.170352 0.639658 0.081117
0.175875 0.641489 0.082063
0.183291 0.643931 0.0833143
0.193256 0.647196 0.085008
0.206622 0.65156 0.0872663
0.224598 0.657359 0.0903182
0.248798 0.665003 0.0944228
0.281392 0.674983 0.0999771
0.3252 0.687633 0.107485
0.383703 0.702647 0.117693
0.459937 0.717617 0.131655
0.55317 0.725551 0.150973
0.654521 0.716869 0.177813
0.75903 0.702464 0.206348
0.851392 0.683467 0.238483
0.905638 0.655924 0.283436
0.93109 0.640238 0.340307
0.943725 0.645838 0.407248
0.951614 0.670542 0.481361
0.957732 0.708049 0.558572
0.96318 0.751751 0.634485
0.968399 0.796185 0.70515
0.973465 0.837613 0.76788
0.978271 0.873991 0.821378
0.982712 0.904585 0.865553
0.218799 0.695521 0.138399
0.220233 0.695979 0.13872
0.221683 0.696437 0.139055
0.223133 0.696895 0.139391
0.224582 0.697353 0.139727
0.226032 0.697826 0.140063
0.227832 0.69839 0.140475
0.230228 0.699153 0.141024
0.233433 0.700175 0.141756
0.237736 0.701549 0.142733
0.243503 0.703395 0.144045
0.251225 0.705852 0.145815
0.26157 0.709148 0.148165
0.275425 0.713558 0.151308
0.293996 0.719432 0.155505
0.318898 0.72723 0.161135
0.35227 0.737469 0.168627
0.396918 0.750637 0.178622
0.456199 0.766583 0.191959
0.533028 0.782986 0.209751
0.625864 0.792172 0.233646
0.723384 0.782727 0.265827
0.818998 0.766735 0.299733
0.89688 0.746242 0.337163
0.93521 0.71931 0.386603
0.949462 0.706661 0.445777
0.955779 0.714519 0.511894
0.960372 0.738552 0.581521
0.964858 0.772122 0.650813
0.969512 0.809308 0.716228
0.974212 0.845792 0.775067
0.97879 0.87895 0.825879
0.983047 0.907515 0.868284
0.301701 0.749508 0.219135
0.30277 0.749828 0.219455
0.303853 0.750149 0.21976
0.304936 0.750484 0.220081
0.306004 0.750805 0.220386
0.307088 0.751125 0.220706
0.308431 0.751537 0.221088
0.310201 0.752071 0.221607
0.312581 0.752789 0.222293
0.31577 0.75375 0.223209
0.320043 0.755047 0.224445
0.32575 0.756786 0.226093
0.333394 0.759121 0.228275
0.343587 0.762234 0.231205
0.357229 0.7664 0.235096
0.375433 0.771969 0.240253
0.399725 0.7794 0.247105
0.43209 0.789227 0.256168
0.47512 0.801984 0.268086
0.531899 0.817716 0.283696
0.605035 0.834409 0.304082
0.692515 0.844373 0.330785
0.78172 0.835279 0.365774
0.865202 0.819318 0.402228
0.928115 0.799344 0.441672
0.953948 0.775143 0.491402
0.961227 0.765881 0.548272
0.964279 0.774838 0.60914
0.967391 0.796735 0.670741
0.97113 0.825422 0.729931
0.975265 0.856001 0.784085
0.979492 0.885222 0.831601
0.983505 0.911269 0.871794
0.395361 0.795697 0.315496
0.396124 0.795911 0.315755
0.396872 0.796124 0.316014
0.397635 0.796338 0.316289
0.398398 0.796567 0.316548
0.399176 0.79678 0.316808
0.400107 0.797055 0.317143
0.401358 0.797406 0.317571
0.403052 0.797894 0.318151
0.405295 0.798535 0.318929
0.408301 0.799405 0.319966
0.412314 0.800565 0.321355
0.417685 0.802121 0.323201
0.424857 0.804211 0.325658
0.434409 0.807004 0.328908
0.44715 0.810758 0.333242
0.464073 0.815763 0.338979
0.486564 0.822461 0.346517
0.51635 0.831373 0.35639
0.555688 0.843 0.369253
0.607248 0.857588 0.385855
0.673259 0.873487 0.407126
0.751614 0.883619 0.434363
0.829602 0.875685 0.469291
0.899641 0.861112 0.505318
0.948913 0.843183 0.543633
0.965881 0.822904 0.590127
0.969345 0.816724 0.641382
0.970977 0.825788 0.694438
0.973465 0.8448 0.746502
0.976776 0.868498 0.795193
0.980453 0.893019 0.838758
0.984131 0.915999 0.876265
0.492607 0.834882 0.419516
0.493126 0.835019 0.41973
0.493629 0.835157 0.419928
0.494148 0.835294 0.420127
0.494652 0.835447 0.42034
0.495171 0.835584 0.420539
0.495796 0.835752 0.420783
0.496651 0.835981 0.421118
0.49778 0.836301 0.421576
0.49929 0.836713 0.422171
0.501305 0.837278 0.422965
0.504005 0.838026 0.424033
0.507607 0.839017 0.425452
0.512413 0.84036 0.427344
0.518807 0.842161 0.429847
0.527337 0.844572 0.433173
0.538643 0.847791 0.437583
0.553658 0.852125 0.443381
0.57348 0.857908 0.450965
0.599619 0.865599 0.460838
0.633906 0.875731 0.473564
0.678569 0.888563 0.489799
0.735439 0.902876 0.510277
0.802548 0.912566 0.536049
0.868116 0.906233 0.56849
0.925048 0.893843 0.601724
0.962829 0.878782 0.636622
0.973938 0.862715 0.677699
0.97554 0.859007 0.721675
0.976654 0.867506 0.766018
0.978851 0.883436 0.808545
0.981781 0.902541 0.847532
0.98497 0.921889 0.881819
0.586328 0.867979 0.522652
0.586648 0.86807 0.522789
0.586984 0.868147 0.522942
0.587304 0.868238 0.523079
0.58764 0.86833 0.523232
0.587976 0.868421 0.523369
0.588373 0.868528 0.523552
0.588922 0.868666 0.523796
0.589639 0.868864 0.524117
0.590616 0.869123 0.524529
0.591913 0.869474 0.525109
0.593637 0.869932 0.525856
0.595956 0.870558 0.526879
0.599039 0.871397 0.528222
0.603159 0.872511 0.530007
0.608637 0.874022 0.532387
0.6159 0.87602 0.535531
0.625544 0.878721 0.539666
0.63827 0.882322 0.545113
0.655039 0.887144 0.552209
0.677043 0.893584 0.561379
0.705745 0.902068 0.573098
0.742916 0.912902 0.587915
0.790005 0.925231 0.606378
0.845365 0.934005 0.629282
0.898756 0.929274 0.657755
0.943893 0.919341 0.686824
0.972442 0.907347 0.717083
0.979828 0.895171 0.751827
0.980636 0.893294 0.788205
0.981598 0.900862 0.82414
0.983551 0.913893 0.85803
0.986099 0.929046 0.88864
0.671153 0.895766 0.617945
0.671351 0.895811 0.618036
0.67155 0.895872 0.618128
0.671763 0.895918 0.618235
0.671962 0.895979 0.618326
0.67216 0.896025 0.618418
0.672419 0.896086 0.61854
0.672755 0.896178 0.618708
0.673198 0.8963 0.618921
0.673808 0.896452 0.619196
0.674601 0.896666 0.619577
0.675669 0.896956 0.620081
0.677104 0.897337 0.620768
0.679011 0.897841 0.621668
0.681559 0.898528 0.622858
0.684962 0.899428 0.62446
0.689464 0.900649 0.626566
0.695445 0.902296 0.629358
0.703365 0.904479 0.633036
0.713787 0.907408 0.637827
0.727474 0.91133 0.644083
0.745357 0.916548 0.65211
0.768597 0.923461 0.662333
0.798535 0.932311 0.67512
0.836347 0.942519 0.690929
0.880644 0.950118 0.710338
0.922972 0.946792 0.734234
0.958038 0.939162 0.758663
0.979416 0.930022 0.783963
0.984436 0.921157 0.812451
0.984955 0.920516 0.841733
0.98584 0.927062 0.870237
0.987564 0.937545 0.896757
0.744167 0.918853 0.701213
0.744289 0.918883 0.701274
0.744411 0.918914 0.701335
0.744533 0.918944 0.701396
0.744656 0.918975 0.701457
0.744778 0.919005 0.701518
0.74493 0.919051 0.701595
0.745129 0.919112 0.701701
0.745403 0.919173 0.701823
