OpenDRT/OpenDRT_v1.0.0_Default__filmlight-egamut2-tloge_to_rec2100-pq.cube
LUT_3D_SIZE 48
0.000383699 0.000383695 0.000383699
0.00273261 0.000916281 0.000746015
0.00655766 0.00165128 0.00084346
0.0111102 0.00258354 0.000227641
0.016129 0.00371836 7.30956e-07
0.0226972 0.00532962 7.30956e-07
0.0313457 0.00761946 7.30956e-07
0.0423763 0.0107689 7.30956e-07
0.0559887 0.0149588 7.30956e-07
0.0722568 0.0203531 7.30956e-07
0.0911546 0.0270947 7.30956e-07
0.112638 0.0353215 7.30956e-07
0.136717 0.045199 7.30956e-07
0.163504 0.0569445 7.30956e-07
0.193102 0.0707967 7.30956e-07
0.225389 0.086897 7.30956e-07
0.25976 0.105129 7.30956e-07
0.295098 0.125018 7.30956e-07
0.330131 0.145883 7.30956e-07
0.363912 0.167143 7.30956e-07
0.396044 0.188531 7.30956e-07
0.426508 0.210133 7.30956e-07
0.455434 0.232328 7.30956e-07
0.482928 0.255852 7.30956e-07
0.509018 0.281974 7.30956e-07
0.533665 0.312625 7.30956e-07
0.556781 0.349688 7.30956e-07
0.578288 0.392913 0.035321
0.59829 0.438939 0.0950176
0.61699 0.483824 0.133539
0.631107 0.521982 0.268478
0.643091 0.554647 0.416883
0.653293 0.582115 0.488871
0.661849 0.604823 0.53744
0.668934 0.623368 0.573109
0.674728 0.63837 0.600163
0.679413 0.650411 0.621015
0.683167 0.660032 0.637201
0.686161 0.66769 0.649839
0.688527 0.673766 0.659742
0.690386 0.678585 0.667517
0.691844 0.682397 0.67363
0.692976 0.685413 0.678451
0.693859 0.687796 0.682255
0.694548 0.689682 0.685264
0.695086 0.691178 0.687647
0.695499 0.692361 0.689532
0.695818 0.6933 0.691032
0.000882328 0.00216255 0.000720468
0.0031652 0.00296785 0.00045538
0.00664547 0.00436577 0.000353129
0.010997 0.00593564 0.000423651
0.0159902 0.00751899 0.000454352
0.0226258 0.00935892 0.000396688
0.0314186 0.0115134 7.30956e-07
0.0426333 0.0141337 7.30956e-07
0.0564108 0.017617 7.30956e-07
0.0727955 0.022391 7.30956e-07
0.0917713 0.0286903 7.30956e-07
0.113311 0.0366268 7.30956e-07
0.137447 0.0463214 7.30956e-07
0.164289 0.0579553 7.30956e-07
0.193928 0.0717366 7.30956e-07
0.226209 0.0877779 7.30956e-07
0.260535 0.105943 7.30956e-07
0.295664 0.125692 7.30956e-07
0.330529 0.146438 7.30956e-07
0.364193 0.167608 7.30956e-07
0.396247 0.188938 7.30956e-07
0.426657 0.210503 7.30956e-07
0.455546 0.232682 7.30956e-07
0.483015 0.256209 7.30956e-07
0.509086 0.282344 7.30956e-07
0.533716 0.313 7.30956e-07
0.556813 0.350033 7.30956e-07
0.57831 0.393186 0.0362672
0.598304 0.43912 0.0952429
0.617005 0.483934 0.133648
0.631113 0.522052 0.268364
0.643103 0.554687 0.416859
0.6533 0.582143 0.488862
0.661855 0.604843 0.537435
0.668934 0.62338 0.573104
0.674728 0.63837 0.600166
0.679413 0.650411 0.621009
0.683174 0.660032 0.637207
0.686161 0.66769 0.649845
0.688524 0.673766 0.659742
0.690383 0.678585 0.667517
0.691838 0.682393 0.67363
0.692976 0.68541 0.678451
0.693859 0.687796 0.682255
0.694548 0.689682 0.685264
0.695086 0.691178 0.687647
0.695499 0.692361 0.689532
0.695818 0.6933 0.691032
0.00204308 0.00500589 0.000929766
0.00418611 0.00570137 0.000541717
0.00748504 0.00694731 0.000630594
0.0114719 0.00869326 0.000756726
0.0161871 0.0106513 0.00088482
0.0226015 0.013106 0.00101507
0.0312458 0.0160757 0.00109906
0.042423 0.019446 0.00101103
0.0563026 0.0231101 0.000271756
0.0728833 0.0272051 7.30956e-07
0.0920407 0.0323284 7.30956e-07
0.113681 0.0391804 7.30956e-07
0.137841 0.0481122 7.30956e-07
0.164664 0.0592578 7.30956e-07
0.194268 0.0727287 7.30956e-07
0.226513 0.0885693 7.30956e-07
0.260774 0.106589 7.30956e-07
0.295943 0.126279 7.30956e-07
0.330773 0.146952 7.30956e-07
0.364465 0.168093 7.30956e-07
0.396441 0.189356 7.30956e-07
0.426801 0.210881 7.30956e-07
0.455663 0.233043 7.30956e-07
0.483102 0.25657 7.30956e-07
0.509148 0.282716 7.30956e-07
0.533766 0.313376 7.30956e-07
0.556844 0.350378 7.30956e-07
0.578332 0.393457 0.0371844
0.598318 0.439306 0.0954682
0.617011 0.484049 0.133757
0.631122 0.522121 0.268249
0.643106 0.554726 0.416833
0.653306 0.582165 0.488855
0.661855 0.604851 0.537432
0.668937 0.623388 0.573104
0.674728 0.638376 0.600161
0.679413 0.650417 0.621009
0.683174 0.660038 0.637204
0.686161 0.667693 0.649845
0.688524 0.673766 0.659742
0.690383 0.678585 0.66751
0.691838 0.682393 0.673633
0.692976 0.685413 0.678451
0.693859 0.687796 0.682255
0.694551 0.689682 0.685264
0.695086 0.691175 0.687647
0.695499 0.692361 0.689532
0.695818 0.6933 0.691032
0.00354453 0.00852737 0.000921552
0.00533216 0.0091474 0.000909045
0.00873065 0.0100608 0.000971948
0.0125516 0.0116307 0.00109708
0.0169471 0.0136164 0.00125739
0.0230262 0.0162631 0.00145793
0.0313859 0.019651 0.00167822
0.0423575 0.0236772 0.00185008
0.0561261 0.0281315 0.00182168
0.0727192 0.032784 0.00119961
0.0920144 0.0376505 7.30956e-07
0.113834 0.0433844 7.30956e-07
0.138113 0.0510307 7.30956e-07
0.164977 0.0612199 7.30956e-07
0.194575 0.0740923 7.30956e-07
0.226799 0.0895724 7.30956e-07
0.261037 0.107372 7.30956e-07
0.296185 0.12692 7.30956e-07
0.330989 0.147496 7.30956e-07
0.364543 0.168508 7.30956e-07
0.396634 0.189786 7.30956e-07
0.426949 0.211266 7.30956e-07
0.455773 0.233408 7.30956e-07
0.483187 0.256934 7.30956e-07
0.509216 0.283091 7.30956e-07
0.533812 0.313753 7.30956e-07
0.556879 0.350724 7.30956e-07
0.578354 0.393727 0.0380753
0.598332 0.43949 0.0956912
0.617019 0.484162 0.133866
0.631134 0.522188 0.268136
0.643115 0.554773 0.41681
0.653309 0.582193 0.488841
0.661859 0.604871 0.537427
0.66894 0.623394 0.573101
0.674728 0.638379 0.600161
0.679416 0.650423 0.621009
0.683174 0.660038 0.637201
0.686161 0.66769 0.649839
0.688527 0.673766 0.659742
0.690386 0.678585 0.66751
0.691844 0.682393 0.67363
0.692976 0.68541 0.678451
0.693859 0.687796 0.682255
0.694551 0.689682 0.685264
0.695086 0.691175 0.687647
0.695499 0.692361 0.689532
0.695818 0.6933 0.691032
0.00530593 0.0124847 0.00129698
0.00656114 0.0132321 0.00137579
0.010125 0.0138384 0.00141023
0.0139636 0.015069 0.00150768
0.0181842 0.0168578 0.00166328
0.0239125 0.0194673 0.00189243
0.0318907 0.0229807 0.00218294
0.0425467 0.0273501 0.00249195
0.0560955 0.0323762 0.00271861
0.0725674 0.0377447 0.00265171
0.0918581 0.0431601 0.00176207
0.113792 0.0486891 7.30956e-07
0.138234 0.0552229 7.30956e-07
0.165208 0.0640945 7.30956e-07
0.194846 0.0759972 7.30956e-07
0.227071 0.0908843 7.30956e-07
0.261298 0.108335 7.30956e-07
0.296425 0.127672 7.30956e-07
0.33121 0.148109 7.30956e-07
0.364738 0.169027 7.30956e-07
0.396632 0.190156 7.30956e-07
0.427093 0.211676 7.30956e-07
0.455881 0.233793 7.30956e-07
0.483274 0.257315 7.30956e-07
0.509283 0.28348 7.30956e-07
0.533865 0.314144 7.30956e-07
0.556913 0.351083 7.30956e-07
0.578378 0.394008 0.0389682
0.598346 0.439682 0.0959208
0.617037 0.484279 0.133978
0.63114 0.522259 0.268016
0.643118 0.554813 0.416784
0.653315 0.582215 0.488832
0.661862 0.604885 0.537425
0.66894 0.623406 0.573101
0.674728 0.638391 0.600161
0.679416 0.650423 0.621009
0.683177 0.660041 0.637204
0.686161 0.66769 0.649845
0.688527 0.67377 0.659742
0.690386 0.678585 0.66751
0.691844 0.682397 0.67363
0.692982 0.685413 0.678451
0.693859 0.687796 0.682255
0.694551 0.689682 0.685264
0.695086 0.691178 0.687647
0.695499 0.692361 0.689532
0.695818 0.6933 0.691032
0.00775685 0.0177884 0.00193395
0.00831483 0.0187202 0.00204987
0.011944 0.0190991 0.00206294
0.0158443 0.0199824 0.00212875
0.0200367 0.0213719 0.00224952
0.0255096 0.0236825 0.00246784
0.0330092 0.0270956 0.00279387
0.0431665 0.0315715 0.00319544
0.0563223 0.0369644 0.0036031
0.0725339 0.0429611 0.00387117
0.0916905 0.0491547 0.00371073
0.113624 0.0552342 0.00239398
0.138198 0.0614023 7.30956e-07
0.165348 0.0688761 7.30956e-07
0.195103 0.0792282 7.30956e-07
0.227373 0.0930195 7.30956e-07
0.261606 0.109815 7.30956e-07
0.29672 0.128766 7.30956e-07
0.331479 0.148967 7.30956e-07
0.364979 0.169735 7.30956e-07
0.396836 0.190762 7.30956e-07
0.427061 0.21212 7.30956e-07
0.456024 0.234288 7.30956e-07
0.483386 0.257804 7.30956e-07
0.509368 0.283974 7.30956e-07
0.53392 0.31464 7.30956e-07
0.556958 0.351535 7.30956e-07
0.578403 0.394366 0.040059
0.598366 0.439922 0.0962091
0.617046 0.484426 0.134119
0.631158 0.522349 0.267868
0.64313 0.554868 0.416752
0.653324 0.582245 0.48882
0.661868 0.604905 0.537417
0.668946 0.623415 0.573095
0.674734 0.638397 0.600161
0.679419 0.650429 0.621009
0.683174 0.660044 0.637204
0.686167 0.667696 0.649839
0.688527 0.673773 0.659742
0.690386 0.678585 0.667517
0.691838 0.682397 0.67363
0.692976 0.68541 0.678451
0.693863 0.687796 0.682255
0.694551 0.689689 0.685264
0.695086 0.691178 0.687647
0.695499 0.692357 0.689532
0.695818 0.6933 0.691032
0.0111989 0.0249487 0.00286862
0.0115778 0.0257141 0.0029732
0.0142868 0.0264136 0.00304678
0.0183288 0.0269377 0.00307388
0.0225383 0.0279105 0.00315374
0.0279322 0.0296552 0.00331799
0.0350541 0.0326123 0.00362208
0.0445609 0.0368969 0.00406797
0.0570695 0.0423649 0.00459899
0.0727945 0.0487538 0.0051099
0.0916447 0.0556461 0.00540007
0.11343 0.062581 0.00508689
0.138013 0.0692868 0.00317541
0.165324 0.0761605 7.30956e-07
0.195278 0.0847509 7.30956e-07
0.227679 0.0967214 7.30956e-07
0.261962 0.11227 7.30956e-07
0.297082 0.130481 7.30956e-07
0.331822 0.150248 7.30956e-07
0.365285 0.17075 7.30956e-07
0.397102 0.191612 7.30956e-07
0.427286 0.212866 7.30956e-07
0.455972 0.23487 7.30956e-07
0.483256 0.25833 7.30956e-07
0.509479 0.28463 7.30956e-07
0.534001 0.315289 7.30956e-07
0.557011 0.352123 7.30956e-07
0.578439 0.394822 0.0414299
0.598389 0.440227 0.0965848
0.617063 0.484624 0.134304
0.631172 0.522467 0.267675
0.643143 0.554939 0.41671
0.653327 0.582292 0.488806
0.661874 0.604928 0.537409
0.66895 0.62343 0.57309
0.674734 0.638403 0.600158
0.679419 0.650435 0.621006
0.683177 0.660044 0.637204
0.686167 0.667696 0.649845
0.688527 0.67377 0.659742
0.690386 0.678585 0.667517
0.691844 0.682393 0.67363
0.692976 0.68541 0.678451
0.693863 0.687799 0.682258
0.694551 0.689682 0.685264
0.695086 0.691178 0.687647
0.695496 0.692357 0.689532
0.695818 0.6933 0.691032
0.015895 0.0343194 0.00420897
0.0161943 0.0349038 0.00429663
0.0173519 0.0361505 0.00448047
0.0214804 0.0363605 0.00446903
0.0257602 0.0369461 0.00450512
0.0311274 0.0381188 0.00460742
0.0380982 0.040281 0.00482704
0.0470795 0.0439131 0.00523341
0.0587419 0.0490708 0.00581721
0.0736614 0.0554839 0.00648761
0.0919306 0.0627808 0.00709566
0.113364 0.0704774 0.00737912
0.137786 0.0781121 0.00684184
0.165123 0.085488 0.00412259
0.195278 0.0931944 7.30956e-07
0.22791 0.103016 7.30956e-07
0.262338 0.116476 7.30956e-07
0.297512 0.133292 7.30956e-07
0.332249 0.152234 7.30956e-07
0.365676 0.172251 7.30956e-07
0.397446 0.192823 7.30956e-07
0.427575 0.213907 7.30956e-07
0.456208 0.235818 7.30956e-07
0.483446 0.25924 7.30956e-07
0.509315 0.285369 7.30956e-07
0.53411 0.316142 7.30956e-07
0.557082 0.352895 7.30956e-07
0.578488 0.395421 0.0431392
0.598423 0.440635 0.0970713
0.617081 0.484872 0.134543
0.631193 0.522626 0.267423
0.643158 0.555031 0.416655
0.65334 0.582344 0.488785
0.66188 0.604963 0.537402
0.668953 0.62345 0.573087
0.674738 0.638418 0.600155
0.679422 0.650441 0.621006
0.683177 0.660051 0.637201
0.686164 0.667703 0.649839
0.688527 0.673773 0.659742
0.690386 0.678585 0.667517
0.691838 0.682397 0.67363
0.692976 0.68541 0.678451
0.693863 0.687796 0.682258
0.694548 0.689682 0.685264
0.695086 0.691178 0.687647
0.695496 0.692361 0.689532
0.695818 0.6933 0.691032
0.0221022 0.0461855 0.0060796
0.0223389 0.0466286 0.00615297
0.0229383 0.047722 0.00633506
0.0252947 0.0486399 0.00646995
0.0297346 0.0488201 0.00644866
0.0351291 0.0495017 0.0064907
0.0420128 0.0509003 0.00661883
0.0507555 0.0534661 0.00689807
0.0617272 0.0577403 0.00741615
0.0755979 0.0637089 0.0081476
0.0929024 0.0709685 0.0089577
0.113667 0.0790787 0.00965089
0.137698 0.0875396 0.00989705
0.16487 0.095918 0.00905786
0.19508 0.104062 0.00527029
0.227959 0.112664 7.30956e-07
0.262654 0.123578 7.30956e-07
0.297981 0.138041 7.30956e-07
0.332759 0.155439 7.30956e-07
0.366164 0.174553 7.30956e-07
0.397879 0.194602 7.30956e-07
0.427946 0.215384 7.30956e-07
0.456516 0.237132 7.30956e-07
0.483694 0.260481 7.30956e-07
0.509506 0.286581 7.30956e-07
0.533905 0.317131 7.30956e-07
0.557177 0.353906 7.30956e-07
0.578551 0.396204 0.0452503
0.598463 0.441165 0.0977006
0.617113 0.485196 0.134855
0.63122 0.522824 0.267093
0.643176 0.555152 0.416586
0.653355 0.582413 0.48876
0.66189 0.605008 0.537389
0.668962 0.623477 0.573082
0.674741 0.63843 0.600152
0.679422 0.650451 0.621009
0.68318 0.660054 0.637201
0.686167 0.667706 0.649839
0.688527 0.673779 0.659739
0.690386 0.678592 0.667517
0.691838 0.6824 0.67363
0.692976 0.685416 0.678451
0.693859 0.687796 0.682258
0.694548 0.689682 0.685264
0.695086 0.691178 0.687647
0.695496 0.692361 0.689532
0.695818 0.6933 0.691032
0.0300355 0.0607134 0.00861198
0.0302233 0.0610505 0.00867371
0.0306593 0.0618306 0.00881717
0.0314544 0.0630973 0.00905072
0.0343984 0.0638007 0.00915365
0.0399208 0.0639926 0.00912025
0.046768 0.064771 0.00916525
0.055348 0.0663713 0.00931641
0.066002 0.0693006 0.00965469
0.0790227 0.0741409 0.0102857
0.0950844 0.0808237 0.0111669
0.114737 0.088838 0.0121147
0.138015 0.0977271 0.0128862
0.164765 0.107008 0.0130726
0.194823 0.116228 0.0118491
0.227804 0.125157 0.00669045
0.262799 0.134459 7.30956e-07
0.298411 0.145964 7.30956e-07
0.333332 0.160762 7.30956e-07
0.366755 0.178204 7.30956e-07
0.39842 0.19729 7.30956e-07
0.428416 0.217529 7.30956e-07
0.456908 0.238984 7.30956e-07
0.484017 0.262188 7.30956e-07
0.509757 0.288218 7.30956e-07
0.534095 0.318688 7.30956e-07
0.556942 0.355066 7.30956e-07
0.57863 0.397224 0.0478336
0.598519 0.44185 0.0985145
0.617154 0.485622 0.13526
0.631259 0.523087 0.266665
0.643203 0.555307 0.416491
0.653374 0.582507 0.488723
0.661905 0.605063 0.537374
0.668965 0.623509 0.573074
0.674747 0.638455 0.600146
0.679432 0.650463 0.621003
0.683183 0.660063 0.637201
0.686167 0.667709 0.649839
0.688527 0.673776 0.659739
0.690386 0.678585 0.66751
0.691841 0.6824 0.67363
0.692982 0.68541 0.678451
0.693863 0.687796 0.682258
0.694551 0.689689 0.685264
0.695086 0.691178 0.687647
0.695496 0.692361 0.689532
0.695818 0.693293 0.691032
0.0398455 0.0779334 0.0119339
0.0399944 0.0781895 0.0119857
0.0403093 0.078731 0.0120958
0.0408429 0.079643 0.0122815
0.0417161 0.0809171 0.0125417
0.0453852 0.0817064 0.012667
0.052304 0.0819029 0.0126144
0.0607646 0.0827635 0.0126572
0.0711813 0.0845326 0.0128254
0.0838357 0.0877703 0.0132174
0.0989344 0.093106 0.0139614
0.117154 0.100422 0.0149944
0.13919 0.109178 0.0160896
0.165116 0.118916 0.01695
0.194732 0.129122 0.0170629
0.22759 0.139181 0.0153545
0.26274 0.148627 0.00849554
0.298692 0.158071 7.30956e-07
0.333895 0.169517 7.30956e-07
0.367428 0.184158 7.30956e-07
0.399087 0.201487 7.30956e-07
0.429005 0.220734 7.30956e-07
0.457409 0.241645 7.30956e-07
0.484424 0.264567 7.30956e-07
0.510083 0.290444 7.30956e-07
0.53433 0.320763 7.30956e-07
0.557106 0.356863 7.30956e-07
0.578373 0.398369 0.0512053
0.59859 0.442741 0.0995622
0.6172 0.486175 0.135785
0.631304 0.523429 0.266109
0.643237 0.555512 0.41637
0.653398 0.582628 0.488679
0.661921 0.605137 0.537351
0.668978 0.623556 0.573063
0.674754 0.638482 0.600146
0.679432 0.650481 0.620997
0.683183 0.660072 0.637201
0.686174 0.667715 0.649839
0.688533 0.673785 0.659739
0.690386 0.678595 0.66751
0.691844 0.6824 0.67363
0.692982 0.685416 0.678451
0.693859 0.687802 0.682255
0.694551 0.689689 0.685264
0.695082 0.691178 0.687647
0.695496 0.692361 0.689532
0.695818 0.693293 0.691035
0.051622 0.0977768 0.0161654
0.051738 0.0979677 0.0162082
0.0519647 0.0983425 0.0162922
0.0523351 0.0989541 0.0164294
0.0528923 0.0998662 0.0166351
0.0539512 0.101341 0.0169677
0.0584746 0.102273 0.0171308
0.0669292 0.102471 0.0170537
0.0771343 0.1034 0.0170892
0.0894973 0.105318 0.0172697
0.104225 0.108833 0.0177131
0.121443 0.11464 0.0185769
0.141864 0.122602 0.0197824
0.166427 0.132197 0.02106
0.195159 0.142903 0.0220359
0.227572 0.154024 0.0220439
0.262634 0.164594 0.0196962
0.298791 0.173901 0.0108364
0.334344 0.182807 7.30956e-07
0.368132 0.193777 7.30956e-07
0.399857 0.208188 7.30956e-07
0.429729 0.225639 7.30956e-07
0.458037 0.245551 7.30956e-07
0.484941 0.267932 7.30956e-07
0.510489 0.2935 7.30956e-07
0.534642 0.323538 7.30956e-07
0.557325 0.359223 7.30956e-07
0.578515 0.400147 0.0550205
0.598321 0.443711 0.100938
0.617267 0.486893 0.136469
0.631366 0.523875 0.265386
0.643282 0.555775 0.41622
0.653432 0.582793 0.488621
0.661943 0.605235 0.537323
0.668997 0.623615 0.573052
0.674766 0.638515 0.600138
0.679438 0.650497 0.620997
0.68319 0.660085 0.637195
0.686174 0.667722 0.649839
0.68853 0.673785 0.659739
0.690389 0.678598 0.667517
0.691844 0.6824 0.67363
0.692982 0.685416 0.678451
0.693863 0.687802 0.682255
0.694548 0.689685 0.685264
0.695086 0.691178 0.687647
0.695499 0.692361 0.689532
0.695818 0.6933 0.691035
0.0654387 0.120159 0.02143
0.065526 0.120299 0.0214645
0.0656878 0.120555 0.0215277
0.0659417 0.12096 0.0216274
0.066319 0.121558 0.0217756
0.0669774 0.122595 0.022033
0.0682687 0.124321 0.0224617
0.0737208 0.125406 0.022671
0.0838296 0.125611 0.0225658
0.0958962 0.12662 0.0225939
0.110312 0.128706 0.0227901
0.127214 0.132531 0.0232968
0.146662 0.138876 0.0243103
0.169448 0.147613 0.0257398
0.196676 0.158174 0.0272539
0.228153 0.169826 0.0283496
0.262776 0.18149 0.0281448
0.298868 0.191826 0.0249282
0.334644 0.200215 0.013969
0.368758 0.208199 7.30956e-07
0.400681 0.218756 7.30956e-07
0.430577 0.233269 7.30956e-07
0.458801 0.251394 7.30956e-07
0.48559 0.272766 7.30956e-07
0.51101 0.297727 7.30956e-07
0.535034 0.327265 7.30956e-07
0.557602 0.362327 7.30956e-07
0.578707 0.40246 0.0595451
0.598448 0.445253 0.102688
0.617002 0.487648 0.137333
0.63145 0.524454 0.264447
0.643343 0.556128 0.416016
0.653476 0.583 0.488544
0.661971 0.605355 0.537292
0.669016 0.623686 0.573033
0.674779 0.638557 0.600132
0.679451 0.650527 0.620991
0.683196 0.660104 0.637195
0.686174 0.667734 0.649836
0.688533 0.673792 0.659739
0.690392 0.678601 0.66751
0.691844 0.682406 0.673633
0.692979 0.685416 0.678451
0.693863 0.687799 0.682258
0.694551 0.689685 0.685264
0.695086 0.691182 0.687647
0.695499 0.692361 0.689532
0.695818 0.6933 0.691035
0.0814172 0.145092 0.0278797
0.08148 0.145188 0.0279058
0.0815928 0.14536 0.0279528
0.0817659 0.145627 0.0280248
0.0820178 0.146012 0.0281293
0.0824542 0.146679 0.0283108
0.083241 0.147872 0.0286364
0.0847854 0.149857 0.0291779
0.091235 0.15111 0.0294445
0.103107 0.151344 0.0293127
0.117153 0.152477 0.0293422
0.133754 0.154801 0.0295742
0.152984 0.159049 0.030181
0.174833 0.166082 0.031403
0.20015 0.17573 0.0331244
0.229957 0.187228 0.0349011
0.263594 0.199416 0.0360233
0.299241 0.210801 0.0353747
0.334958 0.220009 0.0310578
0.369277 0.227042 0.0183856
0.401476 0.234288 7.30956e-07
0.4315 0.244928 7.30956e-07
0.459701 0.260173 7.30956e-07
0.486374 0.27976 7.30956e-07
0.51165 0.303607 7.30956e-07
0.535524 0.332276 7.30956e-07
0.557956 0.366398 7.30956e-07
0.578951 0.405471 0.0648568
0.598621 0.447243 0.104907
0.617116 0.488878 0.138487
0.631214 0.525031 0.263812
0.643425 0.556581 0.415757
0.653528 0.583271 0.488445
0.662012 0.605521 0.537246
0.669038 0.623786 0.573014
0.674798 0.638621 0.600118
0.679457 0.650567 0.620985
0.683199 0.660129 0.637188
0.68618 0.667747 0.649839
0.688533 0.673801 0.659739
0.690392 0.678604 0.66751
0.691844 0.682409 0.673626
0.692979 0.685419 0.678447
0.693863 0.687802 0.682255
0.694551 0.689685 0.685264
0.695082 0.691182 0.687647
0.695496 0.692361 0.689532
0.695821 0.6933 0.691035
0.0997628 0.172708 0.0357173
0.0998067 0.172771 0.0357364
0.099884 0.172886 0.0357702
0.100001 0.173059 0.0358216
0.100169 0.173307 0.0358951
0.100455 0.17373 0.0360212
0.100968 0.174488 0.0362473
0.101895 0.175845 0.0366527
0.103723 0.1781 0.0373267
0.111233 0.179541 0.0376651
0.124974 0.179843 0.0375147
0.141128 0.181168 0.0375673
0.160067 0.183848 0.0378738
0.181793 0.188664 0.0386387
0.206171 0.196504 0.040136
0.233937 0.207012 0.0421766
0.265751 0.219012 0.0441251
0.300371 0.230861 0.0450248
0.335624 0.240989 0.0436364
0.369867 0.248523 0.0381645
0.402217 0.254378 0.0248094
0.432442 0.261547 7.30956e-07
0.460701 0.273036 7.30956e-07
0.487302 0.289815 7.30956e-07
0.512434 0.311767 7.30956e-07
0.536135 0.33899 7.30956e-07
0.558407 0.371719 0.00804889
0.579274 0.409344 0.0710307
0.598839 0.449817 0.107702
0.61727 0.490476 0.139968
0.631354 0.526024 0.262392
0.64321 0.557011 0.415587
0.653602 0.583624 0.488315
0.662062 0.605733 0.537188
0.669073 0.623916 0.572987
0.674817 0.638696 0.600104
0.67947 0.650613 0.620976
0.683209 0.660154 0.637188
0.686187 0.667763 0.649833
0.688543 0.673811 0.659739
0.690392 0.678611 0.66751
0.691844 0.682413 0.673626
0.692982 0.685423 0.678447
0.693863 0.687802 0.682258
0.694551 0.689689 0.685264
0.695086 0.691178 0.687647
0.695496 0.692361 0.689532
0.695818 0.693296 0.691032
0.12071 0.203165 0.0451798
0.120741 0.203209 0.0451942
0.120796 0.203286 0.0452194
0.120877 0.203402 0.0452569
0.120989 0.203563 0.0453096
0.121179 0.203835 0.0453978
0.121516 0.204316 0.0455541
0.122118 0.205175 0.0458341
0.123201 0.206707 0.0463352
0.125339 0.209244 0.0471638
0.133973 0.210896 0.0475928
0.149684 0.211311 0.0474367
0.168057 0.212907 0.0475417
0.189454 0.216042 0.0479697
0.213745 0.221505 0.0489442
0.240526 0.230062 0.0507309
0.270195 0.240982 0.0529897
0.302906 0.2526 0.0548432
0.337108 0.26309 0.0551745
0.370861 0.271319 0.0528516
0.403088 0.277256 0.0465048
0.4334 0.282628 0.0339394
0.461765 0.290617 7.30956e-07
0.48835 0.303791 7.30956e-07
0.513355 0.322894 7.30956e-07
0.536888 0.347884 7.30956e-07
0.558979 0.378608 0.0397243
0.579683 0.414313 0.0781368
0.599131 0.45312 0.111191
0.617475 0.492534 0.141861
0.631537 0.527302 0.260578
0.64334 0.557781 0.415183
0.653411 0.58395 0.488243
0.662127 0.606005 0.537119
0.669117 0.624078 0.572946
0.674849 0.638802 0.60009
0.67949 0.650672 0.620973
0.683222 0.660194 0.637182
0.686193 0.667785 0.649833
0.688546 0.673827 0.659739
0.690399 0.678621 0.66751
0.691844 0.682416 0.673626
0.692982 0.685426 0.678447
0.693866 0.687809 0.682258
0.694551 0.689689 0.685264
0.695086 0.691185 0.687647
0.695499 0.692364 0.689532
0.695818 0.6933 0.691032
0.144314 0.236356 0.0564449
0.144343 0.236395 0.0564587
0.144386 0.236457 0.0564804
0.144448 0.236541 0.0565104
0.14453 0.236655 0.0565509
0.144664 0.236842 0.0566166
0.144894 0.237158 0.0567292
0.145295 0.237713 0.0569259
0.146004 0.238692 0.0572743
0.147269 0.240419 0.0578907
0.149753 0.243249 0.0588998
0.159561 0.245131 0.0594384
0.177288 0.245695 0.059291
0.197922 0.247597 0.0594732
0.221764 0.251202 0.0600501
0.24844 0.257198 0.0612291
0.277099 0.266057 0.0632018
0.30768 0.276582 0.0654145
0.34001 0.28683 0.0668017
0.372718 0.295287 0.0662926
0.404433 0.301583 0.0630887
0.434565 0.306512 0.0564895
0.462928 0.312315 0.0461657
0.489514 0.321986 0.0328599
0.514424 0.337521 0.022607
0.537789 0.359417 0.033078
0.559688 0.387406 0.0578352
0.580215 0.420634 0.086239
0.599514 0.457338 0.115501
0.617741 0.495182 0.144267
0.631775 0.528956 0.258273
0.643514 0.558778 0.41466
0.653531 0.58455 0.488046
0.661955 0.606254 0.537076
0.669171 0.6243 0.572903
0.674887 0.638935 0.600064
0.679515 0.650755 0.620962
0.683241 0.660244 0.637179
0.686206 0.667816 0.649833
0.688553 0.673843 0.659736
0.690399 0.67863 0.66751
0.691851 0.682422 0.673633
0.692982 0.685429 0.678451
0.693869 0.687809 0.682255
0.694551 0.689689 0.685264
0.695086 0.691178 0.687647
0.695499 0.692367 0.689539
0.695821 0.6933 0.691032
0.170196 0.271611 0.0694737
0.17023 0.271657 0.0694916
0.170275 0.271718 0.0695152
0.170332 0.271793 0.0695446
0.170403 0.271888 0.0695805
0.17051 0.272031 0.0696363
0.170684 0.272265 0.0697261
0.170971 0.272653 0.0698754
0.171461 0.273306 0.0701282
0.172303 0.274436 0.0705655
0.173781 0.276386 0.0713215
0.176652 0.279519 0.0725364
0.187662 0.281628 0.0731991
0.20736 0.28235 0.0730705
0.230155 0.284536 0.0733368
0.256213 0.288499 0.0740466
0.284812 0.294716 0.0753439
0.314542 0.303264 0.0772858
0.344977 0.312583 0.0791214
0.375982 0.320836 0.0797443
0.406693 0.327167 0.0783392
0.436277 0.331996 0.074575
0.464387 0.336721 0.0685424
0.490869 0.343784 0.0614738
0.515686 0.355714 0.0568084
0.538888 0.373896 0.060046
0.560582 0.398441 0.0738642
0.580899 0.428567 0.0953956
0.600019 0.462678 0.120761
0.618088 0.498572 0.147307
