OpenDRT/OpenDRT_v1.0.0_Default__filmlight-egamut2-tloge_to_rec1886.cube
LUT_3D_SIZE 48
0.00106062 0.00106062 0.00106062
0.00514995 0.00129805 0.00156308
0.00978634 0.00117608 0.00109407
0.0145448 0.00113736 8.68552e-05
0.0195422 0.00116951 0
0.0259044 0.00124966 0
0.0341954 0.00137767 0
0.0448553 0.00155676 0
0.0583505 0.0017947 0
0.0751597 0.00210527 0
0.0957868 0.00251086 0
0.120818 0.00304682 0
0.151015 0.00376836 0
0.187379 0.00476087 0
0.231052 0.00615262 0
0.282913 0.00812492 0
0.342889 0.0109154 0
0.409414 0.0148233 0
0.479704 0.0202413 0
0.550816 0.0277372 0
0.620551 0.0382 0
0.687584 0.0530825 0
0.751141 0.0748168 0
0.810658 0.107413 0
0.865415 0.156544 0
0.914172 0.226573 0
0.955852 0.314024 0
0.991318 0.408605 0
1 0.501854 0.0191987
1 0.582216 0.255279
1 0.653417 0.415946
1 0.715174 0.528926
1 0.767783 0.618711
1 0.811924 0.691865
1 0.84851 0.751683
1 0.878538 0.800476
1 0.902999 0.840119
1 0.92281 0.872202
1 0.938786 0.898084
1 0.951629 0.918909
1 0.96193 0.935633
1 0.970179 0.949047
1 0.976779 0.959796
1 0.982056 0.968405
1 0.986273 0.975299
1 0.989643 0.980819
1 0.992336 0.985238
1 0.994489 0.988778
0 0.00363437 0.00114593
0.00498272 0.00450591 0
0.00925499 0.00560522 0
0.0139363 0.00660826 0
0.0189927 0.00731299 0
0.025502 0.00765847 0
0.03399 0.00741978 0
0.0448157 0.00677005 0
0.0584202 0.00618935 0
0.0753131 0.00589051 0
0.0960271 0.00586829 0
0.121168 0.00608943 0
0.151511 0.00655541 0
0.18806 0.00731801 0
0.231927 0.00848846 0
0.283928 0.010243 0
0.344025 0.0127874 0
0.410303 0.0164933 0
0.480371 0.0217311 0
0.551321 0.0290825 0
0.620949 0.0394471 0
0.687912 0.0542817 0
0.751413 0.0760137 0
0.810871 0.108632 0
0.865558 0.157751 0
0.914238 0.227644 0
0.955864 0.314827 0
0.99131 0.409137 0
1 0.502203 0.0190326
1 0.582437 0.255088
1 0.653556 0.415877
1 0.715262 0.528892
1 0.767838 0.618694
1 0.811959 0.691856
1 0.848532 0.751678
1 0.878552 0.800473
1 0.903007 0.840117
1 0.922815 0.872202
1 0.938789 0.898084
1 0.951631 0.918908
1 0.961931 0.935633
1 0.97018 0.949047
1 0.97678 0.959796
1 0.982056 0.968405
1 0.986273 0.975299
1 0.989643 0.980819
1 0.992336 0.985238
1 0.994489 0.988778
0 0.00673047 0
0.004759 0.00733474 0
0.00933751 0.00830992 0
0.0137053 0.00958489 0
0.0185034 0.0108649 0
0.0248074 0.0122405 0
0.033205 0.0134896 0
0.0441493 0.0141425 0
0.0580462 0.0136852 0
0.0752159 0.0123103 0
0.0960863 0.0109604 0
0.121297 0.0101486 0
0.151669 0.00990101 0
0.188227 0.0101709 0
0.232103 0.0109831 0
0.284123 0.0124543 0
0.344142 0.0147886 0
0.410558 0.0182778 0
0.480609 0.0233288 0
0.551818 0.0304491 0
0.621343 0.0407116 0
0.688236 0.0554946 0
0.751682 0.0772209 0
0.811082 0.109858 0
0.865698 0.158962 0
0.914303 0.228715 0
0.955877 0.315629 0
0.991301 0.409669 0
1 0.502552 0.0188671
1 0.582658 0.254896
1 0.653696 0.415807
1 0.71535 0.528858
1 0.767894 0.618676
1 0.811994 0.691845
1 0.848554 0.751673
1 0.878565 0.80047
1 0.903016 0.840115
1 0.92282 0.8722
1 0.938792 0.898083
1 0.951633 0.918908
1 0.961932 0.935633
1 0.970181 0.949047
1 0.97678 0.959796
1 0.982056 0.968405
1 0.986273 0.975299
1 0.989643 0.980819
1 0.992336 0.985238
1 0.994489 0.988778
0 0.00995826 0
0.00273867 0.0105519 0
0.0094481 0.0111892 0
0.0139236 0.0123193 0
0.0184817 0.0136886 0
0.0245034 0.0153781 0
0.0326457 0.0172951 0
0.0434009 0.0191175 0
0.0572587 0.0202636 0
0.0746465 0.0199612 0
0.0958619 0.018059 0
0.121305 0.0157873 0
0.151778 0.0142364 0
0.188375 0.0135987 0
0.232272 0.0138054 0
0.284314 0.0148571 0
0.344368 0.0168753 0
0.410824 0.0201057 0
0.480909 0.0249403 0
0.551724 0.0319744 0
0.62173 0.0419941 0
0.688556 0.0567215 0
0.751949 0.0784386 0
0.811292 0.111091 0
0.865837 0.160176 0
0.914367 0.229786 0
0.955889 0.316431 0
0.991293 0.410201 0
1 0.502901 0.0187015
1 0.582879 0.254705
1 0.653836 0.415738
1 0.715438 0.528825
1 0.767949 0.618658
1 0.812029 0.691836
1 0.848575 0.751667
1 0.878579 0.800467
1 0.903024 0.840114
1 0.922826 0.8722
1 0.938796 0.898082
1 0.951635 0.918908
1 0.961934 0.935633
1 0.970182 0.949047
1 0.976781 0.959796
1 0.982057 0.968405
1 0.986273 0.975299
1 0.989643 0.980819
1 0.992336 0.985238
1 0.994489 0.988778
0 0.0134016 0
8.87859e-05 0.013621 0
0.00894414 0.0144621 0
0.0141414 0.0153155 0
0.0187592 0.0165472 0
0.0245453 0.018285 0
0.0323835 0.0204685 0
0.0428652 0.0228871 0
0.0565183 0.0251019 0
0.0738379 0.0263606 0
0.0952455 0.0257035 0
0.121051 0.0230096 0
0.151777 0.0199419 0
0.188485 0.0179221 0
0.232428 0.0171773 0
0.284505 0.0176023 0
0.344599 0.0191875 0
0.411097 0.0220931 0
0.481216 0.0266717 0
0.55205 0.0335098 0
0.621445 0.043523 0
0.688883 0.0580016 0
0.75222 0.0797055 0
0.811505 0.112369 0
0.865979 0.161431 0
0.914432 0.23089 0
0.955901 0.317257 0
0.991284 0.41075 0
1 0.50326 0.0185308
1 0.583107 0.254507
1 0.65398 0.415666
1 0.715529 0.528789
1 0.768006 0.618639
1 0.812064 0.691826
1 0.848598 0.751662
1 0.878593 0.800464
1 0.903033 0.840112
1 0.922831 0.872199
1 0.938799 0.898082
1 0.951637 0.918908
1 0.961935 0.935633
1 0.970183 0.949047
1 0.976781 0.959796
1 0.982057 0.968405
1 0.986274 0.975299
1 0.989643 0.980819
1 0.992336 0.985238
1 0.994489 0.988778
0 0.0178267 0
0 0.0177753 0
0.00655281 0.0188679 0
0.0138328 0.0194281 0
0.0190466 0.0203634 0
0.0248989 0.0219155 0
0.0324345 0.0241457 0
0.0425288 0.0268872 0
0.055843 0.0298261 0
0.0729195 0.0323736 0
0.0942587 0.0335773 0
0.120316 0.0322939 0
0.151489 0.0285665 0
0.188499 0.0246426 0
0.232579 0.0222353 0
0.284728 0.0215364 0
0.344881 0.0223804 0
0.411438 0.0247687 0
0.481602 0.028965 0
0.552459 0.035521 0
0.621854 0.0453429 0
0.688497 0.0598804 0
0.752559 0.0813184 0
0.81177 0.113992 0
0.866154 0.163017 0
0.914513 0.232282 0
0.955916 0.318296 0
0.991273 0.41144 0
1 0.503714 0.018316
1 0.583394 0.254258
1 0.654161 0.415576
1 0.715644 0.528745
1 0.768078 0.618616
1 0.81211 0.691814
1 0.848626 0.751655
1 0.878611 0.80046
1 0.903044 0.84011
1 0.922838 0.872198
1 0.938803 0.898081
1 0.95164 0.918908
1 0.961937 0.935633
1 0.970184 0.949047
1 0.976782 0.959796
1 0.982057 0.968405
1 0.986274 0.975299
1 0.989643 0.980819
1 0.992336 0.985238
1 0.994489 0.988778
0 0.0236511 0
0 0.0235191 0
0.000517136 0.0242198 0
0.0118663 0.0251183 0
0.0186499 0.0257515 0
0.0252443 0.0269112 0
0.0328657 0.0288817 0
0.0425641 0.0316715 0
0.0553799 0.0350155 0
0.0720335 0.0384711 0
0.0930836 0.0412789 0
0.119083 0.0422698 0
0.150604 0.0401191 0
0.18818 0.0351486 0
0.232633 0.0303219 0
0.284964 0.0276042 0
0.345228 0.0270971 0
0.411872 0.0285887 0
0.4821 0.0321631 0
0.552989 0.0382817 0
0.622385 0.0478122 0
0.688999 0.0621832 0
0.752067 0.0837516 0
0.811006 0.116333 0
0.86638 0.165094 0
0.914616 0.234098 0
0.955935 0.319651 0
0.991259 0.41234 0
1 0.504306 0.0180362
1 0.583769 0.253933
1 0.654398 0.415458
1 0.715793 0.528688
1 0.768172 0.618586
1 0.812168 0.691797
1 0.848663 0.751646
1 0.878634 0.800456
1 0.903058 0.840107
1 0.922847 0.872196
1 0.938809 0.898081
1 0.951643 0.918907
1 0.961939 0.935632
1 0.970185 0.949047
1 0.976783 0.959796
1 0.982058 0.968405
1 0.986274 0.975299
1 0.989644 0.980819
1 0.992336 0.985238
1 0.994489 0.988778
0 0.0312247 0
0 0.0310734 0
0 0.0311838 0
0.00300451 0.0325743 0
0.0161087 0.0331422 0
0.02464 0.0339082 0
0.0332344 0.0353508 0
0.0430512 0.0377892 0
0.055364 0.0411827 0
0.0713924 0.0451396 0
0.0919276 0.0490726 0
0.117591 0.0520434 0
0.149078 0.0526486 0
0.187134 0.0493822 0
0.232306 0.0429931 0
0.285106 0.0372657 0
0.345617 0.0343392 0
0.412411 0.0342192 0
0.482736 0.0367294 0
0.553673 0.0421359 0
0.623071 0.0512045 0
0.689649 0.0653073 0
0.752645 0.0867529 0
0.811473 0.119283 0
0.865409 0.167983 0
0.914747 0.236466 0
0.955959 0.321415 0
0.99124 0.413513 0
1 0.505077 0.0176706
1 0.584258 0.253509
1 0.654708 0.415305
1 0.715988 0.528614
1 0.768294 0.618547
1 0.812245 0.691775
1 0.848711 0.751634
1 0.878664 0.800449
1 0.903077 0.840104
1 0.922858 0.872194
1 0.938816 0.89808
1 0.951648 0.918907
1 0.961942 0.935632
1 0.970187 0.949047
1 0.976784 0.959796
1 0.982058 0.968405
1 0.986275 0.975299
1 0.989644 0.980819
1 0.992336 0.985238
1 0.994489 0.988778
0 0.0409343 0
0 0.0407773 0
0 0.0406955 0
0 0.0411283 0
0.0046396 0.0427758 0
0.021173 0.0433941 0
0.032285 0.0443227 0
0.0433766 0.0460655 0
0.0558615 0.0489955 0
0.0712734 0.0530089 0
0.0910459 0.0575602 0
0.116097 0.061918 0
0.147204 0.0649605 0
0.185276 0.0650106 0
0.231113 0.0603762 0
0.284829 0.0524183 0
0.345929 0.0458096 0
0.413035 0.0428222 0
0.48353 0.0434441 0
0.554546 0.0476366 0
0.623954 0.0559403 0
0.690487 0.0695956 0
0.753389 0.0908154 0
0.812071 0.123227 0
0.865809 0.171718 0
0.913534 0.239614 0
0.955989 0.323711 0
0.991216 0.415041 0
1 0.506084 0.0171943
1 0.584897 0.252955
1 0.655111 0.415105
1 0.716242 0.528516
1 0.768454 0.618495
1 0.812345 0.691748
1 0.848774 0.751619
1 0.878703 0.80044
1 0.903102 0.840099
1 0.922874 0.872192
1 0.938826 0.898078
1 0.951654 0.918906
1 0.961945 0.935632
1 0.970189 0.949046
1 0.976785 0.959796
1 0.982059 0.968405
1 0.986275 0.975299
1 0.989644 0.980819
1 0.992337 0.985238
1 0.994489 0.988778
0 0.0531824 0
0 0.0530223 0
0 0.0528894 0
0 0.0528993 0
0 0.053482 0
0.00612761 0.0555643 0
0.0275502 0.0563061 0
0.0418824 0.0574005 0
0.0560395 0.0594512 0
0.0717181 0.0628742 0
0.0907597 0.0675044 0
0.114905 0.0726331 0
0.145299 0.0773902 0
0.182958 0.0804437 0
0.228909 0.0797556 0
0.283549 0.0734566 0
0.3458 0.063773 0
0.41362 0.0563575 0
0.484466 0.0536487 0
0.555636 0.0557014 0
0.625075 0.0626874 0
0.691556 0.0755695 0
0.754339 0.096371 0
0.812831 0.128531 0
0.866314 0.176669 0
0.913772 0.243807 0
0.954582 0.326627 0
0.991185 0.417031 0
1 0.507396 0.0165717
1 0.585729 0.252232
1 0.655638 0.414845
1 0.716574 0.528389
1 0.768663 0.618429
1 0.812476 0.691711
1 0.848855 0.751599
1 0.878754 0.800429
1 0.903133 0.840093
1 0.922893 0.872188
1 0.938838 0.898076
1 0.951661 0.918905
1 0.96195 0.935631
1 0.970192 0.949046
1 0.976787 0.959796
1 0.982061 0.968405
1 0.986276 0.975299
1 0.989645 0.980819
1 0.992337 0.985238
1 0.994489 0.988778
0 0.0683733 0
0 0.068209 0
0 0.068058 0
0 0.0679584 0
0 0.0680147 0
0 0.0687648 0
0.00798722 0.0714264 0
0.0354457 0.0723035 0
0.0537358 0.0735629 0
0.0716083 0.0759214 0
0.091094 0.0798486 0
0.114387 0.0851035 0
0.143731 0.0908439 0
0.180579 0.096033 0
0.226115 0.099036 0
0.28104 0.0973181 0
0.344545 0.0889517 0
0.413757 0.0774534 0
0.485409 0.0695667 0
0.556926 0.0678765 0
0.626464 0.0725329 0
0.692901 0.084041 0
0.755535 0.104062 0
0.813784 0.13572 0
0.866941 0.183251 0
0.914065 0.249305 0
0.954651 0.330646 0
0.989694 0.419462 0
1 0.509108 0.0157563
1 0.586816 0.251287
1 0.656325 0.414506
1 0.717008 0.528224
1 0.768935 0.618342
1 0.812647 0.691664
1 0.848962 0.751572
1 0.878821 0.800415
1 0.903175 0.840085
1 0.922919 0.872184
1 0.938854 0.898074
1 0.951671 0.918903
1 0.961956 0.93563
1 0.970196 0.949046
1 0.97679 0.959796
1 0.982062 0.968405
1 0.986277 0.975299
1 0.989645 0.980819
1 0.992337 0.985238
1 0.994489 0.988778
0 0.0869245 0
0 0.0867534 0
0 0.0865925 0
0 0.0864553 0
0 0.0863725 0
0 0.0864634 0
0 0.087437 0
0.0102744 0.090808 0
0.0450758 0.0918421 0
0.0681777 0.0932781 0
0.0905316 0.095967 0
0.114572 0.100447 0
0.142933 0.106413 0
0.178589 0.112887 0
0.223232 0.118557 0
0.277793 0.121304 0
0.341841 0.118012 0
0.412668 0.107159 0
0.485903 0.0941386 0
0.558256 0.0866429 0
0.628092 0.0872482 0
0.694538 0.0962899 0
0.757006 0.114854 0
0.814953 0.145539 0
0.867705 0.192028 0
0.91442 0.25651 0
0.954733 0.335877 0
0.98966 0.422927 0
1 0.511111 0.0151477
1 0.588235 0.250054
1 0.657223 0.414066
1 0.717574 0.52801
1 0.769289 0.618228
1 0.81287 0.691602
1 0.849102 0.751539
1 0.878908 0.800396
1 0.903229 0.840075
1 0.922953 0.872178
1 0.938875 0.898071
1 0.951684 0.918902
1 0.961964 0.93563
1 0.970201 0.949045
1 0.976793 0.959795
1 0.982064 0.968405
1 0.986278 0.975299
1 0.989646 0.980819
1 0.992338 0.985238
1 0.99449 0.988778
0 0.109323 0
0 0.109143 0
0 0.108972 0
0 0.108817 0
0 0.108685 0
0 0.108594 0
0 0.108737 0
0 0.11 0
0.0130556 0.114243 0
0.0567009 0.115483 0
0.0856282 0.117147 0
0.11341 0.120254 0
0.142981 0.125432 0
0.177547 0.132307 0
0.220809 0.139664 0
0.274434 0.145692 0
0.338242 0.147599 0
0.40993 0.141959 0
0.485086 0.128614 0
0.559112 0.115116 0
0.62975 0.109514 0
0.696399 0.114283 0
0.758736 0.130178 0
0.816337 0.159033 0
0.868603 0.203748 0
0.914834 0.265941 0
0.954829 0.342674 0
0.989617 0.427432 0
1 0.51407 0.0138692
1 0.589833 0.249194
1 0.658394 0.413493
1 0.718312 0.527732
1 0.769754 0.618081
1 0.813161 0.691522
1 0.849283 0.751495
1 0.879021 0.800372
1 0.9033 0.840061
1 0.922997 0.872171
1 0.938902 0.898067
1 0.951702 0.9189
1 0.961975 0.935629
1 0.970207 0.949044
1 0.976797 0.959795
1 0.982067 0.968405
1 0.98628 0.975299
1 0.989647 0.980818
1 0.992338 0.985238
1 0.99449 0.988778
0 0.136224 0
0 0.136032 0
0 0.13585 0
0 0.135681 0
0 0.135525 0
0 0.135368 0
0 0.13527 0
0 0.135493 0
0 0.137138 0
0.0164222 0.142465 0
0.0706781 0.144008 0
0.106674 0.146024 0
0.14109 0.14974 0
0.177452 0.155867 0
0.219586 0.163882 0
0.271609 0.172082 0
0.334498 0.177866 0
0.406139 0.177894 0
0.48247 0.169349 0
0.558579 0.154441 0
0.630853 0.142331 0
0.698202 0.140699 0
0.760595 0.152024 0
0.817871 0.177607 0
0.869605 0.21937 0
0.915298 0.278243 0
0.954933 0.351475 0
0.98956 0.433274 0
1 0.51792 0.0121373
1 0.592273 0.247258
1 0.65967 0.413127
1 0.719277 0.527371
1 0.77036 0.617891
1 0.813541 0.691419
1 0.849521 0.751437
1 0.879169 0.80034
1 0.903392 0.840044
1 0.923055 0.872161
1 0.938938 0.898062
1 0.951724 0.918897
1 0.961989 0.935627
1 0.970216 0.949044
1 0.976802 0.959795
1 0.98207 0.968405
1 0.986282 0.975299
1 0.989648 0.980818
1 0.992339 0.985238
1 0.994491 0.988778
0 0.168522 0
0 0.168319 0
0 0.168128 0
0 0.167947 0
0 0.167776 0
0 0.167585 0
0 0.167395 0
0 0.167302 0
0 0.167653 0
0 0.169812 0
0.0205065 0.176503 0
0.0874967 0.178511 0
0.132107 0.181086 0
0.174653 0.18569 0
0.219272 0.19303 0
0.270191 0.202188 0
0.331307 0.210634 0
0.402137 0.214935 0
0.478668 0.211991 0
0.556178 0.200837 0
0.630499 0.186284 0
0.699313 0.17794 0
0.762233 0.18265 0
0.819376 0.202923 0
0.870629 0.240022 0
0.91578 0.29418 0
0.95504 0.362816 0
0.989486 0.440827 0
1 0.522921 0.00964586
1 0.595451 0.244731
1 0.661676 0.412223
1 0.720296 0.527163
1 0.771151 0.617644
1 0.814036 0.691284
1 0.849831 0.751363
1 0.879363 0.800299
1 0.903513 0.840021
1 0.92313 0.872149
1 0.938985 0.898055
1 0.951753 0.918893
1 0.962007 0.935625
1 0.970228 0.949043
1 0.976809 0.959794
1 0.982074 0.968404
1 0.986284 0.975299
1 0.98965 0.980818
1 0.99234 0.985238
1 0.994491 0.988778
0 0.20727 0
0 0.207065 0
0 0.206869 0
0 0.206684 0
0 0.206505 0
0 0.206299 0
0 0.206068 0
0 0.205854 0
0 0.205795 0
0 0.20635 0
0 0.209206 0
0.0254941 0.21762 0
0.107725 0.220308 0
0.162786 0.223689 0
0.215139 0.229428 0
0.269342 0.237995 0
0.329503 0.2477 0
0.39858 0.255034 0
0.474544 0.256344 0
0.55253 0.249975 0
0.628342 0.237523 0
0.69898 0.225681 0
0.763077 0.223412 0
0.82053 0.236442 0
0.871526 0.26684 0
0.916232 0.31459 0
0.955137 0.377324 0
0.989392 0.450551 0
1 0.529401 0.00502493
1 0.599585 0.24144
1 0.664292 0.411058
1 0.721943 0.526587
1 0.771968 0.61752
1 0.814684 0.691111
1 0.850236 0.751268
1 0.879616 0.800246
1 0.903671 0.839992
1 0.923228 0.872133
1 0.939046 0.898046
1 0.951791 0.918889
1 0.962031 0.935623
1 0.970242 0.949042
1 0.976818 0.959794
1 0.98208 0.968404
1 0.986288 0.975298
1 0.989652 0.980818
1 0.992342 0.985238
1 0.994492 0.988778
0 0.253266 0
0 0.253073 0
0 0.252888 0
0 0.252711 0
0 0.252539 0
0 0.252336 0
0 0.2521 0
0 0.251848 0
0 0.251642 0
0 0.251677 0
0 0.252558 0
0 0.256355 0
0.0316323 0.266903 0
0.131794 0.270486 0
0.199242 0.274846 0
0.262911 0.281719 0
0.327363 0.290978 0
0.395977 0.299895 0
0.470588 0.304368 0
0.548421 0.301648 0
0.624988 0.292353 0
0.697083 0.280418 0
0.762667 0.273308 0
0.820969 0.278624 0
0.872111 0.300668 0
0.916586 0.340305 0
0.95521 0.395711 0
0.989275 0.463002 0
1 0.537597 0
1 0.604957 0.237156
1 0.667701 0.409561
1 0.724091 0.525849
1 0.773316 0.617125
1 0.81534 0.691038
1 0.850765 0.751144
1 0.879946 0.800178
1 0.903876 0.839954
1 0.923356 0.872112
1 0.939126 0.898035
1 0.95184 0.918883
1 0.962062 0.93562
1 0.970261 0.94904
1 0.97683 0.959793
1 0.982087 0.968404
1 0.986292 0.975298
1 0.989655 0.980818
1 0.992343 0.985238
1 0.994493 0.988778
0 0.306353 0
0 0.306191 0
0 0.306036 0
0 0.305887 0
0 0.30574 0
0 0.305566 0
0 0.305359 0
0 0.305127 0
0 0.304901 0
0 0.304774 0
0 0.305011 0
0 0.3064 0
0 0.311445 0
0.0392728 0.324528 0
0.159691 0.329133 0
0.241136 0.334454 0
0.317022 0.34207 0
0.39142 0.35095 0
0.466688 0.35744 0
0.544051 0.357687 0
0.621036 0.3508 0
0.694153 0.339706 0
0.761093 0.329884 0
0.820538 0.328627 0
0.872246 0.341803 0
0.916782 0.372051 0
0.955248 0.418751 0
0.989138 0.478844 0
1 0.548071 0
1 0.611925 0.231591
1 0.67214 0.407652
1 0.726896 0.524908
1 0.775078 0.61662
1 0.816442 0.690759
1 0.851292 0.751104
1 0.880377 0.80009
1 0.904145 0.839906
1 0.923523 0.872086
1 0.93923 0.898021
1 0.951905 0.918875
1 0.962102 0.935615
1 0.970286 0.949038
1 0.976846 0.959792
1 0.982097 0.968403
1 0.986299 0.975298
1 0.989659 0.980818
1 0.992346 0.985238
1 0.994495 0.988778
0 0.364952 0
0 0.364837 0
0 0.364727 0
0 0.364621 0
0 0.364517 0
0 0.364394 0
0 0.364246 0
0 0.364079 0
0 0.363911 0
0 0.363791 0
0 0.363855 0
0 0.364459 0
0 0.366601 0
0 0.373251 0
0.0489983 0.38919 0
0.190847 0.394798 0
0.287102 0.400899 0
0.37527 0.408641 0
0.458578 0.416 0
0.53847 0.418857 0
0.616292 0.414404 0
0.690505 0.403944 0
0.758712 0.392221 0
0.819391 0.38544 0
0.871935 0.390155 0
0.916807 0.410427 0
0.955255 0.447269 0
0.98899 0.498855 0
1 0.561506 0
1 0.620949 0.224389
1 0.67792 0.405236
1 0.730556 0.523718
1 0.777379 0.615979
1 0.817883 0.690404
1 0.852192 0.750905
1 0.880802 0.800071
