OpenDRT/OpenDRT-LogC3LinRec709.cube
TITLE "Generated by Resolve"
LUT_3D_SIZE 9
0 0 0
0 0 0
0.0087129 0 0
0.1337 0 0
0.467643 0.00189212 0
0.866346 0.0695048 0.0165713
0.997955 0.374716 0.260456
0.993255 0.739116 0.662745
0.995315 0.920821 0.893782
0 0 0
9.15541e-05 0.000137331 0
0.0190127 0.00292973 0
0.133288 0.00198367 0
0.457435 0.00344854 0
0.856153 0.0722362 0.0172885
0.994904 0.376562 0.261952
0.992859 0.739498 0.663157
0.995285 0.920867 0.893843
3.0518e-05 0.00965896 3.0518e-05
9.15541e-05 0.0183719 9.15541e-05
0.0203861 0.0249332 0.000335698
0.130465 0.0293431 0
0.448096 0.0217594 0
0.841611 0.0781109 0.0186007
0.99025 0.379477 0.264286
0.992264 0.740093 0.663813
0.995224 0.920943 0.893919
0.000122072 0.112688 0
0.000106813 0.11574 0
0.000213626 0.118441 0
0.106249 0.125399 0.00015259
0.431479 0.110613 0
0.825238 0.120027 0.0241703
0.97499 0.390204 0.272312
0.990311 0.74197 0.665873
0.995056 0.921157 0.894194
0.00141909 0.383185 0
0.00172427 0.37969 0
0.00222782 0.374472 0
0.00657664 0.360388 0
0.332082 0.385885 0.00862135
0.816175 0.291051 0.0492103
0.962844 0.437415 0.295903
0.983307 0.748714 0.673136
0.994492 0.921874 0.895094
0.0596017 0.71545 0.0387274
0.0612497 0.711376 0.0400702
0.0637827 0.705409 0.0421454
0.0719615 0.688319 0.0489052
0.104585 0.651804 0.0722057
0.66183 0.741711 0.159701
0.961837 0.595163 0.369406
0.979965 0.773083 0.69189
0.992218 0.924407 0.898283
0.358724 0.885664 0.318624
0.360098 0.884596 0.319982
0.362188 0.882994 0.322057
0.368704 0.878172 0.328573
0.388891 0.864927 0.348745
0.450828 0.841474 0.407172
0.873945 0.924651 0.545937
0.983505 0.845182 0.742596
0.991958 0.932708 0.90573
0.729198 0.950515 0.704067
0.729503 0.950408 0.704372
0.729946 0.95024 0.70486
0.73138 0.949737 0.706386
0.735836 0.948226 0.711147
0.749218 0.944305 0.72549
0.786221 0.939132 0.763485
0.958633 0.977279 0.836362
0.994446 0.955871 0.924956
0.917571 0.983505 0.908904
0.917617 0.98349 0.908934
0.917662 0.98349 0.908995
0.917845 0.983459 0.909194
0.918395 0.983368 0.909789
0.920119 0.983093 0.911681
0.925261 0.982498 0.917296
0.938979 0.982422 0.931807
0.989685 0.994537 0.957671
0 0 0
0 0 0
0.0175174 0 0.00247196
0.136934 0 0.00459297
0.466529 0.002121 0.000747692
0.864881 0.0705425 0.0210727
0.997497 0.375555 0.26247
0.99321 0.7393 0.663142
0.995315 0.920836 0.893828
0 0 0
0.0009308 0.0009308 0.0009308
0.024918 0.000717174 0.00140383
0.135851 0 0.00175479
0.455772 0.00329595 0
0.854566 0.0732128 0.0214389
0.99443 0.377386 0.26392
0.992813 0.739681 0.663554
0.995285 0.920882 0.893889
7.62951e-05 0.0145113 0.000106813
0.000122072 0.0198062 0.000228885
0.0210422 0.0240482 0.000228885
0.131792 0.0260014 0
0.445319 0.018555 0
0.839277 0.0788586 0.0222934
0.989776 0.380285 0.266194
0.992218 0.740261 0.664195
0.995224 0.920958 0.893965
0.000106813 0.112016 0
9.15541e-05 0.11426 0
0.000183108 0.116167 0
0.105486 0.122087 0.00015259
0.428229 0.107012 0
0.819974 0.119585 0.0268864
0.974533 0.390906 0.274037
0.990265 0.742138 0.666255
0.995056 0.921172 0.89424
0.0016022 0.378286 0
0.00192264 0.374868 0
0.0024567 0.369787 0
0.00675975 0.356191 0
0.330312 0.381521 0.00918593
0.811933 0.289555 0.0507362
0.960983 0.437964 0.297536
0.983291 0.748852 0.673472
0.994492 0.921889 0.895125
0.0606546 0.711635 0.0395819
0.0623026 0.707668 0.04094
0.0648508 0.701839 0.0430304
0.0730602 0.685176 0.0498207
0.105623 0.649592 0.0732128
0.660471 0.738888 0.160922
0.960571 0.595132 0.370398
0.979675 0.77322 0.692256
0.992233 0.924437 0.898314
0.359609 0.884749 0.319493
0.360967 0.88368 0.320851
0.363058 0.882094 0.322927
0.369574 0.877333 0.329427
0.3897 0.86424 0.349569
0.451484 0.841077 0.407858
0.873625 0.923995 0.54641
0.983352 0.845212 0.742794
0.991928 0.932723 0.905776
0.729397 0.950423 0.704265
0.729686 0.950317 0.704585
0.730144 0.950149 0.705058
0.731563 0.949645 0.706584
0.736019 0.948135 0.711345
0.749386 0.944228 0.725658
0.786343 0.939101 0.763622
0.958602 0.977203 0.836423
0.99443 0.955871 0.924971
0.917601 0.98349 0.908919
0.917632 0.98349 0.908965
0.917693 0.983474 0.909026
0.917861 0.983444 0.909209
0.91841 0.983352 0.909819
0.920134 0.983093 0.911711
0.925277 0.982483 0.917327
0.938994 0.982422 0.931823
0.989685 0.994522 0.957687
0 0 0
0.00207523 0 0.00737011
0.025452 0 0.0191348
0.141344 0 0.0293431
0.469856 0.00231937 0.0241703
0.865675 0.0719768 0.0317693
0.997055 0.376806 0.265858
0.993149 0.739574 0.663752
0.995315 0.920882 0.893904
0 0 0.00759899
0.000961318 0 0.0150607
0.025803 0 0.021149
0.138247 0 0.0271
0.458824 0.00325017 0.0209201
0.855131 0.0745861 0.0315862
0.994003 0.378622 0.267262
0.992752 0.739956 0.664179
0.995285 0.920928 0.89395
0.000167849 0.0169223 0.0158694
0.000228885 0.0193484 0.0186007
0.0213474 0.0213474 0.0213474
0.148745 0.016022 0.0184634
0.447074 0.013611 0.0147555
0.83949 0.0798352 0.0315709
0.989334 0.381491 0.269429
0.992157 0.740536 0.664805
0.995224 0.920989 0.894041
9.15541e-05 0.110628 0.0112764
6.10361e-05 0.112108 0.0113527
4.57771e-05 0.113344 0.0112612
0.104082 0.118059 0.002533
0.426215 0.100893 0.00383001
0.811566 0.119142 0.0341039
0.974151 0.391928 0.276936
0.990219 0.742412 0.66685
0.995056 0.921218 0.894316
0.00190738 0.370993 0
0.00225834 0.367697 0
0.00283818 0.36286 0
0.00704967 0.350011 0
0.327626 0.374929 0.010605
0.80531 0.287388 0.0542
0.957977 0.438834 0.300328
0.983261 0.749081 0.673991
0.994492 0.92192 0.895201
0.0622721 0.705974 0.0409094
0.0639353 0.702144 0.0422675
0.0664988 0.696529 0.0443885
0.0747539 0.680491 0.0512398
0.10724 0.646296 0.0747845
0.658427 0.734646 0.16289
0.958602 0.595071 0.372
0.979217 0.773449 0.692821
0.992233 0.924453 0.898375
0.360937 0.883345 0.320821
0.36231 0.882307 0.322179
0.364385 0.880751 0.324254
0.370871 0.876066 0.330724
0.390936 0.863203 0.350805
0.452476 0.840497 0.408927
0.873152 0.923018 0.547158
0.983093 0.845258 0.743114
0.991882 0.932754 0.905852
0.729686 0.950271 0.70457
0.729976 0.950164 0.70489
0.730434 0.950011 0.705379
0.731853 0.949508 0.706889
0.736294 0.948013 0.71165
0.74963 0.944137 0.725933
0.786526 0.939055 0.763821
0.958556 0.977096 0.836545
0.994415 0.955886 0.925017
0.917632 0.98349 0.908965
0.917678 0.983474 0.908995
0.917723 0.983474 0.909056
0.917906 0.983444 0.909255
0.918456 0.983352 0.90985
0.92018 0.983078 0.911742
0.925307 0.982483 0.917357
0.93901 0.982422 0.931853
0.98967 0.994522 0.957687
0 0 0.0779431
0.00303655 0 0.0892348
0.0330663 0 0.100557
0.147738 0 0.115862
0.481529 0.00285344 0.106813
0.877653 0.0760204 0.0778973
0.997681 0.380514 0.27892
0.993042 0.740414 0.665827
0.995315 0.920974 0.894118
0 0 0.0876936
0 0 0.0946975
0.0278477 0 0.102693
0.142077 0 0.114168
0.471153 0.00355535 0.103044
0.867094 0.0784466 0.0770123
0.994598 0.3823 0.280125
0.99266 0.740795 0.666224
0.99527 0.921019 0.894179
0 0.00883497 0.094728
0 0.00848402 0.0984665
0.0182498 0.00671397 0.112688
0.137026 0.00274662 0.114397
0.456626 0.00695811 0.0973678
0.851423 0.0828717 0.0758221
0.989899 0.385077 0.282017
0.99205 0.74136 0.66685
0.995224 0.921096 0.89427
0 0.101488 0.0964218
0 0.10164 0.0972305
0 0.101457 0.0980697
0.0995804 0.0995804 0.0995804
0.427482 0.081178 0.0754253
0.801953 0.1178 0.0745251
0.974807 0.39501 0.288487
0.990127 0.743221 0.668833
0.995056 0.921309 0.89453
0.00262455 0.365759 0.0473182
0.00303655 0.362966 0.0471046
0.00370794 0.358831 0.0468299
0.00747692 0.34728 0.0461128
0.319356 0.355123 0.0549172
0.780926 0.2822 0.0848707
0.946975 0.442084 0.31194
0.983276 0.749783 0.675746
0.994492 0.922026 0.895415
0.0674296 0.689265 0.0453803
0.0691386 0.685863 0.0467842
0.0717479 0.680888 0.0489662
0.0801099 0.666728 0.0560464
0.112535 0.636484 0.0803235
0.652186 0.721477 0.171313
0.951934 0.595102 0.378256
0.977691 0.774182 0.694774
0.992248 0.924544 0.898558
0.365148 0.879072 0.325017
0.366491 0.87808 0.32636
0.368551 0.876616 0.328405
0.374975 0.872175 0.334813
0.394812 0.860029 0.354696
0.455604 0.838697 0.412268
0.871672 0.919951 0.549584
0.982284 0.845411 0.744137
0.99173 0.932845 0.906081
0.730602 0.949813 0.705547
0.730892 0.949722 0.705867
0.731334 0.949554 0.70634
0.732738 0.949065 0.707851
0.737163 0.947601 0.712581
0.750423 0.943832 0.726772
0.787091 0.938918 0.764446
0.958404 0.976745 0.836896
0.994339 0.955917 0.925139
0.917739 0.983459 0.909087
0.917784 0.983444 0.909117
0.91783 0.983444 0.909178
0.918013 0.983413 0.909377
0.918563 0.983322 0.909972
0.920287 0.983063 0.911849
0.925399 0.982467 0.917464
0.939086 0.982422 0.93193
0.98967 0.994492 0.957732
0 0 0.374762
0 0.000106813 0.374151
0.0184787 0.000457771 0.377768
0.130632 0.00112917 0.3935
0.485939 0.00357061 0.385733
0.924346 0.0883192 0.241581
1 0.391287 0.329168
0.9935 0.742947 0.673426
0.995315 0.921309 0.894881
0 0.000137331 0.371283
0 0.000503548 0.370047
0.0106813 0.000961318 0.371786
0.12195 0.00173953 0.388037
0.476387 0.00418097 0.381018
0.914336 0.090547 0.239551
1 0.392935 0.330068
0.993103 0.743313 0.673793
0.995285 0.921355 0.894942
0 0.000762951 0.364858
0 0.00122072 0.363043
0 0.00190738 0.361883
0.108659 0.00280766 0.379187
0.461967 0.00520333 0.373907
0.899489 0.0940719 0.236637
0.99971 0.395499 0.331441
0.992508 0.743862 0.674357
0.995239 0.921416 0.895018
0 0.0493324 0.354513
0 0.0489967 0.352361
0 0.0485695 0.34902
0.0673533 0.0463722 0.366491
0.422599 0.0368353 0.355871
0.854093 0.112367 0.228717
0.985275 0.404196 0.336065
0.9906 0.745663 0.676143
0.995071 0.92163 0.895277
0.00425727 0.337362 0.321752
0.00477607 0.33521 0.320363
0.00561532 0.33196 0.318273
0.00956741 0.322118 0.31194
0.295689 0.295689 0.295689
0.715404 0.274067 0.224674
0.930098 0.450492 0.35874
0.983978 0.751919 0.682353
0.994507 0.922347 0.896132
0.0814832 0.697398 0.148867
0.083238 0.694331 0.149752
0.0859083 0.689815 0.151141
0.0944686 0.676814 0.155795
0.127733 0.645212 0.17435
0.634409 0.678248 0.301335
0.921553 0.598047 0.419181
0.971557 0.776852 0.702693
0.992309 0.924819 0.899184
0.378286 0.866773 0.338354
0.379599 0.86595 0.339666
0.381582 0.864713 0.34165
0.387778 0.861021 0.34786
0.406928 0.850965 0.367163
0.465858 0.833295 0.42359
0.867185 0.910338 0.559915
0.979294 0.846021 0.74815
0.991165 0.933165 0.906905
0.733486 0.948425 0.708629
0.733761 0.948318 0.708934
0.734203 0.94818 0.709407
0.735592 0.947723 0.710887
0.73991 0.946365 0.715511
0.752926 0.942885 0.729442
0.788922 0.938491 0.766476
0.957916 0.975647 0.838117
0.994095 0.956008 0.925536
0.918105 0.983352 0.909468
0.918135 0.983352 0.909514
0.918196 0.983352 0.909575
0.918364 0.983322 0.909758
0.918914 0.98323 0.910353
0.920623 0.982986 0.91223
0.925704 0.982406 0.917784
0.939284 0.982406 0.932158
0.989639 0.994415 0.95787
0 0.0347906 0.863981
0 0.0365759 0.855161
0 0.039292 0.843
0.0448005 0.0459144 0.844862
0.306828 0.0629129 0.897795
0.976303 0.12192 0.794873
1 0.421973 0.493172
0.997925 0.75021 0.700679
0.995575 0.922286 0.897597
0 0.0367285 0.852583
0 0.0385443 0.844038
0 0.0413367 0.831998
0.0394141 0.0482185 0.831754
0.298985 0.0652781 0.886824
0.967834 0.123857 0.790082
1 0.423377 0.49337
0.997543 0.750546 0.700969
0.995544 0.922332 0.897642
0 0.0397498 0.835874
0 0.0416114 0.827741
0 0.04448 0.816083
0.0315709 0.0517891 0.812482
0.287373 0.0689403 0.870466
0.955169 0.126818 0.78294
1 0.425528 0.493675
0.996979 0.751049 0.701411
0.995483 0.922393 0.897719
0 0.0497902 0.788144
0 0.0517891 0.781292
0 0.0548714 0.771298
0.0100404 0.0636149 0.757504
0.253376 0.0809186 0.821958
0.91696 0.136294 0.761532
1 0.432364 0.494789
0.995163 0.752682 0.702831
0.995315 0.922606 0.897963
0 0.175631 0.74168
0 0.176516 0.736828
0 0.17792 0.729702
0.00408942 0.182879 0.708995
0.171649 0.201419 0.679057
0.786496 0.228412 0.685023
0.983612 0.460578 0.500435
0.989197 0.758114 0.707561
0.994781 0.923293 0.898741
0.11928 0.705425 0.67808
0.121019 0.702724 0.675944
0.123674 0.698695 0.67274
0.132067 0.686641 0.663233
0.162799 0.653727 0.637583
0.592126 0.592126 0.592126
0.849989 0.611765 0.550515
0.961639 0.783597 0.729213
0.992721 0.925643 0.901488
0.412757 0.877958 0.448264
0.413931 0.877211 0.44918
0.415717 0.876081 0.450553
0.421271 0.872663 0.454902
0.438483 0.863172 0.468544
0.49453 0.84239 0.512535
0.855177 0.877592 0.680735
0.963394 0.849561 0.772396
0.9888 0.934325 0.91017
0.742321 0.944533 0.718196
0.742596 0.944457 0.718486
0.743008 0.94435 0.718929
0.744305 0.943999 0.720317
0.748363 0.942946 0.724666
0.760586 0.940307 0.737789
0.794888 0.937163 0.773312
0.956497 0.972152 0.843503
0.993118 0.956344 0.927153
0.919219 0.983078 0.910689
0.919249 0.983063 0.910735
0.91931 0.983063 0.91078
0.919478 0.983032 0.910964
0.920012 0.982956 0.911559
0.921675 0.982742 0.913375
0.92665 0.982254 0.918822
0.939971 0.982361 0.932921
0.989563 0.994156 0.958312
0.090837 0.265049 1
0.0924086 0.26717 1
0.0948501 0.27039 1
0.104051 0.280308 1
0.19205 0.304341 1
0.520821 0.360433 1
1 0.492195 0.988296
1 0.770062 0.783001
0.997192 0.925124 0.907027
0.0925002 0.267353 1
0.0940719 0.269474 1
0.0964981 0.272694 1
0.10547 0.282597 1
0.191608 0.30663 1
0.518669 0.362325 1
1 0.493172 0.986786
1 0.770321 0.783139
0.997162 0.92517 0.907057
0.0950332 0.270878 1
0.0965896 0.272984 1
0.0990158 0.276173 1
0.107713 0.286046 1
0.190997 0.310109 1
0.51545 0.365209 1
1 0.494636 0.984512
1 0.770733 0.783337
0.997116 0.925231 0.907118
0.103075 0.281834 1
0.104631 0.283909 1
0.107027 0.287037 1
0.11516 0.296773 1
0.189502 0.320974 1
0.505943 0.374182 1
1 0.499214 0.977523
1 0.772015 0.783978
0.996963 0.925414 0.907317
0.128985 0.315557 0.992126
0.130541 0.317494 0.989181
0.132906 0.320439 0.984802
0.140475 0.32961 0.971725
0.189059 0.354482 0.953902
0.481086 0.401953 1
1 0.513512 0.957061
1 0.776104 0.786053
0.99646 0.92604 0.907942
0.221668 0.482155 0.937118
0.223102 0.483146 0.935363
0.225284 0.484642 0.932738
0.232105 0.489403 0.924834
0.254063 0.504417 0.902571
0.456825 0.542779 0.837461
0.939986 0.606546 0.876463
0.989136 0.791959 0.793927
0.99472 0.928084 0.910033
0.487938 0.920989 0.900587
0.488792 0.920104 0.89987
0.490105 0.918791 0.898802
0.494209 0.914733 0.895506
0.50695 0.902861 0.885908
0.548867 0.873137 0.862318
0.830915 0.830915 0.830915
0.931701 0.860334 0.834241
0.985016 0.937179 0.919844
0.764523 0.95137 0.773892
0.764752 0.951308 0.77409
0.765087 0.951202 0.77438
0.766171 0.950866 0.775326
0.769558 0.949874 0.778286
0.779782 0.94725 0.787289
0.811368 0.941833 0.81474
0.952789 0.959442 0.900374
0.987366 0.958053 0.936477
0.922621 0.98233 0.914443
0.922652 0.982315 0.914473
0.922698 0.982315 0.914534
0.922866 0.9823 0.914702
0.923354 0.982254 0.915251
0.92491 0.982116 0.916945
0.929549 0.981842 0.922026
0.942214 0.982223 0.935515
0.989334 0.993332 0.960311
0.485328 0.654353 1
0.486091 0.654963 1
0.487266 0.655879 1
0.490959 0.658763 1
0.503334 0.667536 1
0.570733 0.687617 1
0.772076 0.730022 1
1 0.811063 1
1 0.932845 0.934447
0.486152 0.655009 1
0.486915 0.655619 1
0.48809 0.656535 1
0.491768 0.659403 1
0.504067 0.668162 1
0.571054 0.688197 1
0.771908 0.730434 1
1 0.811215 1
1 0.932876 0.934462
0.487404 0.656016 1
0.488167 0.656611 1
0.489342 0.657526 1
0.492988 0.66038 1
0.50518 0.669108 1
0.571527 0.689082 1
0.771649 0.73106 1
1 0.81146 1
1 0.932921 0.934493
0.491341 0.659144 1
0.492103 0.659739 1
0.493248 0.660639 1
0.496849 0.663447 1
0.508705 0.672053 1
0.573037 0.691859 1
0.770871 0.733028 1
1 0.812238 1
1 0.933074 0.934585
0.503594 0.668849 1
0.504311 0.669413 1
0.505409 0.670268 1
0.508843 0.672923 1
0.519875 0.681163 1
0.57792 0.70045 1
0.768643 0.739162 1
1 0.814649 1
1 0.933547 0.934905
0.539498 0.696773 0.99707
0.540124 0.697261 0.996628
0.54107 0.697978 0.995972
0.544045 0.700252 0.993942
0.553414 0.707332 0.987915
0.593942 0.725505 0.980423
0.76408 0.757397 1
1 0.822095 0.992172
1 0.935058 0.935897
0.635859 0.791699 0.974746
0.636271 0.791913 0.974533
0.636896 0.792248 0.974197
0.638849 0.793301 0.973159
0.644984 0.796597 0.970016
0.663798 0.806592 0.961379
0.780377 0.827497 0.922744
0.97583 0.86595 0.95436
0.995148 0.940826 0.939666
0.806912 0.978408 0.970275
0.80705 0.978302 0.970184
0.807279 0.978134 0.970047
0.807965 0.9776 0.969635
0.810132 0.975967 0.968322
0.8168 0.971283 0.964614
0.838376 0.95993 0.95584
0.946166 0.946166 0.946166
0.978164 0.962539 0.956054
0.931075 0.985183 0.93315
0.931105 0.985168 0.933165
0.931151 0.985168 0.933196
0.931273 0.985153 0.933318
0.93167 0.985092 0.933684
0.932952 0.984939 0.934844
0.936751 0.984588 0.938354
0.948486 0.983948 0.94902
0.988815 0.990158 0.978225
0.814817 0.886671 1
0.814939 0.886763 1
0.815137 0.886885 1
0.815717 0.887266 1
0.817594 0.888457 1
0.823667 0.892103 1
0.851347 0.900313 1
0.925551 0.917388 1
1 0.948714 1
0.814954 0.886763 1
0.815076 0.886839 1
0.815259 0.886961 1
0.815854 0.887343 1
0.817716 0.888548 1
0.823774 0.89218 1
0.851408 0.900374 1
0.925551 0.917433 1
1 0.94873 1
0.815152 0.8869 1
0.815274 0.886976 1
0.815457 0.887098 1
0.816052 0.88748 1
0.817914 0.88867 1
0.823957 0.892302 1
0.851499 0.900496 1
0.925536 0.91751 1
1 0.94876 1
0.815793 0.887312 1
0.815915 0.887388 1
0.816098 0.88751 1
0.816678 0.887892 1
0.818524 0.889082 1
0.824521 0.892683 1
0.851804 0.900847 1
0.925521 0.917739 1
1 0.948852 1
0.817792 0.888624 1
0.817914 0.888701 1
0.818097 0.888823 1
0.818662 0.889189 1
0.820478 0.890349 1
0.826291 0.893904 1
0.85275 0.901961 1
0.92546 0.918502 1
1 0.949126 1
0.823957 0.892638 1
0.824063 0.892714 1
0.824231 0.892821 1
0.824765 0.893172 1
0.826474 0.89427 1
0.83183 0.897627 1
0.855711 0.905394 0.999832
0.925353 0.920851 1
1 0.949996 1
0.841398 0.90396 0.995254
0.841489 0.904021 0.995209
0.841627 0.904112 0.995163
0.842069 0.904402 0.99498
0.843473 0.905303 0.99443
0.847852 0.90811 0.992828
0.864729 0.915206 0.991348
0.925673 0.927733 1
1 0.952682 0.998901
0.88368 0.937575 0.990875
0.883741 0.937606 0.99086
0.883818 0.937652 0.990829
0.884077 0.937774 0.990753
0.884901 0.938186 0.990494
0.88748 0.939483 0.989731
0.895293 0.943343 0.987625
0.937499 0.950927 0.973419
0.992096 0.967208 0.987182
0.946807 0.994858 0.992569
0.946838 0.994842 0.992569
0.946853 0.994827 0.992554
0.946929 0.994797 0.992523
0.947188 0.994659 0.992416
0.947982 0.994263 0.992111
0.950423 0.993118 0.991272
0.958389 0.990478 0.989395
0.988479 0.988479 0.988479
