OpenDRT/OpenDRT_v1.0.0_Umbra__filmlight-egamut2-tloge_to_display-p3.cube
LUT_3D_SIZE 48
0.010169 0.0100489 0.00986772
0.0117429 0.0100564 0.00988636
0.013274 0.00990258 0.00975066
0.0147143 0.00971391 0.00958653
0.01611 0.0095645 0.00946742
0.017778 0.00949632 0.00944164
0.0198855 0.00961248 0.00961615
0.0226457 0.010006 0.0100892
0.0263859 0.0106905 0.0108884
0.0315303 0.0115865 0.0119613
0.0385601 0.0125573 0.0132003
0.0479803 0.0134483 0.0144324
0.0603003 0.014147 0.0153517
0.0760053 0.0146796 0.0153757
0.0954081 0.0152211 0.0133386
0.119128 0.0160725 0.00849992
0.147962 0.0175042 0.004448
0.183474 0.0198277 0.0022981
0.227486 0.0234284 0
0.2818 0.0289802 0
0.343414 0.0367932 0
0.408671 0.0472849 0
0.473472 0.0608209 0
0.534611 0.0776723 0
0.590101 0.0979065 0
0.638906 0.121287 0
0.680746 0.14742 0
0.716172 0.176357 0
0.74668 0.209418 0
0.774517 0.249463 0
0.801999 0.299717 0
0.83075 0.361414 0
0.86141 0.432383 0
0.879698 0.500218 0.0962266
0.895619 0.564655 0.269395
0.910718 0.623845 0.380644
0.924746 0.676447 0.465356
0.937465 0.722063 0.533562
0.948728 0.760893 0.58921
0.958496 0.79348 0.634685
0.966818 0.820537 0.671779
0.973809 0.84282 0.701956
0.979616 0.861059 0.726444
0.984396 0.87592 0.746273
0.988303 0.88799 0.762304
0.991482 0.897768 0.775249
0.994056 0.905677 0.785693
0.996135 0.912065 0.794115
0.0102544 0.0115504 0.0101541
0.0119514 0.0117544 0.0103072
0.0135785 0.0117207 0.0102399
0.0151324 0.0115558 0.0100617
0.016638 0.0113675 0.00988047
0.0184146 0.0112022 0.0097481
0.0206063 0.0111763 0.0097881
0.0234008 0.0114324 0.0101362
0.0271178 0.0120461 0.0108462
0.0321963 0.0129715 0.0118559
0.0391419 0.0140675 0.0130287
0.0484806 0.0151466 0.0141723
0.060739 0.0160281 0.0149707
0.0764504 0.0166523 0.0148224
0.0961026 0.0171776 0.0125279
0.119956 0.0178911 0.00768156
0.14918 0.019157 0.0040235
0.184814 0.021354 0.00204993
0.228624 0.0248218 0
0.282438 0.030182 0
0.344043 0.0378797 0
0.409269 0.0482536 0
0.47402 0.0616671 0
0.535097 0.0783967 0
0.590521 0.098518 0
0.639262 0.121802 0
0.681042 0.147859 0
0.716412 0.176737 0
0.74687 0.209751 0
0.774659 0.249746 0
0.8021 0.299947 0
0.830818 0.361588 0
0.861454 0.432506 0
0.879734 0.500302 0.0961613
0.895644 0.56471 0.269367
0.910735 0.62388 0.38063
0.924757 0.676469 0.465348
0.937472 0.722077 0.533558
0.948733 0.760902 0.589208
0.958499 0.793485 0.634684
0.96682 0.820541 0.671779
0.97381 0.842822 0.701956
0.979616 0.86106 0.726444
0.984396 0.875921 0.746273
0.988304 0.88799 0.762304
0.991482 0.897769 0.775248
0.994056 0.905677 0.785693
0.996135 0.912065 0.794116
0.0102731 0.0130362 0.010421
0.0120975 0.0133033 0.0105621
0.0138577 0.0134495 0.0106381
0.0155112 0.0133963 0.0105263
0.0171217 0.0132315 0.0103304
0.0190179 0.0130148 0.0101173
0.0213209 0.0128633 0.0100218
0.0241835 0.0129583 0.0102226
0.0279049 0.0134472 0.0108213
0.032932 0.0143418 0.011761
0.0397966 0.0155136 0.0128728
0.0490487 0.0167551 0.0139338
0.06123 0.0178342 0.0146134
0.0768835 0.0185983 0.0142875
0.0966071 0.019144 0.0117498
0.120588 0.0197453 0.0069974
0.149672 0.0208598 0.00369183
0.185471 0.0229289 0.00184138
0.229445 0.0263237 0
0.283072 0.0314154 0
0.344669 0.0389871 0
0.409865 0.0492351 0
0.474567 0.062521 0
0.535583 0.0791255 0
0.590941 0.0991322 0
0.639617 0.122319 0
0.681337 0.1483 0
0.716652 0.177118 0
0.74706 0.210083 0
0.774801 0.250028 0
0.802201 0.300177 0
0.830886 0.361762 0
0.861499 0.432628 0
0.87977 0.500386 0.0960946
0.895668 0.564765 0.269338
0.910751 0.623915 0.380617
0.924768 0.676491 0.465341
0.93748 0.722091 0.533554
0.948738 0.76091 0.589205
0.958502 0.793491 0.634682
0.966822 0.820544 0.671778
0.973812 0.842824 0.701955
0.979617 0.861061 0.726443
0.984397 0.875922 0.746273
0.988304 0.887991 0.762303
0.991482 0.897769 0.775248
0.994056 0.905677 0.785693
0.996136 0.912065 0.794115
0.0102408 0.0144949 0.0106898
0.0121799 0.0148063 0.0107577
0.0140955 0.0150335 0.0108867
0.0158873 0.0151197 0.0108946
0.0175944 0.0150539 0.0107541
0.0195998 0.014862 0.0105141
0.022021 0.014637 0.0103056
0.0249744 0.0145798 0.0103472
0.0287244 0.0149096 0.0108085
0.0337136 0.0157185 0.0116639
0.0404986 0.0169138 0.0127157
0.049659 0.0182803 0.0136993
0.061756 0.0195496 0.0142595
0.0773446 0.0204906 0.0137458
0.0970293 0.0210986 0.0109538
0.121198 0.0216469 0.00636171
0.15034 0.022594 0.00337503
0.186192 0.0244917 0.00161998
0.230196 0.0277385 0
0.283108 0.0327691 0
0.345291 0.0401149 0
0.410459 0.0502297 0
0.475113 0.0633828 0
0.536067 0.0798588 0
0.59136 0.0997491 0
0.639972 0.122838 0
0.681632 0.148741 0
0.716892 0.1775 0
0.747249 0.210416 0
0.774944 0.250314 0
0.802302 0.300407 0
0.830955 0.361936 0
0.861544 0.43275 0
0.879805 0.50047 0.0960288
0.895693 0.56482 0.26931
0.910768 0.62395 0.380603
0.924779 0.676513 0.465334
0.937487 0.722105 0.53355
0.948742 0.760919 0.589202
0.958505 0.793496 0.634681
0.966824 0.820547 0.671777
0.973813 0.842826 0.701955
0.979618 0.861063 0.726443
0.984397 0.875923 0.746272
0.988304 0.887991 0.762303
0.991482 0.897769 0.775248
0.994056 0.905677 0.785693
0.996136 0.912065 0.794115
0.0101776 0.0159759 0.0109909
0.0122237 0.0163344 0.0109538
0.0142631 0.016601 0.0110541
0.0162343 0.0167678 0.011143
0.0180864 0.0168145 0.0111043
0.0202049 0.0167197 0.0109063
0.0227395 0.0165004 0.0106316
0.0257957 0.0163321 0.0105164
0.0295963 0.0164907 0.0108118
0.0345626 0.0171672 0.0115592
0.0412696 0.0183346 0.0125466
0.0503314 0.0197865 0.0134564
0.0623347 0.0212295 0.0138951
0.0778492 0.0223693 0.0131785
0.0974871 0.0230945 0.010136
0.121807 0.0236369 0.00575838
0.151014 0.0244334 0.00307146
0.186927 0.0261533 0.00138345
0.230963 0.0292378 0
0.283744 0.0341045 0
0.345125 0.0414244 0
0.411069 0.051269 0
0.475674 0.0642796 0
0.536566 0.08062 0
0.591792 0.100388 0
0.640337 0.123374 0
0.681936 0.149197 0
0.71714 0.177894 0
0.747444 0.21076 0
0.775092 0.250609 0
0.802407 0.300644 0
0.831025 0.362116 0
0.86159 0.432877 0
0.879842 0.500557 0.0959621
0.895719 0.564876 0.26928
0.910785 0.623986 0.380589
0.92479 0.676536 0.465326
0.937494 0.722119 0.533545
0.948747 0.760928 0.5892
0.958508 0.793502 0.634679
0.966826 0.820551 0.671776
0.973814 0.842828 0.701954
0.979619 0.861064 0.726443
0.984397 0.875924 0.746272
0.988305 0.887992 0.762303
0.991482 0.897769 0.775248
0.994057 0.905677 0.785693
0.996136 0.912065 0.794115
0.0100746 0.0178213 0.0114186
0.0122455 0.0182342 0.0112325
0.0144027 0.0185435 0.0112352
0.0165492 0.0187605 0.011327
0.0186368 0.018888 0.0113889
0.0209737 0.0189207 0.0113106
0.0236634 0.0188032 0.0110463
0.0268462 0.0185982 0.01078
0.0307276 0.0185787 0.0108472
0.0356874 0.0190546 0.0114212
0.0423056 0.0201221 0.0123152
0.0512396 0.0216187 0.0131396
0.0631157 0.0232364 0.0134304
0.0785266 0.0246241 0.0124483
0.0980962 0.0255504 0.00912506
0.12255 0.0261551 0.00507229
0.151842 0.026807 0.00271814
0.187836 0.0283112 0.00105477
0.231918 0.0311824 0
0.284684 0.0358524 0
0.345913 0.0429457 0
0.410774 0.0527633 0
0.476379 0.0654217 0
0.537194 0.0815863 0
0.592335 0.101197 0
0.640798 0.124053 0
0.682318 0.149773 0
0.717451 0.178392 0
0.74769 0.211193 0
0.775278 0.250981 0
0.802538 0.300944 0
0.831114 0.362342 0
0.861648 0.433035 0
0.879889 0.500667 0.0958762
0.895751 0.564947 0.269242
0.910807 0.624031 0.380572
0.924805 0.676565 0.465316
0.937504 0.722137 0.53354
0.948753 0.760939 0.589197
0.958511 0.793509 0.634677
0.966828 0.820555 0.671775
0.973816 0.842831 0.701954
0.97962 0.861066 0.726442
0.984398 0.875925 0.746272
0.988305 0.887993 0.762303
0.991483 0.89777 0.775248
0.994057 0.905677 0.785693
0.996136 0.912065 0.794115
0.00991098 0.0202178 0.0120566
0.0122449 0.0206842 0.0116804
0.014527 0.0210466 0.011511
0.0168139 0.0213137 0.0115014
0.0191367 0.0214957 0.0115724
0.0218451 0.0216136 0.0116279
0.0248751 0.0216356 0.0114991
0.0282601 0.0215231 0.0111668
0.0322569 0.0214011 0.0109552
0.0372351 0.0216287 0.0112396
0.0437567 0.0224905 0.0119712
0.0525223 0.0239491 0.0126894
0.0642193 0.025713 0.0127996
0.0794793 0.0273867 0.0114643
0.0989446 0.0286194 0.00787037
0.12338 0.0293778 0.00429059
0.152891 0.0299594 0.00229801
0.188997 0.0312149 0.000404754
0.233145 0.033803 0
0.28592 0.0382019 0
0.346932 0.0449815 0
0.411751 0.0545259 0
0.475946 0.0671344 0
0.536372 0.0830929 0
0.593042 0.10226 0
0.641397 0.124942 0
0.682818 0.150526 0
0.717858 0.179042 0
0.748011 0.211759 0
0.77552 0.251466 0
0.802709 0.301334 0
0.83123 0.362637 0
0.861724 0.433243 0
0.87995 0.500809 0.0957643
0.895792 0.56504 0.269194
0.910835 0.624091 0.380549
0.924824 0.676602 0.465304
0.937516 0.722161 0.533533
0.948761 0.760954 0.589192
0.958516 0.793518 0.634675
0.966831 0.820561 0.671773
0.973818 0.842834 0.701952
0.979621 0.861068 0.726441
0.984399 0.875926 0.746271
0.988306 0.887994 0.762303
0.991483 0.89777 0.775248
0.994057 0.905678 0.785693
0.996136 0.912065 0.794115
0.00962195 0.0233604 0.0129931
0.0122035 0.0238673 0.0124056
0.0146413 0.0242829 0.0120033
0.0170503 0.0246079 0.0117863
0.0195348 0.02485 0.0117208
0.0225953 0.0250322 0.0117663
0.026212 0.025128 0.0118105
0.0301089 0.0251428 0.0116077
0.0343447 0.0250803 0.0111862
0.0393782 0.0251248 0.0110324
0.0458031 0.025685 0.0114419
0.0543541 0.0269671 0.0119984
0.0657996 0.028788 0.0118939
0.0808373 0.0307393 0.0101173
0.100142 0.0323718 0.00639981
0.124485 0.0334431 0.00344823
0.154216 0.0340898 0.00180015
0.190468 0.0351099 0
0.234713 0.0373445 0
0.287507 0.0413712 0
0.348251 0.0477253 0
0.413015 0.0568793 0
0.477115 0.0691311 0
0.537415 0.0847658 0
0.592015 0.103894 0
0.642179 0.126109 0
0.683467 0.151514 0
0.718387 0.179893 0
0.748429 0.212498 0
0.775837 0.2521 0
0.802936 0.301851 0
0.831381 0.363022 0
0.861823 0.433513 0
0.880029 0.500996 0.0956194
0.895847 0.565161 0.26913
0.910872 0.624168 0.380519
0.924848 0.676651 0.465288
0.937532 0.722192 0.533523
0.948771 0.760973 0.589187
0.958523 0.79353 0.634672
0.966835 0.820568 0.671771
0.97382 0.842839 0.701951
0.979623 0.861071 0.726441
0.9844 0.875928 0.746271
0.988306 0.887995 0.762303
0.991483 0.897771 0.775248
0.994057 0.905678 0.785692
0.996136 0.912066 0.794115
0.00901938 0.0275196 0.0143088
0.0120255 0.0280455 0.0135139
0.0147106 0.0285003 0.0128537
0.0172725 0.0288773 0.0123554
0.0198793 0.0291847 0.0120164
0.0231512 0.029452 0.0118158
0.0272931 0.0296201 0.0117983
0.0320884 0.0296634 0.0118106
0.0370705 0.0296745 0.0114729
0.042354 0.0297187 0.0108655
0.0487071 0.0300128 0.0106416
0.0569949 0.0309665 0.0108413
0.0680917 0.0326747 0.010465
0.0828008 0.0348139 0.00825721
0.101855 0.0368801 0.00482301
0.126043 0.0384414 0.00258643
0.155897 0.0393726 0.00117945
0.192323 0.0402747 0
0.236701 0.0421228 0
0.289533 0.0456604 0
0.349954 0.0514484 0
0.414648 0.0600411 0
0.478628 0.071791 0
0.538768 0.0869806 0
0.593191 0.105728 0
0.640948 0.127843 0
0.684314 0.152809 0
0.719076 0.181007 0
0.748974 0.213465 0
0.776249 0.252927 0
0.803231 0.302528 0
0.831578 0.363524 0
0.861952 0.433866 0
0.880132 0.501238 0.0954301
0.895919 0.565319 0.269047
0.91092 0.624269 0.380479
0.92488 0.676715 0.465267
0.937552 0.722232 0.533511
0.948785 0.760998 0.58918
0.958531 0.793545 0.634667
0.966841 0.820578 0.671768
0.973824 0.842845 0.70195
0.979625 0.861074 0.72644
0.984401 0.87593 0.746271
0.988307 0.887996 0.762302
0.991484 0.897772 0.775248
0.994058 0.905679 0.785692
0.996136 0.912066 0.794115
0.0077531 0.0330454 0.0160521
0.0114121 0.0335693 0.015068
0.0145581 0.034041 0.0141626
0.0173953 0.0344517 0.0133637
0.0201745 0.0348092 0.0126756
0.0235999 0.0351622 0.0120274
0.0280211 0.0354514 0.01155
0.0335791 0.0355679 0.0113871
0.0398986 0.0355083 0.0113148
0.0462432 0.0355118 0.0106706
0.0528172 0.0357217 0.00954168
0.0608302 0.0363362 0.00878899
0.0714564 0.0377207 0.00797748
0.0856807 0.0398482 0.00581111
0.104344 0.0422708 0.00330321
0.12827 0.0444312 0.00172895
0.158078 0.0459089 0
0.194663 0.0469661 0
0.239206 0.0485086 0
0.292103 0.0514624 0
0.352143 0.0565308 0
0.416758 0.0643217 0
0.480583 0.0753526 0
0.540522 0.0899245 0
0.594718 0.108152 0
0.642246 0.129851 0
0.682894 0.154631 0
0.719974 0.182467 0
0.749683 0.21473 0
0.776786 0.254007 0
0.803617 0.303412 0
0.831838 0.364188 0
0.862121 0.434326 0
0.880267 0.501555 0.0951834
0.896012 0.565525 0.268938
0.910983 0.624401 0.380429
0.924921 0.676798 0.465239
0.93758 0.722284 0.533495
0.948802 0.761031 0.589171
0.958543 0.793566 0.634662
0.966848 0.82059 0.671765
0.973828 0.842853 0.701948
0.979628 0.861079 0.726439
0.984403 0.875933 0.74627
0.988308 0.887998 0.762302
0.991485 0.897773 0.775248
0.994058 0.90568 0.785692
0.996136 0.912066 0.794115
0.005788 0.0403591 0.0182174
0.00978024 0.0408688 0.0170587
0.0136784 0.0413389 0.0159324
0.0170712 0.0417667 0.0148518
0.0202133 0.0421489 0.0138112
0.0239054 0.0425569 0.0126288
0.0285367 0.0429595 0.0113626
0.0344608 0.0432457 0.010285
0.0418607 0.0432528 0.0097607
0.0501497 0.043011 0.00945124
0.0582111 0.0429871 0.00795923
0.0663681 0.0434178 0.00560162
0.0764429 0.0444121 0.00426987
0.0899642 0.0462558 0.00319191
0.108017 0.0488086 0.00194846
0.131505 0.0515251 0.0007615
0.16102 0.0537322 0
0.197664 0.0553383 0
0.242355 0.0568595 0
0.295337 0.0592482 0
0.355253 0.0634431 0
0.419473 0.0701539 0
0.483107 0.0801576 0
0.542791 0.0938559 0
0.596698 0.111369 0
0.643932 0.132501 0
0.6843 0.156852 0
0.718389 0.184383 0
0.750607 0.216386 0
0.777485 0.255419 0
0.804119 0.304565 0
0.832182 0.365069 0
0.862341 0.434926 0
0.880443 0.501969 0.0948614
0.896133 0.565794 0.268797
0.911065 0.624573 0.380362
0.924975 0.676907 0.465203
0.937615 0.722352 0.533475
0.948825 0.761074 0.589158
0.958557 0.793592 0.634654
0.966857 0.820607 0.671761
0.973834 0.842863 0.701945
0.979631 0.861085 0.726437
0.984405 0.875937 0.746269
0.98831 0.888 0.762301
0.991485 0.897775 0.775247
0.994058 0.90568 0.785692
0.996137 0.912067 0.794115
0.0039583 0.0498016 0.0206745
0.00706057 0.0504371 0.0193957
0.0112198 0.0509003 0.0180557
0.0154523 0.0513301 0.0167131
0.0193371 0.0517371 0.0153266
0.0236499 0.052166 0.01361
0.0287247 0.052632 0.011399
0.0349497 0.0530696 0.0086631
0.0428258 0.0533167 0.00602848
0.0526127 0.0531341 0.00480593
0.0634543 0.0525944 0.0043329
0.0736932 0.0525033 0.00278024
0.0837896 0.0532119 0.00159161
0.0964173 0.0546471 0.00115412
0.113522 0.0569945 0.000567895
0.136119 0.0599496 0
0.165167 0.062927 0
0.201651 0.065428 0
0.246363 0.0674094 0
0.299392 0.0694926 0
0.359258 0.0727308 0
0.422949 0.0781319 0
0.48636 0.0866867 0
0.545718 0.0991393 0
0.599261 0.115655 0
0.64612 0.136012 0
0.686127 0.159781 0
0.71988 0.186877 0
0.748888 0.218408 0
0.778394 0.257265 0
0.804773 0.306069 0
0.832632 0.366218 0
0.862636 0.435732 0
0.880673 0.502508 0.0944417
0.896291 0.566145 0.268612
0.911171 0.624797 0.380275
0.925046 0.677049 0.465156
0.937661 0.722441 0.533447
0.948855 0.761129 0.589142
0.958576 0.793627 0.634645
0.966869 0.820629 0.671755
0.973842 0.842876 0.701942
0.979636 0.861094 0.726435
0.984408 0.875942 0.746267
0.988311 0.888003 0.7623
0.991487 0.897777 0.775247
0.994059 0.905682 0.785692
0.996137 0.912068 0.794115
0.00277375 0.0616078 0.0231669
0.00466469 0.0626793 0.0218432
0.00760385 0.063297 0.0203156
0.0116177 0.0637326 0.0186877
0.0162484 0.0641515 0.0169431
0.0217099 0.0646356 0.0146101
0.0278538 0.0651236 0.0113544
0.0348101 0.0656405 0.00673757
0.0431279 0.0660962 0.00274717
0.0535274 0.0662628 0.00114908
0.0664078 0.065792 0.000727143
0.0805846 0.0648003 0.000707387
0.0935912 0.0645648 0
0.105945 0.0655472 0
0.121645 0.0674607 0
0.143022 0.0703265 0
0.171235 0.0738274 0
0.207196 0.0773088 0
0.251628 0.0802242 0
0.30452 0.082537 0
0.364264 0.0849998 0
0.427464 0.0889754 0
0.490533 0.0955999 0
0.549496 0.106299 0
0.602569 0.121396 0
0.648952 0.140682 0
0.688498 0.163655 0
0.721816 0.190162 0
0.75042 0.221225 0
0.776578 0.259381 0
0.805625 0.308032 0
0.833217 0.367715 0
0.863029 0.436801 0
0.880973 0.503215 0.0939069
0.896498 0.566603 0.268371
0.911311 0.62509 0.380162
0.925138 0.677234 0.465094
0.937721 0.722558 0.533413
0.948893 0.761202 0.589122
0.958601 0.793672 0.634633
0.966885 0.820657 0.671748
0.973851 0.842894 0.701937
0.979642 0.861105 0.726432
0.984412 0.875949 0.746266
0.988314 0.888008 0.762299
0.991488 0.897779 0.775246
0.99406 0.905683 0.785691
0.996138 0.912069 0.794114
0.00212539 0.0766797 0.0255602
0.00325311 0.0777867 0.0239582
0.0049487 0.0788932 0.0222558
0.00742248 0.0796604 0.0203368
0.0109409 0.0801037 0.0181179
0.0165468 0.0806239 0.0150144
0.0241843 0.081239 0.0103212
0.0328781 0.0817874 0.00486684
0.0423709 0.0823531 0.00149934
0.0533781 0.0827493 0
0.0668184 0.0825446 0
0.0836357 0.0816578 0
0.102224 0.080089 0
0.118801 0.0796508 0
0.134085 0.0811116 0
0.153667 0.0836673 0
0.180368 0.087217 0
0.215234 0.0913863 0
0.258869 0.0953922 0
0.311195 0.0985166 0
0.370559 0.100734 0
0.433454 0.10324 0
0.495857 0.107772 0
0.554354 0.116052 0
0.606843 0.129154 0
0.652611 0.14692 0
0.691567 0.168796 0
0.724327 0.194496 0
0.75241 0.224924 0
0.778088 0.262505 0
0.803759 0.310181 0
0.83398 0.369667 0
0.86354 0.438196 0
0.881371 0.504184 0.093397
0.896768 0.567201 0.268055
0.911493 0.625472 0.380014
0.925259 0.677476 0.465014
0.9378 0.722709 0.533367
0.948944 0.761297 0.589095
0.958633 0.793731 0.634616
0.966905 0.820693 0.671738
0.973864 0.842917 0.701931
0.97965 0.861119 0.726429
0.984417 0.875958 0.746264
0.988317 0.888013 0.762298
0.99149 0.897783 0.775245
0.994061 0.905685 0.785691
0.996139 0.91207 0.794114
0.00181655 0.095886 0.0274107
0.00256121 0.0970187 0.0253724
0.00357772 0.0981605 0.0231621
0.00497573 0.0993028 0.0207205
0.00696156 0.100455 0.0178802
0.0104134 0.101032 0.0136541
0.0167575 0.101727 0.00800317
0.026736 0.10254 0.00318938
0.0388264 0.103157 0.000558384
0.0516082 0.103597 0
0.0658366 0.103519 0
0.0833996 0.103206 0
0.105462 0.10193 0
0.129963 0.0996171 0
0.151333 0.098987 0
0.170233 0.101095 0
0.194471 0.10441 0
0.227275 0.108682 0
0.269286 0.113429 0
0.320295 0.117578 0
0.378688 0.120201 0
0.440953 0.12167 0
0.502704 0.124058 0
0.56057 0.129363 0
0.612351 0.139705 0
0.65734 0.155326 0
0.695531 0.175644 0
0.727576 0.20023 0
0.754989 0.22979 0
0.780048 0.266594 0
0.805175 0.313488 0
0.832129 0.371748 0
0.864208 0.440012 0
0.88189 0.505448 0.0927324
0.897127 0.568023 0.26776
0.911731 0.62597 0.379821
0.925416 0.677791 0.464909
0.937902 0.722907 0.533306
0.94901 0.761421 0.589059
0.958676 0.793808 0.634596
0.966932 0.820741 0.671725
0.973881 0.842946 0.701924
0.979661 0.861137 0.726424
0.984424 0.875969 0.746261
0.988321 0.88802 0.762296
0.991493 0.897787 0.775244
0.994063 0.905688 0.78569
0.99614 0.912072 0.794114
0.0017515 0.120348 0.0278161
0.00231189 0.121511 0.0250209
0.00301069 0.122671 0.0219108
0.00389291 0.123813 0.0184413
0.00505228 0.124939 0.0145687
0.00698481 0.126224 0.00983561
0.0105608 0.127658 0.00525524
0.01745 0.128675 0.00200535
0.0296463 0.129779 0
0.0459323 0.130359 0
0.0627722 0.130152 0
0.0814505 0.130053 0
0.104369 0.129675 0
0.133349 0.127981 0
0.16574 0.124742 0
0.193321 0.123901 0
0.216477 0.126828 0
0.24582 0.130899 0
0.284824 0.135655 0
0.333315 0.140393 0
0.389685 0.143684 0
0.45057 0.144765 0
0.511466 0.145039 0
0.568489 0.14744 0
0.619416 0.154097 0
0.663443 0.166735 0
0.700654 0.184838 0
0.731772 0.207839 0
0.758324 0.2362 0
0.782588 0.271951 0
0.807014 0.317803 0
0.8334 0.375025 0
0.862441 0.441934 0
0.882567 0.507095 0.0918659
0.897597 0.569116 0.267429
0.912046 0.626651 0.37963
0.925622 0.678203 0.464773
0.938036 0.723166 0.533228
0.949097 0.761582 0.589014
0.95873 0.793909 0.634568
0.966967 0.820804 0.671709
0.973903 0.842985 0.701913
0.979675 0.861161 0.726418
0.984432 0.875984 0.746257
0.988327 0.888029 0.762294
0.991496 0.897793 0.775243
0.994065 0.905692 0.785689
0.996141 0.912074 0.794113
0.00193503 0.151387 0.0247958
0.00241158 0.152521 0.0207661
0.00296535 0.15359 0.0165775
0.0036157 0.15457 0.012595
0.00441121 0.155494 0.00910792
0.00563957 0.156579 0.00583786
0.0077323 0.157938 0.00307571
0.0115936 0.159669 0
0.0192271 0.161752 0
0.0336349 0.163662 0
0.0546583 0.163935 0
0.0768949 0.163736 0
0.101261 0.163688 0
0.131114 0.163339 0
0.16913 0.161237 0
0.211695 0.156915 0
0.246835 0.155864 0
0.274512 0.159652 0
0.308595 0.164152 0
0.352654 0.168602 0
0.40534 0.172056 0
0.46348 0.173054 0
0.522649 0.171741 0
0.578562 0.170887 0
0.628444 0.173684 0
0.671286 0.182279 0
0.707268 0.197275 0
0.737188 0.217998 0
0.762627 0.244658 0
0.785874 0.27897 0
0.8094 0.32343 0
0.835056 0.37929 0
0.863557 0.444979 0
0.880901 0.508754 0.0922298
0.898211 0.570541 0.266995
0.912464 0.627581 0.379466
0.925893 0.678759 0.464628
0.938211 0.723503 0.533126
0.949209 0.761793 0.588953
0.958802 0.79404 0.634532
0.967013 0.820885 0.671687
0.973932 0.843035 0.7019
0.979693 0.861192 0.72641
0.984444 0.876003 0.746252
0.988334 0.888041 0.762291
0.9915 0.8978 0.775241
0.994068 0.905696 0.785688
0.996143 0.912077 0.794113
0.00247397 0.189982 0.0162291
0.00291933 0.190865 0.0124021
0.00341432 0.191685 0.00928002
0.00396915 0.192469 0.00684294
0.00461569 0.193259 0.00491276
0.0055584 0.194248 0.00305759
0.00705004 0.195542 0.000769634
0.00956442 0.197241 0
0.0141412 0.19945 0
0.0230928 0.202157 0
0.0402157 0.204793 0
0.0667106 0.205418 0
0.0953499 0.205327 0
0.126758 0.205463 0
0.165391 0.205285 0
0.214772 0.202809 0
0.269497 0.197326 0
0.312842 0.19605 0
0.344561 0.200429 0
0.381867 0.204518 0
0.428427 0.207217 0
0.48172 0.20765 0
0.537544 0.205069 0
0.591403 0.201109 0
0.639898 0.19964 0
0.681329 0.203443 0
0.71578 0.214162 0
0.744187 0.231665 0
0.768183 0.25587 0
0.790117 0.288169 0
0.812493 0.330766 0
0.837211 0.384837 0
0.865014 0.448938 0
0.882039 0.511518 0.0907538
0.896719 0.571952 0.267353
0.913009 0.628793 0.379251
0.926258 0.679542 0.464541
0.938441 0.723953 0.533009
0.949356 0.762068 0.588875
0.958896 0.794211 0.634485
0.967072 0.820991 0.671659
0.973969 0.843101 0.701883
0.979716 0.861233 0.726399
0.984458 0.876028 0.746246
0.988343 0.888057 0.762287
0.991506 0.89781 0.775238
0.994071 0.905702 0.785687
0.996145 0.91208 0.794111
0.00361582 0.236385 0.00752312
0.00407159 0.237083 0.00568087
0.0045664 0.237777 0.00416703
0.0051057 0.238471 0.00284458
0.00571438 0.239189 0.00139621
0.00656779 0.2401 0
0.00784849 0.241299 0
0.00986106 0.242879 0
0.013216 0.244955 0
0.0192182 0.247641 0
0.0306555 0.250897 0
0.0518449 0.254022 0
0.0844166 0.254939 0
0.120051 0.255094 0
0.159699 0.255619 0
0.208882 0.255793 0
0.271506 0.252986 0
0.339128 0.246402 0
0.390058 0.244813 0
0.424505 0.249092 0
0.462581 0.251434 0
0.508253 0.250577 0
0.55833 0.24639 0
0.608372 0.239575 0
0.65444 0.233312 0
0.694132 0.231861 0
0.726698 0.237087 0
0.753207 0.2501 0
0.775377 0.270835 0
0.795604 0.300262 0
0.8165 0.34032 0
0.840015 0.392044 0
0.866915 0.454083 0
0.883525 0.515116 0.0888326
0.897751 0.574344 0.266611
0.911705 0.62998 0.379561
