OpenDRT/OpenDRT_v1.0.0_Default__filmlight-egamut2-tloge_to_rec2100-pq.cube
LUT_3D_SIZE 8
DOMAIN_MIN 0.000000 0.000000 0.000000
DOMAIN_MAX 0.893617 0.893617 0.893617
0.000383699 0.000383695 0.000383699
0.0313457 0.00761946 7.30956e-07
0.136717 0.045199 7.30956e-07
0.330131 0.145883 7.30956e-07
0.509018 0.281974 7.30956e-07
0.631107 0.521982 0.268478
0.679413 0.650411 0.621015
0.692976 0.685413 0.678451
0.0111989 0.0249487 0.00286862
0.0350541 0.0326123 0.00362208
0.138013 0.0692868 0.00317541
0.331822 0.150248 7.30956e-07
0.509479 0.28463 7.30956e-07
0.631172 0.522467 0.267675
0.679419 0.650435 0.621006
0.692976 0.68541 0.678451
0.0654387 0.120159 0.02143
0.0682687 0.124321 0.0224617
0.146662 0.138876 0.0243103
0.334644 0.200215 0.013969
0.51101 0.297727 7.30956e-07
0.63145 0.524454 0.264447
0.679451 0.650527 0.620991
0.692979 0.685416 0.678451
0.197482 0.30769 0.0839244
0.197964 0.308319 0.0841857
0.205202 0.316846 0.0877575
0.351505 0.34043 0.0925655
0.51724 0.377014 0.0795009
0.632501 0.533842 0.251827
0.679589 0.650995 0.620924
0.692989 0.685442 0.678447
0.353613 0.498835 0.178845
0.35405 0.499339 0.179136
0.356031 0.501638 0.180463
0.375832 0.515845 0.188602
0.540985 0.540431 0.195781
0.639826 0.574453 0.233822
0.680135 0.653247 0.620712
0.693031 0.685565 0.678451
0.519318 0.643058 0.413928
0.519702 0.643085 0.413812
0.521246 0.643191 0.41333
0.529204 0.643656 0.413475
0.5624 0.646653 0.414656
0.653238 0.659486 0.525945
0.683793 0.664748 0.621858
0.693211 0.686164 0.67847
0.649624 0.686884 0.632005
0.649643 0.686887 0.632005
0.649701 0.6869 0.631999
0.650011 0.686939 0.63197
0.651903 0.687062 0.632507
0.660515 0.687978 0.635174
0.687614 0.690301 0.659318
0.694341 0.689291 0.679108
0.685203 0.695713 0.680858
0.685209 0.695713 0.680855
0.685212 0.695713 0.680858
0.685228 0.695713 0.680855
0.685303 0.695729 0.680848
0.685837 0.695739 0.681073
0.688264 0.695884 0.682177
0.695184 0.695926 0.688449
0.00538996 0.00249811 0.0268113
0.0361567 0.00946266 0.0372659
0.138704 0.0460087 0.0576121
0.33174 0.146531 7.30956e-07
0.509457 0.281876 7.30956e-07
0.631125 0.52193 0.274387
0.679413 0.650411 0.621056
0.692976 0.68541 0.678451
0.0156857 0.0298318 0.0355468
0.039589 0.039589 0.039589
0.144297 0.0633135 0.0481298
0.334174 0.150652 7.30956e-07
0.509914 0.284505 7.30956e-07
0.631193 0.52242 0.273608
0.679422 0.650435 0.62105
0.692976 0.685413 0.678451
0.0674697 0.121947 0.0609216
0.0705168 0.127243 0.0536877
0.150675 0.144613 0.0258875
0.337123 0.195779 7.30956e-07
0.5114 0.297282 7.30956e-07
0.631468 0.524404 0.270477
0.679451 0.650533 0.621035
0.692982 0.685419 0.678451
0.199434 0.310232 0.0849847
0.199817 0.310731 0.085193
0.206303 0.318636 0.0885225
0.352492 0.342122 0.0933466
0.51761 0.376838 0.0791329
0.632519 0.533791 0.257943
0.679592 0.650998 0.620968
0.692989 0.685442 0.678451
0.354213 0.49953 0.179246
0.35464 0.500026 0.17953
0.356582 0.502276 0.180834
0.375916 0.516407 0.188944
0.541185 0.540708 0.195955
0.639829 0.574404 0.238078
0.680138 0.653247 0.620756
0.693031 0.685565 0.678447
0.519256 0.643109 0.415033
0.51964 0.643134 0.41492
0.521187 0.643243 0.414445
0.529174 0.643699 0.414678
0.562392 0.646678 0.41589
0.653201 0.659412 0.526832
0.68379 0.664744 0.621899
0.693208 0.686167 0.678476
0.649621 0.686887 0.632026
0.649637 0.686894 0.632029
0.649701 0.6869 0.632023
0.650011 0.686945 0.63199
0.651903 0.687062 0.632534
0.660512 0.687978 0.635201
0.687614 0.690295 0.659353
0.694341 0.689291 0.679105
0.685209 0.695713 0.680855
0.685209 0.695713 0.680858
0.685209 0.695713 0.680855
0.685228 0.695713 0.680858
0.685303 0.695729 0.680852
0.685837 0.695742 0.681073
0.68826 0.695884 0.682177
0.695181 0.695926 0.688452
0.0357371 0.0185908 0.124842
0.0492166 0.0218919 0.132804
0.146452 0.0522234 0.149188
0.334333 0.147944 0.167756
0.511351 0.281623 7.30956e-07
0.631208 0.521723 0.296438
0.679425 0.650417 0.62122
0.692976 0.68541 0.678464
0.0406896 0.0371048 0.131653
0.0462463 0.0344086 0.142056
0.150568 0.0548943 0.151816
0.336957 0.150922 0.160532
0.511788 0.28413 7.30956e-07
0.631277 0.522212 0.295772
0.679432 0.650435 0.62122
0.692976 0.685416 0.678464
0.07966 0.129384 0.147989
0.0824254 0.134507 0.148214
0.155095 0.155095 0.155095
0.343926 0.18125 0.123799
0.513428 0.296058 7.30956e-07
0.631551 0.524203 0.293097
0.679457 0.650533 0.621205
0.692979 0.685419 0.67846
0.203719 0.313316 0.185951
0.204343 0.314332 0.182037
0.211267 0.32398 0.167741
0.358071 0.350053 0.0969596
0.51919 0.376295 0.0777316
0.632594 0.533587 0.281654
0.679602 0.650998 0.621138
0.692989 0.685442 0.67846
0.356789 0.502516 0.180971
0.357179 0.502964 0.181232
0.358965 0.505033 0.182433
0.376492 0.518801 0.190395
0.54208 0.541923 0.19671
0.639853 0.574233 0.258368
0.680148 0.653253 0.620921
0.693031 0.685565 0.678457
0.519001 0.643319 0.419438
0.519384 0.643343 0.419324
0.52094 0.64345 0.418876
0.529046 0.643882 0.419436
0.562358 0.646785 0.420775
0.653034 0.659128 0.530353
0.683797 0.664738 0.622072
0.693211 0.686167 0.678483
0.649612 0.686913 0.632107
0.649624 0.686913 0.632104
0.649695 0.686923 0.632098
0.650002 0.686968 0.632071
0.651906 0.687075 0.63263
0.660522 0.687978 0.6353
0.687591 0.690259 0.659486
0.694341 0.689291 0.679117
0.685209 0.695713 0.680861
0.685209 0.695713 0.680861
0.685209 0.695713 0.680861
0.685228 0.695716 0.680861
0.685303 0.695729 0.680855
0.68584 0.695742 0.681077
0.688264 0.695884 0.682184
0.695181 0.695923 0.688459
0.126253 0.0757713 0.318397
0.127486 0.0766126 0.320621
0.153425 0.0848249 0.333221
0.343758 0.160379 0.350824
0.517096 0.280336 0.29178
0.631686 0.520888 0.368458
0.67947 0.650435 0.622049
0.692979 0.685416 0.678502
0.127885 0.0772287 0.321285
0.129553 0.078169 0.324306
0.148339 0.0847653 0.336431
0.344996 0.161144 0.35191
0.517593 0.282317 0.291336
0.631755 0.521384 0.368153
0.679477 0.650457 0.622046
0.692982 0.685416 0.678502
0.140653 0.135561 0.331083
0.140457 0.126708 0.333992
0.144608 0.106085 0.345982
0.349403 0.165693 0.356231
0.519512 0.292427 0.289506
0.632014 0.523382 0.366918
0.679509 0.650552 0.622034
0.692982 0.685423 0.678502
0.227605 0.324793 0.351762
0.228275 0.325955 0.351429
0.23315 0.333199 0.353001
0.360435 0.360435 0.360435
0.524434 0.374145 0.279605
0.633357 0.532955 0.361242
0.679647 0.651016 0.621967
0.692989 0.685445 0.678499
0.366809 0.512084 0.311322
0.367134 0.512494 0.310511
0.368635 0.514346 0.307323
0.381089 0.527152 0.2988
0.543133 0.544145 0.329391
0.640029 0.573641 0.352512
0.680189 0.653263 0.621761
0.693038 0.685572 0.678499
0.517804 0.644338 0.439506
0.518241 0.644353 0.439546
0.520002 0.644417 0.439705
0.52835 0.64478 0.440398
0.562163 0.647311 0.442104
0.652229 0.657756 0.545678
0.683806 0.664704 0.62292
0.693208 0.686167 0.678521
0.649566 0.687014 0.632501
0.649584 0.687014 0.632499
0.649649 0.68702 0.632493
0.649959 0.687069 0.632463
0.651915 0.687153 0.633118
0.660544 0.688013 0.635793
0.687504 0.690099 0.660154
0.694341 0.689288 0.679159
0.685206 0.695719 0.68088
0.685206 0.695719 0.68088
0.685209 0.695723 0.68088
0.685222 0.695723 0.680874
0.685303 0.695736 0.680871
0.68584 0.695749 0.681106
0.688264 0.69589 0.68221
0.695174 0.695916 0.688494
0.259245 0.199421 0.524111
0.259367 0.198609 0.524422
0.260102 0.195577 0.525989
0.288546 0.197145 0.540613
0.530165 0.309385 0.541867
0.634673 0.522594 0.50299
0.679717 0.650567 0.626088
0.692995 0.685436 0.678697
0.260265 0.205257 0.524735
0.260288 0.203928 0.524986
0.260946 0.200472 0.526543
0.288309 0.200577 0.541179
0.530441 0.31226 0.542118
0.634724 0.523129 0.503026
0.679717 0.650592 0.626088
0.692995 0.685436 0.678697
0.265379 0.2348 0.526875
0.265295 0.233049 0.527147
0.265197 0.226185 0.528495
0.288243 0.221626 0.543195
0.531465 0.326525 0.542959
0.634922 0.525295 0.503181
0.67975 0.65069 0.62607
0.692998 0.685439 0.678694
0.300823 0.362506 0.529849
0.300765 0.362094 0.530097
0.300786 0.36091 0.531226
0.311518 0.36653 0.543321
0.53447 0.409502 0.543298
0.635934 0.535696 0.50439
0.679881 0.651142 0.62602
0.693008 0.685465 0.678697
0.39467 0.524723 0.532741
0.394767 0.524849 0.532778
0.395227 0.525434 0.533008
0.400581 0.531624 0.537641
0.541592 0.541592 0.541592
0.640761 0.578502 0.518951
0.680556 0.65342 0.625839
0.693051 0.685591 0.678697
0.513601 0.649182 0.513056
0.514058 0.649189 0.51307
0.515935 0.649216 0.513138
0.525046 0.64936 0.513442
0.565513 0.648943 0.523369
0.648526 0.651672 0.5942
0.683858 0.664644 0.627317
0.693224 0.686187 0.67872
0.649394 0.687497 0.63458
0.649413 0.687497 0.634586
0.649498 0.687497 0.634616
0.649928 0.687497 0.634769
0.651955 0.687526 0.63548
0.660659 0.688153 0.638171
0.687082 0.689327 0.663204
0.694341 0.689288 0.679358
0.685196 0.695755 0.680967
0.685196 0.695755 0.680967
0.685196 0.695755 0.680967
0.685216 0.695759 0.680961
0.68529 0.695772 0.680961
0.685853 0.695762 0.681225
0.688277 0.69589 0.682335
0.695148 0.695861 0.688654
0.441917 0.546915 0.659462
0.442054 0.54693 0.659583
0.442667 0.547 0.66006
0.448091 0.547104 0.662181
0.53447 0.551487 0.660038
0.645079 0.602097 0.648744
0.681183 0.653025 0.64513
0.693074 0.685539 0.679673
0.442094 0.547259 0.659437
0.442228 0.547277 0.659552
0.442835 0.547345 0.660038
0.448227 0.547472 0.662165
0.534611 0.55192 0.659998
0.645091 0.602296 0.648732
0.681189 0.653047 0.645136
0.693074 0.685539 0.679666
0.442804 0.548661 0.659334
0.442932 0.548676 0.659449
0.443517 0.548741 0.659929
0.44874 0.548913 0.662062
0.535189 0.553669 0.659811
0.64513 0.6031 0.648692
0.681208 0.653139 0.645158
0.693077 0.685546 0.679673
0.446271 0.555296 0.658864
0.44639 0.55532 0.658976
0.44691 0.555415 0.659443
0.451415 0.555751 0.661577
0.538122 0.561804 0.658885
0.645316 0.60686 0.648502
0.681302 0.653627 0.645255
0.693087 0.685568 0.679666
0.462432 0.583 0.657253
0.462539 0.583064 0.657356
0.463036 0.58337 0.657766
0.467995 0.585391 0.659677
0.553066 0.592185 0.654461
0.645988 0.621276 0.647718
0.681781 0.656022 0.64589
0.693126 0.685691 0.679673
0.532362 0.654019 0.64917
0.532973 0.653988 0.649158
0.535488 0.653865 0.649109
0.548094 0.653195 0.648796
0.594985 0.649327 0.646635
0.648986 0.648983 0.648986
0.683851 0.667356 0.651579
0.693336 0.686287 0.679698
0.649474 0.689539 0.646626
0.649498 0.689539 0.646632
0.64959 0.689529 0.646657
0.650048 0.689503 0.646779
0.652229 0.689373 0.647363
0.662685 0.688147 0.652158
0.685426 0.686407 0.673989
0.694348 0.689311 0.680405
0.685161 0.695903 0.681447
0.685164 0.695903 0.681453
0.68517 0.695903 0.681453
0.68519 0.695903 0.681466
0.685316 0.695897 0.681524
0.685899 0.695867 0.681817
0.688345 0.695903 0.682935
0.695017 0.695621 0.689409
0.635369 0.660412 0.693715
0.635399 0.660409 0.693715
0.635528 0.660406 0.693709
0.636153 0.660381 0.693689
0.639188 0.66025 0.693597
0.656729 0.662562 0.69127
0.684882 0.676387 0.685555
0.693519 0.686485 0.684401
0.635372 0.660428 0.693715
0.635402 0.660425 0.693709
0.635528 0.660425 0.693705
0.636156 0.660394 0.693689
0.639188 0.660266 0.693591
0.656735 0.662584 0.691263
0.684882 0.676394 0.685555
0.693519 0.686482 0.684401
0.635381 0.66049 0.693709
0.635414 0.660487 0.693702
0.63554 0.660484 0.693699
0.636168 0.660459 0.693679
0.639197 0.660334 0.693591
0.656769 0.662656 0.69124
0.684886 0.676432 0.685552
0.693519 0.686492 0.684404
0.635432 0.660809 0.693676
0.635462 0.660809 0.693673
0.635591 0.660796 0.693673
0.636213 0.660771 0.693653
0.639246 0.660653 0.693558
0.656943 0.663032 0.691142
0.684895 0.676608 0.685542
0.693525 0.686517 0.68441
0.635715 0.662346 0.693522
0.635742 0.662346 0.693522
0.635871 0.66234 0.693516
0.636487 0.662315 0.693499
0.639506 0.662193 0.693388
0.657806 0.664817 0.690647
0.684937 0.677426 0.685491
0.693558 0.686644 0.684449
0.638078 0.669376 0.692671
0.638111 0.669379 0.692671
0.638246 0.669379 0.692658
0.638941 0.669379 0.692603
0.642793 0.669509 0.692168
0.662178 0.671968 0.688335
0.685063 0.680475 0.685303
0.693696 0.68726 0.684666
0.658935 0.68894 0.686028
0.658966 0.68894 0.686028
0.659072 0.688927 0.686025
0.659611 0.688839 0.685999
0.662296 0.688413 0.68586
0.673296 0.686274 0.685002
0.685844 0.685847 0.685847
0.694285 0.690207 0.686355
0.685351 0.696459 0.684491
0.685351 0.696459 0.684494
0.685358 0.696459 0.684494
0.685384 0.696455 0.684504
0.685517 0.696436 0.684562
0.686132 0.696344 0.684808
0.689021 0.695736 0.686436
0.694535 0.694767 0.692027
0.682229 0.688316 0.697499
0.682229 0.688316 0.697499
0.682235 0.688316 0.697499
0.682271 0.688316 0.697499
0.682426 0.688316 0.697479
0.683199 0.688329 0.6974
0.687621 0.689112 0.696416
0.694397 0.692531 0.694535
0.682229 0.688316 0.697499
0.682229 0.688319 0.697502
0.682235 0.688316 0.697499
0.682268 0.688316 0.697499
0.682429 0.688319 0.697479
0.683199 0.688329 0.697397
0.687617 0.689116 0.696416
0.694397 0.692531 0.694535
0.682229 0.688319 0.697499
0.682229 0.688319 0.697499
0.682235 0.688316 0.697499
0.682268 0.688316 0.697492
0.682429 0.688322 0.697479
0.683199 0.688332 0.697393
0.687621 0.689116 0.696413
0.694397 0.692534 0.694538
0.682235 0.688335 0.697495
0.682235 0.688335 0.697499
0.682242 0.688335 0.697495
0.682274 0.688335 0.697492
0.682432 0.688338 0.697479
0.683203 0.688351 0.697397
0.687634 0.689138 0.696409
0.694394 0.692541 0.694535
0.682252 0.68842 0.697485
0.682255 0.688416 0.697485
0.682261 0.688416 0.697482
0.68229 0.688416 0.697479
0.682455 0.68842 0.697462
0.683222 0.688433 0.69738
0.687679 0.68923 0.696373
0.694397 0.692583 0.694535
0.682348 0.688823 0.69742
0.682355 0.688823 0.69742
0.682361 0.688826 0.69742
0.682393 0.688823 0.69742
0.682554 0.688826 0.6974
0.683319 0.688833 0.697314
0.687923 0.689676 0.696216
0.69441 0.692779 0.694522
0.683061 0.690666 0.697067
0.683061 0.690666 0.697071
0.683067 0.690666 0.697067
0.683103 0.690666 0.697061
0.68328 0.690673 0.697034
0.684246 0.690731 0.696844
0.689103 0.691453 0.695476
0.694436 0.693486 0.694482
0.688039 0.695657 0.694774
0.688036 0.695657 0.694774
0.688046 0.695657 0.694774
0.688072 0.69565 0.694771
0.688215 0.695624 0.694764
0.688914 0.69547 0.694718
0.691733 0.694794 0.694459
0.694604 0.694604 0.694604
