OpenDRT/OpenDRT-LogC3LinP3D65.cube
TITLE "Generated by Resolve"
LUT_3D_SIZE 9
0 0 0
0 0 0
0.00267033 0 0
0.101656 0 0
0.389319 0.00117494 0
0.78378 0.0572213 0.014313
0.956924 0.337362 0.228473
0.976425 0.711788 0.631876
0.988846 0.91014 0.880812
0 0 0
0.000335698 0.00047303 0
0.0157473 0.00337224 0
0.107332 0.0059205 0
0.38613 0.0091249 0
0.774746 0.0646372 0.0150607
0.952575 0.341329 0.230915
0.975662 0.712596 0.632685
0.988754 0.910231 0.880934
7.62951e-05 0.0148623 6.10361e-05
0.000946059 0.0204776 0.000106813
0.0220645 0.0257725 0.000366217
0.111955 0.032578 0
0.38526 0.0352941 0
0.770459 0.0798352 0.0166323
0.945739 0.347845 0.234836
0.974472 0.713863 0.633936
0.988617 0.910384 0.881117
7.62951e-05 0.112963 0
9.15541e-05 0.114778 0
0.0171664 0.118288 0
0.110338 0.125521 0.00015259
0.383902 0.123461 0
0.766415 0.136538 0.0229191
0.940169 0.367941 0.244846
0.970581 0.717998 0.638041
0.988174 0.910857 0.881697
0.0033875 0.353536 0
0.00381476 0.351568 0
0.00500496 0.348943 0
0.0672007 0.362142 0.000640879
0.338476 0.380118 0.0115816
0.769329 0.318471 0.0513008
0.936019 0.43386 0.276051
0.968048 0.729793 0.647715
0.986709 0.912428 0.88365
0.0892653 0.64654 0.0636759
0.0908522 0.644846 0.0650492
0.0933394 0.642359 0.067155
0.102464 0.635904 0.0739452
0.221256 0.667994 0.0972
0.663996 0.723171 0.179477
0.942077 0.614694 0.367636
0.968429 0.765194 0.674678
0.986099 0.916686 0.887831
0.427512 0.837964 0.387823
0.428534 0.837644 0.388846
0.43006 0.837171 0.390402
0.434913 0.835752 0.395285
0.451102 0.832288 0.410727
0.557061 0.85655 0.456443
0.87335 0.909361 0.57026
0.976379 0.851728 0.740993
0.987381 0.928908 0.898817
0.773388 0.936889 0.751476
0.773571 0.936858 0.75169
0.773861 0.936843 0.751995
0.774777 0.936767 0.752972
0.777661 0.936522 0.756054
0.786954 0.936141 0.765652
0.834195 0.947036 0.79205
0.958801 0.97171 0.848661
0.991989 0.957351 0.924346
0.934371 0.98143 0.927275
0.934386 0.98143 0.927306
0.934417 0.98143 0.927337
0.934524 0.98143 0.927459
0.934859 0.981445 0.927825
0.935943 0.981491 0.929
0.939376 0.981704 0.932647
0.954391 0.985428 0.942306
0.990036 0.993286 0.962203
0 0 0
0 0 0
0.0091249 0 0.00143435
0.104036 0 0.00492866
0.389303 0.00108339 0.00547799
0.784787 0.0573129 0.0213626
0.957427 0.337758 0.231189
0.976547 0.711894 0.63238
0.988861 0.910155 0.880858
0 0 0
0.0009308 0.0009308 0.0009308
0.0211185 0.00106813 0.00131228
0.112016 0.00178531 0.00265507
0.386557 0.00613413 0.00302129
0.775311 0.0642557 0.0218357
0.953109 0.341665 0.233585
0.975784 0.712703 0.633188
0.988769 0.910246 0.88098
0.000106813 0.0165866 0.000885023
4.57771e-05 0.0205997 0.0009308
0.021973 0.0246281 0
0.114458 0.0288243 0.000503548
0.385367 0.0310369 0.000808728
0.765332 0.0791943 0.0230106
0.946319 0.348104 0.237415
0.974594 0.713954 0.634424
0.988632 0.910399 0.881163
7.62951e-05 0.110826 0
4.57771e-05 0.112352 0
0.0154269 0.115633 0
0.108949 0.12224 0.00030518
0.382193 0.119539 0
0.761349 0.135485 0.0286412
0.937316 0.368643 0.247974
0.970718 0.71809 0.638498
0.988205 0.910872 0.881758
0.00361639 0.349691 0
0.0040589 0.347829 0
0.00509651 0.345251 0
0.0659037 0.35819 0.00122072
0.336416 0.37612 0.0134585
0.765072 0.316701 0.0555886
0.933486 0.434287 0.278874
0.967468 0.730022 0.648417
0.986725 0.912444 0.883696
0.0901656 0.644556 0.064622
0.0917678 0.642908 0.0659953
0.094255 0.640497 0.0681163
0.10341 0.634058 0.0750439
0.221424 0.665797 0.098558
0.662699 0.72076 0.18201
0.940383 0.614557 0.369696
0.967956 0.765347 0.675288
0.986023 0.916716 0.887922
0.428107 0.837613 0.388449
0.429114 0.837308 0.389471
0.43064 0.836835 0.391028
0.435492 0.835431 0.395911
0.451682 0.831952 0.411399
0.557397 0.856123 0.45713
0.873075 0.908827 0.57116
0.976104 0.851743 0.741405
0.98732 0.928939 0.898909
0.773495 0.936858 0.751598
0.773678 0.936843 0.751812
0.773968 0.936812 0.752117
0.774884 0.936736 0.753094
0.777752 0.936507 0.756176
0.78706 0.93611 0.765789
0.834257 0.94699 0.792172
0.95877 0.971649 0.848814
0.991958 0.957366 0.924407
0.934386 0.981414 0.927291
0.934401 0.98143 0.927321
0.934432 0.98143 0.927352
0.934539 0.98143 0.927474
0.934874 0.981445 0.92784
0.935958 0.981491 0.929015
0.939391 0.981689 0.932662
0.954391 0.985428 0.942321
0.990036 0.993286 0.962219
0 0 0
0.000244144 0 0.00173953
0.0151064 0 0.0136873
0.106935 0 0.0261692
0.391745 0.0010071 0.0281987
0.788128 0.057496 0.034638
0.958404 0.338354 0.235615
0.97673 0.712062 0.633143
0.988891 0.91017 0.880949
0 0 0.00614939
0.000579843 0 0.0126192
0.0196384 0 0.0184329
0.110307 0 0.0258793
0.387686 0.00404364 0.0258946
0.778607 0.0637522 0.0348058
0.954131 0.342168 0.237919
0.975967 0.712871 0.633951
0.9888 0.910262 0.881071
0.000198367 0.0166781 0.0162814
0.000213626 0.0188907 0.018616
0.0213474 0.0213474 0.0213474
0.130068 0.0189975 0.0192111
0.389364 0.0238956 0.0197604
0.764263 0.0780499 0.0354162
0.947387 0.348486 0.241642
0.974792 0.714122 0.635187
0.988663 0.910414 0.881254
4.57771e-05 0.108446 0.0179599
3.0518e-05 0.109758 0.0183261
0.00393683 0.115709 0.00975052
0.106798 0.118547 0.00653086
0.382849 0.112795 0.0140078
0.753338 0.13402 0.0401923
0.932799 0.369787 0.253056
0.970932 0.718212 0.639231
0.988235 0.910887 0.881834
0.00395209 0.345251 0.00306706
0.0043946 0.343587 0.00344854
0.00540169 0.341268 0.00392157
0.063035 0.352743 0.00531014
0.333333 0.370138 0.0211643
0.758144 0.314168 0.0650492
0.929473 0.435004 0.283528
0.966583 0.730358 0.649516
0.986755 0.912459 0.883772
0.0915541 0.641733 0.066331
0.0931563 0.640162 0.0677348
0.0956436 0.637858 0.0698863
0.104982 0.631266 0.0771038
0.221851 0.662455 0.101198
0.660746 0.717052 0.18703
0.937667 0.614374 0.373144
0.967208 0.765576 0.676249
0.985916 0.916762 0.888075
0.428977 0.837095 0.389425
0.429984 0.836789 0.390448
0.431525 0.836332 0.392004
0.436347 0.834943 0.396887
0.452613 0.831449 0.412451
0.557916 0.855467 0.458228
0.872648 0.907988 0.572641
0.975662 0.851789 0.742046
0.987228 0.928969 0.899031
0.773663 0.936812 0.751797
0.773846 0.936797 0.751995
0.774136 0.936767 0.7523
0.775036 0.93669 0.753277
0.77792 0.936461 0.756359
0.787228 0.936065 0.765988
0.834363 0.946929 0.792355
0.958724 0.971557 0.849042
0.991913 0.957366 0.924483
0.934401 0.981414 0.927321
0.934417 0.981414 0.927337
0.934447 0.98143 0.927382
0.934554 0.98143 0.927489
0.93489 0.981445 0.927855
0.935973 0.981491 0.92903
0.939406 0.981689 0.932677
0.954406 0.985412 0.942336
0.990036 0.993286 0.962249
0 0 0.0549935
0 0 0.0686656
0.0193332 0 0.0820172
0.109606 0 0.101122
0.398749 0.000946059 0.104784
0.80209 0.0587015 0.0819867
0.962539 0.340246 0.251011
0.977371 0.712581 0.635691
0.988983 0.910246 0.881209
0 0 0.0724498
0 0 0.0800183
0.0186313 0 0.0883955
0.109529 0 0.102007
0.393851 0.00183108 0.10248
0.792737 0.0632334 0.08159
0.958389 0.343801 0.253086
0.976623 0.713375 0.636469
0.988891 0.910338 0.881331
0 0.00729381 0.0848096
0 0.00756847 0.0885023
0.0158694 0.00683604 0.103212
0.115206 0.005066 0.108736
0.390768 0.0117647 0.0989395
0.778592 0.074342 0.0812848
0.951827 0.349722 0.256428
0.975464 0.714595 0.637675
0.988754 0.910491 0.881514
0 0.0965591 0.0947127
0 0.0971847 0.0955825
0.0016022 0.0996567 0.0983291
0.0995804 0.0995804 0.0995804
0.382574 0.0923323 0.0821851
0.734844 0.130037 0.0830854
0.929976 0.371527 0.268284
0.971664 0.718624 0.641596
0.988327 0.910964 0.882094
0.00442512 0.348333 0.068101
0.00489815 0.346883 0.0682231
0.00585946 0.344808 0.0683909
0.0505989 0.343069 0.0609903
0.323796 0.351675 0.0818799
0.734386 0.307332 0.108675
0.915984 0.437568 0.300008
0.963699 0.731441 0.653117
0.986862 0.91252 0.884016
0.0956741 0.637324 0.0791028
0.0972763 0.635935 0.0805829
0.0997635 0.63389 0.0828412
0.108965 0.62797 0.0903944
0.225879 0.651041 0.120821
0.654658 0.704921 0.215854
0.928145 0.614084 0.386511
0.964767 0.766339 0.679438
0.98555 0.916915 0.888533
0.431739 0.835569 0.392706
0.432746 0.835279 0.393713
0.434256 0.834852 0.395254
0.439033 0.83357 0.400107
0.455741 0.82977 0.416281
0.559838 0.85333 0.462303
0.871336 0.905318 0.578317
0.974212 0.851911 0.744213
0.986938 0.929076 0.899428
0.774182 0.93669 0.752392
0.774365 0.936675 0.75259
0.774655 0.936645 0.752895
0.775555 0.936568 0.753857
0.778424 0.936355 0.756939
0.787778 0.935912 0.766629
0.834714 0.946715 0.792981
0.958587 0.971252 0.849851
0.99176 0.957397 0.924743
0.934462 0.981414 0.927382
0.934478 0.981414 0.927413
0.934508 0.981414 0.927443
0.934615 0.98143 0.927565
0.934951 0.98143 0.927932
0.936034 0.981476 0.929107
0.939467 0.981689 0.932754
0.954452 0.985397 0.942412
0.990036 0.993255 0.962325
0 0 0.330861
0 0 0.332784
0 0 0.334951
0.0884871 0.000137331 0.350729
0.388113 0 0.359686
0.849744 0.0653086 0.249088
0.978332 0.346899 0.304372
0.979797 0.714214 0.644465
0.989273 0.91046 0.882094
0 0 0.331746
0 0 0.332525
0 0 0.333211
0.0850233 0.00062562 0.34815
0.383505 0.00030518 0.356435
0.840925 0.06804 0.247196
0.974578 0.349783 0.305867
0.979095 0.714961 0.645167
0.989181 0.910552 0.882216
0 0 0.330144
0 0.000244144 0.329793
0 0.000747692 0.329015
0.0795453 0.00155642 0.343389
0.376455 0.00122072 0.351476
0.827832 0.0730297 0.244526
0.968673 0.354528 0.308278
0.978012 0.716106 0.646265
0.989059 0.910689 0.882383
0 0.0444343 0.326375
0 0.0448005 0.325246
0 0.0453803 0.323705
0.0614481 0.0460365 0.344625
0.36231 0.0437171 0.343099
0.785351 0.112078 0.237858
0.948409 0.372961 0.317052
0.97438 0.719921 0.649836
0.988632 0.911162 0.882948
0.0055848 0.316899 0.311345
0.00611887 0.31577 0.310475
0.00706493 0.314076 0.309194
0.0392004 0.310246 0.306538
0.295689 0.295689 0.295689
0.672053 0.290761 0.239872
0.884489 0.444877 0.352056
0.961761 0.733364 0.662333
0.987198 0.912703 0.88481
0.105562 0.665232 0.200534
0.107164 0.663615 0.20145
0.109651 0.661234 0.202884
0.118441 0.654215 0.207752
0.250324 0.625788 0.249149
0.636515 0.668101 0.354803
0.895003 0.614755 0.438956
0.956481 0.768948 0.690425
0.98436 0.917403 0.890059
0.439979 0.834073 0.409064
0.440955 0.833829 0.41004
0.44242 0.833478 0.411551
0.447059 0.83238 0.416281
0.463249 0.829038 0.432105
0.571267 0.84416 0.48835
0.867216 0.896132 0.60885
0.968963 0.852461 0.752453
0.985946 0.929427 0.900771
0.775814 0.936339 0.75436
0.776013 0.936324 0.754559
0.776287 0.936309 0.754864
0.777173 0.936248 0.75581
0.779995 0.936065 0.758846
0.789715 0.935378 0.768994
0.836011 0.945953 0.795361
0.95816 0.970214 0.852949
0.991226 0.957488 0.925628
0.934646 0.981399 0.927611
0.934676 0.981399 0.927626
0.934707 0.981414 0.927672
0.934813 0.981414 0.927779
0.935149 0.98143 0.928145
0.936217 0.981476 0.92932
0.939681 0.981659 0.933013
0.954589 0.985351 0.942657
0.990005 0.993179 0.962631
0 0.0204013 0.85658
0 0.0216983 0.848249
0 0.0237278 0.835904
0.00112917 0.030045 0.810483
0.220172 0.0450294 0.846357
0.856886 0.0847486 0.799527
1 0.370382 0.484901
0.988159 0.719631 0.674083
0.990295 0.911131 0.885115
0 0.0223545 0.842939
0 0.0236973 0.834897
0 0.025803 0.822995
0 0.0323339 0.797909
0.216022 0.0474861 0.836088
0.850111 0.0870527 0.794034
1 0.372412 0.485176
0.987579 0.720241 0.674601
0.990219 0.911223 0.885222
0 0.0254673 0.823011
0 0.0268711 0.815412
0 0.0290837 0.804166
0 0.035935 0.77969
0.209979 0.0513313 0.820935
0.84004 0.0905928 0.785855
1 0.37554 0.485634
0.986679 0.721187 0.67541
0.990097 0.91136 0.885374
0 0.0362402 0.766918
0 0.0378424 0.760662
0 0.0403143 0.751431
0 0.0480964 0.729519
0.192966 0.0640726 0.777066
0.810025 0.10219 0.761593
1 0.38616 0.487312
0.983673 0.724315 0.678065
0.989715 0.911803 0.885893
0 0.163546 0.705135
0 0.164706 0.701457
0 0.166537 0.696025
0.00192264 0.172595 0.680003
0.159304 0.193927 0.656153
0.702327 0.227634 0.672282
0.94757 0.442023 0.497124
0.972412 0.735897 0.687602
0.988357 0.913268 0.887587
0.133394 0.660487 0.651118
0.134951 0.658885 0.649714
0.137346 0.656504 0.647593
0.145281 0.649332 0.64126
0.253971 0.620935 0.615808
0.592126 0.592126 0.592126
0.828122 0.61796 0.557839
0.938247 0.775906 0.721218
0.983597 0.918288 0.893492
0.460548 0.858381 0.51574
0.461433 0.85803 0.516411
0.462791 0.857511 0.517433
0.467063 0.85594 0.520668
0.48159 0.851225 0.531411
0.616236 0.82266 0.605875
0.855406 0.870451 0.717968
0.951354 0.854856 0.781659
0.982666 0.930617 0.905241
0.780682 0.936461 0.762997
0.78085 0.936446 0.763195
0.781125 0.936431 0.763485
0.781964 0.9364 0.764385
0.784665 0.936278 0.767285
0.793973 0.935729 0.777005
0.843717 0.941833 0.810346
0.956802 0.966522 0.868925
0.989242 0.957855 0.928893
0.935256 0.981384 0.928328
0.935286 0.981384 0.928359
0.935317 0.981384 0.928389
0.935424 0.981384 0.928512
0.935744 0.981399 0.928862
0.936797 0.98146 0.930022
0.940444 0.981537 0.933944
0.955139 0.985153 0.943572
0.989929 0.99292 0.963775
0.0485084 0.201617 1
0.0497597 0.203662 1
0.0516518 0.20679 1
0.0577707 0.216556 1
0.100664 0.244953 1
0.40856 0.306371 1
1 0.428565 1
1 0.737026 0.768719
0.993561 0.913375 0.895308
0.05037 0.204685 1
0.0516213 0.206729 1
0.0535286 0.209842 1
0.0596933 0.219577 1
0.101869 0.247898 1
0.407889 0.308843 1
1 0.430014 1
1 0.737453 0.768917
0.9935 0.913436 0.895384
0.0532235 0.209354 1
0.05449 0.211383 1
0.0564279 0.214481 1
0.062623 0.22417 1
0.103761 0.252369 1
0.406943 0.312596 1
1 0.432212 1
1 0.738094 0.769223
0.993408 0.913558 0.895506
0.0624247 0.223926 1
0.0637217 0.225925 1
0.0656901 0.228962 1
0.0720378 0.238483 1
0.11017 0.266285 1
0.404471 0.324285 1
1 0.439063 1
1 0.740169 0.770199
0.993118 0.913924 0.895872
0.09308 0.268818 1
0.0944381 0.270695 1
0.0965133 0.273533 0.998383
0.10309 0.282429 0.983902
0.134005 0.308751 0.951629
0.40116 0.360006 1
1 0.460502 0.985031
1 0.747082 0.773434
0.992065 0.915129 0.897124
0.20473 0.463951 0.917159
0.206027 0.464988 0.915724
0.208026 0.46656 0.913588
0.214313 0.471489 0.907088
0.236851 0.48687 0.887053
0.43505 0.52723 0.823423
0.887297 0.596109 0.867979
0.971283 0.778881 0.786969
0.9879 0.919509 0.901625
0.509529 0.884077 0.877348
0.510231 0.883589 0.876905
0.511315 0.882841 0.876249
0.514733 0.880583 0.874205
0.525872 0.873777 0.868132
0.638163 0.843412 0.840482
0.830915 0.830915 0.830915
0.923339 0.860639 0.835355
0.976028 0.933654 0.91664
0.792554 0.947127 0.810559
0.792706 0.947097 0.810681
0.79295 0.947066 0.81088
0.793698 0.946944 0.811505
0.796078 0.946578 0.813489
0.80412 0.945418 0.82005
0.869062 0.932601 0.864012
0.953002 0.957229 0.913954
0.983108 0.959136 0.939467
0.937057 0.981628 0.931319
0.937087 0.981628 0.931334
0.937118 0.981643 0.931365
0.937209 0.981643 0.931472
0.93753 0.981659 0.931823
0.938521 0.981735 0.932906
0.942016 0.981826 0.936645
0.958358 0.98378 0.94934
0.989685 0.991928 0.969345
0.406165 0.589746 1
0.407034 0.590478 1
0.408347 0.591592 1
0.412451 0.595071 1
0.42533 0.605875 1
0.477165 0.634974 1
0.696422 0.689509 1
1 0.775723 1
1 0.920394 0.927321
0.407462 0.590845 1
0.408316 0.591577 1
0.409628 0.592676 1
0.413718 0.596139 1
0.426551 0.606882 1
0.478096 0.635874 1
0.69662 0.69012 1
1 0.775998 1
1 0.920439 0.927352
0.409415 0.592508 1
0.410269 0.593225 1
0.411566 0.594324 1
0.415641 0.597772 1
0.428412 0.608438 1
0.479484 0.637232 1
0.69691 0.691066 1
1 0.776394 1
1 0.920516 0.927398
0.415549 0.597681 1
0.416388 0.598398 1
0.417655 0.599466 1
0.421668 0.602823 1
0.434195 0.61326 1
0.483879 0.641489 1
0.697871 0.694011 1
1 0.777676 1
1 0.920775 0.92755
0.434455 0.613504 1
0.435248 0.61416 1
0.436454 0.615167 1
0.440238 0.618296 1
0.452079 0.628 1
0.497627 0.654521 1
0.701091 0.70312 1
1 0.781704 1
1 0.921569 0.928038
0.48838 0.657343 1
0.489052 0.657877 1
0.490059 0.658686 1
0.493233 0.661204 1
0.503182 0.669032 0.997284
0.538415 0.69099 0.981552
0.712276 0.72932 1
1 0.793942 1
0.999863 0.924208 0.929656
0.619883 0.780865 0.967529
0.620279 0.781079 0.967346
0.620874 0.78143 0.967056
0.622766 0.782513 0.966201
0.628702 0.785931 0.963561
0.648722 0.796048 0.954711
0.766659 0.818112 0.915206
0.955108 0.859922 0.948638
0.987823 0.93579 0.936278
0.818158 0.964294 0.961654
0.81828 0.964233 0.961593
0.818448 0.964157 0.961517
0.818998 0.963867 0.961273
0.820752 0.963012 0.96051
0.826474 0.960449 0.958267
0.881987 0.946395 0.945464
0.946166 0.946166 0.946166
0.97557 0.961929 0.955703
0.941482 0.985107 0.946136
0.941497 0.985107 0.946151
0.941527 0.985107 0.946181
0.941619 0.985107 0.946258
0.941894 0.985107 0.946487
0.942763 0.985092 0.94725
0.945739 0.984985 0.949798
0.96733 0.981201 0.966049
0.989059 0.989853 0.981613
0.771588 0.858457 1
0.77174 0.858564 1
0.771984 0.858717 1
0.772732 0.85922 1
0.775113 0.860807 1
0.782467 0.865675 1
0.808209 0.878416 1
0.895933 0.901274 1
1 0.935943 1
0.771817 0.85861 1
0.771969 0.858717 1
0.772213 0.858885 1
0.772961 0.859373 1
0.775341 0.86096 1
0.782681 0.865812 1
0.808362 0.878538 1
0.895979 0.90135 1
1 0.935973 1
0.772168 0.858854 1
0.772335 0.858961 1
0.772564 0.859113 1
0.773312 0.859617 1
0.775692 0.861189 1
0.783001 0.866041 1
0.808606 0.878721 1
0.896056 0.901473 1
1 0.936034 1
0.773297 0.859602 1
0.773449 0.859709 1
0.773693 0.859861 1
0.774441 0.860365 1
0.776791 0.861921 1
0.784039 0.866712 1
0.809369 0.879301 1
0.896269 0.901854 1
1 0.936172 1
0.776837 0.861952 1
0.776989 0.862058 1
0.777218 0.862211 1
0.777935 0.862684 1
0.780224 0.86421 1
0.787274 0.868864 1
0.811795 0.881117 1
0.896956 0.903044 1
1 0.93666 1
0.787518 0.869047 1
0.787655 0.869123 1
0.787869 0.869276 1
0.78854 0.869703 1
0.790631 0.871092 1
0.797086 0.875334 1
0.819226 0.886641 1
0.899153 0.906676 1
1 0.93814 1
0.81622 0.887907 0.997971
0.816327 0.887968 0.997925
0.816495 0.888075 0.997848
0.816999 0.888411 0.99762
0.818616 0.889464 0.996902
0.823606 0.892699 0.994797
0.840009 0.901625 0.990707
0.905913 0.916945 1
1 0.942672 1
0.876814 0.933608 0.988586
0.876875 0.933639 0.988571
0.876951 0.933669 0.988556
0.877211 0.933806 0.988479
0.878019 0.934234 0.988281
0.880552 0.935561 0.98764
0.889097 0.939406 0.985107
0.932464 0.947295 0.970367
0.986099 0.964721 0.984634
0.950912 0.991363 0.990631
0.950927 0.991363 0.990631
0.950942 0.991363 0.990631
0.951003 0.991333 0.9906
0.951202 0.991272 0.990555
0.951843 0.991089 0.990402
0.953948 0.990524 0.989929
0.972686 0.986435 0.986236
0.988479 0.988479 0.988479
