OpenDRT/OpenDRT_v1.0.0_Umbra__filmlight-egamut2-tloge_to_rec2100-pq.cube
LUT_3D_SIZE 5
DOMAIN_MIN 0.000000 0.000000 0.000000
DOMAIN_MAX 0.851064 0.851064 0.851064
0.0141773 0.0140878 0.0138827
0.0524883 0.0225236 0.0195089
0.303748 0.133271 7.30956e-07
0.573611 0.38722 0.027621
0.67068 0.636788 0.581174
0.030604 0.0596609 0.0290037
0.0796128 0.065534 0.0142582
0.309967 0.148358 7.30956e-07
0.574382 0.389707 0.0353568
0.670699 0.636818 0.581166
0.213016 0.327763 0.09248
0.217891 0.333572 0.0949698
0.415457 0.348582 0.0894341
0.583337 0.422552 0.0861237
0.670896 0.637179 0.581048
0.556007 0.627142 0.256356
0.557113 0.627317 0.25642
0.571211 0.629778 0.257401
0.663527 0.646797 0.425635
0.67376 0.643103 0.581301
0.679936 0.679024 0.623165
0.679945 0.679028 0.623182
0.680064 0.679018 0.62338
0.681669 0.678944 0.626153
0.69033 0.680055 0.638551
0.0192061 0.0166863 0.0546828
0.0595613 0.018135 0.0637278
0.306351 0.134119 0.0586073
0.57404 0.387166 0.0255096
0.670687 0.636788 0.581202
0.0338124 0.056299 0.0819045
0.0781015 0.0774916 0.0760788
0.315806 0.149278 0.0227377
0.574807 0.389659 0.0338574
0.670702 0.636812 0.581193
0.215256 0.329794 0.14859
0.221156 0.338035 0.0995766
0.415301 0.353554 0.0923752
0.583737 0.422565 0.0858044
0.670899 0.637179 0.581081
0.556431 0.627587 0.256657
0.557541 0.627757 0.256722
0.571635 0.630189 0.257678
0.663308 0.646705 0.430798
0.673763 0.643103 0.581336
0.679939 0.679028 0.623191
0.679949 0.679028 0.623206
0.680071 0.679021 0.6234
0.681669 0.678941 0.626177
0.69033 0.680058 0.638563
0.119926 0.071535 0.306866
0.121391 0.0724934 0.30956
0.323348 0.148872 0.342635
0.580059 0.386499 7.30956e-07
0.67075 0.636749 0.581568
0.125262 0.0783057 0.31609
0.128204 0.0796066 0.321515
0.332686 0.154628 0.34774
0.580778 0.389064 7.30956e-07
0.670763 0.636779 0.581556
0.233592 0.314794 0.403172
0.237344 0.322343 0.40215
0.398837 0.39398 0.382019
0.589859 0.423618 0.081624
0.670981 0.637201 0.581562
0.560306 0.631348 0.265319
0.561357 0.63142 0.266295
0.574461 0.632373 0.297331
0.660425 0.645469 0.481766
0.673836 0.643124 0.581837
0.679978 0.679034 0.623509
0.67999 0.679028 0.623524
0.680109 0.679021 0.623719
0.681704 0.678935 0.626488
0.690295 0.680003 0.638762
0.390362 0.482875 0.615158
0.39051 0.482857 0.61558
0.393856 0.482942 0.622087
0.625881 0.537623 0.605392
0.672041 0.637195 0.588407
0.391416 0.484883 0.615222
0.391537 0.484817 0.615627
0.394904 0.485037 0.622108
0.626121 0.539401 0.605386
0.672056 0.637228 0.588412
0.404872 0.509199 0.616063
0.405036 0.509252 0.616451
0.408419 0.510381 0.622434
0.628957 0.55936 0.605266
0.672269 0.637664 0.588476
0.581967 0.63494 0.609742
0.582931 0.63494 0.609722
0.594549 0.634898 0.609434
0.647363 0.637607 0.611666
0.67528 0.643891 0.58951
0.680549 0.679053 0.627774
0.680556 0.679053 0.627783
0.680675 0.67904 0.62797
0.682207 0.678832 0.63054
0.689825 0.679406 0.641206
0.662885 0.66302 0.655421
0.662901 0.66302 0.655421
0.663104 0.663023 0.655402
0.665973 0.663045 0.655207
0.686877 0.67018 0.648358
0.662891 0.663032 0.655417
0.66291 0.663032 0.655414
0.663114 0.663032 0.655402
0.66598 0.663057 0.655204
0.686881 0.670193 0.648358
0.662988 0.663192 0.655386
0.663007 0.663198 0.655383
0.663208 0.663192 0.655371
0.666065 0.663217 0.655179
0.686907 0.670335 0.648355
0.66443 0.66541 0.654907
0.664443 0.665414 0.654907
0.664635 0.665414 0.654897
0.667318 0.665442 0.654718
0.687195 0.672091 0.64829
0.683645 0.678281 0.64837
0.683651 0.678281 0.648376
0.683729 0.678268 0.648376
0.684769 0.67813 0.64845
0.688794 0.67806 0.649017
