OpenDRT/OpenDRT_v1.0.0_Default__filmlight-egamut2-tloge_to_rec2100-pq.cube
LUT_3D_SIZE 5
DOMAIN_MIN 0.000000 0.000000 0.000000
DOMAIN_MAX 0.851064 0.851064 0.851064
0.000383699 0.000383695 0.000383699
0.0911546 0.0270947 7.30956e-07
0.396044 0.188531 7.30956e-07
0.631107 0.521982 0.268478
0.690386 0.678585 0.667517
0.0398455 0.0779334 0.0119339
0.0989344 0.093106 0.0139614
0.399087 0.201487 7.30956e-07
0.631304 0.523429 0.266109
0.690386 0.678595 0.66751
0.252313 0.377423 0.115001
0.254314 0.379913 0.116183
0.421121 0.411961 0.125404
0.633764 0.541857 0.242809
0.690431 0.678723 0.667507
0.519318 0.643058 0.413928
0.520451 0.643137 0.413578
0.535897 0.644082 0.414032
0.653238 0.659486 0.525945
0.691028 0.680601 0.667542
0.678255 0.694312 0.671419
0.678258 0.694312 0.671419
0.678345 0.694328 0.671409
0.679933 0.694384 0.672034
0.693853 0.69501 0.683028
0.0206433 0.0102598 0.0813173
0.0990178 0.0318946 0.101353
0.39919 0.189748 7.30956e-07
0.631166 0.521827 0.28543
0.690386 0.678585 0.667529
0.0504298 0.0861303 0.0999836
0.105864 0.105865 0.105865
0.402358 0.199667 7.30956e-07
0.631363 0.52328 0.283294
0.690389 0.678595 0.667529
0.256725 0.382896 0.117647
0.258295 0.384842 0.118546
0.422866 0.414977 0.126992
0.633806 0.541713 0.260622
0.690431 0.678723 0.667523
0.519133 0.643206 0.417178
0.520266 0.643289 0.416843
0.535823 0.644207 0.417547
0.653118 0.659275 0.52855
0.691035 0.680607 0.667561
0.678249 0.694312 0.671422
0.678262 0.694312 0.671425
0.678345 0.694328 0.671416
0.679933 0.694387 0.672047
0.69385 0.69501 0.683041
0.168165 0.105142 0.390261
0.170851 0.106971 0.394636
0.409381 0.203464 0.418449
0.632152 0.520375 0.406577
0.690399 0.678598 0.667741
0.172318 0.11303 0.396347
0.174248 0.112161 0.399792
0.411605 0.205388 0.420811
0.632337 0.521836 0.406009
0.690405 0.678611 0.667741
0.285571 0.395869 0.419251
0.28687 0.397894 0.41903
0.426935 0.426935 0.426935
0.634934 0.540493 0.399514
0.690451 0.678736 0.667734
0.516902 0.645197 0.455479
0.518214 0.645237 0.455583
0.534647 0.64589 0.456726
0.651515 0.656561 0.557222
0.691041 0.680614 0.667775
0.678239 0.694348 0.67152
0.678246 0.694348 0.671517
0.678332 0.694364 0.671511
0.679939 0.694403 0.67218
0.69382 0.694954 0.683219
0.441917 0.546915 0.659462
0.442335 0.546964 0.659817
0.457648 0.54589 0.662293
0.645079 0.602097 0.648744
0.690637 0.678887 0.670737
0.442434 0.547941 0.65939
0.442841 0.547985 0.659736
0.457968 0.547039 0.662234
0.645106 0.602687 0.648716
0.690643 0.678893 0.670737
0.449277 0.5608 0.658487
0.449606 0.560887 0.65882
0.463504 0.561581 0.661383
0.645466 0.609921 0.648342
0.690686 0.679015 0.670731
0.532362 0.654019 0.64917
0.534178 0.653933 0.649136
0.55863 0.652541 0.648459
0.648986 0.648983 0.648986
0.691289 0.680835 0.67081
0.678194 0.694771 0.673162
0.678204 0.694771 0.673162
0.678332 0.694764 0.673219
0.680064 0.694689 0.673983
0.69344 0.694256 0.685497
0.673356 0.68299 0.697153
0.673372 0.68299 0.697153
0.673537 0.68299 0.697136
0.675924 0.683003 0.696919
0.692652 0.689584 0.692887
0.673359 0.682996 0.697153
0.673369 0.682996 0.697153
0.673537 0.682993 0.69714
0.675927 0.683009 0.696913
0.692648 0.689588 0.692884
0.673375 0.683083 0.697136
0.673391 0.683083 0.69714
0.673556 0.683083 0.697127
0.675953 0.683103 0.6969
0.692655 0.689633 0.692884
0.673677 0.684317 0.696962
0.67369 0.684317 0.696962
0.673855 0.684313 0.696949
0.676432 0.68441 0.696626
0.692684 0.690236 0.692848
0.682538 0.694548 0.693201
0.682545 0.694548 0.693198
0.6827 0.694515 0.693188
0.684831 0.694082 0.693051
0.693002 0.693002 0.693002
