OpenDRT/OpenDRT_v1.0.0_Colorful__filmlight-egamut2-tloge_to_rec2100-pq.cube
LUT_3D_SIZE 8
DOMAIN_MIN 0.000000 0.000000 0.000000
DOMAIN_MAX 0.893617 0.893617 0.893617
0.000925603 0.000925603 0.000925607
0.0465041 0.0120312 7.30956e-07
0.160077 0.0551091 7.30956e-07
0.332701 0.146514 7.30956e-07
0.512451 0.283516 7.30956e-07
0.624279 0.505045 0.150876
0.673219 0.631247 0.574581
0.689669 0.67334 0.654876
0.0197119 0.0416761 0.00534683
0.0527393 0.049082 0.00601776
0.162348 0.0864198 0.00545761
0.334514 0.150832 7.30956e-07
0.512975 0.286517 7.30956e-07
0.624356 0.505738 0.151492
0.673232 0.631301 0.574589
0.689669 0.673346 0.654879
0.0857192 0.151658 0.0296782
0.0889987 0.156203 0.0309431
0.172696 0.163503 0.0306736
0.337645 0.207242 0.0196231
0.514595 0.300737 7.30956e-07
0.624692 0.508507 0.153939
0.673283 0.631504 0.574624
0.689676 0.673359 0.654879
0.208357 0.321794 0.0898758
0.208761 0.322316 0.0900995
0.215751 0.330372 0.0935671
0.356764 0.344058 0.0939817
0.520841 0.38031 0.0807681
0.625928 0.520982 0.164801
0.673544 0.632504 0.574788
0.689702 0.673442 0.6549
0.361433 0.507888 0.184095
0.36191 0.508432 0.184415
0.364054 0.510903 0.18586
0.389238 0.523848 0.193198
0.549209 0.545466 0.198464
0.634835 0.569823 0.20387
0.674581 0.637119 0.575533
0.689832 0.67384 0.655003
0.523813 0.640722 0.267683
0.524263 0.640749 0.267687
0.526072 0.640867 0.267707
0.534556 0.641503 0.267845
0.569265 0.646174 0.269686
0.660681 0.666637 0.468415
0.681151 0.657906 0.581048
0.690369 0.675707 0.655476
0.64187 0.68854 0.568005
0.641907 0.688546 0.568045
0.642046 0.688553 0.56822
0.642729 0.688582 0.56906
0.645981 0.688764 0.572908
0.659514 0.690712 0.587161
0.692223 0.695897 0.642468
0.693614 0.684423 0.658422
0.678326 0.697713 0.654189
0.678326 0.697713 0.654189
0.678345 0.697709 0.654208
0.678403 0.697716 0.654273
0.678701 0.697719 0.6546
0.680103 0.697762 0.65613
0.685853 0.698448 0.662096
0.697614 0.69914 0.680752
0.0091685 0.0043396 0.042032
0.0520812 0.014473 0.0515664
0.161214 0.0558088 0.0730549
0.334177 0.147202 7.30956e-07
0.512864 0.283392 7.30956e-07
0.624427 0.505139 0.150906
0.673219 0.631259 0.574695
0.689666 0.673346 0.654885
0.0255716 0.0467808 0.0546966
0.0569406 0.0569406 0.0569406
0.16536 0.078435 0.064466
0.336471 0.151325 7.30956e-07
0.513384 0.286354 7.30956e-07
0.624509 0.505833 0.151521
0.673232 0.631307 0.574698
0.689669 0.673346 0.654885
0.0879184 0.153313 0.0797164
0.0912328 0.158892 0.0703685
0.175057 0.167575 0.0318929
0.339876 0.20465 0.0151471
0.515012 0.300463 7.30956e-07
0.62484 0.508598 0.153969
0.673286 0.63151 0.574733
0.689672 0.673359 0.654888
0.210176 0.32414 0.090883
0.210478 0.32453 0.09105
0.218228 0.333995 0.0951562
0.357556 0.345468 0.0946416
0.521196 0.380247 0.0805188
0.626064 0.521073 0.164835
0.673547 0.63251 0.574896
0.689702 0.673442 0.65491
0.361913 0.508439 0.184419
0.36238 0.508977 0.184732
0.364479 0.511393 0.186148
0.389042 0.52434 0.193511
0.549295 0.545676 0.198598
0.634943 0.569893 0.203908
0.674588 0.637128 0.575642
0.689832 0.673843 0.655009
0.523836 0.640873 0.267793
0.524288 0.6409 0.267797
0.526102 0.641019 0.267816
0.534589 0.641646 0.267947
0.56934 0.646284 0.269763
0.660612 0.666546 0.470245
0.681151 0.657906 0.58116
0.690369 0.675701 0.655479
0.641867 0.688553 0.568083
0.641907 0.688553 0.568126
0.642046 0.688559 0.568298
0.642735 0.688589 0.569133
0.645975 0.688771 0.572987
0.659518 0.690705 0.58725
0.692217 0.695884 0.642541
0.693614 0.684423 0.658431
0.678326 0.697709 0.654195
0.678332 0.697713 0.654195
0.678345 0.697713 0.654208
0.678403 0.697709 0.654279
0.678701 0.697716 0.654607
0.680103 0.697759 0.656136
0.685853 0.698448 0.662102
0.697611 0.69914 0.680758
0.0458243 0.0244154 0.150934
0.0664398 0.0289408 0.157475
0.166286 0.0611907 0.165211
0.335557 0.148365 0.178259
0.514626 0.282971 7.30956e-07
0.625029 0.505527 0.151021
0.673245 0.631292 0.575147
0.689669 0.673343 0.654913
0.0526861 0.0488869 0.160204
0.0611543 0.048041 0.16746
0.170093 0.0635516 0.16803
0.338396 0.151442 0.174773
0.515149 0.285782 7.30956e-07
0.625112 0.506217 0.15164
0.673251 0.63134 0.575152
0.689669 0.673353 0.654913
0.097685 0.155093 0.175286
0.0999309 0.159419 0.174411
0.175016 0.175016 0.175016
0.348025 0.191902 0.152039
0.517096 0.299519 7.30956e-07
0.625437 0.508984 0.15409
0.673308 0.631545 0.575188
0.689676 0.673366 0.654913
0.213658 0.326059 0.195846
0.2142 0.326969 0.19167
0.222542 0.338554 0.172161
0.362929 0.353147 0.0981656
0.52274 0.379183 0.0786065
0.626645 0.521443 0.164973
0.673566 0.632537 0.575354
0.689702 0.673448 0.654938
0.364061 0.51092 0.18587
0.364486 0.511407 0.186155
0.366418 0.513627 0.187461
0.388413 0.526513 0.194869
0.549768 0.546627 0.199223
0.63539 0.570187 0.204053
0.674607 0.637152 0.5761
0.689832 0.673849 0.655037
0.523933 0.6415 0.268244
0.524384 0.641525 0.268246
0.526206 0.641637 0.26826
0.53473 0.642231 0.268369
0.56965 0.646727 0.270079
0.660331 0.66615 0.477339
0.681151 0.657906 0.581612
0.690369 0.675707 0.65551
0.641873 0.688579 0.568398
0.641907 0.688579 0.568441
0.642046 0.688586 0.568613
0.642739 0.688615 0.569448
0.645988 0.68879 0.573288
0.659533 0.690699 0.587606
0.692168 0.695815 0.642821
0.693614 0.68443 0.658456
0.678326 0.697716 0.654211
0.678332 0.697716 0.654214
0.678345 0.697716 0.654229
0.678403 0.697716 0.654297
0.678701 0.697723 0.654625
0.680103 0.697765 0.656152
0.68586 0.698448 0.662121
0.697604 0.699127 0.680778
0.132153 0.0798054 0.328964
0.133078 0.0804411 0.330606
0.169177 0.0897927 0.339203
0.346046 0.161157 0.345735
0.520106 0.280609 0.288971
0.625759 0.50522 0.19374
0.673334 0.631441 0.577342
0.689682 0.673366 0.655049
0.133974 0.0810566 0.332194
0.13566 0.0822178 0.33517
0.163531 0.0898275 0.343766
0.347841 0.162245 0.34704
0.520656 0.282619 0.288834
0.625839 0.505913 0.193773
0.673346 0.631495 0.57735
0.689682 0.673369 0.655049
0.146232 0.134705 0.342924
0.146497 0.128356 0.34557
0.153019 0.112853 0.357325
0.353384 0.16668 0.351888
0.522829 0.293293 0.285562
0.626171 0.508697 0.193906
0.673397 0.631695 0.577383
0.689689 0.673385 0.655055
0.233339 0.331465 0.360266
0.233783 0.332368 0.359596
0.238342 0.339224 0.36074
0.36051 0.36051 0.36051
0.527794 0.370314 0.259506
0.627816 0.521485 0.194203
0.673658 0.632687 0.57755
0.689715 0.673467 0.655074
0.373825 0.520542 0.302884
0.374167 0.520969 0.301776
0.375753 0.522926 0.297427
0.388962 0.534513 0.272491
0.551453 0.550336 0.249314
0.636247 0.570279 0.212753
0.67469 0.637279 0.578291
0.689848 0.673868 0.655179
0.524474 0.644722 0.27057
0.524936 0.644743 0.270569
0.526795 0.644819 0.270558
0.535511 0.645255 0.270553
0.571419 0.64902 0.2717
0.658994 0.664277 0.505606
0.68117 0.657909 0.583795
0.690379 0.675726 0.65565
0.641895 0.688722 0.569941
0.641934 0.688725 0.569982
0.642074 0.688729 0.570157
0.642766 0.688751 0.570984
0.646021 0.688911 0.57479
0.659605 0.690673 0.589363
0.691946 0.69547 0.644195
0.693617 0.68443 0.658599
0.678332 0.697729 0.654301
0.678339 0.697729 0.654304
0.678351 0.697732 0.654319
0.678409 0.697729 0.654384
0.67871 0.697732 0.654712
0.680109 0.697772 0.656245
0.685863 0.698438 0.662237
0.697584 0.699091 0.680877
0.266185 0.178958 0.537119
0.266283 0.178994 0.537257
0.266927 0.179341 0.538166
0.30568 0.191187 0.548237
0.530137 0.291386 0.538084
0.629281 0.50347 0.479914
0.673811 0.632191 0.587317
0.689734 0.67347 0.655721
0.266842 0.17991 0.537987
0.266906 0.179867 0.538084
0.267513 0.180145 0.538944
0.304353 0.19131 0.549011
0.530466 0.291918 0.538477
0.62934 0.504153 0.479905
0.673824 0.632238 0.587325
0.689734 0.673474 0.655724
0.269652 0.185962 0.541449
0.269674 0.18567 0.541518
0.269964 0.184829 0.542028
0.299271 0.193186 0.551999
0.531714 0.294545 0.539994
0.629596 0.506897 0.479855
0.673875 0.632433 0.587358
0.689741 0.673493 0.655727
0.299397 0.330558 0.549794
0.299165 0.329527 0.549922
0.298395 0.325566 0.550594
0.302019 0.311928 0.559627
0.536608 0.342266 0.545324
0.630871 0.519392 0.4796
0.674116 0.633402 0.587528
0.689767 0.673572 0.655752
0.398991 0.528442 0.542221
0.399065 0.528555 0.542177
0.399437 0.529091 0.542098
0.403479 0.534135 0.544388
0.542591 0.542591 0.542591
0.637445 0.570281 0.491467
0.675324 0.638005 0.588309
0.6899 0.67397 0.655851
0.518295 0.651345 0.433219
0.518816 0.651342 0.433363
0.520915 0.651345 0.433942
0.530982 0.651333 0.437187
0.574461 0.649719 0.480476
0.653003 0.656071 0.57843
0.681257 0.65793 0.593644
0.690431 0.675822 0.656325
0.642004 0.689438 0.577358
0.64204 0.689438 0.577399
0.642183 0.689444 0.577561
0.642884 0.689444 0.578346
0.646177 0.689506 0.581986
0.660048 0.690513 0.598018
0.690894 0.693892 0.650318
0.693624 0.684456 0.659287
0.678364 0.697795 0.654737
0.678364 0.697795 0.654743
0.67838 0.697795 0.654755
0.678441 0.697795 0.65482
0.678736 0.697795 0.655148
0.680141 0.697825 0.656682
0.685912 0.698411 0.662785
0.697472 0.698923 0.681366
0.412622 0.470236 0.676819
0.412578 0.470076 0.676847
0.412408 0.469438 0.676962
0.411834 0.466532 0.677845
0.465797 0.474287 0.682493
0.64352 0.568775 0.650417
0.67671 0.636322 0.623666
0.690014 0.673976 0.658879
0.413028 0.47136 0.676803
0.412973 0.471174 0.676828
0.412802 0.470544 0.676943
0.41223 0.467684 0.677826
0.466082 0.475585 0.682432
0.643532 0.56916 0.650395
0.676716 0.636361 0.623671
0.690014 0.673976 0.658879
0.414631 0.475795 0.676729
0.414589 0.475628 0.676755
0.414388 0.474947 0.676867
0.413831 0.472235 0.677724
0.46726 0.48072 0.682197
0.643587 0.570713 0.650318
0.676755 0.636535 0.623701
0.690014 0.673995 0.658885
0.422195 0.495295 0.676298
0.422153 0.495168 0.67632
0.421985 0.494652 0.676419
0.421398 0.492347 0.677199
0.473289 0.503095 0.680974
0.643863 0.577954 0.649922
0.67693 0.637384 0.62384
0.690044 0.674069 0.658904
0.451726 0.557845 0.673175
0.451724 0.557831 0.673181
0.45172 0.55781 0.673207
0.452159 0.558384 0.673544
0.503286 0.570079 0.674136
0.644841 0.604374 0.648214
0.677813 0.641409 0.624533
0.690167 0.674457 0.65901
0.516028 0.657436 0.651013
0.516295 0.657495 0.651105
0.517542 0.657682 0.651438
0.527145 0.656753 0.651118
0.584074 0.652538 0.648928
0.648342 0.648342 0.648342
0.682039 0.660369 0.633456
0.690774 0.67631 0.659502
0.642131 0.692871 0.609797
0.642165 0.692864 0.609826
0.642323 0.692851 0.609941
0.643079 0.692789 0.610492
0.646684 0.692442 0.613276
0.663355 0.68948 0.634175
0.686988 0.688169 0.669405
0.69366 0.684585 0.662475
0.678505 0.698125 0.65689
0.678508 0.698125 0.656893
0.678521 0.698128 0.656905
0.678585 0.698121 0.656974
0.678883 0.698111 0.6573
0.680305 0.698078 0.65882
0.686174 0.698253 0.665536
0.696955 0.698141 0.683548
0.539406 0.636626 0.719369
0.539595 0.636623 0.719359
0.540337 0.636614 0.719315
0.544014 0.636547 0.719087
0.561435 0.636307 0.717928
0.626224 0.64107 0.708763
0.684184 0.667425 0.686005
0.691521 0.676582 0.671676
0.539449 0.63668 0.719362
0.539628 0.63668 0.719345
0.540373 0.636665 0.719304
0.54405 0.636605 0.719077
0.561458 0.636361 0.717921
0.626254 0.641125 0.708747
0.684184 0.667444 0.686009
0.691521 0.676588 0.671676
0.539603 0.636893 0.719328
0.539787 0.636887 0.719315
0.540524 0.636875 0.719274
0.544197 0.636815 0.719046
0.561581 0.636571 0.717887
0.626375 0.641349 0.70869
0.684191 0.667529 0.685999
0.691528 0.676601 0.671682
0.540367 0.637939 0.719172
0.540552 0.637933 0.719155
0.54129 0.637921 0.719111
0.544932 0.637857 0.718887
0.562182 0.63761 0.717734
0.626971 0.642441 0.708409
0.68421 0.667952 0.68596
0.691541 0.676672 0.671701
0.544269 0.642854 0.718341
0.544442 0.642851 0.718331
0.545156 0.642833 0.718283
0.548681 0.642772 0.71806
0.56528 0.642502 0.716915
0.629912 0.647494 0.706989
0.684304 0.669905 0.685779
0.691629 0.677001 0.671796
0.566636 0.66209 0.713311
0.566807 0.662087 0.713297
0.5675 0.662084 0.713237
0.570948 0.662077 0.712934
0.587542 0.662224 0.711179
0.643468 0.665455 0.699953
0.684543 0.676691 0.685118
0.69205 0.678592 0.672276
0.644484 0.692694 0.686605
0.644545 0.692684 0.686602
0.64478 0.692648 0.686599
0.645936 0.692465 0.686563
0.651253 0.69159 0.686394
0.669392 0.687926 0.685452
0.685591 0.685591 0.685591
0.693987 0.686161 0.676608
0.679008 0.69957 0.667151
0.679008 0.699566 0.667157
0.679021 0.699566 0.66717
0.679089 0.699556 0.667227
0.679409 0.699497 0.667504
0.680935 0.699226 0.668874
0.687783 0.697344 0.677788
0.695217 0.695588 0.69021
0.648514 0.677577 0.71326
0.64852 0.677577 0.713254
0.64856 0.67758 0.713254
0.648765 0.677583 0.713213
0.649753 0.677599 0.713028
0.654396 0.677692 0.712103
0.674639 0.680305 0.705879
0.694249 0.689259 0.6948
0.648514 0.677583 0.71326
0.648526 0.67758 0.713257
0.648566 0.677583 0.713247
0.648768 0.677586 0.71321
0.649759 0.677602 0.713028
0.654399 0.677698 0.712103
0.674645 0.680305 0.705872
0.694249 0.689265 0.6948
0.64852 0.677596 0.713254
0.648532 0.677596 0.71325
0.648572 0.677599 0.713247
0.648778 0.677602 0.713206
0.649769 0.677618 0.713025
0.654406 0.677711 0.712103
0.674652 0.680324 0.705866
0.694249 0.689272 0.6948
0.648572 0.677679 0.71323
0.648584 0.677679 0.71323
0.648621 0.677679 0.71322
0.648824 0.677679 0.713186
0.649815 0.677698 0.713001
0.654449 0.677791 0.71208
0.674703 0.680405 0.705836
0.694256 0.689298 0.694794
0.648814 0.678066 0.713116
0.648824 0.678066 0.713112
0.648866 0.678066 0.713105
0.649069 0.678066 0.713065
0.650051 0.678086 0.712883
0.654665 0.678172 0.711962
0.674951 0.68079 0.705659
0.694263 0.689448 0.694781
0.650042 0.679907 0.71252
0.650051 0.679907 0.712517
0.650091 0.679907 0.71251
0.650291 0.679907 0.712473
0.651244 0.679923 0.712291
0.655749 0.679981 0.711378
0.67617 0.682587 0.704803
0.694292 0.690132 0.694715
0.656862 0.687244 0.709132
0.656878 0.687244 0.709128
0.656912 0.687244 0.709122
0.65711 0.68725 0.709078
0.658086 0.687257 0.708857
0.662941 0.687377 0.707634
0.681543 0.688885 0.700922
0.694361 0.692367 0.694492
0.680392 0.697993 0.695184
0.680392 0.697999 0.695184
0.680408 0.697993 0.695184
0.680501 0.697973 0.695184
0.680935 0.697874 0.695168
0.682958 0.697406 0.695092
0.689776 0.695618 0.694695
0.694571 0.694571 0.694571
