OpenDRT/OpenDRT_v1.0.0_Colorful__filmlight-egamut2-tloge_to_rec1886.cube
LUT_3D_SIZE 48
0.00193973 0.00193973 0.00193973
0.00835075 0.00213928 0.00257484
0.015141 0.00183911 0.00203971
0.021844 0.0016325 0.000222537
0.0286567 0.00155602 0
0.0371075 0.00153554 0
0.0478329 0.00154884 0
0.0612468 0.00157857 0
0.077745 0.00160834 0
0.0976639 0.00162395 0
0.121269 0.00162041 0
0.148777 0.00162219 0
0.180413 0.00172583 0
0.216505 0.00211577 0
0.257587 0.00295749 0
0.304443 0.00435555 0
0.358022 0.00647567 0
0.419012 0.00964 0
0.48703 0.0143877 0
0.55985 0.0215372 0
0.633592 0.0322668 0
0.704163 0.0482854 0
0.768732 0.0721671 0
0.826004 0.107643 0
0.875488 0.158807 0
0.916825 0.226677 0
0.950332 0.305751 0
0.97782 0.387714 0
1 0.467488 0
1 0.543361 0
1 0.606581 0.180002
1 0.661704 0.357149
1 0.709803 0.466332
1 0.751447 0.550302
1 0.78729 0.618636
1 0.818015 0.675434
1 0.844281 0.723102
1 0.866704 0.763319
1 0.885836 0.797366
1 0.902164 0.826267
1 0.91611 0.850856
1 0.928036 0.871824
1 0.938249 0.889741
1 0.947007 0.905082
1 0.95453 0.918243
1 0.961003 0.929555
1 0.966581 0.939297
1 0.971394 0.947697
0 0.00648557 0.00201954
0.00832472 0.00743842 0
0.0145447 0.00870342 0
0.0210839 0.0100534 0
0.0279735 0.0110149 0
0.0366425 0.0114558 0
0.0476829 0.010942 0
0.0613765 0.00955065 0
0.0780365 0.00811756 0
0.0980404 0.00712043 0
0.121698 0.00653367 0
0.149236 0.00623749 0
0.180881 0.00615791 0
0.216963 0.00628716 0
0.25801 0.00669315 0
0.304813 0.00753903 0
0.358456 0.00907098 0
0.419415 0.0117478 0
0.487409 0.0161287 0
0.560213 0.0230359 0
0.633942 0.0336346 0
0.704498 0.0496168 0
0.769038 0.073535 0
0.826261 0.109077 0
0.875669 0.160248 0
0.916923 0.227965 0
0.95037 0.306746 0
0.97783 0.388412 0
1 0.46796 0
1 0.543677 0
1 0.606796 0.179903
1 0.661848 0.357125
1 0.709899 0.466324
1 0.751511 0.550299
1 0.787333 0.618636
1 0.818044 0.675435
1 0.844301 0.723103
1 0.866717 0.76332
1 0.885844 0.797367
1 0.90217 0.826267
1 0.916114 0.850857
1 0.928039 0.871824
1 0.938251 0.889741
1 0.947008 0.905082
1 0.954531 0.918243
1 0.961003 0.929555
1 0.966581 0.939297
1 0.971395 0.947698
0 0.0114715 0
0.00787181 0.0122002 0
0.0148613 0.0131046 0
0.0209787 0.0145097 0
0.0274822 0.0160803 0
0.035833 0.0178329 0
0.0466995 0.019421 0
0.0605136 0.0201867 0
0.0776002 0.0192969 0
0.0980654 0.0166926 0
0.121994 0.013838 0
0.14965 0.0117921 0
0.181343 0.0105732 0
0.217438 0.00997225 0
0.25848 0.00987902 0
0.305264 0.0103303 0
0.358745 0.0115274 0
0.419617 0.013865 0
0.487507 0.0179558 0
0.560574 0.0245731 0
0.634292 0.0350371 0
0.704831 0.0509757 0
0.769343 0.0749234 0
0.826515 0.110525 0
0.875848 0.161696 0
0.917019 0.229253 0
0.950408 0.30774 0
0.977841 0.389109 0
1 0.468431 0
1 0.543993 0
1 0.607011 0.179803
1 0.661992 0.3571
1 0.709995 0.466317
1 0.751576 0.550298
1 0.787376 0.618636
1 0.818073 0.675436
1 0.84432 0.723104
1 0.86673 0.763321
1 0.885853 0.797368
1 0.902175 0.826268
1 0.916118 0.850857
1 0.928042 0.871825
1 0.938252 0.889742
1 0.94701 0.905083
1 0.954532 0.918243
1 0.961004 0.929556
1 0.966582 0.939297
1 0.971395 0.947697
0 0.0164676 0
0.00445088 0.0172598 0
0.0150102 0.0177621 0
0.0214561 0.0188313 0
0.0276603 0.0202872 0
0.035615 0.0222476 0
0.0461149 0.0245747 0
0.0596485 0.0267943 0
0.0766317 0.028117 0
0.0973457 0.0274514 0
0.121798 0.0241909 0
0.149854 0.0198702 0
0.181724 0.0164929 0
0.21788 0.0144325 0
0.258932 0.0134132 0
0.305704 0.0132541 0
0.359162 0.0140074 0
0.420009 0.0159829 0
0.487877 0.0197694 0
0.560539 0.0262423 0
0.63464 0.036476 0
0.705164 0.0523629 0
0.769646 0.0763327 0
0.826767 0.111986 0
0.876025 0.163149 0
0.917115 0.230542 0
0.950446 0.308732 0
0.977852 0.389804 0
1 0.468901 0
1 0.544309 0
1 0.607226 0.179704
1 0.662135 0.357077
1 0.710092 0.46631
1 0.75164 0.550296
1 0.787419 0.618637
1 0.818101 0.675437
1 0.844339 0.723106
1 0.866742 0.763322
1 0.885862 0.797369
1 0.902181 0.826269
1 0.916122 0.850858
1 0.928044 0.871825
1 0.938254 0.889742
1 0.947011 0.905083
1 0.954533 0.918243
1 0.961004 0.929556
1 0.966582 0.939297
1 0.971395 0.947697
0 0.0216355 0
0.000182943 0.0218533 0
0.0140843 0.0228066 0
0.0217824 0.0235275 0
0.0281936 0.0246848 0
0.0358661 0.0264865 0
0.0459541 0.028941 0
0.0591099 0.0317762 0
0.0758068 0.034367 0
0.0963921 0.0357239 0
0.12104 0.0345359 0
0.149618 0.0301433 0
0.181917 0.0245392 0
0.218259 0.0202468 0
0.259368 0.0177145 0
0.306143 0.0166018 0
0.359584 0.016731 0
0.420409 0.0182616 0
0.488257 0.021707 0
0.560903 0.0279262 0
0.634457 0.0381274 0
0.705505 0.0538238 0
0.769957 0.0778084 0
0.827024 0.113507 0
0.876205 0.164654 0
0.917212 0.23187 0
0.950484 0.309754 0
0.977862 0.39052 0
1 0.469386 0
1 0.544635 0
1 0.607447 0.179602
1 0.662283 0.357052
1 0.710191 0.466302
1 0.751706 0.550294
1 0.787463 0.618638
1 0.818131 0.675438
1 0.844359 0.723107
1 0.866756 0.763323
1 0.88587 0.79737
1 0.902187 0.82627
1 0.916126 0.850859
1 0.928047 0.871825
1 0.938256 0.889742
1 0.947011 0.905082
1 0.954533 0.918244
1 0.961005 0.929556
1 0.966582 0.939297
1 0.971395 0.947698
0 0.0280927 0
0 0.0278689 0
0.0101957 0.0293406 0
0.0211601 0.0297244 0
0.028606 0.0304955 0
0.0365096 0.0319118 0
0.0462407 0.034154 0
0.0588867 0.037134 0
0.0751327 0.0404523 0
0.0953932 0.0432948 0
0.119914 0.0444474 0
0.148751 0.0423895 0
0.181681 0.0365363 0
0.218521 0.0295269 0
0.259836 0.024363 0
0.306666 0.0214919 0
0.360102 0.0205183 0
0.420905 0.0213275 0
0.488731 0.024269 0
0.56136 0.0301323 0
0.634898 0.0401108 0
0.70522 0.0558886 0
0.770346 0.0797003 0
0.827346 0.115445 0
0.87643 0.166559 0
0.917332 0.233545 0
0.950531 0.311039 0
0.977876 0.391421 0
1 0.469995 0
1 0.545045 0
1 0.607726 0.179472
1 0.66247 0.35702
1 0.710316 0.466292
1 0.75179 0.550292
1 0.787519 0.618638
1 0.818169 0.67544
1 0.844384 0.723109
1 0.866772 0.763325
1 0.885881 0.797371
1 0.902195 0.826271
1 0.916131 0.850859
1 0.92805 0.871826
1 0.938258 0.889743
1 0.947013 0.905082
1 0.954534 0.918244
1 0.961006 0.929556
1 0.966583 0.939297
1 0.971396 0.947698
0 0.0363483 0
0 0.0359624 0
0.000862492 0.0369426 0
0.0179324 0.0379568 0
0.0278095 0.0383926 0
0.0369719 0.0393013 0
0.0469924 0.0410246 0
0.0591818 0.0437209 0
0.0747938 0.0472128 0
0.0945158 0.0509437 0
0.118672 0.0538884 0
0.147397 0.0546046 0
0.180684 0.0513826 0
0.218301 0.0437991 0
0.260197 0.0352609 0
0.307254 0.0292573 0
0.360743 0.0262221 0
0.421537 0.0257453 0
0.48934 0.0278543 0
0.56195 0.0331666 0
0.63547 0.0428068 0
0.705763 0.0584279 0
0.769946 0.0824572 0
0.826673 0.11828 0
0.876717 0.169058 0
0.917486 0.235729 0
0.950592 0.31271 0
0.977893 0.392593 0
1 0.470789 0
1 0.545579 0
1 0.608089 0.179302
1 0.662714 0.356979
1 0.710479 0.466279
1 0.751899 0.550289
1 0.787592 0.618639
1 0.818218 0.675442
1 0.844417 0.723111
1 0.866794 0.763327
1 0.885896 0.797373
1 0.902205 0.826272
1 0.916137 0.85086
1 0.928054 0.871826
1 0.938261 0.889743
1 0.947015 0.905083
1 0.954536 0.918244
1 0.961007 0.929556
1 0.966583 0.939297
1 0.971395 0.947696
0 0.0467586 0
0 0.0463406 0
0 0.0464315 0
0.00463199 0.0483171 0
0.0237179 0.0487746 0
0.035806 0.0492615 0
0.0474345 0.0503173 0
0.059998 0.0523341 0
0.0750489 0.055455 0
0.094008 0.0593881 0
0.117544 0.063398 0
0.145877 0.0662418 0
0.179085 0.0662587 0
0.21718 0.0615738 0
0.260013 0.0520247 0
0.307734 0.0419167 0
0.361472 0.0352258 0
0.422321 0.0323791 0
0.490117 0.033026 0
0.562709 0.0374246 0
0.636207 0.0465207 0
0.706464 0.0618768 0
0.770579 0.0858413 0
0.827192 0.121674 0
0.87581 0.172592 0
0.917681 0.238576 0
0.95067 0.314884 0
0.977915 0.394117 0
1 0.471823 0
1 0.546275 0
1 0.608563 0.179081
1 0.663031 0.356925
1 0.710691 0.466262
1 0.752041 0.550285
1 0.787687 0.61864
1 0.818281 0.675445
1 0.844459 0.723114
1 0.866823 0.763329
1 0.885915 0.797375
1 0.902217 0.826273
1 0.916146 0.850861
1 0.92806 0.871827
1 0.938264 0.889743
1 0.947018 0.905083
1 0.954538 0.918244
1 0.961008 0.929556
1 0.966584 0.939297
1 0.971396 0.947696
0 0.059676 0
0 0.059269 0
0 0.0590208 0
0 0.0595911 0
0.00692426 0.0617569 0
0.0303627 0.062177 0
0.0456903 0.0627008 0
0.0602999 0.0638684 0
0.0758515 0.0661266 0
0.0941541 0.06959 0
0.116806 0.0738332 0
0.144453 0.0779364 0
0.177259 0.0804477 0
0.215324 0.0794988 0
0.258781 0.0730692 0
0.307614 0.0613817 0
0.3621 0.0497958 0
0.42322 0.0427704 0
0.491081 0.0407587 0
0.563673 0.0435602 0
0.637149 0.0517287 0
0.707362 0.0666174 0
0.771388 0.0904167 0
0.827851 0.126195 0
0.876259 0.176895 0
0.916494 0.24243 0
0.950768 0.317707 0
0.977944 0.396097 0
1 0.473167 0
1 0.54718 0
1 0.609181 0.178792
1 0.663445 0.356855
1 0.710968 0.46624
1 0.752227 0.55028
1 0.787812 0.618642
1 0.818364 0.675448
1 0.844515 0.723118
1 0.86686 0.763333
1 0.88594 0.797378
1 0.902233 0.826275
1 0.916157 0.850862
1 0.928067 0.871828
1 0.93827 0.889744
1 0.947021 0.905084
1 0.95454 0.918245
1 0.961009 0.929557
1 0.966585 0.939297
1 0.971397 0.947698
0 0.0754177 0
0 0.0750339 0
0 0.074694 0
0 0.0746391 0
0 0.0753893 0
0.00888573 0.0780505 0
0.0384527 0.0785014 0
0.057691 0.0790242 0
0.0758367 0.0802416 0
0.0948308 0.0826497 0
0.11676 0.0863238 0
0.143427 0.0907003 0
0.175502 0.0946875 0
0.213172 0.0966386 0
0.256668 0.0944779 0
0.3063 0.0860528 0
0.362083 0.0721604 0
0.424035 0.0594192 0
0.492196 0.0527516 0
0.564865 0.0526751 0
0.63834 0.0592006 0
0.7085 0.0732318 0
0.772412 0.0966611 0
0.828679 0.132249 0
0.876819 0.182562 0
0.916787 0.24724 0
0.949348 0.321357 0
0.97798 0.398665 0
1 0.474913 0
1 0.548359 0
1 0.609985 0.178413
1 0.663984 0.356763
1 0.71133 0.466211
1 0.752469 0.550274
1 0.787974 0.618643
1 0.818473 0.675453
1 0.844587 0.723123
1 0.866908 0.763337
1 0.885972 0.797381
1 0.902255 0.826278
1 0.916171 0.850865
1 0.928077 0.87183
1 0.938276 0.889745
1 0.947025 0.905084
1 0.954542 0.918245
1 0.961011 0.929557
1 0.966586 0.939297
1 0.971398 0.947698
0 0.0942421 0
0 0.0938868 0
0 0.0935483 0
0 0.0932878 0
0 0.0933186 0
0 0.0942524 0
0.0112469 0.0975572 0
0.0481217 0.0980228 0
0.0719983 0.0984954 0
0.0942695 0.0996826 0
0.117174 0.102121 0
0.143105 0.105843 0
0.174141 0.110163 0
0.211063 0.113838 0
0.254187 0.115034 0
0.303945 0.111444 0
0.360734 0.100815 0
0.424176 0.0848615 0
0.493245 0.0717061 0
0.566244 0.0666295 0
0.639797 0.0701898 0
0.709915 0.082633 0
0.773686 0.105278 0
0.829703 0.140396 0
0.877506 0.19003 0
0.917145 0.253493 0
0.949487 0.326068 0
0.976428 0.401847 0
1 0.47718 0
1 0.549892 0
1 0.611032 0.177915
1 0.664686 0.356642
1 0.711801 0.466173
1 0.752784 0.550265
1 0.788185 0.618646
1 0.818614 0.675459
1 0.844682 0.723129
1 0.866972 0.763343
1 0.886015 0.797386
1 0.902284 0.826282
1 0.91619 0.850867
1 0.92809 0.871832
1 0.938285 0.889747
1 0.947031 0.905086
1 0.954546 0.918246
1 0.961014 0.929558
1 0.966588 0.939298
1 0.971399 0.947698
0 0.116348 0
0 0.116023 0
0 0.115707 0
0 0.115418 0
0 0.115209 0
0 0.115273 0
0 0.116442 0
0.0140442 0.120502 0
0.0594795 0.120968 0
0.0887725 0.121345 0
0.115801 0.122424 0
0.14312 0.124766 0
0.173481 0.128379 0
0.209348 0.132481 0
0.251729 0.135695 0
0.301151 0.135981 0
0.35818 0.130752 0
0.422869 0.117805 0
0.493608 0.100392 0
0.56757 0.0882647 0
0.641458 0.0867106 0
0.711608 0.0962334 0
0.775225 0.117312 0
0.830935 0.151414 0
0.878328 0.199875 0
0.917573 0.261605 0
0.949656 0.332147 0
0.976474 0.406119 0
1 0.479886 0
1 0.551882 0
1 0.612395 0.177263
1 0.665601 0.356484
1 0.712414 0.466123
1 0.753196 0.550254
1 0.78846 0.618649
1 0.818798 0.675467
1 0.844805 0.723137
1 0.867054 0.76335
1 0.88607 0.797391
1 0.90232 0.826286
1 0.916215 0.850871
1 0.928106 0.871834
1 0.938296 0.889749
1 0.947038 0.905087
1 0.954551 0.918247
1 0.961017 0.929558
1 0.96659 0.939298
1 0.971401 0.947699
0 0.141908 0
0 0.141614 0
0 0.141326 0
0 0.14105 0
0 0.140795 0
0 0.14058 0
0 0.140694 0
0 0.142151 0
0.0173221 0.147092 0
0.0726313 0.147561 0
0.108176 0.147827 0
0.140665 0.148737 0
0.172986 0.15089 0
0.20833 0.154287 0
0.249681 0.158071 0
0.298378 0.160729 0
0.355114 0.159953 0
0.420194 0.152855 0
0.492443 0.13778 0
0.568192 0.120394 0
0.643041 0.111618 0
0.71347 0.116126 0
0.776989 0.134251 0
0.832359 0.166368 0
0.879277 0.212827 0
0.918072 0.272085 0
0.949858 0.339963 0
0.97653 0.411623 0
1 0.48366 0
1 0.554193 0
1 0.614165 0.176404
1 0.666792 0.356277
1 0.713213 0.466057
1 0.753732 0.550239
1 0.788819 0.618653
1 0.819038 0.675477
1 0.844966 0.723148
1 0.867162 0.76336
1 0.886142 0.797399
1 0.902368 0.826292
1 0.916247 0.850875
1 0.928128 0.871837
1 0.93831 0.88975
1 0.947048 0.905089
1 0.954558 0.918248
1 0.961021 0.929559
1 0.966593 0.939299
1 0.971402 0.947698
0 0.17114 0
0 0.170874 0
0 0.170614 0
0 0.170362 0
0 0.170116 0
0 0.169843 0
0 0.16962 0
0 0.169808 0
0 0.171622 0
0.021145 0.1776 0
0.087701 0.178123 0
0.13044 0.178284 0
0.169208 0.179028 0
0.207268 0.180977 0
0.24834 0.184133 0
0.296061 0.187568 0
0.352092 0.189577 0
0.416938 0.187492 0
0.489776 0.178343 0
0.567257 0.162125 0
0.643876 0.147409 0
0.715161 0.144896 0
0.778811 0.158016 0
0.83389 0.186584 0
0.880315 0.229797 0
0.91863 0.285552 0
0.950094 0.34996 0
0.976599 0.418687 0
1 0.488528 0
1 0.557513 0
1 0.61617 0.175292
1 0.66834 0.356003
1 0.714254 0.465971
1 0.75443 0.550218
1 0.789287 0.618658
1 0.819352 0.67549
1 0.845176 0.723163
1 0.867302 0.763372
1 0.886235 0.797409
1 0.902431 0.8263
1 0.916289 0.850881
1 0.928156 0.871841
1 0.938329 0.889754
1 0.947061 0.905091
1 0.954566 0.91825
1 0.961027 0.92956
1 0.966597 0.9393
1 0.971404 0.947698
0 0.204385 0
0 0.204146 0
0 0.203912 0
0 0.203685 0
0 0.203459 0
0 0.203193 0
0 0.202896 0
0 0.202678 0
0 0.202971 0
0 0.205242 0
0.0255675 0.212484 0
0.10492 0.213122 0
0.155932 0.213265 0
0.201976 0.213942 0
0.246723 0.215774 0
0.294493 0.218749 0
0.349608 0.221809 0
0.41376 0.222932 0
0.486457 0.219126 0
0.564763 0.208154 0
0.643191 0.19302 0
0.716042 0.184241 0
0.780327 0.190497 0
0.835345 0.213479 0
0.881366 0.251773 0
0.919229 0.302734 0
0.950363 0.36267 0
0.976685 0.427712 0
1 0.494786 0
1 0.561803 0
1 0.619131 0.173801
1 0.670046 0.355726
1 0.715608 0.465857
1 0.755339 0.550191
1 0.789897 0.618664
1 0.81976 0.675506
1 0.845449 0.723181
1 0.867485 0.763388
1 0.886358 0.797422
1 0.902513 0.82631
1 0.916344 0.850888
1 0.928193 0.871847
1 0.938353 0.889757
1 0.947077 0.905093
1 0.954577 0.918251
1 0.961034 0.929561
1 0.966602 0.939301
1 0.971408 0.947699
0 0.242187 0
0 0.241972 0
0 0.241761 0
0 0.241556 0
0 0.241352 0
0 0.241106 0
0 0.240814 0
0 0.240504 0
0 0.240309 0
0 0.240755 0
0 0.243674 0
0.03081 0.252411 0
0.12465 0.253298 0
0.18521 0.253606 0
0.23976 0.254433 0
0.292371 0.256333 0
0.347921 0.259192 0
0.411201 0.261669 0
0.483231 0.26134 0
0.561565 0.255405 0
0.641032 0.243776 0
0.715559 0.232728 0
0.781058 0.232343 0
0.836457 0.248083 0
0.882317 0.279667 0
0.919838 0.324385 0
0.95067 0.378733 0
0.976795 0.439183 0
1 0.502798 0
1 0.567328 0
1 0.622965 0.171819
1 0.672639 0.355251
1 0.717065 0.465802
1 0.756522 0.550155
1 0.790691 0.618671
1 0.820292 0.675528
1 0.845805 0.723204
1 0.867723 0.76341
1 0.886517 0.797439
1 0.90262 0.826323
1 0.916415 0.850898
1 0.92824 0.871854
1 0.938385 0.889762
1 0.947098 0.905097
1 0.954591 0.918254
1 0.961044 0.929563
1 0.966608 0.939301
1 0.971413 0.947702
0 0.285267 0
0 0.285074 0
0 0.284885 0
0 0.284702 0
0 0.284519 0
0 0.284297 0
0 0.284028 0
0 0.283718 0
0 0.283415 0
0 0.283291 0
0 0.284018 0
0 0.287763 0
0.0372436 0.29833 0
0.147415 0.299661 0
0.219016 0.30042 0
0.283522 0.301712 0
0.34527 0.30387 0
0.409412 0.306469 0
0.480626 0.307711 0
0.558418 0.305049 0
0.638193 0.297066 0
0.713886 0.286796 0
0.780771 0.282115 0
0.837008 0.290468 0
0.883067 0.314081 0
0.920434 0.351227 0
0.951026 0.398831 0
0.976947 0.453701 0
1 0.513016 0
1 0.574422 0
1 0.627916 0.169176
1 0.675999 0.35462
1 0.719334 0.465602
1 0.757772 0.550205
1 0.791724 0.618679
1 0.820985 0.675556
1 0.846269 0.723235
1 0.868033 0.763437
1 0.886725 0.797462
1 0.902759 0.82634
1 0.916508 0.850911
1 0.928302 0.871864
1 0.938427 0.889769
1 0.947126 0.905102
1 0.95461 0.918257
1 0.961056 0.929565
1 0.966617 0.939303
1 0.971418 0.947701
0 0.334305 0
0 0.334136 0
0 0.333972 0
0 0.333812 0
0 0.333652 0
0 0.333459 0
0 0.333221 0
0 0.332941 0
0 0.332636 0
0 0.332382 0
0 0.332419 0
0 0.333588 0
0 0.338465 0
0.0455842 0.351274 0
0.17387 0.353278 0
0.2581 0.354851 0
0.334051 0.356923 0
0.405923 0.359317 0
0.478523 0.361021 0
0.555722 0.359858 0
0.635312 0.354091 0
0.711681 0.344884 0
0.779744 0.337787 0
0.837029 0.339852 0
0.883608 0.355214 0
0.921034 0.383879 0
0.951461 0.423686 0
0.977171 0.471937 0
1 0.526013 0
1 0.583501 0
1 0.634292 0.165624
1 0.680344 0.353774
1 0.722277 0.465333
1 0.759757 0.550139
1 0.7928 0.618785
1 0.821887 0.675591
1 0.846874 0.723275
1 0.868438 0.763473
1 0.886996 0.79749
1 0.90294 0.826362
1 0.91663 0.850927
1 0.928384 0.871875
1 0.938481 0.889778
1 0.947163 0.905108
1 0.954634 0.918261
1 0.961073 0.929568
1 0.966627 0.939305
1 0.971425 0.947702
0 0.38938 0
0 0.389243 0
0 0.389109 0
0 0.388979 0
0 0.388849 0
0 0.388692 0
0 0.388499 0
0 0.388269 0
0 0.388012 0
0 0.387768 0
0 0.38765 0
0 0.387998 0
0 0.389874 0
0 0.396331 0
0.0572115 0.411833 0
0.204656 0.414694 0
0.302818 0.417437 0
0.391296 0.420435 0
0.473405 0.422602 0
0.552857 0.422221 0
0.632505 0.417384 0
0.709346 0.408345 0
0.778455 0.39901 0
0.836812 0.39567 0
0.884088 0.403105 0
0.921731 0.422874 0
0.952049 0.454035 0
0.977524 0.494638 0
1 0.542447 0
1 0.595107 0
1 0.642484 0.160878
1 0.68595 0.352636
1 0.726086 0.464968
1 0.762331 0.550045
1 0.794534 0.618795
1 0.822816 0.675725
