OpenDRT/OpenDRT_v1.0.0_Default__filmlight-egamut2-tloge_to_rec1886.cube
LUT_3D_SIZE 8
DOMAIN_MIN 0.000000 0.000000 0.000000
DOMAIN_MAX 0.893617 0.893617 0.893617
0.00106062 0.00106062 0.00106062
0.0341954 0.00137767 0
0.151015 0.00376836 0
0.479704 0.0202413 0
0.865415 0.156544 0
1 0.653417 0.415946
1 0.902999 0.840119
1 0.976779 0.959796
0 0.0236511 0
0.0328657 0.0288817 0
0.150604 0.0401191 0
0.4821 0.0321631 0
0.86638 0.165094 0
1 0.654398 0.415458
1 0.903058 0.840107
1 0.976783 0.959796
0 0.109323 0
0 0.108737 0
0.142981 0.125432 0
0.485086 0.128614 0
0.868603 0.203748 0
1 0.658394 0.413493
1 0.9033 0.840061
1 0.976797 0.959795
0 0.364952 0
0 0.364246 0
0 0.366601 0
0.458578 0.416 0
0.871935 0.390155 0
1 0.67792 0.405236
1 0.904496 0.839843
1 0.976866 0.95979
0 0.715964 0
0 0.716532 0
0 0.719457 0
0.0132253 0.754213 0
0.816746 0.815658 0
1 0.77191 0.380356
1 0.910336 0.839054
1 0.977209 0.959769
0.422382 1 0.486645
0.424261 1 0.486492
0.431791 1 0.485867
0.471583 1 0.487274
0.62003 1 0.493985
0.974366 0.99532 0.674409
1 0.940508 0.839843
1 0.97888 0.959745
0.85649 1 0.860569
0.85655 1 0.860565
0.856789 1 0.860544
0.857969 1 0.860443
0.865689 1 0.861935
0.900284 1 0.869272
0.999588 1 0.923679
1 0.987462 0.96093
0.964302 1 0.964948
0.964305 1 0.964948
0.964318 1 0.964947
0.964379 1 0.964942
0.964683 1 0.964916
0.966921 1 0.965563
0.976939 1 0.968772
1 1 0.984318
0 0.000395953 0.026311
0.0391535 0 0.0345635
0.154367 0 0.0485128
0.483389 0.0187466 0
0.867032 0.15518 0
1 0.653325 0.41829
1 0.903001 0.840212
1 0.97678 0.959802
0 0.028363 0.0323429
0.0349521 0.0349521 0.0349521
0.160604 0.0285313 0.0344824
0.487474 0.0295196 0
0.867983 0.163728 0
1 0.654307 0.417807
1 0.903061 0.8402
1 0.976783 0.959801
0 0.113845 0.040456
0 0.115783 0.0233325
0.146191 0.131559 0
0.491033 0.117984 0
0.870106 0.20183 0
1 0.658301 0.415867
1 0.903302 0.840155
1 0.976797 0.9598
0 0.369621 0
0 0.368763 0
0 0.37015 0
0.459345 0.419087 0
0.873273 0.389437 0
1 0.677819 0.407664
1 0.904498 0.839937
1 0.976866 0.959796
0 0.718222 0
0 0.718759 0
0 0.72156 0
0.0125597 0.755538 0
0.817371 0.81634 0
1 0.771789 0.3831
1 0.910338 0.839149
1 0.977209 0.959774
0.421657 1 0.487805
0.423542 1 0.487652
0.431098 1 0.48703
0.471185 1 0.488593
0.619892 1 0.495353
0.974218 0.995036 0.67611
1 0.940503 0.83994
1 0.97888 0.959751
0.856467 1 0.860613
0.856526 1 0.860608
0.856766 1 0.860587
0.857947 1 0.860486
0.865683 1 0.861993
0.900285 1 0.869332
0.999576 1 0.923768
1 0.987462 0.960935
0.964301 1 0.964951
0.964304 1 0.96495
0.964317 1 0.96495
0.964378 1 0.964944
0.964681 1 0.964918
0.966921 1 0.965567
0.976939 1 0.968776
1 1 0.984323
0 0 0.120061
0.0457759 0 0.127906
0.165469 0 0.145294
0.492392 0.0129234 0.140932
0.874057 0.149819 0
1 0.652969 0.427648
1 0.903011 0.840592
1 0.976782 0.959824
0 0.0322326 0.125232
0.0179888 0.0253265 0.137082
0.168589 0.00723038 0.147073
0.497251 0.0227311 0.128699
0.874967 0.158321 0
1 0.65395 0.427189
1 0.90307 0.84058
1 0.976785 0.959823
0 0.122625 0.140398
0 0.126323 0.138542
0.145603 0.145603 0.145603
0.511768 0.085876 0.05704
0.877914 0.194967 0
1 0.657941 0.425341
1 0.903312 0.840535
1 0.976799 0.959822
0 0.387609 0.125255
0 0.388212 0.115116
0 0.395027 0.0517778
0.466901 0.434163 0
0.878976 0.387069 0
1 0.677426 0.417364
1 0.904507 0.840318
1 0.976869 0.959818
0 0.728006 0
0 0.728439 0
0 0.730732 0
0.00999344 0.761557 0
0.820346 0.819553 0
1 0.771303 0.394021
1 0.910343 0.839533
1 0.977211 0.959797
0.418676 1 0.492499
0.420587 1 0.492349
0.428251 1 0.491743
0.46954 1 0.493913
0.61932 1 0.500857
0.973617 0.993886 0.682913
1 0.940483 0.840333
1 0.978882 0.959773
0.856374 1 0.86079
0.856433 1 0.860785
0.856673 1 0.860765
0.857855 1 0.860664
0.865657 1 0.862226
0.90029 1 0.869576
0.999528 1 0.92413
1 0.987461 0.960958
0.964296 1 0.96496
0.964299 1 0.96496
0.964311 1 0.964959
0.964373 1 0.964953
0.964677 1 0.964928
0.966921 1 0.965581
0.976941 1 0.96879
1 1 0.984343
0 0.00184648 0.408507
0 0 0.412633
0.129767 0 0.436083
0.509169 0 0.45439
0.899245 0.128521 0.262891
1 0.651584 0.470473
1 0.903065 0.842463
1 0.976792 0.959932
0 0.0172382 0.41284
0 0.0140559 0.4185
0.103248 0.00676055 0.442451
0.510792 0 0.456221
0.900498 0.136998 0.261316
1 0.652559 0.470102
1 0.903124 0.842452
1 0.976795 0.959932
0 0.129023 0.425124
0 0.116181 0.430646
0.0177251 0.0763189 0.456308
0.516062 0.0306474 0.463725
0.904829 0.175463 0.254884
1 0.656527 0.468614
1 0.903365 0.842408
1 0.976809 0.959931
0 0.409404 0.445685
0 0.410501 0.444198
0 0.41795 0.44169
0.450481 0.450481 0.450481
0.901069 0.388306 0.22406
1 0.676132 0.461727
1 0.904555 0.842197
1 0.976878 0.959926
0 0.781678 0.169904
0 0.782085 0.166489
0 0.784038 0.151849
0 0.807306 0.116126
0.816977 0.817445 0.34542
1 0.769589 0.445853
1 0.910375 0.841425
1 0.977221 0.959906
0.404271 1 0.516007
0.406749 1 0.516147
0.4166 1 0.516704
0.46082 1 0.519245
0.616261 1 0.526839
0.970693 0.988418 0.713764
1 0.940386 0.84227
1 0.97889 0.959883
0.85591 1 0.861666
0.85597 1 0.861661
0.856212 1 0.861641
0.857402 1 0.861542
0.865525 1 0.863378
0.900311 1 0.870775
0.999291 1 0.925891
1 0.98746 0.96107
0.964272 1 0.965006
0.964275 1 0.965005
0.964287 1 0.965005
0.964349 1 0.964999
0.964653 1 0.964974
0.966921 1 0.965648
0.976949 1 0.96886
1 1 0.984438
0 0.269719 0.837072
0 0.266752 0.837981
0 0.25411 0.842656
0.19697 0.22288 0.889683
0.884478 0.332823 0.816188
1 0.658053 0.638068
1 0.903459 0.851654
1 0.976843 0.960468
0 0.280721 0.83698
0 0.277248 0.837848
0 0.265131 0.842413
0.190064 0.236907 0.889539
0.883644 0.342392 0.815886
1 0.659114 0.638078
1 0.903518 0.851645
1 0.976846 0.960468
0 0.322802 0.836217
0 0.319862 0.837018
0 0.307529 0.84104
0.162046 0.291625 0.886091
0.88 0.379331 0.814441
1 0.663435 0.638159
1 0.903754 0.851606
1 0.97686 0.960467
0 0.473541 0.830769
0 0.472415 0.831107
0 0.468892 0.83249
0.0660733 0.481154 0.861594
0.859631 0.518315 0.805478
1 0.684819 0.63948
1 0.904921 0.851424
1 0.976929 0.960463
0 0.796336 0.772541
0 0.79596 0.772319
0 0.794445 0.77149
0.0110977 0.7997 0.780545
0.779901 0.779901 0.779901
1 0.783609 0.665203
1 0.910766 0.850701
1 0.97727 0.960443
0.339348 1 0.632427
0.342657 1 0.632524
0.355785 1 0.632918
0.413623 1 0.634754
0.626293 1 0.662873
0.957151 0.965263 0.822965
1 0.940199 0.852435
1 0.978933 0.960424
0.853921 1 0.866408
0.854012 1 0.86643
0.854381 1 0.866519
0.856186 1 0.866953
0.864753 1 0.868988
0.900334 1 0.876562
0.998148 1 0.934065
1 0.987454 0.961617
0.964152 1 0.965232
0.964155 1 0.965232
0.964167 1 0.965231
0.96423 1 0.965226
0.964536 1 0.965201
0.966922 1 0.965981
0.97699 1 0.969208
1 1 0.984902
0.259026 0.772169 1
0.263733 0.77195 1
0.282652 0.771056 1
0.367907 0.766579 1
0.670129 0.764552 1
0.983965 0.837579 0.954691
1 0.909724 0.896467
1 0.977129 0.963098
0.258052 0.772862 1
0.262724 0.772639 1
0.28166 0.771747 1
0.367067 0.767281 1
0.670127 0.765394 1
0.983821 0.838045 0.954638
1 0.909785 0.896476
1 0.977132 0.963097
0.254129 0.775663 1
0.25881 0.775443 1
0.277667 0.774545 1
0.363672 0.770124 1
0.670141 0.768787 1
0.983239 0.83992 0.954423
1 0.910036 0.896512
1 0.977146 0.963097
0.235861 0.789165 1
0.240535 0.788959 1
0.259497 0.788115 1
0.347491 0.783882 1
0.670799 0.78491 1
0.980428 0.848756 0.953389
1 0.911276 0.896705
1 0.977213 0.963094
0.178466 0.848819 1
0.183099 0.848688 1
0.203171 0.848179 1
0.318441 0.846289 1
0.684566 0.849141 1
0.968458 0.882895 0.949142
1 0.917501 0.897986
1 0.977546 0.963081
0.439142 1 0.95856
0.442804 1 0.958514
0.457463 0.999826 0.958319
0.524296 0.995281 0.95719
0.742555 0.971788 0.949941
0.944436 0.944436 0.944436
1 0.947471 0.910743
1 0.979209 0.963071
0.848733 1 0.89539
0.848835 1 0.895409
0.849252 1 0.895486
0.851287 1 0.895865
0.860922 1 0.897658
0.907289 1 0.911385
0.993411 0.995865 0.963048
1 0.987508 0.964477
0.963683 1 0.966507
0.963688 1 0.966509
0.96371 1 0.966516
0.96382 1 0.966553
0.964354 1 0.966736
0.966884 1 0.967594
0.977162 1 0.970874
1 1 0.987044
0.835849 0.944066 1
0.83597 0.944055 1
0.836464 0.944013 1
0.838891 0.943806 1
0.850645 0.942782 1
0.914583 0.944231 1
1 0.966708 0.992606
1 0.979659 0.975788
0.835835 0.944107 1
0.835956 0.944096 1
0.83645 0.944055 1
0.838877 0.943848 1
0.850631 0.942824 1
0.914593 0.944278 1
1 0.966732 0.992603
1 0.979663 0.975789
0.835777 0.944274 1
0.835898 0.944263 1
0.836392 0.944221 1
0.838819 0.944015 1
0.850572 0.942992 1
0.91463 0.944471 1
1 0.966829 0.992591
1 0.979677 0.975793
0.835499 0.945095 1
0.83562 0.945085 1
0.836114 0.945043 1
0.838539 0.944836 1
0.850287 0.943816 1
0.914824 0.945413 1
0.999869 0.967306 0.992532
1 0.979746 0.975809
0.834285 0.949083 1
0.834406 0.949073 1
0.834898 0.949032 1
0.837315 0.948829 1
0.849052 0.947827 1
0.915927 0.949899 1
0.998999 0.969534 0.992253
1 0.98009 0.975892
0.832343 0.96705 1
0.832474 0.967042 1
0.833011 0.967009 1
0.835741 0.966855 1
0.850678 0.966311 1
0.923676 0.967651 1
0.995584 0.977746 0.991188
1 0.981813 0.976391
0.878914 1 0.994898
0.879035 1 0.994895
0.879523 1 0.99488
0.881942 1 0.994805
0.893952 1 0.994383
0.943255 0.998756 0.991891
0.990431 0.990431 0.990431
1 0.989958 0.980489
0.963108 1 0.974715
0.963114 1 0.974716
0.963139 1 0.974723
0.963261 1 0.974756
0.963857 1 0.974918
0.966669 1 0.975687
0.979724 1 0.980506
1 1 0.994402
0.960252 0.988579 1
0.960258 0.988578 1
0.960286 0.988577 1
0.960421 0.988569 1
0.961085 0.98853 1
0.964303 0.988343 1
0.981451 0.989183 1
1 0.995138 1
0.960251 0.988581 1
0.960258 0.988581 1
0.960285 0.988579 1
0.960421 0.988571 1
0.961085 0.988533 1
0.964302 0.988345 1
0.981452 0.989186 1
1 0.995139 1
0.96025 0.988591 1
0.960256 0.98859 1
0.960284 0.988589 1
0.960419 0.988581 1
0.961083 0.988542 1
0.964301 0.988355 1
0.981455 0.989196 1
1 0.995144 1
0.960242 0.988637 1
0.960249 0.988637 1
0.960276 0.988635 1
0.960411 0.988627 1
0.961076 0.988589 1
0.964293 0.988401 1
0.98147 0.989247 1
1 0.995168 1
0.960204 0.988866 1
0.960211 0.988866 1
0.960238 0.988864 1
0.960373 0.988856 1
0.961037 0.988818 1
0.964253 0.988629 1
0.981544 0.989497 1
1 0.995286 1
0.960059 0.989976 1
0.960066 0.989976 1
0.960093 0.989974 1
0.960228 0.989966 1
0.96089 0.989926 1
0.964101 0.989735 1
0.981947 0.990682 1
1 0.995836 1
0.960314 0.994916 1
0.960321 0.994916 1
0.96035 0.994914 1
0.960496 0.994906 1
0.961234 0.994871 1
0.965229 0.994755 1
0.984399 0.995267 1
1 0.997802 1
0.972543 1 1
0.97255 1 1
0.972576 1 1
0.972708 1 1
0.973357 1 1
0.97656 1 1
0.989429 1 1
1 1 1
