OpenDRT/OpenDRT_v1.0.0_Colorful__filmlight-egamut2-tloge_to_display-p3.cube
LUT_3D_SIZE 5
DOMAIN_MIN 0.000000 0.000000 0.000000
DOMAIN_MAX 0.851064 0.851064 0.851064
0.00109944 0.00109944 0.00109944
0.09196 0.00413607 0
0.558812 0.0472942 0
0.971467 0.601583 0.265294
1 0.913018 0.847388
0 0.0762294 0
0.0951384 0.0843067 0
0.567202 0.0938807 0
0.972018 0.605888 0.265107
1 0.913101 0.847405
0 0.487188 0
0 0.494653 0
0.586929 0.543896 0
0.978198 0.659965 0.26169
1 0.914219 0.847639
0.575863 0.997159 0.125374
0.580149 0.997263 0.130268
0.632806 0.999525 0.184158
1 1 0.601448
1 0.929456 0.850909
0.91874 1 0.843469
0.918819 1 0.843531
0.919879 1 0.84436
0.933835 1 0.855161
1 1 0.943135
0 0 0.0747232
0.0970557 0 0.0872352
0.567395 0.0426362 0
0.971585 0.601636 0.278383
1 0.913038 0.847514
0 0.0806013 0.0936268
0.0944127 0.0944127 0.0944127
0.578946 0.0862747 0
0.972129 0.605933 0.278225
1 0.913121 0.847532
0 0.499675 0
0 0.505639 0
0.589942 0.551183 0
0.978264 0.659921 0.275201
1 0.914238 0.847766
0.575046 0.997746 0.142158
0.579355 0.997839 0.146902
0.632252 0.99995 0.198048
1 1 0.608493
1 0.929472 0.851037
0.918739 1 0.84355
0.918818 1 0.843612
0.919879 1 0.844441
0.933837 1 0.855244
1 1 0.943238
0 0 0.522744
0.00307048 0 0.530321
0.57536 0 0.532564
0.973756 0.602325 0.407897
1 0.913306 0.849198
0 0.0210404 0.539237
0 0.0157339 0.54771
0.583197 0.0152585 0.540242
0.974217 0.606519 0.407926
1 0.913389 0.849215
0 0.512721 0.559066
0 0.516459 0.557428
0.550153 0.550153 0.550153
0.980759 0.659147 0.406812
1 0.914503 0.849452
0.563267 1 0.300657
0.567902 1 0.303103
0.624282 1 0.331442
0.997865 1 0.687761
1 0.929682 0.852748
0.918726 1 0.844636
0.918805 1 0.844698
0.919869 1 0.845528
0.933868 1 0.856351
1 1 0.944603
0 0.594838 1
0 0.594687 1
0.0308036 0.595873 1
0.973154 0.763552 0.955969
1 0.917106 0.871622
0 0.59982 1
0 0.599577 1
0.0306516 0.601034 1
0.972849 0.766078 0.95575
1 0.917185 0.871641
0 0.661144 1
0 0.661084 1
0.0320338 0.666754 1
0.968767 0.797427 0.952886
1 0.918242 0.871896
0.447615 1 0.958262
0.458838 1 0.958115
0.582277 0.997429 0.955906
0.942221 0.942221 0.942221
1 0.932848 0.875526
0.918419 1 0.860178
0.918503 1 0.86024
0.919619 1 0.861066
0.93421 1 0.871944
1 1 0.961309
0.773021 0.938584 1
0.773283 0.938578 1
0.776782 0.938496 1
0.822961 0.937692 1
1 0.976136 1
0.773059 0.938666 1
0.77332 0.938659 1
0.776818 0.938578 1
0.822997 0.937773 1
1 0.97617 1
0.77356 0.939757 1
0.77382 0.93975 1
0.777309 0.939666 1
0.823483 0.938862 1
1 0.976625 1
0.781643 0.954302 1
0.781893 0.954294 1
0.785239 0.954185 1
0.832559 0.953633 1
1 0.982305 1
0.916981 1 1
0.917112 1 1
0.918857 1 1
0.941204 1 1
0.998975 0.998975 0.998975
