OpenDRT/OpenDRT_v1.0.0_Colorful__filmlight-egamut2-tloge_to_rec2100-pq.cube
LUT_3D_SIZE 5
DOMAIN_MIN 0.000000 0.000000 0.000000
DOMAIN_MAX 0.851064 0.851064 0.851064
0.000925603 0.000925603 0.000925607
0.114622 0.0359376 7.30956e-07
0.399628 0.189594 7.30956e-07
0.624279 0.505045 0.150876
0.6862 0.664101 0.638087
0.0571611 0.106853 0.0182391
0.125391 0.118054 0.0193328
0.402873 0.203379 7.30956e-07
0.624521 0.507082 0.152683
0.686206 0.664126 0.638093
0.261778 0.38914 0.120624
0.263426 0.391172 0.121611
0.427822 0.416218 0.127257
0.627398 0.531145 0.173249
0.68632 0.6645 0.638177
0.523813 0.640722 0.267683
0.525138 0.640806 0.267696
0.541482 0.642131 0.268023
0.660681 0.666637 0.468415
0.687822 0.669465 0.639358
0.670547 0.69637 0.636602
0.670569 0.696373 0.636623
0.670839 0.696373 0.636927
0.674403 0.696557 0.640819
0.696886 0.698946 0.673149
0.029026 0.0148236 0.106292
0.121293 0.0409157 0.120415
0.402619 0.190939 7.30956e-07
0.624719 0.505328 0.150962
0.686203 0.664107 0.638138
0.0675613 0.111964 0.128016
0.128871 0.128871 0.128871
0.407033 0.202946 7.30956e-07
0.624955 0.507361 0.152771
0.68621 0.664132 0.638144
0.26582 0.394115 0.123111
0.267034 0.395613 0.123779
0.42938 0.419056 0.128772
0.627801 0.531407 0.173357
0.686329 0.664506 0.638225
0.52388 0.641176 0.268009
0.525213 0.641258 0.268019
0.541602 0.642541 0.268314
0.660478 0.666354 0.473736
0.687828 0.669474 0.639406
0.67055 0.696373 0.636635
0.670569 0.696373 0.636659
0.670839 0.69638 0.63696
0.674403 0.696554 0.640852
0.69688 0.698932 0.673187
0.175136 0.110057 0.401588
0.17727 0.111581 0.404978
0.413424 0.205482 0.415135
0.626197 0.504729 0.31812
0.686248 0.664192 0.63879
0.179179 0.114189 0.407924
0.181591 0.115256 0.411863
0.416115 0.207306 0.417757
0.626431 0.506774 0.317784
0.686255 0.664217 0.638799
0.291448 0.401982 0.429323
0.292378 0.403644 0.428435
0.428485 0.428485 0.428485
0.629566 0.530967 0.310321
0.686375 0.664591 0.638883
0.524099 0.646776 0.27208
0.525494 0.646809 0.272058
0.542522 0.64743 0.272007
0.657847 0.662688 0.524489
0.687864 0.669541 0.640068
0.670573 0.696436 0.637065
0.670592 0.696436 0.637086
0.670864 0.696436 0.637387
0.674435 0.696597 0.641276
0.696781 0.698787 0.673652
0.412622 0.470236 0.676819
0.412496 0.469764 0.676902
0.411803 0.464524 0.679095
0.64352 0.568775 0.650417
0.686949 0.665414 0.647351
0.413804 0.473523 0.676761
0.413656 0.473009 0.676844
0.412998 0.46805 0.679008
0.643559 0.569909 0.650361
0.686955 0.665442 0.647357
0.428345 0.509834 0.67586
0.428233 0.50953 0.675921
0.42816 0.507628 0.677631
0.644082 0.583743 0.649578
0.687056 0.665788 0.647442
0.516028 0.657436 0.651013
0.516863 0.657592 0.651275
0.5397 0.655953 0.650743
0.648342 0.648342 0.648342
0.68852 0.670544 0.648698
0.670877 0.697294 0.643118
0.670899 0.697294 0.643143
0.671175 0.697278 0.643434
0.674811 0.697153 0.647222
0.695512 0.696857 0.679313
0.627531 0.669171 0.716202
0.627605 0.669171 0.716192
0.628609 0.669177 0.71605
0.641561 0.669345 0.71391
0.692397 0.685115 0.693195
0.627546 0.669199 0.716195
0.627626 0.669196 0.716181
0.628624 0.669202 0.716043
0.641576 0.66937 0.713907
0.692393 0.685125 0.693195
0.627777 0.66956 0.7161
0.627854 0.669563 0.71609
0.62885 0.669566 0.715952
0.641785 0.66974 0.713802
0.692403 0.685267 0.693182
0.631235 0.674416 0.714692
0.631307 0.674409 0.714686
0.632244 0.674409 0.714547
0.645301 0.674687 0.712147
0.692485 0.687062 0.693002
0.67306 0.697357 0.693653
0.673092 0.69735 0.693647
0.673499 0.697265 0.693637
0.67872 0.696114 0.69344
0.69292 0.69292 0.69292
