OpenDRT/OpenDRT_v1.0.0_Umbra__filmlight-egamut2-tloge_to_rec1886.cube
LUT_3D_SIZE 8
DOMAIN_MIN 0.000000 0.000000 0.000000
DOMAIN_MAX 0.893617 0.893617 0.893617
0.0149052 0.0147065 0.0144493
0.0294526 0.0130984 0.01367
0.0821598 0.0139637 0.0180638
0.275749 0.0192512 0
0.658827 0.0870501 0
0.863531 0.288762 0
0.960636 0.677993 0.453286
0.990926 0.85583 0.719775
0.00713751 0.0283021 0.0161777
0.0345682 0.0295168 0.014143
0.0866499 0.0305727 0.00839541
0.281282 0.028477 0
0.661484 0.0908837 0
0.864154 0.290412 0
0.960697 0.678144 0.4532
0.99093 0.855838 0.719772
0 0.0752799 0.0214045
0.00987673 0.0818318 0
0.117967 0.0781327 0
0.300888 0.0790571 0
0.670024 0.108282 0
0.866703 0.297262 0
0.960944 0.678756 0.452853
0.990947 0.855872 0.719758
0 0.250559 0
0 0.253222 0
0.013111 0.271569 0
0.439301 0.262416 0
0.719139 0.222116 0
0.875665 0.330865 0
0.962176 0.681985 0.451542
0.991029 0.856043 0.719689
0.0166064 0.599944 0
0.019247 0.60235 0
0.0344842 0.612775 0
0.2948 0.64854 0
0.885592 0.651517 0
0.932429 0.49895 0
0.966462 0.69817 0.447088
0.991444 0.856991 0.719507
0.612259 0.896949 0
0.613822 0.897082 0
0.620128 0.897626 0
0.650093 0.900408 0
0.764442 0.905821 0.113888
1 0.909659 0.401593
0.998931 0.78278 0.439527
0.992926 0.862073 0.719541
0.905073 0.9355 0.643455
0.905161 0.935492 0.64354
0.905519 0.935459 0.643887
0.907269 0.9353 0.645597
0.915569 0.934527 0.654014
0.947917 0.931636 0.690919
1 0.93177 0.734538
1 0.888839 0.72372
0.980552 0.932252 0.777119
0.980557 0.932251 0.777124
0.980577 0.932249 0.777144
0.980673 0.932235 0.77724
0.981145 0.932167 0.777717
0.983375 0.931842 0.780048
0.991772 0.930607 0.790078
1 0.930247 0.800927
0.0156392 0.0154826 0.0262765
0.0324557 0.0123834 0.0287525
0.0831823 0.0112975 0.0341372
0.277935 0.0185105 0.00782416
0.66025 0.0865696 0
0.864055 0.288564 0
0.960674 0.677971 0.453464
0.990929 0.855828 0.719782
0.0028383 0.0288879 0.0331231
0.0333763 0.0328174 0.0320894
0.0890879 0.0280211 0.0315021
0.286825 0.0274843 0.00262149
0.662893 0.0903969 0
0.864685 0.290242 0
0.960735 0.678122 0.453379
0.990933 0.855837 0.719779
0 0.0756975 0.0472688
0.00106511 0.0829806 0.0348059
0.115583 0.0852465 0.00126518
0.305678 0.0761119 0
0.671441 0.107776 0
0.867231 0.2971 0
0.960981 0.678734 0.453033
0.990949 0.855871 0.719765
0 0.255496 0
0 0.257569 0
0.00782985 0.27345 0
0.438052 0.267026 0
0.719988 0.221444 0
0.87619 0.330741 0
0.962213 0.68198 0.451756
0.991031 0.856041 0.719696
0.0158643 0.601429 0
0.0184081 0.603801 0
0.0330292 0.614095 0
0.290741 0.650144 0
0.884231 0.653121 0
0.932798 0.498995 0
0.966499 0.698165 0.447307
0.991447 0.856992 0.719517
0.612679 0.897438 0
0.614244 0.89757 0
0.620557 0.89811 0
0.650551 0.900872 0
0.76454 0.905755 0.121974
1 0.909501 0.404305
0.998953 0.782774 0.43979
0.992929 0.862074 0.719551
0.905094 0.935499 0.643605
0.905182 0.935491 0.64369
0.90554 0.935459 0.644037
0.907289 0.935299 0.645747
0.91559 0.934523 0.654163
0.947932 0.931621 0.691054
1 0.931748 0.734639
1 0.888839 0.723731
0.980553 0.932252 0.777126
0.980558 0.932251 0.777131
0.980578 0.932249 0.777151
0.980674 0.932235 0.777248
0.981147 0.932167 0.777724
0.983376 0.931842 0.780056
0.991773 0.930606 0.790085
1 0.930245 0.800932
0.00527988 0.010581 0.0733395
0.0346841 0.00877044 0.0756374
0.0893363 0.00256337 0.0836212
0.279405 0.0156174 0.0970961
0.666232 0.0844303 0
0.866232 0.287855 0
0.960826 0.677883 0.45419
0.990939 0.855824 0.719811
0.0016298 0.0317115 0.0778346
0.0318093 0.032619 0.0807635
0.0972264 0.0115 0.0872927
0.289045 0.023614 0.0917831
0.668812 0.0882402 0
0.866859 0.289544 0
0.960886 0.678034 0.454105
0.990943 0.855832 0.719808
0 0.0692978 0.109786
0 0.0784334 0.106309
0.102015 0.0994657 0.0960982
0.319771 0.0654722 0.0672265
0.679276 0.105316 0
0.869388 0.296427 0
0.961133 0.678646 0.45376
0.99096 0.855867 0.719794
0 0.260823 0.131917
0 0.266539 0.115894
0 0.287163 0.0111866
0.431194 0.286692 0
0.723268 0.219085 0
0.878339 0.330225 0
0.962366 0.681959 0.452623
0.991042 0.856037 0.719725
0.0132544 0.608069 0
0.0154823 0.610302 0
0.0280416 0.620066 0
0.274753 0.656992 0
0.878648 0.659778 0
0.934285 0.499245 0
0.966651 0.698147 0.448196
0.991458 0.856996 0.719558
0.614408 0.899427 0
0.615981 0.899555 0
0.622323 0.900079 0
0.652431 0.902759 0
0.76495 0.905485 0.15479
1 0.90886 0.415015
0.999041 0.782752 0.440865
0.99294 0.862077 0.719592
0.905177 0.935498 0.644215
0.905266 0.93549 0.644301
0.905623 0.935457 0.644647
0.907374 0.935295 0.646357
0.915675 0.934509 0.654767
0.947992 0.931563 0.691601
1 0.931657 0.735048
1 0.88884 0.723777
0.980559 0.932251 0.777156
0.980563 0.93225 0.777161
0.980583 0.932248 0.777181
0.98068 0.932234 0.777277
0.981152 0.932166 0.777754
0.983382 0.93184 0.780085
0.991776 0.930602 0.790112
1 0.93024 0.800951
0 0.00525601 0.245686
0 0.00488662 0.247423
0.0486391 0 0.261685
0.302032 0 0.284596
0.690469 0.0782288 0.122079
0.877308 0.284038 0
0.961591 0.677607 0.458059
0.990992 0.8558 0.719953
0 0.0124674 0.251286
0 0.0118365 0.256157
0.038442 0.0100236 0.269936
0.310528 0 0.287918
0.693092 0.0822119 0.119215
0.877916 0.285759 0
0.961652 0.677776 0.458012
0.990996 0.855809 0.719949
0 0.0685707 0.27292
0 0.0678371 0.276437
0.0115062 0.0610348 0.294169
0.337777 0.0206376 0.301566
0.703638 0.100437 0.104568
0.880369 0.292776 0
0.9619 0.678464 0.45782
0.991013 0.855843 0.719935
0 0.240056 0.377714
0 0.245813 0.375985
0 0.267249 0.368733
0.362897 0.346552 0.324146
0.744006 0.216964 0.023443
0.892018 0.32782 0
0.963125 0.68185 0.456866
0.991094 0.856014 0.719867
0.00489995 0.651953 0.0813831
0.00697452 0.654191 0.0697133
0.0155486 0.662716 0.0332584
0.223906 0.699861 0
0.852589 0.694278 0
0.941732 0.50202 0
0.967404 0.69805 0.452547
0.991514 0.857013 0.719761
0.620918 0.90565 0.0205041
0.622434 0.905633 0.0214748
0.628532 0.905566 0.0255554
0.657126 0.90521 0.0521867
0.76725 0.904117 0.274611
1 0.905705 0.461692
0.999474 0.782685 0.446269
0.992995 0.862094 0.719796
0.90559 0.935488 0.647204
0.905679 0.935479 0.647289
0.906037 0.935444 0.647635
0.90779 0.935272 0.64934
0.916096 0.934438 0.657718
0.948289 0.93128 0.694264
1 0.931214 0.737034
1 0.888845 0.724004
0.980585 0.932247 0.777303
0.98059 0.932247 0.777308
0.98061 0.932244 0.777328
0.980706 0.93223 0.777424
0.981179 0.932162 0.7779
0.983408 0.931833 0.780231
0.991794 0.930583 0.790243
1 0.930214 0.801047
0 0.126555 0.642621
0 0.124386 0.642688
0 0.115338 0.643432
0.0265319 0.0764455 0.672511
0.735632 0.0699405 0.635228
0.933511 0.298855 0.169588
0.965544 0.676972 0.477998
0.991261 0.855765 0.720765
0 0.136889 0.644348
0 0.134489 0.644622
0 0.12549 0.645423
0.0247709 0.0857722 0.674397
0.737791 0.076501 0.636527
0.933876 0.300976 0.169079
0.965602 0.677142 0.477959
0.991265 0.855776 0.720765
0 0.180125 0.649886
0 0.177344 0.650209
0 0.166191 0.651753
0.0191824 0.127742 0.680362
0.746089 0.107465 0.641317
0.935355 0.309605 0.167001
0.965838 0.67783 0.477801
0.991283 0.85582 0.720765
0 0.346727 0.661033
0 0.345979 0.66107
0 0.343089 0.661435
0.00781725 0.33853 0.68067
0.766764 0.294091 0.650353
0.94259 0.352074 0.156491
0.967003 0.68122 0.477011
0.991368 0.856035 0.720763
0 0.644849 0.652459
0 0.646182 0.652578
0 0.652052 0.653466
0.12513 0.689943 0.665257
0.743592 0.695733 0.62752
0.975189 0.556425 0.196922
0.972787 0.697844 0.473037
0.991789 0.857097 0.720755
0.639463 0.907855 0.425275
0.641036 0.907768 0.426085
0.647343 0.907409 0.42937
0.676519 0.905593 0.445376
0.781662 0.897086 0.513321
0.973264 0.891318 0.606435
1 0.783352 0.474769
0.993266 0.862173 0.720796
0.907638 0.935379 0.661403
0.907727 0.935368 0.661487
0.908087 0.935323 0.661825
0.909849 0.935106 0.663494
0.918162 0.934051 0.671652
0.949735 0.929944 0.706582
1 0.92916 0.746114
1 0.888882 0.725155
0.980716 0.932228 0.778021
0.980721 0.932228 0.778026
0.98074 0.932225 0.778046
0.980837 0.93221 0.778142
0.98131 0.932139 0.778618
0.983538 0.931796 0.780942
0.991882 0.930491 0.790882
1 0.930087 0.801514
0.039047 0.600747 0.874933
0.0404883 0.600851 0.875497
0.0469179 0.601287 0.877824
0.0962104 0.60332 0.889486
0.518328 0.582596 0.890672
0.964117 0.646026 0.788431
0.988022 0.705004 0.597482
0.992686 0.856153 0.725549
0.0390073 0.601837 0.874818
0.040411 0.601914 0.875371
0.046812 0.602354 0.87769
0.0959514 0.60442 0.889334
0.518607 0.584125 0.890435
0.964009 0.647311 0.788307
0.988059 0.705181 0.597498
0.99269 0.856164 0.725549
0.0388623 0.606252 0.87435
0.0402571 0.60633 0.8749
0.0464134 0.60665 0.87715
0.0949673 0.608839 0.888725
0.51986 0.590229 0.889451
0.963569 0.652446 0.787808
0.988212 0.705898 0.597562
0.992707 0.856208 0.72555
0.0385992 0.627523 0.872027
0.0399562 0.627628 0.872556
0.0459483 0.628061 0.874724
0.0912955 0.630175 0.885717
0.52866 0.619417 0.883881
0.96139 0.675769 0.78545
0.988961 0.709417 0.597879
0.992787 0.856422 0.725552
0.0549045 0.718361 0.861938
0.0570229 0.718734 0.862402
0.0666856 0.720317 0.864301
0.14818 0.728689 0.872773
0.607609 0.734217 0.846763
0.951206 0.756766 0.776067
0.992612 0.7263 0.599452
0.993184 0.857476 0.725563
0.691113 0.887942 0.769672
0.692441 0.887848 0.769662
0.697763 0.887466 0.769622
0.722367 0.885613 0.769409
0.80981 0.8778 0.768306
0.935359 0.867753 0.76973
1 0.813383 0.635288
0.99514 0.862645 0.7256
0.91692 0.933677 0.717717
0.917008 0.93366 0.717782
0.917366 0.933588 0.718045
0.919109 0.933238 0.71934
0.92721 0.931549 0.725556
0.955802 0.924923 0.750365
0.996167 0.922 0.77633
1 0.889382 0.731461
0.981353 0.932119 0.781447
0.981358 0.932118 0.781452
0.981378 0.932115 0.781471
0.981474 0.932098 0.781567
0.981947 0.932014 0.782034
0.984165 0.93161 0.784308
0.9923 0.930065 0.793834
1 0.929509 0.803633
0.782848 0.84138 0.866892
0.783001 0.841368 0.866889
0.783624 0.841317 0.866874
0.786684 0.841065 0.866797
0.801545 0.839819 0.866338
0.871771 0.835737 0.860305
0.999534 0.86229 0.813737
1 0.86761 0.757929
0.782869 0.841452 0.866873
0.783021 0.841439 0.866869
0.783643 0.841388 0.866855
0.786704 0.841137 0.866778
0.80156 0.839892 0.866319
0.871804 0.835827 0.860274
0.99952 0.862362 0.813726
1 0.867621 0.757931
0.782954 0.841743 0.866793
0.783106 0.84173 0.86679
0.783724 0.841678 0.866775
0.786782 0.841427 0.866699
0.801626 0.840185 0.866242
0.871939 0.836194 0.860145
0.999466 0.862654 0.813685
1 0.867665 0.757941
0.783386 0.843168 0.866397
0.783537 0.843156 0.866394
0.784153 0.843105 0.866379
0.78718 0.842852 0.866306
0.801958 0.841622 0.865855
0.872639 0.838009 0.85949
0.9992 0.864073 0.813482
1 0.867879 0.757987
0.785799 0.849969 0.864373
0.785946 0.849958 0.86437
0.786546 0.84991 0.864356
0.789493 0.849676 0.864286
0.803851 0.848504 0.863865
0.876842 0.846911 0.855874
0.997935 0.870525 0.812551
1 0.868934 0.758217
0.804622 0.878257 0.852893
0.804782 0.878253 0.852881
0.805434 0.878238 0.852829
0.808705 0.878174 0.852555
0.82581 0.878096 0.850714
0.905364 0.881597 0.835772
0.993035 0.892066 0.809361
1 0.873981 0.759331
0.933606 0.923313 0.806463
0.933671 0.923304 0.806465
0.933938 0.923264 0.806474
0.935239 0.923071 0.806517
0.941289 0.922156 0.806707
0.962769 0.918709 0.807271
0.989317 0.915746 0.808578
1 0.899783 0.772312
0.984083 0.931344 0.795152
0.984088 0.931343 0.795156
0.984107 0.931338 0.795171
0.984201 0.931314 0.795247
0.984657 0.931196 0.795616
0.986764 0.930637 0.797377
0.993926 0.928561 0.80416
1 0.927647 0.810429
0.947254 0.90651 0.835795
0.947263 0.906509 0.835794
0.947296 0.906507 0.835792
0.94746 0.906499 0.83578
0.948269 0.906458 0.83572
0.952221 0.906261 0.835395
0.97106 0.905935 0.832606
1 0.913776 0.818411
0.947256 0.906514 0.835793
0.947264 0.906513 0.835793
0.947298 0.906512 0.83579
0.947461 0.906503 0.835779
0.948271 0.906463 0.835719
0.952223 0.906266 0.835393
0.971062 0.90594 0.832604
1 0.913779 0.81841
0.947263 0.906531 0.835787
0.947271 0.90653 0.835786
0.947305 0.906529 0.835784
0.947469 0.90652 0.835772
0.948278 0.90648 0.835712
0.952229 0.906283 0.835387
0.971071 0.905961 0.832594
1 0.913795 0.818408
0.947301 0.906615 0.835754
0.947309 0.906615 0.835753
0.947343 0.906613 0.835751
0.947507 0.906605 0.835739
0.948315 0.906564 0.835679
0.952262 0.906367 0.835354
0.971118 0.906064 0.832546
1 0.91387 0.818396
0.947489 0.907027 0.835591
0.947497 0.907027 0.83559
0.947531 0.907025 0.835588
0.947694 0.907017 0.835576
0.948498 0.906977 0.835516
0.952424 0.906781 0.835194
0.971358 0.90657 0.832306
1 0.914237 0.818339
0.948482 0.908991 0.834765
0.94849 0.908991 0.834765
0.948523 0.908989 0.834762
0.948682 0.908981 0.834751
0.949464 0.908943 0.834693
0.953286 0.908754 0.834381
0.972724 0.909023 0.831022
1 0.915892 0.81808
0.954858 0.916994 0.830386
0.954867 0.916994 0.830385
0.954901 0.916994 0.830381
0.955071 0.916992 0.830359
0.955924 0.916988 0.830244
0.960373 0.917033 0.82953
0.981034 0.918291 0.824509
1 0.921196 0.817239
0.988179 0.928288 0.816481
0.988182 0.928288 0.816481
0.988196 0.928285 0.816482
0.988264 0.928274 0.816485
0.988594 0.928217 0.816499
0.990123 0.927953 0.816562
0.995405 0.927001 0.816744
1 0.926278 0.817056
