OpenDRT/OpenDRT_v1.0.0_Colorful__filmlight-egamut2-tloge_to_rec2100-pq.cube
LUT_3D_SIZE 48
0.000925603 0.000925603 0.000925607
0.00550455 0.0019002 0.0015563
0.0119763 0.00318859 0.0017902
0.0190399 0.00468238 0.000656911
0.0263048 0.00642483 7.30956e-07
0.035286 0.00880192 7.30956e-07
0.0465041 0.0120312 7.30956e-07
0.0601068 0.0162606 7.30956e-07
0.0761032 0.0216127 7.30956e-07
0.0943574 0.0281632 7.30956e-07
0.114622 0.0359376 7.30956e-07
0.13661 0.044925 7.30956e-07
0.160077 0.0551091 7.30956e-07
0.184892 0.0665047 7.30956e-07
0.211079 0.0791951 7.30956e-07
0.238808 0.0933471 7.30956e-07
0.268314 0.109189 7.30956e-07
0.299711 0.126917 7.30956e-07
0.332701 0.146514 7.30956e-07
0.366418 0.167615 7.30956e-07
0.399628 0.189594 7.30956e-07
0.431224 0.211908 7.30956e-07
0.460607 0.234481 7.30956e-07
0.487651 0.257909 7.30956e-07
0.512451 0.283516 7.30956e-07
0.535186 0.313138 7.30956e-07
0.555983 0.348058 7.30956e-07
0.575016 0.387435 0.0223373
0.59255 0.428404 0.0858827
0.608895 0.468144 0.121641
0.624279 0.505045 0.150876
0.636442 0.53626 0.209454
0.646223 0.562275 0.383276
0.654712 0.584365 0.461783
0.661965 0.602918 0.511378
0.668088 0.618392 0.547236
0.673219 0.631247 0.574581
0.677471 0.641907 0.59601
0.680974 0.65073 0.61309
0.683851 0.658036 0.626873
0.6862 0.664101 0.638087
0.688114 0.669139 0.647283
0.689669 0.67334 0.654876
0.69093 0.67685 0.661177
0.691962 0.679794 0.666439
0.692809 0.682271 0.670848
0.693496 0.684362 0.674562
0.694056 0.686135 0.677705
0.00207313 0.00500275 0.00168089
0.00659911 0.00614148 0.000669337
0.0123523 0.00817675 0.000673668
0.0190406 0.0106334 0.000788326
0.0262562 0.0130285 0.000841627
0.0353458 0.0156715 0.000758091
0.0467824 0.0185468 0.000100885
0.0606537 0.0217252 7.30956e-07
0.076873 0.0256815 7.30956e-07
0.0952466 0.0310287 7.30956e-07
0.115536 0.0379881 7.30956e-07
0.137486 0.0464621 7.30956e-07
0.160879 0.0563133 7.30956e-07
0.185599 0.0674789 7.30956e-07
0.21168 0.0799981 7.30956e-07
0.239301 0.0940176 7.30956e-07
0.268752 0.109774 7.30956e-07
0.300067 0.127422 7.30956e-07
0.332989 0.146957 7.30956e-07
0.366649 0.168015 7.30956e-07
0.399813 0.189967 7.30956e-07
0.431377 0.212269 7.30956e-07
0.460728 0.234847 7.30956e-07
0.487746 0.258294 7.30956e-07
0.512531 0.283929 7.30956e-07
0.535242 0.313564 7.30956e-07
0.556028 0.348454 7.30956e-07
0.575046 0.387754 0.0241083
0.592569 0.428636 0.0861834
0.608912 0.468299 0.121794
0.624291 0.505146 0.150965
0.636454 0.536326 0.209466
0.646226 0.562315 0.383284
0.654715 0.584389 0.461787
0.661965 0.602935 0.511383
0.668094 0.618407 0.547236
0.673219 0.631259 0.574581
0.677471 0.641913 0.59601
0.68098 0.65073 0.613096
0.683851 0.658039 0.626873
0.6862 0.664101 0.638087
0.688108 0.669142 0.647283
0.689666 0.67334 0.654876
0.690934 0.676854 0.661177
0.691962 0.679794 0.666439
0.692809 0.682271 0.670848
0.693496 0.684365 0.674562
0.694063 0.686132 0.677705
0.00444628 0.010526 0.0020575
0.00855299 0.0115128 0.00114719
0.0140406 0.0129859 0.00123894
0.0200394 0.0152709 0.00140307
0.0267722 0.0179774 0.0015892
0.0355059 0.021371 0.00178552
0.0467123 0.025352 0.0019128
0.060508 0.0296452 0.00179099
0.0768432 0.0339759 0.000897598
0.0954802 0.0383285 7.30956e-07
0.116039 0.043348 7.30956e-07
0.138139 0.0499959 7.30956e-07
0.161565 0.0586238 7.30956e-07
0.186248 0.0690615 7.30956e-07
0.212262 0.0811487 7.30956e-07
0.239803 0.0948967 7.30956e-07
0.269127 0.110451 7.30956e-07
0.300352 0.127965 7.30956e-07
0.333191 0.147403 7.30956e-07
0.366881 0.168444 7.30956e-07
0.399997 0.190359 7.30956e-07
0.431527 0.212644 7.30956e-07
0.460852 0.235223 7.30956e-07
0.487843 0.258687 7.30956e-07
0.512601 0.284347 7.30956e-07
0.535301 0.313994 7.30956e-07
0.556065 0.348853 7.30956e-07
0.575079 0.388074 0.0257443
0.592592 0.428864 0.0864826
0.60893 0.46845 0.121946
0.6243 0.505244 0.151052
0.636466 0.536387 0.209476
0.646232 0.562358 0.383284
0.654721 0.584417 0.461789
0.661971 0.602949 0.511383
0.668097 0.618416 0.547241
0.673219 0.631262 0.574581
0.677471 0.641913 0.596016
0.68098 0.650736 0.613093
0.683851 0.658042 0.626873
0.6862 0.664101 0.63809
0.688108 0.669142 0.647283
0.689669 0.67334 0.654879
0.690934 0.676854 0.661177
0.691962 0.679794 0.666439
0.692802 0.682271 0.670851
0.693493 0.684362 0.674562
0.694063 0.686132 0.677705
0.00726518 0.0167346 0.00196612
0.0105574 0.0176053 0.00188306
0.0162452 0.0185589 0.00192951
0.0219773 0.0203298 0.00206241
0.0281491 0.0227334 0.00225917
0.0363249 0.0260961 0.00252762
0.0470915 0.0304489 0.002835
0.0605888 0.0355071 0.00307435
0.0767626 0.0408531 0.0030338
0.0953882 0.0460618 0.00223973
0.1161 0.0509448 7.30956e-07
0.138446 0.0560586 7.30956e-07
0.16205 0.0626892 7.30956e-07
0.186795 0.0716296 7.30956e-07
0.212789 0.0828197 7.30956e-07
0.240274 0.0960537 7.30956e-07
0.269531 0.111304 7.30956e-07
0.300689 0.12863 7.30956e-07
0.333466 0.147945 7.30956e-07
0.367 0.168851 7.30956e-07
0.40018 0.190771 7.30956e-07
0.431674 0.213033 7.30956e-07
0.46097 0.235608 7.30956e-07
0.487933 0.259085 7.30956e-07
0.512679 0.28477 7.30956e-07
0.535354 0.314424 7.30956e-07
0.556107 0.349252 7.30956e-07
0.575103 0.3884 0.0272704
0.592611 0.429094 0.0867812
0.608941 0.468602 0.122099
0.624315 0.505345 0.151139
0.636475 0.536448 0.209487
0.646244 0.562395 0.383276
0.654727 0.584445 0.461789
0.661971 0.602963 0.511385
0.6681 0.618427 0.547241
0.673219 0.631274 0.574584
0.677477 0.641919 0.59601
0.68098 0.650736 0.613093
0.683851 0.658042 0.626873
0.686193 0.664101 0.63809
0.688108 0.669142 0.647286
0.689666 0.67334 0.654876
0.69093 0.676854 0.661177
0.691969 0.679794 0.666439
0.692802 0.682271 0.670851
0.693493 0.684362 0.674562
0.694063 0.686132 0.677705
0.0103502 0.0232097 0.00263545
0.0125598 0.0242896 0.00276351
0.0184987 0.024816 0.00276455
0.0243065 0.0260598 0.00284589
0.0302088 0.0279844 0.00300778
0.037808 0.030969 0.00327578
0.0479742 0.0351787 0.00364359
0.0610098 0.0404767 0.00404952
0.0768812 0.0464394 0.00434351
0.0953444 0.0525139 0.00424585
0.116029 0.0581941 0.00315796
0.138491 0.0633052 7.30956e-07
0.162305 0.0685774 7.30956e-07
0.18721 0.0755846 7.30956e-07
0.213257 0.0852889 7.30956e-07
0.240723 0.0976368 7.30956e-07
0.269927 0.112389 7.30956e-07
0.301025 0.129425 7.30956e-07
0.333745 0.148567 7.30956e-07
0.367227 0.169367 7.30956e-07
0.400229 0.191153 7.30956e-07
0.431824 0.213452 7.30956e-07
0.461091 0.236018 7.30956e-07
0.488037 0.259507 7.30956e-07
0.512759 0.285208 7.30956e-07
0.535417 0.314871 7.30956e-07
0.556152 0.349663 7.30956e-07
0.575133 0.388726 0.0287474
0.592634 0.429329 0.0870867
0.608958 0.468759 0.122254
0.624326 0.505443 0.15123
0.636481 0.536517 0.209497
0.64625 0.56244 0.38328
0.65473 0.584467 0.461794
0.661974 0.602983 0.511385
0.6681 0.618439 0.547244
0.673222 0.63128 0.574584
0.677477 0.641922 0.596016
0.68098 0.650739 0.613093
0.683851 0.658045 0.626873
0.6862 0.664107 0.638087
0.688114 0.669146 0.647286
0.689669 0.67334 0.654879
0.690934 0.676854 0.661177
0.691962 0.679798 0.666439
0.692809 0.682271 0.670848
0.693493 0.684362 0.674562
0.694056 0.686132 0.677705
0.0143849 0.0313486 0.00377036
0.0152861 0.0326797 0.00396326
0.0212454 0.0329505 0.0039382
0.0271636 0.0337403 0.00397124
0.0330768 0.035067 0.00406852
0.0403031 0.0374135 0.00428324
0.0497314 0.0411023 0.00464346
0.0620287 0.0461742 0.00512262
0.0773559 0.0523622 0.00562479
0.0954834 0.0590866 0.0059444
0.115996 0.0656792 0.00572049
0.138436 0.0716004 0.00419358
0.16238 0.0767611 7.30956e-07
0.187505 0.0821532 7.30956e-07
0.21371 0.0896584 7.30956e-07
0.24122 0.100352 7.30956e-07
0.270394 0.114131 7.30956e-07
0.301431 0.130625 7.30956e-07
0.334088 0.149458 7.30956e-07
0.367507 0.170077 7.30956e-07
0.400463 0.191759 7.30956e-07
0.431845 0.213917 7.30956e-07
0.461248 0.23655 7.30956e-07
0.488162 0.260047 7.30956e-07
0.512851 0.285772 7.30956e-07
0.535488 0.315436 7.30956e-07
0.556204 0.350181 7.30956e-07
0.575174 0.389142 0.0304911
0.592662 0.429629 0.0874692
0.608979 0.468957 0.122451
0.624341 0.50557 0.151344
0.636493 0.536595 0.20951
0.646256 0.562493 0.383284
0.654737 0.584503 0.461796
0.661981 0.603009 0.51139
0.668106 0.618451 0.547244
0.673226 0.631289 0.574589
0.677477 0.641931 0.596016
0.68098 0.650743 0.613096
0.683851 0.658049 0.626873
0.6862 0.664107 0.638087
0.688114 0.669146 0.647286
0.689669 0.673343 0.654879
0.69093 0.676854 0.661177
0.691962 0.679798 0.666439
0.692809 0.682271 0.670848
0.693493 0.684362 0.674562
0.694056 0.686132 0.677705
0.0197119 0.0416761 0.00534683
0.0202358 0.0426581 0.00550414
0.0245641 0.0435358 0.00560467
0.0306667 0.0438981 0.00558372
0.0366408 0.0447103 0.00562087
0.0438286 0.0462632 0.00574061
0.0527393 0.049082 0.00601776
0.0640938 0.0534489 0.0064779
0.0785208 0.0593071 0.00707
0.0960137 0.0662439 0.00765478
0.116155 0.0735337 0.00796258
0.138418 0.0804329 0.0075449
0.162348 0.0864198 0.00545761
0.187619 0.0915436 7.30956e-07
0.214057 0.0970873 7.30956e-07
0.241724 0.105252 7.30956e-07
0.270931 0.117174 7.30956e-07
0.301927 0.132591 7.30956e-07
0.334514 0.150832 7.30956e-07
0.367865 0.171123 7.30956e-07
0.400757 0.192618 7.30956e-07
0.432083 0.214678 7.30956e-07
0.461235 0.237175 7.30956e-07
0.488072 0.260669 7.30956e-07
0.512975 0.286517 7.30956e-07
0.535585 0.316182 7.30956e-07
0.556275 0.350859 7.30956e-07
0.57522 0.389688 0.032603
0.592698 0.430013 0.0879649
0.609007 0.469213 0.122707
0.624356 0.505738 0.151492
0.636514 0.536705 0.20953
0.646265 0.562565 0.383284
0.654746 0.58455 0.461798
0.661987 0.603037 0.511393
0.66811 0.618474 0.547246
0.673232 0.631301 0.574589
0.677477 0.64194 0.596016
0.68098 0.650749 0.613096
0.683851 0.658052 0.626873
0.6862 0.664114 0.63809
0.688111 0.669146 0.647286
0.689669 0.673346 0.654879
0.690934 0.676854 0.661184
0.691969 0.679794 0.666439
0.692809 0.682274 0.670848
0.693493 0.684362 0.674562
0.694056 0.686132 0.677705
0.0265418 0.0543918 0.00747857
0.0269076 0.0550592 0.00759592
0.0286761 0.0567281 0.00788316
0.0348154 0.0567699 0.00781729
0.0408815 0.0571619 0.00779907
0.0480948 0.0580622 0.0078345
0.0569092 0.0598445 0.00797377
0.0675905 0.0630795 0.00831043
0.0808649 0.0680264 0.00886597
0.0973018 0.0745175 0.00955701
0.116733 0.0819971 0.0101937
0.138599 0.0896306 0.0104386
0.16235 0.0966484 0.00975145
0.187613 0.102595 0.00697242
0.214215 0.107691 7.30956e-07
0.242124 0.113534 7.30956e-07
0.271482 0.122604 7.30956e-07
0.302503 0.135979 7.30956e-07
0.335038 0.153054 7.30956e-07
0.368316 0.172712 7.30956e-07
0.401134 0.19387 7.30956e-07
0.432393 0.21575 7.30956e-07
0.461487 0.238168 7.30956e-07
0.488273 0.261646 7.30956e-07
0.512856 0.287403 7.30956e-07
0.535709 0.31716 7.30956e-07
0.556362 0.351744 7.30956e-07
0.575288 0.390391 0.0351327
0.592746 0.43052 0.0886054
0.609042 0.46955 0.123037
0.624388 0.505956 0.151684
0.636529 0.536847 0.209553
0.646284 0.562653 0.383276
0.654761 0.584611 0.461805
0.661996 0.603072 0.511398
0.668113 0.618495 0.547252
0.673232 0.631319 0.574589
0.677484 0.641952 0.596019
0.680987 0.650758 0.613099
0.683858 0.658058 0.626879
0.686203 0.664114 0.63809
0.688114 0.669149 0.647286
0.689669 0.673343 0.654879
0.690934 0.676857 0.661177
0.691962 0.679798 0.666442
0.692802 0.682274 0.670851
0.693496 0.684362 0.674562
0.694056 0.686132 0.677705
0.0350285 0.069568 0.0102782
0.035289 0.0700239 0.0103664
0.0360945 0.0713906 0.0106319
0.039527 0.0725128 0.0108203
0.0457531 0.0724892 0.0107332
0.0530088 0.072895 0.0106985
0.0618051 0.0738674 0.0107224
0.0723333 0.0758155 0.0108683
0.0847875 0.0793617 0.01125
0.0998792 0.08473 0.0118813
0.118121 0.0916461 0.0126405
0.13922 0.0994447 0.0132849
0.16256 0.107229 0.0134099
0.187646 0.114254 0.0123774
0.214247 0.120159 0.0087661
0.242331 0.125346 7.30956e-07
0.271941 0.131717 7.30956e-07
0.303104 0.141935 7.30956e-07
0.33565 0.156814 7.30956e-07
0.36887 0.175239 7.30956e-07
0.401607 0.195745 7.30956e-07
0.432787 0.217291 7.30956e-07
0.461811 0.239552 7.30956e-07
0.488535 0.262976 7.30956e-07
0.513063 0.288728 7.30956e-07
0.535544 0.318346 7.30956e-07
0.556478 0.3529 7.30956e-07
0.57537 0.391308 0.0381326
0.592802 0.431172 0.0894297
0.609088 0.469984 0.123468
0.624418 0.506239 0.151936
0.636559 0.53703 0.209584
0.646308 0.562768 0.383284
0.654774 0.584683 0.461807
0.662009 0.60312 0.5114
0.668119 0.61853 0.547257
0.673238 0.631337 0.574592
0.677484 0.641961 0.596019
0.680987 0.650764 0.613099
0.683858 0.658061 0.626879
0.6862 0.664114 0.638093
0.688111 0.669152 0.647286
0.689666 0.673346 0.654876
0.690934 0.676857 0.661184
0.691969 0.679798 0.666439
0.692809 0.682274 0.670848
0.693493 0.684362 0.674562
0.694056 0.686132 0.677701
0.0452421 0.087126 0.013842
0.0454302 0.0874437 0.0139094
0.0459581 0.0883314 0.0140989
0.0470338 0.0899076 0.0144356
0.0511044 0.0906798 0.0145589
0.0584724 0.0906222 0.0144416
0.0672502 0.0910244 0.0143783
0.0777161 0.0920184 0.0143754
0.089983 0.0940418 0.0145063
0.10414 0.0977616 0.0149069
0.120881 0.103367 0.0155805
0.140693 0.110496 0.0163656
0.163231 0.118425 0.0169693
0.187898 0.12625 0.0169213
0.214321 0.133278 0.0154747
0.242409 0.139246 0.0108758
0.272204 0.144714 7.30956e-07
0.30362 0.15184 7.30956e-07
0.336305 0.163296 7.30956e-07
0.369522 0.179425 7.30956e-07
0.402184 0.19867 7.30956e-07
0.433281 0.219569 7.30956e-07
0.462217 0.241515 7.30956e-07
0.488869 0.264809 7.30956e-07
0.513326 0.29051 7.30956e-07
0.535744 0.320051 7.30956e-07
0.556273 0.354289 7.30956e-07
0.575476 0.392504 0.0416534
0.592886 0.432023 0.0904884
0.609146 0.470556 0.124025
0.624462 0.506606 0.152261
0.636595 0.537269 0.209622
0.64633 0.562922 0.383278
0.654795 0.584779 0.461818
0.662024 0.603183 0.511407
0.668132 0.618565 0.547265
0.673245 0.631363 0.574597
0.677493 0.64198 0.596024
0.680987 0.650776 0.613105
0.683858 0.65807 0.626882
0.6862 0.66412 0.638093
0.688114 0.669152 0.647286
0.689669 0.673353 0.654879
0.690934 0.676857 0.661184
0.691969 0.679801 0.666439
0.692809 0.682277 0.670851
0.693493 0.684362 0.674562
0.694063 0.686132 0.677705
0.0571611 0.106853 0.0182391
0.0573011 0.107081 0.0182921
0.057659 0.107663 0.0184277
0.0583008 0.108696 0.0186703
0.0594474 0.110239 0.0190317
0.0642894 0.111062 0.0191709
0.0731092 0.110952 0.019011
0.0834868 0.111322 0.018907
0.0956616 0.112286 0.018858
0.10964 0.114296 0.0189475
0.125391 0.118054 0.0193328
0.143599 0.12372 0.0200074
0.164789 0.1309 0.0207754
0.188635 0.138858 0.0212983
0.214631 0.146722 0.0210395
0.242535 0.153857 0.019118
0.272339 0.160055 0.0133479
0.303957 0.16597 7.30956e-07
0.336892 0.173937 7.30956e-07
0.370229 0.18646 7.30956e-07
0.402873 0.203379 7.30956e-07
0.433886 0.223034 7.30956e-07
0.462726 0.244359 7.30956e-07
0.489286 0.267365 7.30956e-07
0.513657 0.292922 7.30956e-07
0.535996 0.322311 7.30956e-07
0.556462 0.356256 7.30956e-07
0.575239 0.393893 0.0461404
0.59299 0.433118 0.0918412
0.609221 0.471291 0.124745
0.624521 0.507082 0.152683
0.636641 0.53758 0.209675
0.646363 0.563122 0.383275
0.65482 0.584915 0.461827
0.662043 0.603268 0.511422
0.668144 0.61862 0.547272
0.673257 0.631399 0.574603
0.677497 0.642004 0.596024
0.680993 0.650792 0.613108
0.683861 0.65808 0.626879
0.686206 0.664126 0.638093
0.688114 0.669161 0.647289
0.689669 0.673353 0.654879
0.690937 0.676857 0.661177
0.691969 0.679801 0.666439
0.692805 0.682277 0.670848
0.693493 0.684365 0.674562
0.694056 0.686132 0.677705
0.0706928 0.128461 0.02351
0.0708008 0.128629 0.0235531
0.0710455 0.129014 0.0236513
0.0714687 0.129676 0.0238204
0.0721259 0.130697 0.0240819
0.0734566 0.132419 0.0245226
0.0791763 0.133347 0.0246942
0.089509 0.13318 0.0244831
0.101528 0.133497 0.0243258
0.115418 0.134392 0.0242128
0.131059 0.136323 0.0242346
0.148291 0.140012 0.0245704
0.167833 0.145627 0.0252103
0.1903 0.152784 0.0259301
0.215464 0.160786 0.0263525
0.242935 0.168798 0.0258639
0.272543 0.176201 0.0234061
0.304171 0.182741 0.0162362
0.337319 0.189102 7.30956e-07
0.370901 0.19778 7.30956e-07
0.403638 0.211045 7.30956e-07
0.434612 0.228436 7.30956e-07
0.463359 0.24857 7.30956e-07
0.489804 0.27098 7.30956e-07
0.514073 0.296217 7.30956e-07
0.536323 0.325312 7.30956e-07
0.556702 0.358825 7.30956e-07
0.575416 0.395886 0.0507899
0.592729 0.434356 0.0936391
0.609324 0.472244 0.125672
0.624592 0.507705 0.153231
0.636704 0.537982 0.20974
0.646415 0.563383 0.383278
0.654848 0.585078 0.461842
0.662062 0.603377 0.511431
0.668163 0.618693 0.54728
0.673264 0.631447 0.574611
0.677506 0.642031 0.596033
0.680999 0.65081 0.613111
0.683864 0.658092 0.626885
0.686206 0.664139 0.638096
0.688114 0.669165 0.647286
0.689669 0.673359 0.654885
0.690937 0.676863 0.661184
0.691969 0.679801 0.666439
0.692805 0.682277 0.670848
0.693496 0.684365 0.674562
0.694056 0.686135 0.677705
0.0857192 0.151658 0.0296782
0.0858057 0.151788 0.0297143
0.0859777 0.15205 0.0297867
0.086259 0.152476 0.0299053
0.0866816 0.153118 0.0300836
0.0874374 0.154253 0.0304002
0.0889987 0.156203 0.0309431
0.0956222 0.157241 0.0311511
0.107504 0.157014 0.0308821
0.121183 0.157277 0.0306634
0.136783 0.158101 0.0304762
0.154045 0.159922 0.0304104
0.172696 0.163503 0.0306736
0.193517 0.169048 0.0312607
0.217286 0.176222 0.0319271
0.243909 0.184384 0.0322546
0.273058 0.192705 0.0315277
0.304478 0.200461 0.0284464
0.337645 0.207242 0.0196231
0.371444 0.21384 7.30956e-07
0.404399 0.223038 7.30956e-07
0.435426 0.236891 7.30956e-07
0.464112 0.254888 7.30956e-07
0.490445 0.276153 7.30956e-07
0.514595 0.300737 7.30956e-07
0.536727 0.329301 7.30956e-07
0.557008 0.362175 7.30956e-07
0.575645 0.398464 0.0561234
0.592895 0.436186 0.0957955
0.609062 0.473276 0.126863
0.624692 0.508507 0.153939
0.636779 0.538502 0.209826
0.64647 0.563722 0.383273
0.654894 0.585294 0.461853
0.662096 0.603517 0.511446
0.668182 0.618787 0.547293
0.673283 0.631504 0.574624
0.677516 0.642068 0.596044
0.681009 0.650835 0.613117
0.683871 0.658111 0.626891
0.686213 0.664148 0.638099
0.688121 0.669174 0.647292
0.689676 0.673359 0.654879
0.690937 0.676867 0.661184
0.691969 0.679804 0.666442
0.692809 0.682277 0.670848
0.693493 0.684365 0.674562
0.694056 0.686135 0.677705
0.102157 0.176242 0.0367719
0.102227 0.176345 0.0368024
0.102352 0.176528 0.0368576
0.102542 0.176809 0.0369421
0.10282 0.177217 0.037065
0.103301 0.177926 0.0372783
0.104181 0.179207 0.0376651
0.105978 0.181379 0.0383206
0.113527 0.182528 0.0385697
0.126976 0.182254 0.0382403
0.142331 0.182498 0.0379643
0.159638 0.183273 0.0376989
0.178521 0.185019 0.0375424
0.198596 0.18854 0.0377342
0.220754 0.194095 0.0382787
0.245964 0.201423 0.0389159
0.274229 0.209907 0.0391702
0.305152 0.218605 0.0381729
0.338089 0.226545 0.0343258
0.371916 0.233211 0.0237335
0.40508 0.239848 7.30956e-07
0.436277 0.249622 7.30956e-07
0.464967 0.264328 7.30956e-07
0.491211 0.283584 7.30956e-07
0.515234 0.306957 7.30956e-07
0.537234 0.334599 7.30956e-07
0.557396 0.366521 7.30956e-07
0.575934 0.401783 0.0621965
0.593119 0.438537 0.0984945
0.609226 0.474861 0.128376
0.624436 0.509346 0.154817
0.636884 0.539184 0.209937
0.646546 0.564157 0.383267
0.65495 0.58558 0.461875
0.662134 0.603702 0.511468
0.668214 0.618904 0.547309
0.673302 0.631581 0.574633
0.677529 0.642119 0.596053
0.681019 0.650872 0.613122
0.683881 0.658126 0.626894
0.686216 0.664164 0.638099
0.688121 0.669183 0.647292
0.689676 0.673366 0.654882
0.690937 0.67687 0.661184
0.691965 0.679811 0.666439
0.692809 0.682284 0.670851
0.693496 0.684368 0.674562
0.694056 0.686132 0.677705
0.120002 0.20215 0.0448515
0.12006 0.202234 0.0448781
0.120153 0.202365 0.0449209
0.120285 0.202555 0.0449826
0.120471 0.202822 0.0450689
0.120785 0.20327 0.0452145
0.121342 0.204066 0.0454731
0.122349 0.205491 0.0459373
0.124391 0.207881 0.0467152
0.132882 0.209144 0.0470113
0.147923 0.208878 0.0466338
0.164966 0.209132 0.0463046
0.184015 0.209931 0.0459759
0.204571 0.211707 0.0457513
0.226161 0.215299 0.0459025
0.249794 0.221028 0.0464467
0.276604 0.228673 0.0470961
0.306576 0.237534 0.0472747
0.338964 0.246393 0.0459002
0.372541 0.254027 0.0411229
0.405737 0.260215 0.0291634
0.437102 0.267052 7.30956e-07
0.46589 0.277874 7.30956e-07
0.492092 0.294103 7.30956e-07
0.515999 0.315465 7.30956e-07
0.537855 0.341606 7.30956e-07
0.557884 0.372137 0.016618
0.576313 0.406026 0.0690659
0.593411 0.441546 0.101846
0.609445 0.476893 0.1303
0.624601 0.510685 0.155983
0.636662 0.539887 0.209683
0.64665 0.564732 0.383264
0.655024 0.585948 0.461901
0.662187 0.603942 0.511497
0.668252 0.619059 0.547332
0.673327 0.631683 0.574649
0.677548 0.642189 0.596061
0.681032 0.650915 0.613131
0.683887 0.658157 0.626899
0.686223 0.664179 0.638108
0.688124 0.66919 0.647299
0.689676 0.673378 0.654885
0.69094 0.676876 0.661184
0.691969 0.679811 0.666439
0.692809 0.682281 0.670851
0.693493 0.684368 0.674562
0.694063 0.686135 0.677705
0.139363 0.229483 0.0540315
0.13941 0.22955 0.0540545
0.139481 0.229646 0.0540887
0.139576 0.229781 0.0541352
0.139706 0.229959 0.0541975
0.139916 0.230252 0.0542994
0.140276 0.230754 0.0544749
0.140914 0.231642 0.0547847
0.142054 0.233207 0.0553337
0.144347 0.235805 0.0562431
0.153825 0.237233 0.0566094
0.170468 0.236991 0.0561866
0.189237 0.23733 0.0558254
0.210091 0.238268 0.0554698
0.232428 0.240237 0.0552269
0.255673 0.24409 0.0553974
0.280914 0.250161 0.0559985
0.309346 0.258166 0.056674
0.340686 0.267147 0.0566831
0.373656 0.275582 0.0547319
0.4066 0.282357 0.0490138
0.437965 0.288122 0.0369455
0.466855 0.295792 0.00423604
0.49308 0.308401 7.30956e-07
0.516897 0.326857 7.30956e-07
0.538617 0.350757 7.30956e-07
0.5585 0.379338 0.0426999
0.576793 0.411419 0.0767924
0.593782 0.445376 0.10596
0.609728 0.479493 0.132729
0.624808 0.512402 0.157477
0.636833 0.541018 0.209863
0.646437 0.565301 0.383105
0.655126 0.586428 0.461932
0.662256 0.604251 0.511528
0.668299 0.619264 0.54736
0.673362 0.631811 0.574671
0.677573 0.642277 0.596078
0.681048 0.650967 0.613143
0.683897 0.658192 0.626911
0.686229 0.664205 0.638111
0.688134 0.669209 0.647305
0.689682 0.673385 0.654891
0.690943 0.676883 0.66119
0.691969 0.679817 0.666442
0.692809 0.682284 0.670851
0.693493 0.684372 0.674569
0.694063 0.686138 0.677705
0.160443 0.258453 0.0644846
0.160484 0.258508 0.064505
0.160538 0.258584 0.0645329
0.160611 0.258681 0.064569
0.160702 0.258804 0.0646158
0.160847 0.259002 0.0646894
0.161089 0.259331 0.0648123
0.161505 0.259894 0.065023
0.16223 0.260875 0.0653919
0.163516 0.262593 0.066038
0.166099 0.265428 0.0671022
0.176584 0.267008 0.0675422
0.194853 0.266846 0.0670924
0.215398 0.267359 0.0667335
0.238151 0.268582 0.0664068
0.262392 0.270932 0.0662184
0.287397 0.275212 0.0664776
0.314208 0.281654 0.0671577
0.343882 0.289741 0.0677699
0.375714 0.298206 0.0673825
0.408002 0.305509 0.0646734
0.439102 0.311262 0.058408
0.467951 0.317213 0.048069
0.49419 0.326553 0.0349794
0.517951 0.341544 0.026726
0.539544 0.362446 0.0375844
0.55927 0.388435 0.0601631
0.577408 0.418218 0.085442
0.594265 0.450215 0.110952
0.6101 0.482809 0.135772
0.625091 0.514604 0.159376
0.637059 0.54248 0.210095
0.646608 0.566249 0.383081
0.654931 0.586894 0.461932
0.662346 0.604657 0.511575
0.668362 0.619522 0.547397
0.673407 0.63199 0.574698
0.677605 0.642383 0.596101
0.681067 0.651041 0.613157
0.683913 0.658248 0.626917
0.686239 0.664236 0.63812
0.68814 0.669234 0.647305
0.689682 0.673397 0.654891
0.690947 0.676889 0.66119
0.691972 0.679823 0.666445
0.692809 0.682287 0.670858
0.693499 0.684375 0.674569
0.694059 0.686138 0.677705
0.183442 0.289255 0.0764005
0.183477 0.289301 0.076419
0.183524 0.289363 0.0764439
0.183581 0.289437 0.0764736
0.183649 0.28953 0.0765111
0.183757 0.289669 0.0765672
0.183926 0.289895 0.0766572
0.18421 0.290269 0.0768062
0.184687 0.290901 0.0770602
0.185516 0.291994 0.0775003
0.186968 0.293884 0.078262
0.189875 0.296956 0.0794985
0.201428 0.298697 0.0800222
0.221341 0.29867 0.0795692
0.2437 0.299458 0.0792582
0.268418 0.301109 0.0790269
0.294616 0.303977 0.078966
0.321291 0.308697 0.0793413
0.349272 0.315238 0.0800168
0.379326 0.322769 0.0803268
0.410421 0.329926 0.0792655
0.440859 0.335735 0.0758501
0.469409 0.340902 0.0698859
0.495539 0.347907 0.0628359
0.519219 0.359499 0.0586818
0.540685 0.376908 0.0626194
0.560242 0.399718 0.075856
0.578212 0.426684 0.0950646
0.594895 0.456293 0.116945
0.610582 0.486994 0.13955
0.625449 0.517417 0.16178
0.637354 0.544357 0.210391
0.646825 0.567478 0.383041
