Canon/CinemaGamut_CanonLog3-to-BT2020_709WideDR_33_FF_Ver.2.0.cube
# Gamut : Cinema Gamut to BT.2020
# Gamma : Canon Log 3 to Wide DR
# Range : Full in / Full out
# Version : 2.0 2019/10/24
# Copyright(c) 2019 Canon Inc. All Rights Reserved.
LUT_3D_SIZE 33
# LUT_3D_INPUT_RANGE 0.0 1.0
0.00000000 0.00000000 0.00000000
0.00000000 0.00000000 0.00000000
0.00000000 0.00000000 0.00000000
0.00000000 0.00000000 0.00000000
0.00000000 0.00000000 0.00000000
0.05020630 0.00757638 0.00919561
0.11268602 0.00855709 0.01250187
0.17307287 0.00763960 0.01459762
0.23099412 0.00572317 0.01634602
0.28796839 0.00335843 0.01825253
0.34488699 0.00090297 0.02060167
0.40224970 0.00000000 0.02359355
0.46060491 0.00000000 0.02701497
0.51605888 0.00000000 0.02991771
0.56615964 0.00000000 0.03136604
0.61240515 0.00000000 0.03135109
0.65547756 0.00000000 0.02975726
0.69565499 0.00000000 0.02652308
0.73302847 0.00416190 0.02164890
0.76757987 0.01016003 0.01525096
0.79879397 0.01893987 0.00838278
0.82594885 0.03250702 0.00263734
0.84929849 0.05026087 0.00000000
0.86898932 0.07195573 0.00000000
0.88541564 0.09605322 0.00000000
0.89922483 0.11870470 0.00000000
0.91115067 0.13931987 0.00000000
0.92202908 0.15785417 0.00000000
0.93279967 0.17445663 0.00000000
0.94451228 0.18945954 0.00000000
0.95849747 0.20311408 0.00000000
0.97613235 0.21605081 0.00000000
0.99975313 0.22787836 0.00000000
0.00000000 0.00000000 0.00000000
0.00000000 0.00000000 0.00000000
0.00000000 0.00000000 0.00000000
0.00000000 0.00000000 0.00000000
0.00000000 0.00000000 0.00000000
0.05020630 0.00757638 0.00919561
0.11268602 0.00855709 0.01250187
0.17307287 0.00763960 0.01459762
0.23099412 0.00572317 0.01634602
0.28796839 0.00335843 0.01825253
0.34488699 0.00090297 0.02060167
0.40224970 0.00000000 0.02359355
0.46060491 0.00000000 0.02701497
0.51605888 0.00000000 0.02991771
0.56615964 0.00000000 0.03136604
0.61240515 0.00000000 0.03135109
0.65547756 0.00000000 0.02975726
0.69565499 0.00000000 0.02652308
0.73302847 0.00416190 0.02164890
0.76757987 0.01016003 0.01525096
0.79879397 0.01893987 0.00838278
0.82594885 0.03250702 0.00263734
0.84929849 0.05026087 0.00000000
0.86898932 0.07195573 0.00000000
0.88541564 0.09605322 0.00000000
0.89922483 0.11870470 0.00000000
0.91115067 0.13931987 0.00000000
0.92202908 0.15785417 0.00000000
0.93279967 0.17445663 0.00000000
0.94451228 0.18945954 0.00000000
0.95849747 0.20311408 0.00000000
0.97613235 0.21605081 0.00000000
0.99975313 0.22787836 0.00000000
0.00000000 0.00000000 0.00000000
0.00000000 0.00000000 0.00000000
0.00000000 0.00000000 0.00000000
0.00000000 0.00000000 0.00000000
0.00000000 0.00000000 0.00000000
0.05020630 0.00757638 0.00919561
0.11268602 0.00855709 0.01250187
0.17307287 0.00763960 0.01459762
0.23099412 0.00572317 0.01634602
0.28796839 0.00335843 0.01825253
0.34488699 0.00090297 0.02060167
0.40224970 0.00000000 0.02359355
0.46060491 0.00000000 0.02701497
0.51605888 0.00000000 0.02991771
0.56615964 0.00000000 0.03136604
0.61240515 0.00000000 0.03135109
0.65547756 0.00000000 0.02975726
0.69565499 0.00000000 0.02652308
0.73302847 0.00416190 0.02164890
0.76757987 0.01016003 0.01525096
0.79879397 0.01893987 0.00838278
0.82594885 0.03250702 0.00263734
0.84929849 0.05026087 0.00000000
0.86898932 0.07195573 0.00000000
0.88541564 0.09605322 0.00000000
0.89922483 0.11870470 0.00000000
0.91115067 0.13931987 0.00000000
0.92202908 0.15785417 0.00000000
0.93279967 0.17445663 0.00000000
0.94451228 0.18945954 0.00000000
0.95849747 0.20311408 0.00000000
0.97613235 0.21605081 0.00000000
0.99975313 0.22787836 0.00000000
0.00000000 0.00000000 0.00000000
0.00000000 0.00000000 0.00000000
0.00000000 0.00000000 0.00000000
0.00000000 0.00000000 0.00000000
0.00000000 0.00000000 0.00000000
0.05020630 0.00757638 0.00919561
0.11268602 0.00855709 0.01250187
0.17307287 0.00763960 0.01459762
0.23099412 0.00572317 0.01634602
0.28796839 0.00335843 0.01825253
0.34488699 0.00090297 0.02060167
0.40224970 0.00000000 0.02359355
0.46060491 0.00000000 0.02701497
0.51605888 0.00000000 0.02991771
0.56615964 0.00000000 0.03136604
0.61240515 0.00000000 0.03135109
0.65547756 0.00000000 0.02975726
0.69565499 0.00000000 0.02652308
0.73302847 0.00416190 0.02164890
0.76757987 0.01016003 0.01525096
0.79879397 0.01893987 0.00838278
0.82594885 0.03250702 0.00263734
0.84929849 0.05026087 0.00000000
0.86898932 0.07195573 0.00000000
0.88541564 0.09605322 0.00000000
0.89922483 0.11870470 0.00000000
0.91115067 0.13931987 0.00000000
0.92202908 0.15785417 0.00000000
0.93279967 0.17445663 0.00000000
0.94451228 0.18945954 0.00000000
0.95849747 0.20311408 0.00000000
0.97613235 0.21605081 0.00000000
0.99975313 0.22787836 0.00000000
0.00000000 0.00000000 0.00000000
0.00000000 0.00000000 0.00000000
0.00649419 0.01077148 0.00000000
0.02135621 0.02643696 0.00376566
0.00206260 0.00515426 0.00000000
0.05020630 0.00757638 0.00919561
0.11268602 0.00855709 0.01250187
0.17307287 0.00763960 0.01459762
0.23099412 0.00572317 0.01634602
0.28796839 0.00335843 0.01825253
0.34488699 0.00090297 0.02060167
0.40224970 0.00000000 0.02359355
0.46060491 0.00000000 0.02701497
0.51605888 0.00000000 0.02991771
0.56615964 0.00000000 0.03136604
0.61240515 0.00000000 0.03135109
0.65547756 0.00000000 0.02975726
0.69565499 0.00000000 0.02652308
0.73302847 0.00416190 0.02164890
0.76757987 0.01016003 0.01525096
0.79879397 0.01893987 0.00838278
0.82594885 0.03250702 0.00263734
0.84929849 0.05026087 0.00000000
0.86898932 0.07195573 0.00000000
0.88541564 0.09605322 0.00000000
0.89922483 0.11870470 0.00000000
0.91115067 0.13931987 0.00000000
0.92202908 0.15785417 0.00000000
0.93279967 0.17445663 0.00000000
0.94451228 0.18945954 0.00000000
0.95849747 0.20311408 0.00000000
0.97613235 0.21605081 0.00000000
0.99975313 0.22787836 0.00000000
0.01961447 0.04590129 0.01483811
0.01961447 0.04590129 0.01483811
0.01961447 0.04590129 0.01483811
0.01961447 0.04590129 0.01483811
0.01961447 0.04590129 0.01483811
0.06435738 0.06968636 0.01582401
0.12173368 0.07734329 0.01438705
0.17771138 0.08130487 0.01508797
0.23362436 0.08268426 0.01524841
0.29031381 0.08186844 0.01519276
0.34783474 0.07945493 0.01554303
0.40621912 0.07606930 0.01665086
0.46571740 0.07196896 0.01842363
0.52221062 0.06782329 0.02097145
0.57302313 0.06465267 0.02382303
0.61956384 0.06324890 0.02649359
0.66250780 0.06402135 0.02863366
0.70240418 0.06663819 0.02953233
0.73928557 0.07138144 0.02918588
0.77283187 0.07917772 0.02820411
0.80338047 0.08889772 0.02601678
0.83051116 0.10086636 0.02359025
0.85425589 0.11452803 0.02120214
0.87472106 0.12936131 0.01913120
0.89218310 0.14475730 0.01752325
0.90710975 0.16010179 0.01635079
0.92011523 0.17493071 0.01552706
0.93192528 0.18901007 0.01501824
0.94339106 0.20230920 0.01486890
0.95548329 0.21501783 0.01528148
0.96920928 0.22768488 0.01687978
0.98560407 0.24122302 0.02083209
1.00000000 0.25689460 0.02896455
0.03123046 0.09669995 0.01881286
0.03123046 0.09669995 0.01881286
0.03123046 0.09669995 0.01881286
0.03123046 0.09669995 0.01881286
0.03123046 0.09669995 0.01881286
0.07177828 0.12171554 0.01599577
0.12300225 0.13284669 0.01091096
0.17681705 0.13958369 0.00815549
0.23165196 0.14370175 0.00692010
0.28777930 0.14571421 0.00611009
0.34529449 0.14591548 0.00589064
0.40431531 0.14452210 0.00620963
0.46500323 0.14155580 0.00680119
0.52306847 0.13731231 0.00887960
0.57543234 0.13293390 0.01271418
0.62344641 0.12933155 0.01712280
0.66763953 0.12728896 0.02159292
0.70825155 0.12734228 0.02577580
0.74513006 0.13025854 0.02995672
0.77831029 0.13609080 0.03408927
0.80857823 0.14317272 0.03665115
0.83606960 0.15100369 0.03742347
0.86053855 0.15986119 0.03715320
0.88198576 0.16965843 0.03630221
0.90052760 0.18026125 0.03532366
0.91650149 0.19136770 0.03445432
0.93039026 0.20271899 0.03389565
0.94282081 0.21415399 0.03385206
0.95449182 0.22575906 0.03473906
0.96610713 0.23798047 0.03740802
0.97842281 0.25153949 0.04313032
0.99105351 0.26902666 0.05648620
1.00000000 0.28664911 0.07131770
0.04232745 0.14795852 0.01923837
0.04232745 0.14795852 0.01923837
0.04232745 0.14795852 0.01923837
0.04232745 0.14795852 0.01923837
0.04232745 0.14795852 0.01923837
0.08098758 0.16936181 0.01419916
0.12695233 0.18110358 0.00872055
0.17678413 0.18981211 0.00546478
0.22906856 0.19630008 0.00364342
0.28360600 0.20088498 0.00247742
0.34044402 0.20362106 0.00164414
0.39951662 0.20450732 0.00116117
0.46379145 0.20111189 0.00000000
0.52298779 0.19777490 0.00000000
0.57711636 0.19307967 0.00082789
0.62739468 0.18779986 0.00589407
0.67452867 0.18219922 0.00999513
0.71878135 0.17652995 0.01247583
0.75150317 0.18419905 0.03130516
0.78587949 0.18647333 0.03852799
0.81553086 0.19255421 0.04759754
0.84309517 0.19833183 0.05296727
0.86834174 0.20400688 0.05545955
0.89085276 0.21020223 0.05631096
0.91040096 0.21737975 0.05671323
0.92722190 0.22545854 0.05712763
0.94161834 0.23446740 0.05817232
0.95396175 0.24458384 0.06067020
0.96481593 0.25598325 0.06541623
0.97426669 0.26977252 0.07481192
0.98298238 0.28648918 0.09028921
0.99331574 0.30505932 0.10876737
1.00000000 0.32229272 0.12411368
0.05407693 0.19775485 0.01720159
0.05407693 0.19775485 0.01720159
0.05407693 0.19775485 0.01720159
0.05407693 0.19775485 0.01720159
0.05407693 0.19775485 0.01720159
0.09204689 0.21595645 0.01187857
0.13363578 0.22734736 0.00661381
0.17969648 0.23687742 0.00358606
0.22903177 0.24489065 0.00198330
0.28128096 0.25139289 0.00107124
0.33646552 0.25629781 0.00037052
0.39460407 0.25946621 0.00000000
0.45553931 0.26075395 0.00000000
0.51790831 0.25759160 0.00000000
0.57309992 0.25407811 0.00065249
0.62436508 0.24976242 0.00923992
0.67222552 0.24516063 0.01792844
0.71700669 0.24052909 0.02551004
0.75888281 0.23599252 0.03132238
0.79788180 0.23169012 0.03496098
0.83399345 0.22770474 0.03622343
0.85242492 0.24404662 0.06849552
0.87850979 0.24736286 0.07445067
0.90209293 0.25087808 0.07765271
0.92228140 0.25589302 0.08102646
0.93938333 0.26228322 0.08470534
0.95321100 0.27071787 0.09034624
0.96361436 0.28195186 0.09968475
0.97142586 0.29564761 0.11241600
0.97826297 0.31082772 0.12703757
0.98528863 0.32760103 0.14368922
0.99448571 0.34539085 0.16125691
1.00000000 0.36192361 0.17585785
0.06819444 0.24710557 0.01444952
0.06819444 0.24710557 0.01444952
0.06819444 0.24710557 0.01444952
0.06819444 0.24710557 0.01444952
0.06819444 0.24710557 0.01444952
0.10490556 0.26262689 0.00972816
0.14274108 0.27341319 0.00490956
0.18526387 0.28316767 0.00221811
0.23155841 0.29204483 0.00083746
0.28130524 0.29988152 0.00016708
0.33444974 0.30644638 0.00000000
0.39102700 0.31150563 0.00000000
0.45096813 0.31483906 0.00000000
0.51131828 0.31498461 0.00000000
0.57046334 0.31070752 0.00000000
0.62327713 0.30667960 0.00775397
0.67239233 0.30227604 0.02056187
0.71809937 0.29786860 0.03353503
0.76059133 0.29365494 0.04537738
0.80000996 0.28971039 0.05528696
0.83641294 0.28608818 0.06284148
0.86982252 0.28283528 0.06788046
0.90020845 0.28007957 0.07040938
0.92774828 0.27773240 0.07035812
0.93611805 0.29596465 0.10581817
0.95217179 0.30251285 0.11521942
0.96282979 0.31336702 0.12960405
0.97032140 0.32635488 0.14547241
0.97615677 0.34045983 0.16163810
0.98152685 0.35538087 0.17797053
0.98740709 0.37137513 0.19500486
0.99545615 0.38836057 0.21253961
1.00000000 0.40435467 0.22728022
0.08575746 0.29676709 0.01173896
0.08575746 0.29676709 0.01173896
0.08575746 0.29676709 0.01173896
0.08575746 0.29676709 0.01173896
0.08575746 0.29676709 0.01173896
0.11987416 0.31016928 0.00804280
0.15427530 0.32021638 0.00381108
0.19334267 0.32987200 0.00136641
0.23651081 0.33914992 0.00019204
0.28354097 0.34787077 0.00000000
0.33438953 0.35569805 0.00000000
0.38905577 0.36229594 0.00000000
0.44753906 0.36736984 0.00000000
0.50748088 0.36917058 0.00000000
0.56594800 0.36710779 0.00000000
0.62362989 0.36150655 0.00000000
0.67498673 0.35659687 0.01395108
0.72242296 0.35166376 0.03132525
0.76615335 0.34702352 0.04928586
0.80639582 0.34280377 0.06626210
0.84330917 0.33905191 0.08119532
0.87703743 0.33574165 0.09316447
0.90767785 0.33288290 0.10186754
0.93536234 0.33047150 0.10776721
0.96025864 0.32854117 0.11111817
0.98258234 0.32716051 0.11253963
0.97459835 0.35665309 0.16517175
0.97899282 0.37113202 0.18717690
0.98241807 0.38587727 0.20736263
0.98583271 0.40090975 0.22633503
0.98999951 0.41670350 0.24508937
0.99648409 0.43330823 0.26369974
1.00000000 0.44893580 0.27917691
0.10610045 0.34716591 0.00972273
0.10610045 0.34716591 0.00972273
0.10610045 0.34716591 0.00972273
0.10610045 0.34716591 0.00972273
0.10610045 0.34716591 0.00972273
0.13714478 0.35890156 0.00718596
0.16828190 0.36807948 0.00371217
0.20385880 0.37751089 0.00122058
0.24383176 0.38697652 0.00000000
0.28795971 0.39623153 0.00000000
0.33624804 0.40498690 0.00000000
0.38871422 0.41283514 0.00000000
0.44533564 0.41940687 0.00000000
0.50420346 0.42282746 0.00000000
0.56302227 0.42203498 0.00000000
0.62077471 0.41807513 0.00000000
0.67828359 0.41070271 0.00000000
0.72879600 0.40452695 0.01665348
0.77504269 0.39858304 0.03853568
0.81710905 0.39322453 0.06178613
0.85526519 0.38855684 0.08449288
0.88975665 0.38459973 0.10362184
0.92086805 0.38125824 0.11869592
0.94883365 0.37847807 0.13034011
0.97391263 0.37621277 0.13911037
0.99632398 0.37455538 0.14544939
0.98655714 0.40232281 0.20097828
0.98884821 0.41700118 0.22729050
0.98962901 0.43236972 0.25182159
0.99075540 0.44767016 0.27404402
0.99306166 0.46332403 0.29495306
0.99788755 0.47960417 0.31504644
1.00000000 0.49493231 0.33159925
0.12873044 0.39857211 0.00877294
0.12873044 0.39857211 0.00877294
0.12873044 0.39857211 0.00877294
0.12873044 0.39857211 0.00877294
0.12873044 0.39857211 0.00877294
0.15685661 0.40885152 0.00755801
0.18476935 0.41738055 0.00444655
0.21679693 0.42658270 0.00145793
0.25346584 0.43595838 0.00009040
0.29455380 0.44550561 0.00000000
0.34004598 0.45487533 0.00000000
0.39002990 0.46371141 0.00000000
0.44451361 0.47156201 0.00000000
0.50176615 0.47647746 0.00000000
0.56002565 0.47719070 0.00000000
0.61859362 0.47427495 0.00000000
0.67627979 0.46844301 0.00000000
0.73155569 0.46069449 0.00647152
0.78489617 0.45093414 0.01402227
0.83039962 0.44351237 0.04007276
0.87123118 0.43692959 0.06840768
0.90768500 0.43131454 0.09614576
0.94007511 0.42669175 0.11899968
0.96884937 0.42293004 0.13738748
0.99442125 0.41991078 0.15207566
0.99057108 0.44082982 0.21064422
0.99431897 0.45354905 0.24309551
0.99545486 0.46734619 0.27237337
0.99560410 0.48144724 0.29846064
0.99567247 0.49590411 0.32238673
0.99664911 0.51094735 0.34501101
1.00000000 0.52659923 0.36636428
1.00000000 0.54153076 0.38403024
0.15233482 0.44745879 0.00848350
0.15233482 0.44745879 0.00848350
0.15233482 0.44745879 0.00848350
0.15233482 0.44745879 0.00848350
0.15233482 0.44745879 0.00848350
0.17743059 0.45670520 0.00831397
0.20235012 0.46473128 0.00584762
0.23082011 0.47357746 0.00286877
0.26391929 0.48302292 0.00087598
0.30165092 0.49286372 0.00000000
0.34398158 0.50270835 0.00000000
0.39099921 0.51236823 0.00000000
0.44280754 0.52142222 0.00000000
0.49788033 0.52787345 0.00000000
0.55465700 0.53026151 0.00000000
0.61283418 0.52894839 0.00000000
0.67149227 0.52421831 0.00000000
0.72936635 0.51662019 0.00000000
0.78498448 0.50699781 0.00320390
0.83987400 0.49448325 0.00512351
0.88519908 0.48514706 0.03390203
0.92534779 0.47685480 0.06613940
0.96064004 0.46979943 0.09846816
0.99153147 0.46400247 0.12521882
0.99335285 0.47956940 0.19853876
0.99863792 0.49075735 0.24303506
1.00000000 0.50337585 0.28160043
1.00000000 0.51623885 0.31439999
0.99993861 0.52918663 0.34274725
0.99952909 0.54246748 0.36817371
0.99991687 0.55647827 0.39192459
1.00000000 0.57128159 0.41436590
1.00000000 0.58574452 0.43318169
0.17603401 0.49160330 0.00850213
0.17603401 0.49160330 0.00850213
0.17603401 0.49160330 0.00850213
0.17603401 0.49160330 0.00850213
0.17603401 0.49160330 0.00850213
0.19818062 0.50014751 0.00930901
0.22034785 0.50781816 0.00787523
0.24538767 0.51640963 0.00519224
0.27457009 0.52605646 0.00219572
0.30864669 0.53604810 0.00103661
0.34748325 0.54648047 0.00047080
0.39109700 0.55693762 0.00041606
0.43966660 0.56706978 0.00074293
0.49185937 0.57501158 0.00000000
0.54636455 0.57924422 0.00000000
0.60294455 0.57984766 0.00000000
0.66107826 0.57694388 0.00000000
0.71980773 0.57068078 0.00000000
0.77784018 0.56149375 0.00000000
0.83369618 0.55014242 0.00010404
0.88567021 0.53781219 0.01497015
0.93637019 0.52305778 0.02216814
0.97633902 0.51273464 0.05665441
0.99118937 0.51847321 0.15023931
1.00000000 0.52654090 0.21485077
1.00000000 0.53768777 0.26920414
1.00000000 0.54952529 0.31368541
1.00000000 0.56132565 0.35038434
1.00000000 0.57309303 0.38148292
1.00000000 0.58524303 0.40884731
1.00000000 0.59819063 0.43400935
1.00000000 0.61209691 0.45747083
1.00000000 0.62600952 0.47741166
0.19993410 0.53243285 0.00879432
0.19993410 0.53243285 0.00879432
0.19993410 0.53243285 0.00879432
0.19993410 0.53243285 0.00879432
0.19993410 0.53243285 0.00879432
0.21930497 0.54047803 0.01033306
0.23878804 0.54786728 0.00973588
0.26093652 0.55626056 0.00785720
0.28640411 0.56592132 0.00458050
0.31660790 0.57626970 0.00232282
0.35166517 0.58719614 0.00141454
0.39169659 0.59830960 0.00147464
0.43672702 0.60945076 0.00204626
0.48560532 0.61869157 0.00189730
0.53719784 0.62458562 0.00015982
0.59147104 0.62720220 0.00000000
0.64793519 0.62635235 0.00000000
0.70599344 0.62205604 0.00000000
0.76468387 0.61439661 0.00000000
0.82265669 0.60376689 0.00000000
0.87829716 0.59097533 0.00011033
0.92928359 0.57755848 0.01940803
0.98437639 0.55819799 0.00751588
0.99560405 0.56534499 0.14575554
1.00000000 0.57229820 0.22547158
1.00000000 0.58222220 0.28938465
1.00000000 0.59286634 0.34018878
1.00000000 0.60346387 0.38130015
1.00000000 0.61408250 0.41556505
1.00000000 0.62509231 0.44530558
1.00000000 0.63698308 0.47214093
1.00000000 0.64996269 0.49687957
1.00000000 0.66328626 0.51789968
0.22386524 0.57058675 0.00926888
0.22386524 0.57058675 0.00926888
0.22386524 0.57058675 0.00926888
0.22386524 0.57058675 0.00926888
0.22386524 0.57058675 0.00926888
0.24072471 0.57826053 0.01131858
0.25783890 0.58537752 0.01159003
0.27757795 0.59361030 0.01091645
0.29966819 0.60324395 0.00762311
0.32591075 0.61397477 0.00409266
0.35718986 0.62521322 0.00255051
0.39342021 0.63702983 0.00218408
0.43477793 0.64897607 0.00296759
0.48008523 0.65936081 0.00331742
0.52837765 0.66674231 0.00217259
0.57971329 0.67111911 0.00022649
0.63385122 0.67239432 0.00000000
0.69018775 0.67023948 0.00000000
0.74808745 0.66463876 0.00000000
0.80655555 0.65566736 0.00000000
0.86407058 0.64378284 0.00000000
0.91846177 0.63011147 0.00817926
0.96558211 0.61733514 0.04529963
0.99511253 0.61246224 0.13570075
1.00000000 0.61688867 0.22914781
1.00000000 0.62488812 0.30312629
1.00000000 0.63394149 0.36123234
1.00000000 0.64322660 0.40752359
1.00000000 0.65264476 0.44552342
1.00000000 0.66253927 0.47793630
1.00000000 0.67336066 0.50680960
1.00000000 0.68540446 0.53302359
1.00000000 0.69806891 0.55528472
0.24756219 0.60634936 0.00981477
0.24756219 0.60634936 0.00981477
0.24756219 0.60634936 0.00981477
0.24756219 0.60634936 0.00981477
0.24756219 0.60634936 0.00981477
0.26221435 0.61373523 0.01220393
0.27718333 0.62064498 0.01308962
0.29456821 0.62879248 0.01319800
0.31428596 0.63823495 0.01131717
0.33689801 0.64918970 0.00698729
0.36422551 0.66084081 0.00399513
0.39665038 0.67321933 0.00288605
0.43420953 0.68588092 0.00360066
0.47582343 0.69729291 0.00406430
0.52056657 0.70591763 0.00367593
0.56860116 0.71191423 0.00223972
0.61977420 0.71501680 0.00033814
0.67377240 0.71507172 0.00000000
0.72991745 0.71167179 0.00000000
0.78752795 0.70481013 0.00000000
0.84548175 0.69462032 0.00000000
0.90184034 0.68179841 0.00337356
0.95300040 0.66827406 0.03377014
0.99045695 0.65926852 0.11614637
1.00000000 0.66037271 0.22407534
1.00000000 0.66597277 0.30954746
1.00000000 0.67319989 0.37630738
1.00000000 0.68097133 0.42896504
1.00000000 0.68913105 0.47145534
1.00000000 0.69788248 0.50708876
1.00000000 0.70765508 0.53824885
1.00000000 0.71871649 0.56616526
1.00000000 0.73065749 0.58972426
0.27075953 0.63982349 0.01036639
0.27075953 0.63982349 0.01036639
0.27075953 0.63982349 0.01036639
0.27075953 0.63982349 0.01036639
0.27075953 0.63982349 0.01036639
0.28351957 0.64697629 0.01299171
0.29662721 0.65371442 0.01438586
0.31196973 0.66178542 0.01522062
0.32982006 0.67099349 0.01526763
0.34951157 0.68196133 0.01127047
0.37294839 0.69408705 0.00648861
0.40152511 0.70688199 0.00414041
0.43523149 0.72027641 0.00404998
0.47308240 0.73250880 0.00463989
0.51415459 0.74229804 0.00445372
0.55864309 0.74965454 0.00378715
0.60649998 0.75445971 0.00240467
0.65750926 0.75641064 0.00059059
0.71131072 0.75528947 0.00000000
0.76716236 0.75066457 0.00000000
0.82429687 0.74257996 0.00000000
0.88130944 0.73131811 0.00206183
0.93539566 0.71805020 0.02454494
0.98051435 0.70601739 0.08923559
1.00000000 0.70305854 0.20877247
1.00000000 0.70576788 0.30741568
1.00000000 0.71090535 0.38462718
1.00000000 0.71703364 0.44507083
1.00000000 0.72378635 0.49321220
1.00000000 0.73134907 0.53276695
1.00000000 0.74003152 0.56666468
1.00000000 0.75011600 0.59645988
1.00000000 0.76124284 0.62137301
0.29320864 0.67102211 0.01088773
0.29320864 0.67102211 0.01088773
0.29320864 0.67102211 0.01088773
0.29320864 0.67102211 0.01088773
0.29320864 0.67102211 0.01088773
0.30436633 0.67798144 0.01367207
0.31587075 0.68457612 0.01546037
0.32944944 0.69252864 0.01696192
0.34548115 0.70161849 0.01841460
0.36362465 0.71231940 0.01739825
0.38343508 0.72486311 0.01077191
0.40796687 0.73811757 0.00618858
0.43790390 0.75216080 0.00460659
0.47196724 0.76511145 0.00501976
0.50933028 0.77591984 0.00478191
0.55016044 0.78448806 0.00461396
0.59447271 0.79076568 0.00389671
0.64214026 0.79446652 0.00269406
0.69292967 0.79529651 0.00113015
0.74644686 0.79300617 0.00000000
0.80186946 0.78716531 0.00000000
0.85826607 0.77791806 0.00272587
0.91367955 0.76582619 0.01902725
0.96356900 0.75292814 0.06900742
0.99628903 0.74512471 0.18154749
1.00000000 0.74454406 0.29494842
1.00000000 0.74728623 0.38493328
1.00000000 0.75159727 0.45508321
1.00000000 0.75685806 0.51023951
1.00000000 0.76309567 0.55476151
1.00000000 0.77064083 0.59201596
1.00000000 0.77969743 0.62404201
1.00000000 0.78997585 0.65031631
0.31468847 0.69992208 0.01135932
0.31468847 0.69992208 0.01135932
0.31468847 0.69992208 0.01135932
0.31468847 0.69992208 0.01135932
0.31468847 0.69992208 0.01135932
0.32450562 0.70671671 0.01425807
0.33463844 0.71319051 0.01633311
0.34669953 0.72100447 0.01840589
0.36105114 0.73004653 0.02072773
0.37763184 0.74055424 0.02187845
0.39602437 0.75288363 0.01914012
0.41612087 0.76681046 0.00993600
0.44207483 0.78140660 0.00620772
0.47251928 0.79509481 0.00534670
0.50613875 0.80675462 0.00511757
0.54331079 0.81645024 0.00490087
0.58395918 0.82402037 0.00476657
0.62808414 0.82928863 0.00413088
0.67550976 0.83190335 0.00330139
0.72599715 0.83160750 0.00227132
0.77912200 0.82814221 0.00179602
0.83394637 0.82110225 0.00420848
0.88924333 0.81079522 0.01553777
0.94210927 0.79822822 0.05073246
0.98530003 0.78666214 0.13911048
1.00000000 0.78247736 0.26965470
1.00000000 0.78256767 0.37534425
1.00000000 0.78483629 0.45777271
1.00000000 0.78846973 0.52187130
1.00000000 0.79332167 0.57263335
1.00000000 0.79960434 0.61413991
1.00000000 0.80758162 0.64888622
1.00000000 0.81693999 0.67668791
0.33501467 0.72650073 0.01176863
0.33501467 0.72650073 0.01176863
0.33501467 0.72650073 0.01176863
0.33501467 0.72650073 0.01176863
0.33501467 0.72650073 0.01176863
0.34371876 0.73315294 0.01475387
0.35269334 0.73952221 0.01704391
0.36343841 0.74721950 0.01951303
0.37627707 0.75623314 0.02233954
0.39130752 0.76661268 0.02488265
0.40815643 0.77878840 0.02425946
0.42567838 0.79296132 0.01532195
0.44769440 0.80810048 0.00855704
0.47441552 0.82251417 0.00601479
0.50461368 0.83487112 0.00530997
0.53807676 0.84556754 0.00500172
0.57511666 0.85429018 0.00504231
0.61558178 0.86092542 0.00510832
0.65948030 0.86518401 0.00486471
0.70658652 0.86669643 0.00474130
0.75667079 0.86525783 0.00473602
0.80927519 0.86061836 0.00648924
0.86328915 0.85242028 0.01406573
0.91699590 0.84121352 0.03829511
0.96589514 0.82867935 0.10544290
0.99766552 0.81999902 0.23012322
1.00000000 0.81694997 0.35354395
