Canon/CinemaGamut_CanonLog3-to-BT2020_PQ_33_FF_Ver.2.0.cube
# Gamut : Cinema Gamut to BT.2020
# Gamma : Canon Log 3 to PQ
# Range : Full in / Full out
# Version : 2.0 2019/10/24
# Copyright(c) 2019 Canon Inc. All Rights Reserved.
LUT_3D_SIZE 5
# LUT_3D_INPUT_RANGE 0.0 1.0
0.00000000 0.00000000 0.00000000
0.27920892 0.00935123 0.03461332
0.52211671 0.00000000 0.12694420
0.72083571 0.00000000 0.25865235
0.90523532 0.00000000 0.39190287
0.10736315 0.25398886 0.03528268
0.27652528 0.28738426 0.00198963
0.52123170 0.29129961 0.00421721
0.72503179 0.10394824 0.12995515
0.90765000 0.00000000 0.37000985
0.27801123 0.48851438 0.00067307
0.33750955 0.49722389 0.00012769
0.51130800 0.52392773 0.00000000
0.71833430 0.53571203 0.00077812
0.91083700 0.50514996 0.30953132
0.46874162 0.68824135 0.00061795
0.48370182 0.69020667 0.00199943
0.55780806 0.70123973 0.00000000
0.71199476 0.72529779 0.00000000
0.90691827 0.73918623 0.17460635
0.66191678 0.87852110 0.00000000
0.66519718 0.87888718 0.00000000
0.68588861 0.88132105 0.01111864
0.75517585 0.89096889 0.00614498
0.89845493 0.91230140 0.67184303
0.04053208 0.00207077 0.23482778
0.25920984 0.00000000 0.27252433
0.51671013 0.00000000 0.32896593
0.72013842 0.00000000 0.36578424
0.90390085 0.08470635 0.41334847
0.02542905 0.28012777 0.27573258
0.28106553 0.28106553 0.28106553
0.52895438 0.23153108 0.27534829
0.72359846 0.17754474 0.31846478
0.90644865 0.00000000 0.39286561
0.20568542 0.52208030 0.04676028
0.31272483 0.52689105 0.00000000
0.52218971 0.53485981 0.00000000
0.72433107 0.52606762 0.00000000
0.91130867 0.49209834 0.32562980
0.46042346 0.69508786 0.00000000
0.47727380 0.69683562 0.00062121
0.55727140 0.70668564 0.00000000
0.71422342 0.72752850 0.00000000
0.90746814 0.73873462 0.22253518
0.66040435 0.87991278 0.00000000
0.66376029 0.88026382 0.00000000
0.68488953 0.88263061 0.00887129
0.75516929 0.89202496 0.00939208
0.89877848 0.91258305 0.67926231
0.19271644 0.00115968 0.47425079
0.26440611 0.00000000 0.45124019
0.50506635 0.00000000 0.51046147
0.71363271 0.01537662 0.56159976
0.90018686 0.13931924 0.57922541
0.03262295 0.17299212 0.49973079
0.20473039 0.00000000 0.49632339
0.50825063 0.00238649 0.51781444
0.71677776 0.09963294 0.55395717
0.90223360 0.16511774 0.57242608
0.16037177 0.51541425 0.51002340
0.22904000 0.51821847 0.51345833
0.51527328 0.51527328 0.51527328
0.72833183 0.48403955 0.51138389
0.90961231 0.45633900 0.53445798
0.18021404 0.73906224 0.26245901
0.26528759 0.73998996 0.21127615
0.51840225 0.74319178 0.00000000
0.72726175 0.74034234 0.00000000
0.91135941 0.73363399 0.35924656
0.64583951 0.88942064 0.00000000
0.65013388 0.88971825 0.00000000
0.67568688 0.89159473 0.00000000
0.75463650 0.89921574 0.07128980
0.90106210 0.91451474 0.71658157
0.34409709 0.00321219 0.66888135
0.36553064 0.02860286 0.66028805
0.48307608 0.00000000 0.63597021
0.70699033 0.00000000 0.70610196
0.88866481 0.24851079 0.74592564
0.32079102 0.00000000 0.68145030
0.34724521 0.00310089 0.67265805
0.46913710 0.00000000 0.63756115
0.70795241 0.00000000 0.70709318
0.88971842 0.24230675 0.74493372
0.00000000 0.45447864 0.67234055
0.00000000 0.43536806 0.68205837
0.43788452 0.27489678 0.71207280
0.70849282 0.29075278 0.72017019
0.90133527 0.26667476 0.73989618
0.24602253 0.71531049 0.70958892
0.28692128 0.71593491 0.71036917
0.44398019 0.71958619 0.71501168
0.71533747 0.71533747 0.71533747
0.91158596 0.70298141 0.72048622
0.70362190 0.91778856 0.63858086
0.70699526 0.91792639 0.63844792
0.72764248 0.91857108 0.63848205
0.79331397 0.91767426 0.65980570
0.90698993 0.90698993 0.90698993
0.51092323 0.03800410 0.85427572
0.51563714 0.09649102 0.85176694
0.54437552 0.23459137 0.83460351
0.66148769 0.00000000 0.79966472
0.86976715 0.01012838 0.86579356
0.50693104 0.00000000 0.85772175
0.51166044 0.03844262 0.85504010
0.54141341 0.22246934 0.83783458
0.65888202 0.00000000 0.79973207
0.86992910 0.00781012 0.86595527
0.47021462 0.00000000 0.87961741
0.47706639 0.00000000 0.87731461
0.51658761 0.05797969 0.86002984
0.63743420 0.00000000 0.80168797
0.87145957 0.00000000 0.86767910
0.00000000 0.65744512 0.84039273
0.00000000 0.65508755 0.84198833
0.00000000 0.63191161 0.85846252
0.64012925 0.48305353 0.90655477
0.89717348 0.43748460 0.90976417
0.47102101 0.90457457 0.89896307
0.47360793 0.90482208 0.89924329
0.52304452 0.90596358 0.90061147
0.70659753 0.90707759 0.90277145
0.90698993 0.90698993 0.90698993
