Canon/CinemaGamut_CanonLog3-to-BT709_WideDR_33_FF_Ver.2.0.cube
# Gamut : Cinema Gamut to BT.709
# Gamma : Canon Log 3 to Wide DR
# Range : Full in / Full out
# Version : 2.0 2019/10/24
# Copyright(c) 2019 Canon Inc. All Rights Reserved.
LUT_3D_SIZE 5
# LUT_3D_INPUT_RANGE 0.0 1.0
0.00000000 0.00000000 0.00000000
0.28181083 0.00000000 0.02820104
0.75308790 0.00000000 0.10702582
1.00000000 0.02870617 0.10685667
1.00000000 0.30151774 0.23168818
0.01280470 0.19626617 0.04402048
0.22968209 0.24637163 0.00000000
0.80539637 0.17857589 0.01583902
1.00000000 0.26337522 0.21328963
1.00000000 0.42090287 0.34668359
0.00275003 0.57426556 0.09940426
0.06854997 0.61542768 0.01482668
0.63295996 0.67819197 0.00000000
1.00000000 0.64133994 0.41092502
1.00000000 0.71345153 0.64035935
0.04967351 0.80655415 0.01159472
0.10771152 0.83585696 0.01187066
0.37452486 0.93827570 0.01372802
0.87668594 0.94642214 0.13373343
1.00000000 0.90785939 0.81462626
0.19941327 0.94951984 0.00053896
0.21703475 0.97486636 0.01024129
0.61984877 1.00000000 0.48837329
0.90844457 1.00000000 0.83891320
1.00000000 1.00000000 1.00000000
0.01622704 0.00524075 0.14568934
0.24101096 0.00000000 0.20413850
0.71328569 0.00000000 0.27488037
0.98819717 0.00874418 0.20453899
1.00000000 0.28733880 0.22998062
0.00000000 0.22786515 0.21341059
0.23600832 0.23600832 0.23600832
0.82280739 0.10273790 0.23484261
0.99868981 0.24180122 0.27045160
1.00000000 0.40808489 0.34236107
0.00000000 0.67378440 0.21492743
0.00000000 0.71102752 0.10325572
0.67328904 0.72123236 0.00000000
1.00000000 0.66347049 0.46536475
1.00000000 0.72739759 0.66003972
0.02041920 0.87543424 0.05650166
0.04675979 0.90271155 0.02900950
0.40186663 0.98099223 0.10095365
0.90312330 0.97264992 0.25797083
1.00000000 0.93068462 0.86278448
0.27868807 0.99650137 0.12426878
0.39270207 1.00000000 0.25482669
0.75427718 1.00000000 0.66151193
0.97259293 1.00000000 0.94626079
1.00000000 1.00000000 1.00000000
0.04006237 0.02718722 0.48568021
0.16110395 0.00000000 0.41325280
0.63685908 0.00000000 0.52443256
0.94263278 0.00000000 0.45836180
1.00000000 0.24403022 0.34528766
0.00000000 0.17689471 0.42626940
0.06802295 0.04579061 0.57139287
0.71559001 0.00000000 0.60400384
0.99483144 0.07585091 0.48239736
1.00000000 0.33821400 0.40007509
0.00000000 0.62845645 0.59514004
0.00000000 0.65200688 0.61812198
0.65092930 0.65092930 0.65092930
0.99022014 0.63944037 0.66115707
1.00000000 0.72324385 0.70732495
0.17698933 0.93452102 0.35990006
0.23032244 0.94768218 0.36515235
0.57158422 0.97715964 0.49324103
0.92006149 0.98040417 0.49264692
1.00000000 0.97003439 0.94088367
0.74002946 1.00000000 0.66985390
0.78514553 1.00000000 0.72173891
0.95974622 1.00000000 0.93855035
1.00000000 1.00000000 1.00000000
1.00000000 1.00000000 1.00000000
0.00000000 0.15566501 0.56425469
0.00783069 0.07149812 0.62979343
0.49505229 0.00000000 0.76769882
0.87786889 0.00000000 0.70091047
1.00000000 0.18172590 0.54920984
0.00000000 0.21336191 0.57060589
0.00000000 0.16088547 0.61016419
0.48822799 0.00000000 0.82900584
0.91014451 0.00000000 0.72722774
1.00000000 0.22582751 0.55992178
0.00894877 0.53529232 0.79226156
0.01495301 0.55501561 0.84802554
0.52893870 0.58738853 0.96201097
0.99787289 0.55088058 0.87486868
1.00000000 0.67075170 0.76889683
0.00000000 0.87960509 0.83303062
0.00000000 0.89667531 0.84942257
0.32403746 0.94625728 0.90682559
0.91241619 0.91241619 0.91241619
1.00000000 0.95095795 0.95297665
0.68543320 1.00000000 0.68857610
0.73583999 1.00000000 0.73198955
0.93476492 1.00000000 0.92517169
1.00000000 1.00000000 1.00000000
1.00000000 1.00000000 1.00000000
0.00000000 0.23555047 0.56913156
0.00000000 0.21931576 0.55069033
0.08223961 0.09633283 0.96728899
0.69891768 0.01952232 0.97831278
1.00000000 0.06725057 0.79531031
0.00000000 0.26287092 0.62196968
0.00000000 0.24426978 0.59859058
0.02945766 0.09269543 0.95190105
0.70012346 0.00000000 0.99608387
1.00000000 0.08693702 0.79864919
0.00000000 0.45654809 0.92095559
0.03069984 0.47481395 0.96485951
0.37356848 0.57365109 1.00000000
0.80957207 0.57051082 1.00000000
1.00000000 0.61769369 0.87227538
0.29303298 0.78379043 1.00000000
0.35791535 0.79779284 1.00000000
0.60190708 0.85686492 1.00000000
0.85639941 0.88901709 1.00000000
1.00000000 0.92212044 0.97770772
0.38596154 1.00000000 0.96623853
0.49149984 1.00000000 0.97143781
0.84445952 1.00000000 0.99594343
1.00000000 1.00000000 1.00000000
1.00000000 1.00000000 1.00000000
