Canon/CinemaGamut_CanonLog3-to-BT2020_709WideDR_33_FF_Ver.2.0.cube
# Gamut : Cinema Gamut to BT.2020
# Gamma : Canon Log 3 to Wide DR
# Range : Full in / Full out
# Version : 2.0 2019/10/24
# Copyright(c) 2019 Canon Inc. All Rights Reserved.
LUT_3D_SIZE 5
# LUT_3D_INPUT_RANGE 0.0 1.0
0.00000000 0.00000000 0.00000000
0.23099412 0.00572317 0.01634602
0.65547756 0.00000000 0.02975726
0.88541564 0.09605322 0.00000000
0.99975313 0.22787836 0.00000000
0.05407693 0.19775485 0.01720159
0.22903177 0.24489065 0.00198330
0.67222552 0.24516063 0.01792844
0.92228140 0.25589302 0.08102646
1.00000000 0.36192361 0.17585785
0.22386524 0.57058675 0.00926888
0.29966819 0.60324395 0.00762311
0.63385122 0.67239432 0.00000000
1.00000000 0.61688867 0.22914781
1.00000000 0.69806891 0.55528472
0.38800851 0.79265562 0.01262100
0.41818395 0.82148560 0.02470459
0.55536248 0.92924439 0.00000000
0.88444982 0.94175154 0.07172592
1.00000000 0.90996472 0.75837225
0.49243737 0.93766258 0.00500880
0.50882965 0.96390168 0.01062996
0.71745765 1.00000000 0.43179604
0.92657458 1.00000000 0.81037871
1.00000000 1.00000000 1.00000000
0.01736646 0.00111842 0.16644311
0.19785498 0.00000000 0.21383187
0.62944928 0.00000000 0.24956164
0.89692510 0.00524265 0.09309450
0.99891987 0.20371999 0.00000000
0.01331533 0.23339782 0.22708023
0.23600832 0.23600832 0.23600832
0.68877684 0.19242074 0.22020799
0.93971469 0.20091974 0.14549283
1.00000000 0.34694419 0.17283720
0.16109259 0.68636215 0.01322346
0.28021835 0.70562429 0.00698760
0.67429812 0.71479177 0.00000000
1.00000000 0.64154193 0.30908768
1.00000000 0.71336250 0.58022076
0.40054996 0.86566537 0.00989469
0.43209950 0.89008269 0.02471023
0.56958745 0.97911273 0.00000000
0.91164602 0.96972480 0.19081572
1.00000000 0.93394048 0.82375350
0.53122778 0.98963567 0.07168297
0.58023302 1.00000000 0.19137050
0.80992080 1.00000000 0.61579335
0.97571575 1.00000000 0.92819778
1.00000000 1.00000000 1.00000000
0.07467187 0.00398162 0.51860467
0.13784036 0.00000000 0.42780212
0.55563099 0.00000000 0.55656448
0.85005946 0.00000000 0.44611828
1.00000000 0.10253006 0.21593592
0.00287988 0.12052649 0.59437792
0.11197569 0.01280926 0.61161241
0.61291975 0.02212693 0.62695030
0.91238766 0.03750510 0.46456097
1.00000000 0.25194709 0.28752864
0.02595486 0.64829735 0.63236330
0.14549760 0.66203658 0.64789387
0.65092930 0.65092930 0.65092930
0.94251542 0.63543067 0.63239177
1.00000000 0.70376680 0.65029704
0.47988914 0.92590516 0.33769577
0.52935105 0.93111604 0.37650237
0.71329743 0.95967307 0.52021521
0.92669624 0.97227036 0.56338053
1.00000000 0.97015277 0.91954655
0.80431501 1.00000000 0.63027758
0.83696037 1.00000000 0.68676083
0.96857407 1.00000000 0.92341887
1.00000000 1.00000000 1.00000000
1.00000000 1.00000000 1.00000000
0.05878160 0.02708272 0.74888737
0.08886507 0.00956898 0.69436905
0.43310427 0.00000000 0.80688369
0.77718654 0.00000000 0.74862618
0.99101551 0.00595886 0.54681688
0.04101411 0.05943935 0.84291205
0.07383533 0.02825116 0.78777059
0.42631799 0.00000000 0.86333796
0.80451255 0.00000000 0.77823017
1.00000000 0.04475561 0.55749759
0.16002292 0.51167794 0.97471645
0.25682976 0.53332276 0.95722964
0.57191861 0.58592821 0.95072293
0.94079515 0.53380628 0.92532893
1.00000000 0.63872005 0.76332558
0.05814436 0.90698182 0.88416862
0.18271212 0.91594960 0.89387354
0.60527777 0.92491709 0.91077188
0.91241619 0.91241619 0.91241619
1.00000000 0.94712059 0.94461123
0.76580416 1.00000000 0.65577702
0.80258556 1.00000000 0.70415989
0.95157638 1.00000000 0.91459560
1.00000000 1.00000000 1.00000000
1.00000000 1.00000000 1.00000000
0.00958254 0.01502408 0.93852435
0.01146186 0.01908157 0.88661260
0.20435127 0.04354965 0.99726151
0.61139856 0.05903933 1.00000000
0.91522875 0.00000000 0.86894498
0.02963035 0.05078050 0.99442156
0.02458000 0.02492221 0.96184408
0.18027814 0.01476828 1.00000000
0.61010495 0.05379501 1.00000000
0.93032346 0.00000000 0.88519777
0.25622475 0.42338219 1.00000000
0.30011282 0.45163190 1.00000000
0.48218617 0.56407241 1.00000000
0.75995370 0.58464044 1.00000000
1.00000000 0.56596662 0.94975294
0.52857397 0.76545304 1.00000000
0.56142715 0.78055166 1.00000000
0.70622919 0.84543582 1.00000000
0.87233333 0.88748879 1.00000000
1.00000000 0.91440925 0.99430990
0.60019853 1.00000000 0.98315130
0.65901080 1.00000000 0.98570099
0.89035547 1.00000000 1.00000000
1.00000000 1.00000000 1.00000000
1.00000000 1.00000000 1.00000000
