Canon/CinemaGamut_CanonLog3-to-BT709_WideDR_33_FF_Ver.2.0.cube
# Gamut : Cinema Gamut to BT.709
# Gamma : Canon Log 3 to Wide DR
# Range : Full in / Full out
# Version : 2.0 2019/10/24
# Copyright(c) 2019 Canon Inc. All Rights Reserved.
LUT_3D_SIZE 33
# LUT_3D_INPUT_RANGE 0.0 1.0
0.00000000 0.00000000 0.00000000
0.00000000 0.00000000 0.00000000
0.00000000 0.00000000 0.00000000
0.00000000 0.00000000 0.00000000
0.00000000 0.00000000 0.00000000
0.06552053 0.00615002 0.01110357
0.14324017 0.00440579 0.01691476
0.21436014 0.00000000 0.02225460
0.28181083 0.00000000 0.02820104
0.34746490 0.00000000 0.03532310
0.41234252 0.00000000 0.04402573
0.47663274 0.00000000 0.05489352
0.54094809 0.00000000 0.06795799
0.60163442 0.00000000 0.08107550
0.65619246 0.00000000 0.09205672
0.70636668 0.00000000 0.10069918
0.75308790 0.00000000 0.10702582
0.79677095 0.00000000 0.11102660
0.83749910 0.00000000 0.11277557
0.87521513 0.00000000 0.11239578
0.90975620 0.00000000 0.11012483
0.94073709 0.00000000 0.10655282
0.96743083 0.00000000 0.10292813
0.98851599 0.00000000 0.10164177
1.00000000 0.02870617 0.10685667
1.00000000 0.07465007 0.11823280
1.00000000 0.12090586 0.13193672
1.00000000 0.15901273 0.14643166
1.00000000 0.19194373 0.16152685
1.00000000 0.22191422 0.17769627
1.00000000 0.25038071 0.19542843
1.00000000 0.27763361 0.21437636
1.00000000 0.30151774 0.23168818
0.00000000 0.00000000 0.00000000
0.00000000 0.00000000 0.00000000
0.00000000 0.00000000 0.00000000
0.00000000 0.00000000 0.00000000
0.00000000 0.00000000 0.00000000
0.06552053 0.00615002 0.01110357
0.14324017 0.00440579 0.01691476
0.21436014 0.00000000 0.02225460
0.28181083 0.00000000 0.02820104
0.34746490 0.00000000 0.03532310
0.41234252 0.00000000 0.04402573
0.47663274 0.00000000 0.05489352
0.54094809 0.00000000 0.06795799
0.60163442 0.00000000 0.08107550
0.65619246 0.00000000 0.09205672
0.70636668 0.00000000 0.10069918
0.75308790 0.00000000 0.10702582
0.79677095 0.00000000 0.11102660
0.83749910 0.00000000 0.11277557
0.87521513 0.00000000 0.11239578
0.90975620 0.00000000 0.11012483
0.94073709 0.00000000 0.10655282
0.96743083 0.00000000 0.10292813
0.98851599 0.00000000 0.10164177
1.00000000 0.02870617 0.10685667
1.00000000 0.07465007 0.11823280
1.00000000 0.12090586 0.13193672
1.00000000 0.15901273 0.14643166
1.00000000 0.19194373 0.16152685
1.00000000 0.22191422 0.17769627
1.00000000 0.25038071 0.19542843
1.00000000 0.27763361 0.21437636
1.00000000 0.30151774 0.23168818
0.00000000 0.00000000 0.00000000
0.00000000 0.00000000 0.00000000
0.00000000 0.00000000 0.00000000
0.00000000 0.00000000 0.00000000
0.00000000 0.00000000 0.00000000
0.06552053 0.00615002 0.01110357
0.14324017 0.00440579 0.01691476
0.21436014 0.00000000 0.02225460
0.28181083 0.00000000 0.02820104
0.34746490 0.00000000 0.03532310
0.41234252 0.00000000 0.04402573
0.47663274 0.00000000 0.05489352
0.54094809 0.00000000 0.06795799
0.60163442 0.00000000 0.08107550
0.65619246 0.00000000 0.09205672
0.70636668 0.00000000 0.10069918
0.75308790 0.00000000 0.10702582
0.79677095 0.00000000 0.11102660
0.83749910 0.00000000 0.11277557
0.87521513 0.00000000 0.11239578
0.90975620 0.00000000 0.11012483
0.94073709 0.00000000 0.10655282
0.96743083 0.00000000 0.10292813
0.98851599 0.00000000 0.10164177
1.00000000 0.02870617 0.10685667
1.00000000 0.07465007 0.11823280
1.00000000 0.12090586 0.13193672
1.00000000 0.15901273 0.14643166
1.00000000 0.19194373 0.16152685
1.00000000 0.22191422 0.17769627
1.00000000 0.25038071 0.19542843
1.00000000 0.27763361 0.21437636
1.00000000 0.30151774 0.23168818
0.00000000 0.00000000 0.00000000
0.00000000 0.00000000 0.00000000
0.00000000 0.00000000 0.00000000
0.00000000 0.00000000 0.00000000
0.00000000 0.00000000 0.00000000
0.06552053 0.00615002 0.01110357
0.14324017 0.00440579 0.01691476
0.21436014 0.00000000 0.02225460
0.28181083 0.00000000 0.02820104
0.34746490 0.00000000 0.03532310
0.41234252 0.00000000 0.04402573
0.47663274 0.00000000 0.05489352
0.54094809 0.00000000 0.06795799
0.60163442 0.00000000 0.08107550
0.65619246 0.00000000 0.09205672
0.70636668 0.00000000 0.10069918
0.75308790 0.00000000 0.10702582
0.79677095 0.00000000 0.11102660
0.83749910 0.00000000 0.11277557
0.87521513 0.00000000 0.11239578
0.90975620 0.00000000 0.11012483
0.94073709 0.00000000 0.10655282
0.96743083 0.00000000 0.10292813
0.98851599 0.00000000 0.10164177
1.00000000 0.02870617 0.10685667
1.00000000 0.07465007 0.11823280
1.00000000 0.12090586 0.13193672
1.00000000 0.15901273 0.14643166
1.00000000 0.19194373 0.16152685
1.00000000 0.22191422 0.17769627
1.00000000 0.25038071 0.19542843
1.00000000 0.27763361 0.21437636
1.00000000 0.30151774 0.23168818
0.00000000 0.00000000 0.00000000
0.00000000 0.00000000 0.00000000
0.00618627 0.01162232 0.00000000
0.02057326 0.02688803 0.00521138
0.00178235 0.00520825 0.00000000
0.06552053 0.00615002 0.01110357
0.14324017 0.00440579 0.01691476
0.21436014 0.00000000 0.02225460
0.28181083 0.00000000 0.02820104
0.34746490 0.00000000 0.03532310
0.41234252 0.00000000 0.04402573
0.47663274 0.00000000 0.05489352
0.54094809 0.00000000 0.06795799
0.60163442 0.00000000 0.08107550
0.65619246 0.00000000 0.09205672
0.70636668 0.00000000 0.10069918
0.75308790 0.00000000 0.10702582
0.79677095 0.00000000 0.11102660
0.83749910 0.00000000 0.11277557
0.87521513 0.00000000 0.11239578
0.90975620 0.00000000 0.11012483
0.94073709 0.00000000 0.10655282
0.96743083 0.00000000 0.10292813
0.98851599 0.00000000 0.10164177
1.00000000 0.02870617 0.10685667
1.00000000 0.07465007 0.11823280
1.00000000 0.12090586 0.13193672
1.00000000 0.15901273 0.14643166
1.00000000 0.19194373 0.16152685
1.00000000 0.22191422 0.17769627
1.00000000 0.25038071 0.19542843
1.00000000 0.27763361 0.21437636
1.00000000 0.30151774 0.23168818
0.01310696 0.04566706 0.01818861
0.01310696 0.04566706 0.01818861
0.01310696 0.04566706 0.01818861
0.01310696 0.04566706 0.01818861
0.01310696 0.04566706 0.01818861
0.06455043 0.06966937 0.01821930
0.14168315 0.07373779 0.01639659
0.21418231 0.07182810 0.01755076
0.28445563 0.06572440 0.01927981
0.35393743 0.05620187 0.02203130
0.42313182 0.04405406 0.02617480
0.49125144 0.03136012 0.03312470
0.55779754 0.02042147 0.04395311
0.62034776 0.01021558 0.05600014
0.67632661 0.00160483 0.06781124
0.72719614 0.00000000 0.07913022
0.77419188 0.00000000 0.08883594
0.81792354 0.00000000 0.09606463
0.85834363 0.00000000 0.10113942
0.89525943 0.00000000 0.10445710
0.92853727 0.00000000 0.10633702
0.95742781 0.00418279 0.10796427
0.98053119 0.02227130 0.11155302
0.99501451 0.05660695 0.12123263
1.00000000 0.10197989 0.13516049
1.00000000 0.14267547 0.15018770
1.00000000 0.17773484 0.16532205
1.00000000 0.20816021 0.18004789
1.00000000 0.23543996 0.19473482
1.00000000 0.26097871 0.21009068
1.00000000 0.28581529 0.22672784
1.00000000 0.31009070 0.24444697
1.00000000 0.33190473 0.26080720
0.01538019 0.09609036 0.02752161
0.01538019 0.09609036 0.02752161
0.01538019 0.09609036 0.02752161
0.01538019 0.09609036 0.02752161
0.01538019 0.09609036 0.02752161
0.05321412 0.12360517 0.01972869
0.12342465 0.13340812 0.01163158
0.19759830 0.13648013 0.00762057
0.27031500 0.13520241 0.00637456
0.34248550 0.13020029 0.00671462
0.41485289 0.12145437 0.00839449
0.48755040 0.10897578 0.01169250
0.56056020 0.09269508 0.01687180
0.62968607 0.07250725 0.02384085
0.69159573 0.05210173 0.03221931
0.74625238 0.03650622 0.04324628
0.79561162 0.02489789 0.05466469
0.84065254 0.01674787 0.06520033
0.88119237 0.01325008 0.07512261
0.91710135 0.01521317 0.08466184
0.94810205 0.02363570 0.09396641
0.97299616 0.04177607 0.10481895
0.98910761 0.07680685 0.12087444
0.99815158 0.11962018 0.13971509
1.00000000 0.15757438 0.15811437
1.00000000 0.19111336 0.17560217
1.00000000 0.22070991 0.19196683
1.00000000 0.24691433 0.20722760
1.00000000 0.27082003 0.22201333
1.00000000 0.29356266 0.23715732
1.00000000 0.31600923 0.25333564
1.00000000 0.33825659 0.27043960
1.00000000 0.35863851 0.28631664
0.01496722 0.14688973 0.03586436
0.01496722 0.14688973 0.03586436
0.01496722 0.14688973 0.03586436
0.01496722 0.14688973 0.03586436
0.01496722 0.14688973 0.03586436
0.04277904 0.17201164 0.02194861
0.10479240 0.18403515 0.01064137
0.17734309 0.19085064 0.00443170
0.24981195 0.19389311 0.00139630
0.32265610 0.19370269 0.00015341
0.39657008 0.19023628 0.00005435
0.47175499 0.18330887 0.00116116
0.54827269 0.17265216 0.00340015
0.62179845 0.15767255 0.00754757
0.68894866 0.13889493 0.01343012
0.75068251 0.11732453 0.02002492
0.80727907 0.09418347 0.02721900
0.85821989 0.07212019 0.03546919
0.90254409 0.05775176 0.04614675
0.93899755 0.05619339 0.06111826
0.96589884 0.07292405 0.08341405
0.98261055 0.10807736 0.11172122
0.99288946 0.14550795 0.13891566
0.99924191 0.17998601 0.16308038
1.00000000 0.21093584 0.18437115
1.00000000 0.23927453 0.20380977
1.00000000 0.26454446 0.22117759
1.00000000 0.28726069 0.23694703
1.00000000 0.30829467 0.25191174
1.00000000 0.32857491 0.26695215
1.00000000 0.34885891 0.28279133
1.00000000 0.36939114 0.29955877
1.00000000 0.38825575 0.31485865
0.01280470 0.19626617 0.04402048
0.01280470 0.19626617 0.04402048
0.01280470 0.19626617 0.04402048
0.01280470 0.19626617 0.04402048
0.01280470 0.19626617 0.04402048
0.03279520 0.21898591 0.02526625
0.08672393 0.23165894 0.01139436
0.15797877 0.24045933 0.00370513
0.22968209 0.24637163 0.00000000
0.30200111 0.24961067 0.00000000
0.37583351 0.25015193 0.00000000
0.45173795 0.24770473 0.00000000
0.52981182 0.24189114 0.00000000
0.60614756 0.23158447 0.00009099
0.67720773 0.21697798 0.00469455
0.74361908 0.19902640 0.01011061
0.80539637 0.17857589 0.01583902
0.86205482 0.15696100 0.02215267
0.91242093 0.13706866 0.03068602
0.95353139 0.12658548 0.04616347
0.97816555 0.14196919 0.08109932
0.98829273 0.17637617 0.12608228
0.99519056 0.20824625 0.16092879
0.99973836 0.23707891 0.18922760
1.00000000 0.26337522 0.21328963
1.00000000 0.28762696 0.23442152
1.00000000 0.30944565 0.25280638
1.00000000 0.32927850 0.26917573
1.00000000 0.34787760 0.28445504
0.99980695 0.36603296 0.29955961
1.00000000 0.38455971 0.31538258
1.00000000 0.40341984 0.33182258
1.00000000 0.42090287 0.34668359
0.01020265 0.24540773 0.05294121
0.01020265 0.24540773 0.05294121
0.01020265 0.24540773 0.05294121
0.01020265 0.24540773 0.05294121
0.01020265 0.24540773 0.05294121
0.02472014 0.26567127 0.03121566
0.06898076 0.27865097 0.01375523
0.13907832 0.28847650 0.00446344
0.21023184 0.29615836 0.00000000
0.28201731 0.30183497 0.00000000
0.35530605 0.30527175 0.00000000
0.43096398 0.30623201 0.00000000
0.50940449 0.30429512 0.00000000
0.58751452 0.29781754 0.00000000
0.66169131 0.28655353 0.00000000
0.73175818 0.27168615 0.00422481
0.79756959 0.25404472 0.01012499
0.85857649 0.23468477 0.01702308
0.91328767 0.21596223 0.02676246
0.95809932 0.20390076 0.04538998
0.98353962 0.21344243 0.09009615
0.99396077 0.23861060 0.14152049
0.99822175 0.26646825 0.18370685
1.00000000 0.29254676 0.21749420
1.00000000 0.31557776 0.24446535
1.00000000 0.33663299 0.26732862
1.00000000 0.35562978 0.28683534
0.99969152 0.37310072 0.30399388
0.99896065 0.38966711 0.31978238
0.99849896 0.40605627 0.33518630
0.99900520 0.42282776 0.35092020
1.00000000 0.44008485 0.36706873
1.00000000 0.45633050 0.38163621
0.00762321 0.29510618 0.06280306
0.00762321 0.29510618 0.06280306
0.00762321 0.29510618 0.06280306
0.00762321 0.29510618 0.06280306
0.00762321 0.29510618 0.06280306
0.01811177 0.31319786 0.03913461
0.05263187 0.32618002 0.01757925
0.11989995 0.33649301 0.00627984
0.19097848 0.34520732 0.00059754
0.26234219 0.35251878 0.00000000
0.33513531 0.35818803 0.00000000
0.41021094 0.36174896 0.00000000
0.48832633 0.36288393 0.00000000
0.56727330 0.35965935 0.00000000
0.64388896 0.35130860 0.00000000
0.71730792 0.33896360 0.00000000
0.78685984 0.32353255 0.00462815
0.85168520 0.30609872 0.01282534
0.91021171 0.28863460 0.02520527
0.95836193 0.27624630 0.04892102
0.98518944 0.28215934 0.10396964
0.99586084 0.30179282 0.16206874
0.99972032 0.32484948 0.20927818
1.00000000 0.34723791 0.24700888
1.00000000 0.36774823 0.27734325
1.00000000 0.38627729 0.30222948
0.99936509 0.40297484 0.32297676
0.99856080 0.41841890 0.34104201
0.99780923 0.43319354 0.35744087
0.99739262 0.44791144 0.37314069
0.99792025 0.46313760 0.38894008
1.00000000 0.47898086 0.40496027
1.00000000 0.49418139 0.41943729
0.00526350 0.34582321 0.07348102
0.00526350 0.34582321 0.07348102
0.00526350 0.34582321 0.07348102
0.00526350 0.34582321 0.07348102
0.00526350 0.34582321 0.07348102
0.01237548 0.36207573 0.04834135
0.03769679 0.37468738 0.02293441
0.09985368 0.38523333 0.00917472
0.17140407 0.39457883 0.00219555
0.24261855 0.40294796 0.00000000
0.31491538 0.41021094 0.00000000
0.38945415 0.41593007 0.00000000
0.46689228 0.41952087 0.00000000
0.54587686 0.41910842 0.00000000
0.62404732 0.41347656 0.00000000
0.70035584 0.40347171 0.00000000
0.77356490 0.38993829 0.00000000
0.84246113 0.37389970 0.00642804
0.90508874 0.35720805 0.02099621
0.95705516 0.34427263 0.04990703
0.98644831 0.34683843 0.11523339
0.99767385 0.36245316 0.18154053
1.00000000 0.38187940 0.23464457
1.00000000 0.40124653 0.27667087
1.00000000 0.41921105 0.31025036
1.00000000 0.43555804 0.33745510
0.99939835 0.45043214 0.35995835
0.99841735 0.46426047 0.37918358
0.99759741 0.47753750 0.39638123
0.99714142 0.49086120 0.41260763
0.99761217 0.50478246 0.42868467
1.00000000 0.51944916 0.44481058
1.00000000 0.53381312 0.45943158
0.00328005 0.39780209 0.08466171
0.00328005 0.39780209 0.08466171
0.00328005 0.39780209 0.08466171
0.00328005 0.39780209 0.08466171
0.00328005 0.39780209 0.08466171
0.00794249 0.41232339 0.05882477
0.02569703 0.42443579 0.03070784
0.07817394 0.43528304 0.01263788
0.15084278 0.44486441 0.00404325
0.22239336 0.45390796 0.00000000
0.29436390 0.46224040 0.00000000
0.36830678 0.46956261 0.00000000
0.44518632 0.47531836 0.00000000
0.52371521 0.47727798 0.00000000
0.60249669 0.47423333 0.00000000
0.68077771 0.46661719 0.00000000
0.75725594 0.45500425 0.00000000
0.83026953 0.44028419 0.00000000
0.89751688 0.42407044 0.01308248
0.95433454 0.41019027 0.04538933
0.98847398 0.40884910 0.11935055
1.00000000 0.42067936 0.19626331
1.00000000 0.43702113 0.25698338
1.00000000 0.45388521 0.30445472
1.00000000 0.46978789 0.34198289
1.00000000 0.48433676 0.37212086
1.00000000 0.49768811 0.39683166
1.00000000 0.51014433 0.41763964
0.99907280 0.52217118 0.43589119
0.99848062 0.53433089 0.45282233
0.99883633 0.54713008 0.46935872
1.00000000 0.56081339 0.48580027
1.00000000 0.57451350 0.50077879
0.00193402 0.44750256 0.09362876
0.00193402 0.44750256 0.09362876
0.00193402 0.44750256 0.09362876
0.00193402 0.44750256 0.09362876
0.00193402 0.44750256 0.09362876
0.00478518 0.46061135 0.06845075
0.01716221 0.47211033 0.03958768
0.05761094 0.48307874 0.01723408
0.12872893 0.49301521 0.00644974
0.20041989 0.50261184 0.00114850
0.27192035 0.51174777 0.00000000
0.34486252 0.52031021 0.00000000
0.42060195 0.52786627 0.00000000
0.49836311 0.53226926 0.00000000
0.57674042 0.53173322 0.00000000
0.65573816 0.52674677 0.00000000
0.73431154 0.51749063 0.00000000
0.81082279 0.50451491 0.00000000
0.88281615 0.48906186 0.00312733
0.94568232 0.47413824 0.03425623
0.98807880 0.46786662 0.11062450
1.00000000 0.47550478 0.20112070
1.00000000 0.48864887 0.27174413
1.00000000 0.50312529 0.32632559
1.00000000 0.51716146 0.36891807
1.00000000 0.53018356 0.40275153
1.00000000 0.54218967 0.43017503
1.00000000 0.55346385 0.45302527
1.00000000 0.56443514 0.47276380
1.00000000 0.57559946 0.49069773
1.00000000 0.58746936 0.50786931
1.00000000 0.60030363 0.52479561
1.00000000 0.61347898 0.54032938
0.00161398 0.49268378 0.09892521
0.00161398 0.49268378 0.09892521
0.00161398 0.49268378 0.09892521
0.00161398 0.49268378 0.09892521
0.00161398 0.49268378 0.09892521
0.00334828 0.50466305 0.07549145
0.01185495 0.51558162 0.04735113
0.04129044 0.52656223 0.02216185
0.10604482 0.53691500 0.00908234
0.17739372 0.54681356 0.00320963
0.24782583 0.55678116 0.00035273
0.31920879 0.56644473 0.00000000
0.39312418 0.57546924 0.00000000
0.46917053 0.58194920 0.00000000
0.54651094 0.58419685 0.00000000
0.62483806 0.58192788 0.00000000
0.70389986 0.57546722 0.00000000
0.78243074 0.56494144 0.00000000
0.85819654 0.55106765 0.00000000
0.92719706 0.53586179 0.02136654
0.98082015 0.52463231 0.08727922
1.00000000 0.52721427 0.19377401
1.00000000 0.53670339 0.27662613
1.00000000 0.54858562 0.34023634
1.00000000 0.56069588 0.38934481
1.00000000 0.57220696 0.42774597
1.00000000 0.58293530 0.45846238
1.00000000 0.59309080 0.48370819
1.00000000 0.60304179 0.50524728
1.00000000 0.61331102 0.52449583
1.00000000 0.62436128 0.54261758
1.00000000 0.63646682 0.56014865
1.00000000 0.64915314 0.57631291
0.00195686 0.53474000 0.10081928
0.00195686 0.53474000 0.10081928
0.00195686 0.53474000 0.10081928
0.00195686 0.53474000 0.10081928
0.00195686 0.53474000 0.10081928
0.00303306 0.54578611 0.07936120
0.00878908 0.55610872 0.05282735
0.03037554 0.56693311 0.02702547
0.08522083 0.57749043 0.01209547
0.15493332 0.58785458 0.00490845
0.22359619 0.59845273 0.00170489
0.29316248 0.60897966 0.00064522
0.36482326 0.61929572 0.00056065
0.43859868 0.62744353 0.00000000
0.51398274 0.63192153 0.00000000
0.59115459 0.63262481 0.00000000
0.66941083 0.62896246 0.00000000
0.74832931 0.62125386 0.00000000
0.82629717 0.60970450 0.00000000
0.90007062 0.59543335 0.01180350
0.96296032 0.58179505 0.06382851
0.99864490 0.57782134 0.17450939
1.00000000 0.58291929 0.27148747
1.00000000 0.59183164 0.34622939
1.00000000 0.60180678 0.40349547
1.00000000 0.61168109 0.44774354
1.00000000 0.62112011 0.48252314
1.00000000 0.63015197 0.51064710
1.00000000 0.63912169 0.53426630
1.00000000 0.64847708 0.55508558
1.00000000 0.65871870 0.57432676
1.00000000 0.67012079 0.59268911
1.00000000 0.68233845 0.60951176
0.00275003 0.57426556 0.09940426
0.00275003 0.57426556 0.09940426
0.00275003 0.57426556 0.09940426
0.00275003 0.57426556 0.09940426
0.00275003 0.57426556 0.09940426
0.00350058 0.58452566 0.07979080
0.00780882 0.59422590 0.05560904
0.02496246 0.60474174 0.03136382
0.06854997 0.61542768 0.01482668
0.13418364 0.62624570 0.00640336
0.20075139 0.63718881 0.00288197
0.26771169 0.64856097 0.00155077
0.33687511 0.65987053 0.00183532
0.40799932 0.66942329 0.00187101
0.48086343 0.67574163 0.00045255
0.55590507 0.67875391 0.00000000
0.63295996 0.67819197 0.00000000
0.71105160 0.67329071 0.00000000
0.78954666 0.66445492 0.00000000
0.86623468 0.65209973 0.00646114
0.93610972 0.63808542 0.04474126
0.98726249 0.62809061 0.14097290
1.00000000 0.62831437 0.25467842
1.00000000 0.63377268 0.34332980
1.00000000 0.64133994 0.41092502
1.00000000 0.64942145 0.46257352
1.00000000 0.65741872 0.50254079
1.00000000 0.66529482 0.53422536
1.00000000 0.67324511 0.56033900
1.00000000 0.68168825 0.58291238
1.00000000 0.69107098 0.60345262
1.00000000 0.70174792 0.62275739
1.00000000 0.71345153 0.64035935
0.00384037 0.61150086 0.09466708
0.00384037 0.61150086 0.09466708
0.00384037 0.61150086 0.09466708
0.00384037 0.61150086 0.09466708
0.00384037 0.61150086 0.09466708
0.00455153 0.62108836 0.07674425
0.00809382 0.63022480 0.05517642
0.02185188 0.64042242 0.03308070
0.05801769 0.65098483 0.01697003
0.11723678 0.66203888 0.00807447
0.18012865 0.67337354 0.00380450
0.24397965 0.68537298 0.00212104
0.31010944 0.69751692 0.00260989
0.37822096 0.70827884 0.00288214
0.44819553 0.71608574 0.00236334
0.52051836 0.72105488 0.00083625
0.59530331 0.72284652 0.00000000
0.67220781 0.72114250 0.00000000
0.74998816 0.71506822 0.00000000
0.82769443 0.70518440 0.00429942
0.90217318 0.69225169 0.02967246
0.96595934 0.67913933 0.10092579
1.00000000 0.67363971 0.22434094
1.00000000 0.67507978 0.32960822
1.00000000 0.67981605 0.41034009
1.00000000 0.68586346 0.47148550
1.00000000 0.69229633 0.51810458
1.00000000 0.69887939 0.55439323
1.00000000 0.70576715 0.58360724
1.00000000 0.71325397 0.60830074
1.00000000 0.72177081 0.63028233
1.00000000 0.73164979 0.65062759
1.00000000 0.74276204 0.66900634
0.00518761 0.64650807 0.08655305
0.00518761 0.64650807 0.08655305
0.00518761 0.64650807 0.08655305
0.00518761 0.64650807 0.08655305
0.00518761 0.64650807 0.08655305
0.00612224 0.65551301 0.07041541
0.00949053 0.66413658 0.05163850
0.02126179 0.67398640 0.03225530
0.05317880 0.68425991 0.01831563
0.10572198 0.69531769 0.01007309
0.16306484 0.70710291 0.00494012
0.22298143 0.71947542 0.00284890
0.28530853 0.73241795 0.00291504
0.35001572 0.74411065 0.00356997
0.41668897 0.75325437 0.00338419
0.48589908 0.75981776 0.00274360
0.55779430 0.76363357 0.00152104
0.63231652 0.76432854 0.00049038
0.70898809 0.76152668 0.00041705
0.78625798 0.75430460 0.00416229
0.86268451 0.74345022 0.02060948
0.93357644 0.73026579 0.07022504
0.98669680 0.71933215 0.17761426
1.00000000 0.71619523 0.30216318
1.00000000 0.71765554 0.39952964
1.00000000 0.72132281 0.47304520
1.00000000 0.72599645 0.52838338
1.00000000 0.73117950 0.57062743
1.00000000 0.73686647 0.60386856
1.00000000 0.74334311 0.63120067
1.00000000 0.75094541 0.65493463
1.00000000 0.76001310 0.67642584
1.00000000 0.77043310 0.69557595
0.00686610 0.67926101 0.07508835
0.00686610 0.67926101 0.07508835
0.00686610 0.67926101 0.07508835
0.00686610 0.67926101 0.07508835
0.00686610 0.67926101 0.07508835
0.00826804 0.68775670 0.06120279
0.01194890 0.69591411 0.04530913
0.02310293 0.70534378 0.02915405
0.05237528 0.71532690 0.01827499
0.10078158 0.72616439 0.01254221
0.15096080 0.73830911 0.00666036
0.20529352 0.75103302 0.00375815
0.26325243 0.76462939 0.00299393
0.32398599 0.77709540 0.00387599
0.38695929 0.78736826 0.00382225
0.45267977 0.79530500 0.00380648
0.52127403 0.80082019 0.00326115
0.59276277 0.80357050 0.00258565
0.66697317 0.80319654 0.00262906
0.74329648 0.79930078 0.00520760
0.81980404 0.79094155 0.01520228
0.89433821 0.77920583 0.04685947
0.96012599 0.76608227 0.12696431
0.99998848 0.75764354 0.25775247
1.00000000 0.75520246 0.37538964
1.00000000 0.75610125 0.46504581
1.00000000 0.75871684 0.53195930
1.00000000 0.76233084 0.58211316
1.00000000 0.76673205 0.62061070
1.00000000 0.77207131 0.65140622
1.00000000 0.77870711 0.67735090
1.00000000 0.78690303 0.70021771
1.00000000 0.79658785 0.72013090
0.00909971 0.70969544 0.06124097
0.00909971 0.70969544 0.06124097
0.00909971 0.70969544 0.06124097
0.00909971 0.70969544 0.06124097
0.00909971 0.70969544 0.06124097
0.01123898 0.71773999 0.04973772
0.01573259 0.72546794 0.03682157
0.02750263 0.73443408 0.02432972
0.05578965 0.74411100 0.01710537
0.09991660 0.75474055 0.01380321
0.14581595 0.76680274 0.01043534
0.19216623 0.78000510 0.00533240
0.24450641 0.79407064 0.00378823
0.30084923 0.80728420 0.00392949
0.35957322 0.81846480 0.00421405
0.42143680 0.82763519 0.00428285
0.48634738 0.83459644 0.00442866
0.55438198 0.83913498 0.00417802
0.62544120 0.84083800 0.00439359
0.69926115 0.83938530 0.00618282
0.77509002 0.83438393 0.01288662
0.85052561 0.82490083 0.03251262
0.92239455 0.81239842 0.08740771
0.98094886 0.79973417 0.19156591
1.00000000 0.79290835 0.33361587
1.00000000 0.79047144 0.44425912
1.00000000 0.79068193 0.52664039
1.00000000 0.79247330 0.58752885
1.00000000 0.79544826 0.63313529
1.00000000 0.79959027 0.66851593
1.00000000 0.80514275 0.69736876
1.00000000 0.81241258 0.72196894
1.00000000 0.82128790 0.74274709
0.01241300 0.73773610 0.04600977
0.01241300 0.73773610 0.04600977
0.01241300 0.73773610 0.04600977
0.01241300 0.73773610 0.04600977
0.01241300 0.73773610 0.04600977
0.01574079 0.74536656 0.03702734
0.02178513 0.75268050 0.02733808
0.03579128 0.76115178 0.01923524
0.06350791 0.77054480 0.01542559
0.10296085 0.78100001 0.01417452
0.14391706 0.79295917 0.01248865
0.18401494 0.80642944 0.00762242
0.22974580 0.82088139 0.00484215
0.28059704 0.83478319 0.00412989
0.33516026 0.84667196 0.00440328
0.39259840 0.85689797 0.00467585
0.45361673 0.86510462 0.00523884
0.51780326 0.87115988 0.00572362
0.58528335 0.87472690 0.00609898
0.65585562 0.87536490 0.00776282
0.72917474 0.87280970 0.01229790
0.80432381 0.86669348 0.02523529
0.87829189 0.85611688 0.05941214
0.94639776 0.84301251 0.13942548
0.99390495 0.83142238 0.27183249
1.00000000 0.82491307 0.40643909
1.00000000 0.82213973 0.50930033
