Canon/CinemaGamut_CanonLog3-to-DCIP3_DCI_33_FF_Ver.2.0.cube
# Gamut : Cinema Gamut to DCI-P3
# Gamma : Canon Log 3 to DCI
# Range : Full in / Full out
# Version : 2.0 2019/10/24
# Copyright(c) 2019 Canon Inc. All Rights Reserved.
LUT_3D_SIZE 33
# LUT_3D_INPUT_RANGE 0.0 1.0
0.00000000 0.00000246 0.00000110
0.00000000 0.00000246 0.00000110
0.00000000 0.00000246 0.00000110
0.00000000 0.00000246 0.00000110
0.00000000 0.00000246 0.00000110
0.07018702 0.03261216 0.03751880
0.15249375 0.05397244 0.06920009
0.22936253 0.05844514 0.09086003
0.30165094 0.04914655 0.10845334
0.37046905 0.02780758 0.12657544
0.43795625 0.00000000 0.14622996
0.50476730 0.02217834 0.16865707
0.57253813 0.04909017 0.19124892
0.63469132 0.05047256 0.20900222
0.69024126 0.03885043 0.22219889
0.74002881 0.00000000 0.23161598
0.78470937 0.00000000 0.23780335
0.82484452 0.00000000 0.24113472
0.86102718 0.00000000 0.24173155
0.89364614 0.00000000 0.23982852
0.92289436 0.00000000 0.23584397
0.94874382 0.05145840 0.23052548
0.97100200 0.09334805 0.22500495
0.98830522 0.13784839 0.22273545
0.99665912 0.19712927 0.23215667
1.00000000 0.24557855 0.24621459
1.00000000 0.28303772 0.26003228
1.00000000 0.31250329 0.27222586
1.00000000 0.33613240 0.28256317
1.00000000 0.35534545 0.29113559
1.00000000 0.37111028 0.29811744
1.00000000 0.38370715 0.30324709
1.00000000 0.39280227 0.30568387
0.00000000 0.00000246 0.00000110
0.00000000 0.00000246 0.00000110
0.00000000 0.00000246 0.00000110
0.00000000 0.00000246 0.00000110
0.00000000 0.00000246 0.00000110
0.07018702 0.03261216 0.03751880
0.15249375 0.05397244 0.06920009
0.22936253 0.05844514 0.09086003
0.30165094 0.04914655 0.10845334
0.37046905 0.02780758 0.12657544
0.43795625 0.00000000 0.14622996
0.50476730 0.02217834 0.16865707
0.57253813 0.04909017 0.19124892
0.63469132 0.05047256 0.20900222
0.69024126 0.03885043 0.22219889
0.74002881 0.00000000 0.23161598
0.78470937 0.00000000 0.23780335
0.82484452 0.00000000 0.24113472
0.86102718 0.00000000 0.24173155
0.89364614 0.00000000 0.23982852
0.92289436 0.00000000 0.23584397
0.94874382 0.05145840 0.23052548
0.97100200 0.09334805 0.22500495
0.98830522 0.13784839 0.22273545
0.99665912 0.19712927 0.23215667
1.00000000 0.24557855 0.24621459
1.00000000 0.28303772 0.26003228
1.00000000 0.31250329 0.27222586
1.00000000 0.33613240 0.28256317
1.00000000 0.35534545 0.29113559
1.00000000 0.37111028 0.29811744
1.00000000 0.38370715 0.30324709
1.00000000 0.39280227 0.30568387
0.00000000 0.00000246 0.00000110
0.00000000 0.00000246 0.00000110
0.00000000 0.00000246 0.00000110
0.00000000 0.00000246 0.00000110
0.00000000 0.00000246 0.00000110
0.07018702 0.03261216 0.03751880
0.15249375 0.05397244 0.06920009
0.22936253 0.05844514 0.09086003
0.30165094 0.04914655 0.10845334
0.37046905 0.02780758 0.12657544
0.43795625 0.00000000 0.14622996
0.50476730 0.02217834 0.16865707
0.57253813 0.04909017 0.19124892
0.63469132 0.05047256 0.20900222
0.69024126 0.03885043 0.22219889
0.74002881 0.00000000 0.23161598
0.78470937 0.00000000 0.23780335
0.82484452 0.00000000 0.24113472
0.86102718 0.00000000 0.24173155
0.89364614 0.00000000 0.23982852
0.92289436 0.00000000 0.23584397
0.94874382 0.05145840 0.23052548
0.97100200 0.09334805 0.22500495
0.98830522 0.13784839 0.22273545
0.99665912 0.19712927 0.23215667
1.00000000 0.24557855 0.24621459
1.00000000 0.28303772 0.26003228
1.00000000 0.31250329 0.27222586
1.00000000 0.33613240 0.28256317
1.00000000 0.35534545 0.29113559
1.00000000 0.37111028 0.29811744
1.00000000 0.38370715 0.30324709
1.00000000 0.39280227 0.30568387
0.00000000 0.00000246 0.00000110
0.00000000 0.00000246 0.00000110
0.00000000 0.00000246 0.00000110
0.00000000 0.00000246 0.00000110
0.00000000 0.00000246 0.00000110
0.07018702 0.03261216 0.03751880
0.15249375 0.05397244 0.06920009
0.22936253 0.05844514 0.09086003
0.30165094 0.04914655 0.10845334
0.37046905 0.02780758 0.12657544
0.43795625 0.00000000 0.14622996
0.50476730 0.02217834 0.16865707
0.57253813 0.04909017 0.19124892
0.63469132 0.05047256 0.20900222
0.69024126 0.03885043 0.22219889
0.74002881 0.00000000 0.23161598
0.78470937 0.00000000 0.23780335
0.82484452 0.00000000 0.24113472
0.86102718 0.00000000 0.24173155
0.89364614 0.00000000 0.23982852
0.92289436 0.00000000 0.23584397
0.94874382 0.05145840 0.23052548
0.97100200 0.09334805 0.22500495
0.98830522 0.13784839 0.22273545
0.99665912 0.19712927 0.23215667
1.00000000 0.24557855 0.24621459
1.00000000 0.28303772 0.26003228
1.00000000 0.31250329 0.27222586
1.00000000 0.33613240 0.28256317
1.00000000 0.35534545 0.29113559
1.00000000 0.37111028 0.29811744
1.00000000 0.38370715 0.30324709
1.00000000 0.39280227 0.30568387
0.00000000 0.00000246 0.00000110
0.00000000 0.00000246 0.00000110
0.00000000 0.00000246 0.00000110
0.00000000 0.00000246 0.00000110
0.00000000 0.00000246 0.00000110
0.07018702 0.03261216 0.03751880
0.15249375 0.05397244 0.06920009
0.22936253 0.05844514 0.09086003
0.30165094 0.04914655 0.10845334
0.37046905 0.02780758 0.12657544
0.43795625 0.00000000 0.14622996
0.50476730 0.02217834 0.16865707
0.57253813 0.04909017 0.19124892
0.63469132 0.05047256 0.20900222
0.69024126 0.03885043 0.22219889
0.74002881 0.00000000 0.23161598
0.78470937 0.00000000 0.23780335
0.82484452 0.00000000 0.24113472
0.86102718 0.00000000 0.24173155
0.89364614 0.00000000 0.23982852
0.92289436 0.00000000 0.23584397
0.94874382 0.05145840 0.23052548
0.97100200 0.09334805 0.22500495
0.98830522 0.13784839 0.22273545
0.99665912 0.19712927 0.23215667
1.00000000 0.24557855 0.24621459
1.00000000 0.28303772 0.26003228
1.00000000 0.31250329 0.27222586
1.00000000 0.33613240 0.28256317
1.00000000 0.35534545 0.29113559
1.00000000 0.37111028 0.29811744
1.00000000 0.38370715 0.30324709
1.00000000 0.39280227 0.30568387
0.04350889 0.06322905 0.04595043
0.04350889 0.06322905 0.04595043
0.04350889 0.06322905 0.04595043
0.04350889 0.06322905 0.04595043
0.04350889 0.06322905 0.04595043
0.07284382 0.07461433 0.05006794
0.13856398 0.10063279 0.00000000
0.21892056 0.11252904 0.00000000
0.32649627 0.03095180 0.00000000
0.40292598 0.00000000 0.00000000
0.47805586 0.00000000 0.00000000
0.50267468 0.11447162 0.00000000
0.57265983 0.11252932 0.09627421
0.63644551 0.10464917 0.13186599
0.69320993 0.09065900 0.15558256
0.74415525 0.06531356 0.17201660
0.78978258 0.00000000 0.18363348
0.83051674 0.00000000 0.19164993
0.86709154 0.00000000 0.19614942
0.89993525 0.00000000 0.19752777
0.92919702 0.00000000 0.19653458
0.95478225 0.00000000 0.19436838
0.97600615 0.05756427 0.19365442
0.99144615 0.13485307 0.19878128
0.99778866 0.20238537 0.21706449
1.00000000 0.25128038 0.23657938
1.00000000 0.28814210 0.25374250
1.00000000 0.31694524 0.26810425
1.00000000 0.34003675 0.27994911
1.00000000 0.35885994 0.28964382
1.00000000 0.37435427 0.29750190
1.00000000 0.38676812 0.30332986
1.00000000 0.39584575 0.30644447
0.07584202 0.13188980 0.08298245
0.07584202 0.13188980 0.08298245
0.07584202 0.13188980 0.08298245
0.07584202 0.13188980 0.08298245
0.07584202 0.13188980 0.08298245
0.10028762 0.13680279 0.06163218
0.14855772 0.15360639 0.08007948
0.20320837 0.17326452 0.07258602
0.27297238 0.18668404 0.00000000
0.34607129 0.19349421 0.00000000
0.41789499 0.19730456 0.00000000
0.48900938 0.20023715 0.00000000
0.56235118 0.19922405 0.00000000
0.62980416 0.19268016 0.00000000
0.69032428 0.18066304 0.05395007
0.74487511 0.16279349 0.09579146
0.79378203 0.13923758 0.11659774
0.83639508 0.11622282 0.13380667
0.87424199 0.09043446 0.14527621
0.90795098 0.05792971 0.15219066
0.93757418 0.01433369 0.15661481
0.96278041 0.06073135 0.16117113
0.98253102 0.11544104 0.17019487
0.99390147 0.17841526 0.19128910
0.99809225 0.23447748 0.21857634
0.99988233 0.27643081 0.24199840
1.00000000 0.30888613 0.26108306
1.00000000 0.33475357 0.27655163
1.00000000 0.35583314 0.28914811
1.00000000 0.37329136 0.29946786
1.00000000 0.38784073 0.30787593
1.00000000 0.39958329 0.31418516
1.00000000 0.40829389 0.31785191
0.09164130 0.19347709 0.10521496
0.09164130 0.19347709 0.10521496
0.09164130 0.19347709 0.10521496
0.09164130 0.19347709 0.10521496
0.09164130 0.19347709 0.10521496
0.11690503 0.19620098 0.07408848
0.16338606 0.20799448 0.06625164
0.21439257 0.22276347 0.09047896
0.26730940 0.23866719 0.09677015
0.32973584 0.25244377 0.03989636
0.40009718 0.26168131 0.00000000
0.47386825 0.26725156 0.00000000
0.54944005 0.26937527 0.00000000
0.61906048 0.26634733 0.00000000
0.68194944 0.25843168 0.00000000
0.73900387 0.24608053 0.00000000
0.79078408 0.23006922 0.00000000
0.83722017 0.21142372 0.07248444
0.87854012 0.19137278 0.09316284
0.91492929 0.17190854 0.10649743
0.94629635 0.15759526 0.11832966
0.97169993 0.15923421 0.13488409
0.98860548 0.18919818 0.16378073
0.99573453 0.23742095 0.20168118
0.99759874 0.28162365 0.23566647
0.99886444 0.31511086 0.26087036
0.99975040 0.34186075 0.28053981
1.00000000 0.36381372 0.29628888
1.00000000 0.38217207 0.30913709
1.00000000 0.39773497 0.31977137
1.00000000 0.41088945 0.32848179
1.00000000 0.42172863 0.33523428
1.00000000 0.42967092 0.33918380
0.10037033 0.25106762 0.12149565
0.10037033 0.25106762 0.12149565
0.10037033 0.25106762 0.12149565
0.10037033 0.25106762 0.12149565
0.10037033 0.25106762 0.12149565
0.12693953 0.25283131 0.08518512
0.17205229 0.26161501 0.05861710
0.22327790 0.27378572 0.06560809
0.27555893 0.28698769 0.09334628
0.32970999 0.30095367 0.10768908
0.39073789 0.31412670 0.09050054
0.46027202 0.32427396 0.00000000
0.53546791 0.33034901 0.00000000
0.60682365 0.33049923 0.00000000
0.67203132 0.32561925 0.00000000
0.73149069 0.31661660 0.00000000
0.78559906 0.30422997 0.00000000
0.83460133 0.28926905 0.02717543
0.87849737 0.27296486 0.07351767
0.91719790 0.25722400 0.09611626
0.95018648 0.24558112 0.11759381
0.97585210 0.24503888 0.14522076
0.98981150 0.26782179 0.18784026
0.99513752 0.30159328 0.22937655
0.99627264 0.33447107 0.26393713
0.99744794 0.36059858 0.28916289
0.99846548 0.38221418 0.30876230
0.99920220 0.40055231 0.32457810
0.99966161 0.41628750 0.33758918
0.99991557 0.42982306 0.34835821
1.00000000 0.44153028 0.35734265
1.00000000 0.45118191 0.36427056
1.00000000 0.45821717 0.36840567
0.10453430 0.30736638 0.13504218
0.10453430 0.30736638 0.13504218
0.10453430 0.30736638 0.13504218
0.10453430 0.30736638 0.13504218
0.10453430 0.30736638 0.13504218
0.13227730 0.30864839 0.09568864
0.17772227 0.31527394 0.06155044
0.22831946 0.32555303 0.03926655
0.28108066 0.33719917 0.06237850
0.33531076 0.34956615 0.09340644
0.39209965 0.36247553 0.11119249
0.45473313 0.37498528 0.10719076
0.52495397 0.38492910 0.07293059
0.59542108 0.38856087 0.00000000
0.66201397 0.38648330 0.00000000
0.72365490 0.37997318 0.00000000
0.78020507 0.36999034 0.00000000
0.83172558 0.35739938 0.07052046
0.87811464 0.34332596 0.09551376
0.91897840 0.32954354 0.11707275
0.95323313 0.31944716 0.14201203
0.97821688 0.31975536 0.17673130
0.98930559 0.33922428 0.22493584
0.99364337 0.36433797 0.26595855
0.99491674 0.38889482 0.29890897
0.99604950 0.40963068 0.32386921
0.99697372 0.42744559 0.34366843
0.99769549 0.44288767 0.35972685
0.99822415 0.45634171 0.37295524
0.99858223 0.46808644 0.38394868
0.99893446 0.47821452 0.39297190
0.99964360 0.48662439 0.39997728
1.00000000 0.49277237 0.40430330
0.10533086 0.36386630 0.14779722
0.10533086 0.36386630 0.14779722
0.10533086 0.36386630 0.14779722
0.10533086 0.36386630 0.14779722
0.10533086 0.36386630 0.14779722
0.13325180 0.36494198 0.10629733
0.18045354 0.37007779 0.07017765
0.23125696 0.37863560 0.02660041
0.28386355 0.38903936 0.00000000
0.33847535 0.40037380 0.05956080
0.39539857 0.41233427 0.09152697
0.45567829 0.42463762 0.11079420
0.52119458 0.43617881 0.11154921
0.58856129 0.44255227 0.09591786
0.65470261 0.44314550 0.07785404
0.71766379 0.43885400 0.07215798
0.77642108 0.43068353 0.08264844
0.83046997 0.41962439 0.09970395
0.87943948 0.40679732 0.11850696
0.92257021 0.39401756 0.14006400
0.95795625 0.38498498 0.16896938
0.98067866 0.38779173 0.21340922
0.99011713 0.40411266 0.26354771
0.99379697 0.42399321 0.30477912
0.99508863 0.44335429 0.33740898
0.99560420 0.46075549 0.36318265
0.99596693 0.47597686 0.38368560
0.99646296 0.48909560 0.40013522
0.99687953 0.50058084 0.41361699
0.99722162 0.51063514 0.42474135
0.99758405 0.51935565 0.43386142
0.99830673 0.52663865 0.44098535
1.00000000 0.53198269 0.44553326
0.10312255 0.42157400 0.16092177
0.10312255 0.42157400 0.16092177
0.10312255 0.42157400 0.16092177
0.10312255 0.42157400 0.16092177
0.10312255 0.42157400 0.16092177
0.12940931 0.42261677 0.11785452
0.17954722 0.42666408 0.08170633
0.23190391 0.43375747 0.04196778
0.28479930 0.44294107 0.00000000
0.33942433 0.45341644 0.00000000
0.39658710 0.46470690 0.05399391
0.45694190 0.47648981 0.08644339
0.52101388 0.48804199 0.10476534
0.58628993 0.49555522 0.10613247
0.65141446 0.49795435 0.09946337
0.71486252 0.49550758 0.09570877
0.77528561 0.48889700 0.10053222
0.83167962 0.47901418 0.11369847
0.88319685 0.46704680 0.13241911
0.92857433 0.45490601 0.15728601
0.98261830 0.42874911 0.10669903
0.98440238 0.45174084 0.24957286
0.99222029 0.46596614 0.30273359
0.99507166 0.48249005 0.34533034
0.99593497 0.49851394 0.37896513
0.99610124 0.51311602 0.40558905
0.99611315 0.52608522 0.42686932
0.99614302 0.53750466 0.44404449
0.99627359 0.54748334 0.45803986
0.99648033 0.55619261 0.46951042
0.99676081 0.56376726 0.47889317
0.99747128 0.57008752 0.48621758
0.99943008 0.57474041 0.49103432
0.09716999 0.48035674 0.17433880
0.09716999 0.48035674 0.17433880
0.09716999 0.48035674 0.17433880
0.09716999 0.48035674 0.17433880
0.09716999 0.48035674 0.17433880
0.12245896 0.48132073 0.13257802
0.17387785 0.48480207 0.09417952
0.22903577 0.49080959 0.05753878
0.28318288 0.49878309 0.00000000
0.33809884 0.50837076 0.00000000
0.39525963 0.51905807 0.00000000
0.45569566 0.53047228 0.03577907
0.51975156 0.54189207 0.07480537
0.58471831 0.54976442 0.08500871
0.64969486 0.55309332 0.08490293
0.71382952 0.55184349 0.08353119
0.77594235 0.54635469 0.08887642
0.83478523 0.53731324 0.10444152
0.88912645 0.52580252 0.12856632
0.93705051 0.51384812 0.16154759
0.99058033 0.49259775 0.13611766
0.99090367 0.51212952 0.28030881
0.99720053 0.52468822 0.33885612
0.99901355 0.53889474 0.38459405
0.99916946 0.55260634 0.42029947
0.99881893 0.56512717 0.44849892
0.99841880 0.57631771 0.47097016
0.99808471 0.58625064 0.48908057
0.99786891 0.59501549 0.50378559
0.99780554 0.60268991 0.51579039
0.99794323 0.60933432 0.52557658
0.99856082 0.61488576 0.53323570
1.00000000 0.61900344 0.53843245
0.08906053 0.53348096 0.18425575
0.08906053 0.53348096 0.18425575
0.08906053 0.53348096 0.18425575
0.08906053 0.53348096 0.18425575
0.08906053 0.53348096 0.18425575
0.11239140 0.53440044 0.14456694
0.16323200 0.53764978 0.10429670
0.22112805 0.54298848 0.07027076
0.27685600 0.55011555 0.02749251
0.33192344 0.55911011 0.00000000
0.38860524 0.56947266 0.00000000
0.44834144 0.58079914 0.00000000
0.51175768 0.59248364 0.04044430
0.57643434 0.60108175 0.05543576
0.64145861 0.60543653 0.05022519
0.70633640 0.60544977 0.03411615
0.77010781 0.60118462 0.02984672
0.83157682 0.59306843 0.06060343
0.88923175 0.58198723 0.09957127
0.94071797 0.56980074 0.14648820
0.98076729 0.56107188 0.20877989
0.99731578 0.56589670 0.29613104
1.00000000 0.57655066 0.36350392
1.00000000 0.58878902 0.41473202
1.00000000 0.60072409 0.45411142
1.00000000 0.61168091 0.48488236
1.00000000 0.62151489 0.50926424
1.00000000 0.63025692 0.52879058
1.00000000 0.63801402 0.54455534
1.00000000 0.64484185 0.55734962
1.00000000 0.65077029 0.56769217
1.00000000 0.65570974 0.57582985
1.00000000 0.65938987 0.58147808
0.08215201 0.58054221 0.18993066
0.08215201 0.58054221 0.18993066
0.08215201 0.58054221 0.18993066
0.08215201 0.58054221 0.18993066
0.08215201 0.58054221 0.18993066
0.10194131 0.58143232 0.15234531
0.15033712 0.58457820 0.11109251
0.21035376 0.58949311 0.07857033
0.26708567 0.59619227 0.04764759
0.32206761 0.60472646 0.00000000
0.37796312 0.61484427 0.00000000
0.43639613 0.62630028 0.00000000
0.49844377 0.63839831 0.02699376
0.56206080 0.64791492 0.03895356
0.62653632 0.65364893 0.01036032
0.69136512 0.65522213 0.00000000
0.75598888 0.65264324 0.00000000
0.81934895 0.64603053 0.00000000
0.87994465 0.63598117 0.04910722
0.93530749 0.62396938 0.12338890
0.98010002 0.61379004 0.19815094
1.00000000 0.61538114 0.29996428
1.00000000 0.62338738 0.37770942
1.00000000 0.63346442 0.43607376
1.00000000 0.64365391 0.48044580
1.00000000 0.65319189 0.51465817
1.00000000 0.66180130 0.54146306
1.00000000 0.66949931 0.56275991
1.00000000 0.67634479 0.57988105
1.00000000 0.68240988 0.59367228
1.00000000 0.68768690 0.60475551
1.00000000 0.69209388 0.61339238
1.00000000 0.69538499 0.61953647
0.07768029 0.62258849 0.19113474
0.07768029 0.62258849 0.19113474
0.07768029 0.62258849 0.19113474
0.07768029 0.62258849 0.19113474
0.07768029 0.62258849 0.19113474
0.09320660 0.62343963 0.15541515
0.13793701 0.62649369 0.11420206
0.19927994 0.63113378 0.08276150
0.25597810 0.63760200 0.05600835
0.31061702 0.64574971 0.02908473
0.36500156 0.65583117 0.00000000
0.42177784 0.66744582 0.00000000
0.48197017 0.67993496 0.03804053
0.54389587 0.69029238 0.04611800
0.60706631 0.69736080 0.03156177
0.67117018 0.70072925 0.00000000
0.73558990 0.70005080 0.00000000
0.79971194 0.69541149 0.00000000
0.86228545 0.68704411 0.00000000
0.92099733 0.67593011 0.10103566
0.97092333 0.66490522 0.18442729
0.99897410 0.66201509 0.29222949
1.00000000 0.66672512 0.38191054
1.00000000 0.67440809 0.44923024
1.00000000 0.68276047 0.49997808
1.00000000 0.69081278 0.53863166
1.00000000 0.69824478 0.56849269
1.00000000 0.70493775 0.59194667
1.00000000 0.71092245 0.61060186
1.00000000 0.71622086 0.62555540
1.00000000 0.72085958 0.63747230
1.00000000 0.72475390 0.64676581
1.00000000 0.72767540 0.65338812
0.07851422 0.66035589 0.18806104
0.07851422 0.66035589 0.18806104
0.07851422 0.66035589 0.18806104
0.07851422 0.66035589 0.18806104
0.07851422 0.66035589 0.18806104
0.08941086 0.66115825 0.15381171
0.12993959 0.66407474 0.11372799
0.19048536 0.66851385 0.08350708
0.24580103 0.67483036 0.05983036
0.29900025 0.68276670 0.04484847
0.35142482 0.69283018 0.00000000
0.40602034 0.70448745 0.01973996
0.46390654 0.71742489 0.04804900
0.52366662 0.72857674 0.05524664
0.58494912 0.73680296 0.05064943
0.64757511 0.74175986 0.02645021
0.71116387 0.74314244 0.00000000
0.77500264 0.74060120 0.00000000
0.83834169 0.73431687 0.00000000
0.89944460 0.72475029 0.08399219
0.95431321 0.71365908 0.16683238
0.99285198 0.70639754 0.27013843
1.00000000 0.70753487 0.37500356
1.00000000 0.71254322 0.45375200
1.00000000 0.71890007 0.51259052
1.00000000 0.72540616 0.55693306
1.00000000 0.73157747 0.59073789
1.00000000 0.73725720 0.61684726
1.00000000 0.74237143 0.63733879
1.00000000 0.74692662 0.65357222
1.00000000 0.75090912 0.66645859
1.00000000 0.75428016 0.67646867
1.00000000 0.75679485 0.68363580
0.08401739 0.69442774 0.18045840
0.08401739 0.69442774 0.18045840
0.08401739 0.69442774 0.18045840
0.08401739 0.69442774 0.18045840
0.08401739 0.69442774 0.18045840
0.09231615 0.69515831 0.14728473
0.12904522 0.69788283 0.10922154
0.18576054 0.70215225 0.08136306
0.23858816 0.70826057 0.06172612
0.28897213 0.71614179 0.05193531
0.33875414 0.72607887 0.03981679
0.39046890 0.73793326 0.03860156
0.44544459 0.75128177 0.05297545
0.50266712 0.76306116 0.06207222
0.56159855 0.77232607 0.06172252
0.62218692 0.77868697 0.05276337
0.68417995 0.78181224 0.03226420
0.74714880 0.78149899 0.00000000
0.81025260 0.77738924 0.00000000
0.87246703 0.76979839 0.07521774
0.93119077 0.75954658 0.14589315
0.98011430 0.74940660 0.23397993
1.00000000 0.74655193 0.35499976
1.00000000 0.74857624 0.44810793
1.00000000 0.75272273 0.51750148
1.00000000 0.75756769 0.56925423
1.00000000 0.76241844 0.60813287
1.00000000 0.76699775 0.63769105
1.00000000 0.77121866 0.66045117
1.00000000 0.77500557 0.67821786
1.00000000 0.77834215 0.69216336
1.00000000 0.78114343 0.70295093
1.00000000 0.78320820 0.71065363
0.09368528 0.72523865 0.16810867
0.09368528 0.72523865 0.16810867
0.09368528 0.72523865 0.16810867
0.09368528 0.72523865 0.16810867
0.09368528 0.72523865 0.16810867
0.10308021 0.72585481 0.13594927
0.13723321 0.72832935 0.10151715
0.18705492 0.73243965 0.07699845
0.23543052 0.73838373 0.06172884
0.28187171 0.74622609 0.05652138
0.32803529 0.75610008 0.05106014
0.37619007 0.76811292 0.04657582
0.42778792 0.78173115 0.05768548
0.48192455 0.79411610 0.06578101
0.53807369 0.80430482 0.06686091
0.59619977 0.81183511 0.06508337
0.65605034 0.81652583 0.05670258
0.71734660 0.81805236 0.04692835
0.77961626 0.81626724 0.04517329
0.84182369 0.81081932 0.07531764
0.90245341 0.80222022 0.13027311
0.95733471 0.79187451 0.20726087
0.99489847 0.78448982 0.31983168
1.00000000 0.78310396 0.43006132
1.00000000 0.78479638 0.51312137
1.00000000 0.78778883 0.57467383
1.00000000 0.79121680 0.62027958
1.00000000 0.79464109 0.65432425
1.00000000 0.79787651 0.68004924
1.00000000 0.80086577 0.69973072
1.00000000 0.80351318 0.71492253
1.00000000 0.80573645 0.72652852
1.00000000 0.80729140 0.73476699
0.10764235 0.75311262 0.15075000
0.10764235 0.75311262 0.15075000
0.10764235 0.75311262 0.15075000
0.10764235 0.75311262 0.15075000
0.10764235 0.75311262 0.15075000
0.12044577 0.75356975 0.11978740
0.15357448 0.75574126 0.09212584
0.19482765 0.75970846 0.07226904
0.23673025 0.76554109 0.06183510
0.27852528 0.77333686 0.06033763
0.32030696 0.78315595 0.05942054
0.36395531 0.79533191 0.05297653
0.41193079 0.80910677 0.06234901
0.46229608 0.82207085 0.06722444
0.51530240 0.83298812 0.07047720
0.57052313 0.84159387 0.07083346
0.62780834 0.84759653 0.06857823
0.68688503 0.85077744 0.06417049
0.74744871 0.85089895 0.06451355
0.80895541 0.84781597 0.07983715
0.87007982 0.84121460 0.11752784
0.92857927 0.83186390 0.17897206
0.97833586 0.82182411 0.26777197
1.00000000 0.81672652 0.39623576
1.00000000 0.81560959 0.49704378
1.00000000 0.81654100 0.57166280
1.00000000 0.81837690 0.62632986
1.00000000 0.82055325 0.66640047
1.00000000 0.82276469 0.69604010
1.00000000 0.82486304 0.71822714
1.00000000 0.82678351 0.73497469
1.00000000 0.82837595 0.74752346
1.00000000 0.82939589 0.75626719
0.12734612 0.77826485 0.12867689
0.12734612 0.77826485 0.12867689
0.12734612 0.77826485 0.12867689
0.12734612 0.77826485 0.12867689
0.12734612 0.77826485 0.12867689
0.14551138 0.77847579 0.10203779
0.17503285 0.78040142 0.08294575
0.20851674 0.78422379 0.07119827
0.24284081 0.78998998 0.06409169
0.27891974 0.79777156 0.06506268
0.31616964 0.80751089 0.06771845
0.35488502 0.81974350 0.06206251
0.39821537 0.83376086 0.06728507
0.44462734 0.84718530 0.06736564
0.49394774 0.85872987 0.07237499
0.54592522 0.86826387 0.07328718
0.60025252 0.87540085 0.07481150
0.65669702 0.88001043 0.07387127
0.71499168 0.88182670 0.07521145
0.77480210 0.88068194 0.08478778
0.83547620 0.87643924 0.11065713
0.89526378 0.86883913 0.15757853
0.95074149 0.85900838 0.23127912
0.99171033 0.85012815 0.34448691
1.00000000 0.84573896 0.46598798
1.00000000 0.84424535 0.55786279
1.00000000 0.84429316 0.62483732
1.00000000 0.84507153 0.67318324
1.00000000 0.84617461 0.70815172
1.00000000 0.84735367 0.73368124
1.00000000 0.84846245 0.75247522
1.00000000 0.84938485 0.76619279
1.00000000 0.84980972 0.77546725
0.15594109 0.80076230 0.10668441
0.15594109 0.80076230 0.10668441
0.15594109 0.80076230 0.10668441
0.15594109 0.80076230 0.10668441
0.15594109 0.80076230 0.10668441
0.17521218 0.80076016 0.08784579
0.19869490 0.80256522 0.07615861
0.22519558 0.80629076 0.07166213
0.25315955 0.81196715 0.07042079
0.28294387 0.81975352 0.07128582
0.31565635 0.82941303 0.07676017
0.34936704 0.84164804 0.07264347
0.38746517 0.85589781 0.07295157
0.42924839 0.86966321 0.07104398
0.47474601 0.88178397 0.07317592
0.52300252 0.89208016 0.07617402
0.57410568 0.90022805 0.07885141
0.62752965 0.90605800 0.08156376
0.68315227 0.90938676 0.08398222
0.74066313 0.90995580 0.09193219
0.79968832 0.90765749 0.10926020
0.85942486 0.90237150 0.14316236
0.91755598 0.89390351 0.19892849
0.96921268 0.88376897 0.28495223
1.00000000 0.87578315 0.41558480
1.00000000 0.87142575 0.52981057
1.00000000 0.86932766 0.61358133
