Canon/CinemaGamut_CanonLog3-to-BT2020_PQ_33_FF_Ver.2.0.cube
# Gamut : Cinema Gamut to BT.2020
# Gamma : Canon Log 3 to PQ
# Range : Full in / Full out
# Version : 2.0 2019/10/24
# Copyright(c) 2019 Canon Inc. All Rights Reserved.
LUT_3D_SIZE 9
# LUT_3D_INPUT_RANGE 0.0 1.0
0.00000000 0.00000000 0.00000000
0.00000000 0.00000000 0.00000000
0.27920892 0.00935123 0.03461332
0.41303287 0.00000000 0.06742067
0.52211671 0.00000000 0.12694420
0.62351125 0.00000000 0.19368483
0.72083571 0.00000000 0.25865235
0.81473366 0.00000000 0.32295901
0.90523532 0.00000000 0.39190287
0.19402575 0.23254657 0.15303309
0.11849563 0.12980305 0.01472382
0.27920892 0.00935123 0.03461332
0.41303287 0.00000000 0.06742067
0.52211671 0.00000000 0.12694420
0.62351125 0.00000000 0.19368483
0.72083571 0.00000000 0.25865235
0.81473366 0.00000000 0.32295901
0.90523532 0.00000000 0.39190287
0.10736315 0.25398886 0.03528268
0.10736315 0.25398886 0.03528268
0.27652528 0.28738426 0.00198963
0.40797319 0.29835907 0.00035980
0.52123170 0.29129961 0.00421721
0.62600569 0.25070926 0.02407078
0.72503179 0.10394824 0.12995515
0.81825800 0.00000000 0.26767056
0.90765000 0.00000000 0.37000985
0.18737720 0.38189620 0.00853300
0.18737720 0.38189620 0.00853300
0.29362821 0.39906324 0.00000000
0.40354964 0.41549987 0.00000000
0.51346143 0.42634454 0.00000000
0.62066372 0.42540618 0.00058323
0.72385109 0.39941777 0.00678404
0.82250996 0.28792058 0.08751021
0.91005201 0.32204734 0.33912606
0.27801123 0.48851438 0.00067307
0.27801123 0.48851438 0.00067307
0.33750955 0.49722389 0.00012769
0.41650847 0.50973167 0.00000000
0.51130800 0.52392773 0.00000000
0.61412359 0.53470964 0.00000000
0.71833430 0.53571203 0.00077812
0.81972693 0.51478255 0.01301126
0.91083700 0.50514996 0.30953132
0.37246809 0.58957750 0.00033235
0.37246809 0.58957750 0.00033235
0.40308300 0.59383146 0.00066149
0.45269806 0.60134740 0.00025418
0.52386794 0.61274392 0.00000000
0.61318943 0.62626023 0.00000000
0.71245407 0.63687549 0.00000000
0.81421891 0.63865325 0.00855200
0.90934421 0.63563915 0.28376584
0.46874162 0.68824135 0.00061795
0.46874162 0.68824135 0.00061795
0.48370182 0.69020667 0.00199943
0.51144320 0.69415670 0.00077297
0.55780806 0.70123973 0.00000000
0.62560386 0.71210397 0.00000000
0.71199476 0.72529779 0.00000000
0.80856047 0.73570711 0.00000000
0.90691827 0.73918623 0.17460635
0.56566769 0.78469235 0.00058607
0.56566769 0.78469235 0.00058607
0.57269189 0.78555761 0.00177222
0.58678009 0.78737000 0.00354985
0.61344529 0.79112068 0.00000000
0.65812838 0.79780438 0.00000000
0.72380738 0.80825175 0.00000000
0.80796430 0.82127949 0.00000000
0.90163004 0.83190598 0.15156764
0.66191678 0.87852110 0.00000000
0.66191678 0.87852110 0.00000000
0.66519718 0.87888718 0.00000000
0.67201995 0.87966716 0.00000000
0.68588861 0.88132105 0.01111864
0.71185938 0.88472229 0.01101795
0.75517585 0.89096889 0.00614498
0.81932721 0.90089038 0.16669535
0.89845493 0.91230140 0.67184303
0.00000000 0.00000000 0.00000000
0.00000000 0.00000000 0.00000000
0.27920892 0.00935123 0.03461332
0.41303287 0.00000000 0.06742067
0.52211671 0.00000000 0.12694420
0.62351125 0.00000000 0.19368483
0.72083571 0.00000000 0.25865235
0.81473366 0.00000000 0.32295901
0.90523532 0.00000000 0.39190287
0.00000000 0.00000000 0.00000000
0.00000000 0.00000000 0.00000000
0.27920892 0.00935123 0.03461332
0.41303287 0.00000000 0.06742067
0.52211671 0.00000000 0.12694420
0.62351125 0.00000000 0.19368483
0.72083571 0.00000000 0.25865235
0.81473366 0.00000000 0.32295901
0.90523532 0.00000000 0.39190287
0.10736315 0.25398886 0.03528268
0.10736315 0.25398886 0.03528268
0.27652528 0.28738426 0.00198963
0.40797319 0.29835907 0.00035980
0.52123170 0.29129961 0.00421721
0.62600569 0.25070926 0.02407078
0.72503179 0.10394824 0.12995515
0.81825800 0.00000000 0.26767056
0.90765000 0.00000000 0.37000985
0.18737720 0.38189620 0.00853300
0.18737720 0.38189620 0.00853300
0.29362821 0.39906324 0.00000000
0.40354964 0.41549987 0.00000000
0.51346143 0.42634454 0.00000000
0.62066372 0.42540618 0.00058323
0.72385109 0.39941777 0.00678404
0.82250996 0.28792058 0.08751021
0.91005201 0.32204734 0.33912606
0.27801123 0.48851438 0.00067307
0.27801123 0.48851438 0.00067307
0.33750955 0.49722389 0.00012769
0.41650847 0.50973167 0.00000000
0.51130800 0.52392773 0.00000000
0.61412359 0.53470964 0.00000000
0.71833430 0.53571203 0.00077812
0.81972693 0.51478255 0.01301126
0.91083700 0.50514996 0.30953132
0.37246809 0.58957750 0.00033235
0.37246809 0.58957750 0.00033235
0.40308300 0.59383146 0.00066149
0.45269806 0.60134740 0.00025418
0.52386794 0.61274392 0.00000000
0.61318943 0.62626023 0.00000000
0.71245407 0.63687549 0.00000000
0.81421891 0.63865325 0.00855200
0.90934421 0.63563915 0.28376584
0.46874162 0.68824135 0.00061795
0.46874162 0.68824135 0.00061795
0.48370182 0.69020667 0.00199943
0.51144320 0.69415670 0.00077297
0.55780806 0.70123973 0.00000000
0.62560386 0.71210397 0.00000000
0.71199476 0.72529779 0.00000000
0.80856047 0.73570711 0.00000000
0.90691827 0.73918623 0.17460635
0.56566769 0.78469235 0.00058607
0.56566769 0.78469235 0.00058607
0.57269189 0.78555761 0.00177222
0.58678009 0.78737000 0.00354985
0.61344529 0.79112068 0.00000000
0.65812838 0.79780438 0.00000000
0.72380738 0.80825175 0.00000000
0.80796430 0.82127949 0.00000000
0.90163004 0.83190598 0.15156764
0.66191678 0.87852110 0.00000000
0.66191678 0.87852110 0.00000000
0.66519718 0.87888718 0.00000000
0.67201995 0.87966716 0.00000000
0.68588861 0.88132105 0.01111864
0.71185938 0.88472229 0.01101795
0.75517585 0.89096889 0.00614498
0.81932721 0.90089038 0.16669535
0.89845493 0.91230140 0.67184303
0.04053208 0.00207077 0.23482778
0.04053208 0.00207077 0.23482778
0.25920984 0.00000000 0.27252433
0.40082783 0.00000000 0.30484029
0.51671013 0.00000000 0.32896593
0.62187618 0.00000000 0.34856368
0.72013842 0.00000000 0.36578424
0.81398769 0.00734407 0.38012509
0.90390085 0.08470635 0.41334847
0.04053208 0.00207077 0.23482778
0.04053208 0.00207077 0.23482778
0.25920984 0.00000000 0.27252433
0.40082783 0.00000000 0.30484029
0.51671013 0.00000000 0.32896593
0.62187618 0.00000000 0.34856368
0.72013842 0.00000000 0.36578424
0.81398769 0.00734407 0.38012509
0.90390085 0.08470635 0.41334847
0.02542905 0.28012777 0.27573258
0.02542905 0.28012777 0.27573258
0.28106553 0.28106553 0.28106553
0.41847350 0.26771582 0.27930335
0.52895438 0.23153108 0.27534829
0.62708794 0.21140973 0.29521347
0.72359846 0.17754474 0.31846478
0.81716645 0.04408081 0.33784187
0.90644865 0.00000000 0.39286561
0.08420701 0.42968016 0.23793148
0.08420701 0.42968016 0.23793148
0.27478581 0.43056654 0.19820520
0.41653362 0.42691832 0.19449161
0.52761176 0.41931160 0.19381694
0.63046197 0.40075373 0.17847323
0.72957360 0.34927717 0.14026596
0.82372951 0.19196454 0.19363435
0.90942629 0.30394859 0.36301313
0.20568542 0.52208030 0.04676028
0.20568542 0.52208030 0.04676028
0.31272483 0.52689105 0.00000000
0.41951348 0.53171756 0.00000000
0.52218971 0.53485981 0.00000000
0.62363367 0.53446247 0.00000000
0.72433107 0.52606762 0.00000000
0.82287091 0.49556761 0.02228455
0.91130867 0.49209834 0.32562980
0.35013639 0.60461657 0.00156962
0.35013639 0.60461657 0.00156962
0.39016483 0.60804495 0.00015184
0.44944005 0.61384589 0.00000000
0.52692885 0.62213593 0.00000000
0.61814422 0.63122979 0.00000000
0.71657362 0.63722533 0.00000000
0.81682743 0.63505784 0.00941070
0.90987876 0.63242121 0.30384474
0.46042346 0.69508786 0.00000000
0.46042346 0.69508786 0.00000000
0.47727380 0.69683562 0.00062121
0.50775912 0.70034650 0.00112553
0.55727140 0.70668564 0.00000000
0.62722112 0.71622473 0.00000000
0.71422342 0.72752850 0.00000000
0.81037462 0.73594733 0.00000000
0.90746814 0.73873462 0.22253518
0.56222037 0.78777604 0.00000000
0.56222037 0.78777604 0.00000000
0.56962113 0.78859439 0.00031260
0.58437162 0.79030408 0.00213804
0.61212304 0.79384994 0.00000000
0.65803956 0.80020077 0.00000000
0.72456139 0.81006335 0.00000000
0.80895903 0.82227376 0.00000000
0.90240672 0.83204812 0.15841480
0.66040435 0.87991278 0.00000000
0.66040435 0.87991278 0.00000000
0.66376029 0.88026382 0.00000000
0.67073570 0.88102235 0.00000000
0.68488953 0.88263061 0.00887129
0.71134762 0.88595170 0.00767076
0.75516929 0.89202496 0.00939208
0.81980117 0.90164448 0.19457329
0.89877848 0.91258305 0.67926231
0.11649792 0.00270627 0.36672213
0.11649792 0.00270627 0.36672213
0.25148461 0.00000000 0.36063191
0.39027316 0.00000000 0.39967797
0.50949396 0.00000000 0.43242474
0.61730819 0.00000000 0.45595196
0.71748703 0.00000000 0.47112910
0.81214783 0.01698447 0.48018584
0.90247732 0.12102722 0.48839005
0.11649792 0.00270627 0.36672213
0.11649792 0.00270627 0.36672213
0.25148461 0.00000000 0.36063191
0.39027316 0.00000000 0.39967797
0.50949396 0.00000000 0.43242474
0.61730819 0.00000000 0.45595196
0.71748703 0.00000000 0.47112910
0.81214783 0.01698447 0.48018584
0.90247732 0.12102722 0.48839005
0.00000000 0.23180945 0.38777938
0.00000000 0.23180945 0.38777938
0.25214718 0.19692587 0.42725268
0.41014492 0.16637555 0.42673921
0.51996756 0.17646767 0.42584976
0.62257872 0.17234154 0.43695744
0.72038967 0.18216053 0.45184566
0.81420149 0.19919362 0.46544329
0.90469838 0.11368611 0.47376408
0.09481456 0.40769002 0.40269537
0.09481456 0.40769002 0.40269537
0.24399299 0.41231499 0.40866469
0.40806628 0.40806628 0.40806628
0.52482553 0.39820899 0.40674564
0.62979424 0.37332828 0.40380286
0.72675545 0.33920517 0.41031077
0.81893876 0.31874786 0.42852574
0.90777841 0.29421722 0.44521561
0.16879700 0.53528147 0.37951222
0.16879700 0.53528147 0.37951222
0.25809974 0.53675455 0.36179026
0.40338676 0.53602089 0.35304598
0.52303900 0.53263322 0.35095321
0.62903208 0.52487529 0.34623847
0.72974794 0.50597143 0.33521195
0.82593123 0.46305792 0.32316634
0.91158753 0.46587408 0.37906184
0.20131179 0.63555764 0.16127966
0.20131179 0.63555764 0.16127966
0.30073883 0.63769268 0.05881072
0.41814629 0.64035932 0.00000000
0.52686178 0.64195990 0.00000000
0.62782163 0.64088628 0.00000000
0.72576255 0.63625520 0.00000000
0.82270763 0.62506284 0.00000000
0.91118328 0.62375647 0.33550611
0.42917478 0.70926753 0.00445028
0.42917478 0.70926753 0.00445028
0.45308082 0.71075062 0.00002252
0.49357659 0.71353907 0.00000000
0.55329481 0.71831207 0.00000000
0.62981721 0.72500703 0.00000000
0.71887803 0.73218267 0.00000000
0.81431132 0.73622701 0.00000000
0.90851331 0.73778570 0.29082055
0.55241592 0.79434681 0.00000000
0.55241592 0.79434681 0.00000000
0.56105205 0.79510438 0.00000000
0.57773713 0.79660489 0.00000000
0.60829197 0.79970261 0.00134079
0.65738374 0.80534342 0.00000000
0.72603812 0.81395025 0.00000000
0.81107919 0.82439298 0.00000000
0.90404575 0.83234481 0.17997681
0.65672112 0.88291228 0.00000000
0.65672112 0.88291228 0.00000000
0.66028355 0.88323929 0.00000000
0.66762813 0.88394060 0.00000000
0.68246277 0.88545089 0.00360072
0.71003615 0.88856584 0.01440675
0.75507740 0.89429810 0.01785652
0.82079496 0.90326493 0.23792012
0.89949740 0.91320823 0.69226981
0.19271644 0.00115968 0.47425079
0.19271644 0.00115968 0.47425079
0.26440611 0.00000000 0.45124019
0.38552794 0.00000000 0.47127452
0.50506635 0.00000000 0.51046147
0.61336182 0.00262883 0.54123188
0.71363271 0.01537662 0.56159976
0.80896135 0.03755938 0.57330682
0.90018686 0.13931924 0.57922541
0.19271644 0.00115968 0.47425079
0.19271644 0.00115968 0.47425079
0.26440611 0.00000000 0.45124019
0.38552794 0.00000000 0.47127452
0.50506635 0.00000000 0.51046147
0.61336182 0.00262883 0.54123188
0.71363271 0.01537662 0.56159976
0.80896135 0.03755938 0.57330682
0.90018686 0.13931924 0.57922541
0.03262295 0.17299212 0.49973079
0.03262295 0.17299212 0.49973079
0.20473039 0.00000000 0.49632339
0.37934007 0.00000000 0.49520651
0.50825063 0.00238649 0.51781444
0.61729890 0.03834736 0.53832772
0.71677776 0.09963294 0.55395717
0.81120556 0.15531776 0.56510437
0.90223360 0.16511774 0.57242608
0.00000000 0.37097079 0.48955440
0.00000000 0.37097079 0.48955440
0.16668084 0.36286738 0.52226999
0.38716128 0.35232114 0.53294334
0.51717470 0.33623770 0.53246713
0.62657450 0.29077799 0.53141801
0.72226691 0.29805305 0.53738692
0.81567622 0.29876032 0.54900631
0.90622250 0.24853068 0.55749159
0.16037177 0.51541425 0.51002340
0.16037177 0.51541425 0.51002340
0.22904000 0.51821847 0.51345833
0.38157812 0.51916325 0.51582034
0.51527328 0.51527328 0.51527328
0.62579216 0.50630294 0.51406697
0.72833183 0.48403955 0.51138389
0.82370800 0.44546278 0.51370557
0.90961231 0.45633900 0.53445798
0.20886311 0.63593597 0.48695637
0.20886311 0.63593597 0.48695637
0.27406714 0.63677641 0.48052587
0.36836633 0.63812621 0.46716754
0.51100506 0.63665261 0.46635501
0.62406172 0.63336338 0.46455696
0.72758394 0.62584036 0.46052572
0.82639128 0.60757165 0.45120778
0.91197597 0.60802583 0.48774602
0.18021404 0.73906224 0.26245901
0.18021404 0.73906224 0.26245901
0.26528759 0.73998996 0.21127615
0.39397769 0.74174660 0.08465987
0.51840225 0.74319178 0.00000000
0.62752093 0.74223529 0.00412756
0.72726175 0.74034234 0.00000000
0.82347645 0.73491556 0.00000000
0.91135941 0.73363399 0.35924656
0.51560782 0.80829774 0.00833537
0.51560782 0.80829774 0.00833537
0.52838720 0.80888715 0.00234889
0.55254172 0.81011555 0.00000000
0.59351187 0.81244228 0.00000000
0.65301836 0.81652369 0.00000000
0.72838284 0.82237051 0.00000000
0.81558231 0.82889009 0.00000000
0.90689364 0.83337466 0.29241235
0.64583951 0.88942064 0.00000000
0.64583951 0.88942064 0.00000000
0.65013388 0.88971825 0.00000000
0.65881362 0.89033341 0.00000000
0.67568688 0.89159473 0.00000000
0.70622375 0.89426141 0.02506282
0.75463650 0.89921574 0.07128980
0.82416774 0.90633718 0.37361854
0.90106210 0.91451474 0.71658157
0.26713507 0.00094843 0.57321396
0.26713507 0.00094843 0.57321396
0.30871257 0.01312601 0.55741736
0.37730782 0.00000000 0.54338960
0.49964828 0.00000000 0.57462155
0.61107720 0.00569097 0.61287692
0.71006909 0.01149307 0.63955073
0.80419055 0.06452819 0.65690139
0.89576150 0.20832231 0.66762260
0.26713507 0.00094843 0.57321396
0.26713507 0.00094843 0.57321396
0.30871257 0.01312601 0.55741736
0.37730782 0.00000000 0.54338960
0.49964828 0.00000000 0.57462155
0.61107720 0.00569097 0.61287692
0.71006909 0.01149307 0.63955073
0.80419055 0.06452819 0.65690139
0.89576150 0.20832231 0.66762260
0.20920326 0.02505041 0.59661820
0.20920326 0.02505041 0.59661820
0.27358851 0.00144346 0.58144298
0.35612208 0.00000000 0.55578103
0.49469766 0.00000000 0.57872609
0.61362166 0.00000000 0.61585163
0.71328373 0.00000000 0.63954941
0.80672559 0.00000000 0.65414563
0.89748522 0.18130886 0.66349427
0.00000000 0.33651142 0.58618246
0.00000000 0.33651142 0.58618246
0.03870666 0.26370996 0.60735881
0.32243268 0.09571697 0.60885691
0.49097033 0.16248495 0.60914026
0.61079385 0.17769972 0.62180952
0.71462447 0.20195359 0.63581978
0.81011541 0.23509795 0.64807705
0.90181764 0.21274496 0.65673723
0.00000000 0.48226308 0.58741978
0.00000000 0.48226308 0.58741978
0.08456391 0.48009630 0.60262355
0.31273230 0.47150004 0.63387492
0.49634663 0.46573166 0.63366439
0.61838709 0.45206786 0.63320218
0.72517247 0.41544735 0.63218408
0.81888440 0.40168737 0.63527275
0.90779282 0.40088543 0.64441776
0.20360174 0.61685501 0.61123013
0.20360174 0.61685501 0.61123013
0.25427276 0.61812449 0.61281953
0.34052271 0.62050085 0.61585069
0.49135707 0.62031035 0.61707779
0.61654907 0.61654907 0.61654907
0.72440485 0.60789118 0.61538348
0.82500426 0.58651162 0.61279237
0.91150176 0.58525858 0.62588712
0.23503520 0.73400181 0.58675221
0.23503520 0.73400181 0.58675221
0.29340973 0.73447212 0.58438467
0.37258179 0.73537074 0.57937028
0.47967163 0.73650885 0.57043204
0.61242669 0.73506254 0.56966073
0.72270705 0.73183439 0.56795497
0.82427168 0.72445215 0.56413607
0.91190274 0.72306875 0.59077066
0.05387815 0.83683350 0.35464679
0.05387815 0.83683350 0.35464679
0.21938811 0.83744769 0.33312516
0.34307937 0.83849254 0.27883741
0.49202081 0.83946510 0.20079758
0.61887742 0.83875427 0.23535654
0.72522437 0.83767423 0.27310675
0.82311762 0.83598736 0.27844504
0.91131213 0.83530998 0.45409442
0.61777406 0.90276164 0.23775166
0.61777406 0.90276164 0.23775166
0.62408253 0.90295083 0.24191319
0.63675339 0.90334973 0.25068373
0.66075392 0.90418443 0.26802438
0.70090705 0.90575117 0.30517515
0.76318189 0.90778352 0.42463142
0.83700311 0.91024793 0.57974871
0.90437372 0.91699194 0.76037817
0.34409709 0.00321219 0.66888135
0.34409709 0.00321219 0.66888135
0.36553064 0.02860286 0.66028805
0.40388647 0.03716311 0.64389951
0.48307608 0.00000000 0.63597021
0.60239492 0.00000000 0.67032829
0.70699033 0.00000000 0.70610196
0.79858444 0.03845123 0.72909570
0.88866481 0.24851079 0.74592564
0.34409709 0.00321219 0.66888135
0.34409709 0.00321219 0.66888135
0.36553064 0.02860286 0.66028805
0.40388647 0.03716311 0.64389951
0.48307608 0.00000000 0.63597021
0.60239492 0.00000000 0.67032829
0.70699033 0.00000000 0.70610196
0.79858444 0.03845123 0.72909570
0.88866481 0.24851079 0.74592564
0.32079102 0.00000000 0.68145030
0.32079102 0.00000000 0.68145030
0.34724521 0.00310089 0.67265805
0.39118385 0.02357796 0.65480361
0.46913710 0.00000000 0.63756115
0.60032097 0.00000000 0.67121764
0.70795241 0.00000000 0.70709318
0.79985994 0.02096976 0.72912295
0.88971842 0.24230675 0.74493372
0.23665354 0.16030666 0.70170542
0.23665354 0.16030666 0.70170542
0.28633941 0.07990594 0.69704202
0.35374105 0.00000000 0.68064295
0.44356151 0.00000000 0.65229315
0.59525892 0.00000000 0.67786418
0.71077888 0.00000000 0.71106361
0.80330004 0.00000000 0.72940597
0.89289895 0.18313349 0.74287669
0.00000000 0.45447864 0.67234055
0.00000000 0.45447864 0.67234055
0.00000000 0.43536806 0.68205837
0.00542093 0.35295531 0.70858672
0.43788452 0.27489678 0.71207280
0.59279239 0.29147934 0.71179706
0.70849282 0.29075278 0.72017019
0.80837967 0.30437159 0.73019604
0.90133527 0.26667476 0.73989618
0.00000000 0.58360929 0.68326723
0.00000000 0.58360929 0.68326723
0.00743377 0.58307830 0.68987065
0.23373657 0.58121187 0.70673351
0.43273227 0.57454970 0.73233641
0.59830966 0.56906921 0.73212980
0.71714027 0.55614943 0.73167619
0.82190941 0.52203977 0.73067705
0.90971248 0.52816659 0.73312249
0.24602253 0.71531049 0.70958892
0.24602253 0.71531049 0.70958892
0.28692128 0.71593491 0.71036917
0.34816492 0.71726493 0.71202480
0.44398019 0.71958619 0.71501168
0.59352004 0.71902683 0.71585604
0.71533747 0.71533747 0.71533747
0.82115738 0.70684776 0.71419429
0.91158596 0.70298141 0.72048622
0.29790612 0.82973410 0.68476530
0.29790612 0.82973410 0.68476530
0.33805035 0.82999777 0.68389421
0.39755073 0.83054038 0.68200955
0.47750236 0.83160226 0.67786881
0.58233774 0.83301177 0.67018114
0.71129468 0.83159571 0.66942766
0.81949396 0.82843467 0.66776158
0.91071204 0.82683978 0.69524684
0.70362190 0.91778856 0.63858086
0.70362190 0.91778856 0.63858086
0.70699526 0.91792639 0.63844792
0.71388153 0.91818978 0.63822072
0.72764248 0.91857108 0.63848205
0.75248817 0.91831377 0.64460405
0.79331397 0.91767426 0.65980570
0.85123473 0.91772399 0.70381829
0.90698993 0.90698993 0.90698993
0.42544856 0.00406304 0.76272436
0.42544856 0.00406304 0.76272436
0.43573892 0.03545607 0.75825377
0.45598567 0.07889570 0.74898469
0.49289031 0.08844352 0.73003334
0.57721646 0.00000000 0.72238276
0.69357243 0.00000000 0.75646149
0.79249914 0.00000000 0.78976389
0.87935044 0.25478543 0.81126983
0.42544856 0.00406304 0.76272436
0.42544856 0.00406304 0.76272436
0.43573892 0.03545607 0.75825377
0.45598567 0.07889570 0.74898469
0.49289031 0.08844352 0.73003334
0.57721646 0.00000000 0.72238276
0.69357243 0.00000000 0.75646149
0.79249914 0.00000000 0.78976389
0.87935044 0.25478543 0.81126983
0.41558859 0.00000000 0.76885718
0.41558859 0.00000000 0.76885718
0.42698164 0.00387124 0.76443077
0.44862494 0.05272304 0.75494331
0.48768219 0.08418109 0.73528255
0.57128524 0.00000000 0.72294146
0.69266124 0.00000000 0.75674769
0.79288583 0.00000000 0.79015037
0.87990507 0.25501873 0.81130125
0.39014043 0.00000000 0.78210395
0.39014043 0.00000000 0.78210395
0.40376445 0.00000000 0.77761190
0.43021877 0.00679100 0.76796546
0.47504175 0.06573289 0.74721620
0.55622235 0.00000000 0.72459301
0.69056235 0.00000000 0.75770409
0.79381826 0.00000000 0.79115972
0.88124838 0.24257372 0.81144199
0.28096985 0.29028037 0.79922261
0.28096985 0.29028037 0.79922261
0.31388495 0.25316127 0.79830382
0.36707525 0.16081175 0.79400580
0.43704605 0.00000000 0.77579660
0.52933910 0.00000000 0.74352598
0.68466521 0.00000000 0.76610786
0.79600470 0.00000000 0.79579418
0.88617815 0.00000000 0.81357144
0.00000000 0.55771283 0.76000829
0.00000000 0.55771283 0.76000829
0.00000000 0.55125774 0.76376015
0.00000000 0.53245761 0.77438199
0.00000000 0.44262205 0.80605474
0.54095979 0.38934188 0.81020150
0.69084501 0.39602112 0.80931694
0.80321976 0.38826097 0.81502941
0.90059382 0.33918098 0.82315581
0.00000000 0.68061640 0.77701207
0.00000000 0.68061640 0.77701207
0.00000000 0.68063400 0.78005569
0.18057885 0.68058368 0.78729989
0.34093173 0.67951959 0.80554585
0.53803596 0.67420488 0.82892629
0.69745761 0.66884985 0.82872396
0.81403890 0.65624170 0.82827974
0.90975208 0.65018143 0.82480659
0.31710480 0.81145649 0.80574550
0.31710480 0.81145649 0.80574550
0.34267491 0.81178556 0.80614781
0.38567009 0.81248187 0.80699977
0.44840873 0.81398159 0.80882792
0.54726695 0.81639468 0.81190753
0.69276613 0.81588778 0.81278023
0.81227196 0.81227196 0.81227196
0.90958000 0.80940294 0.81505010
0.69007225 0.91327319 0.80172127
0.69007225 0.91327319 0.80172127
0.69263515 0.91337037 0.80167671
0.69808171 0.91357216 0.80159051
0.70943450 0.91399240 0.80141720
0.73263003 0.91472467 0.80132277
0.77840604 0.91511068 0.80384957
0.84451269 0.91460886 0.81558261
0.90698993 0.90698993 0.90698993
0.51092323 0.03800410 0.85427572
0.51092323 0.03800410 0.85427572
0.51563714 0.09649102 0.85176694
0.52520151 0.16167522 0.84643284
0.54437552 0.23459137 0.83460351
0.57852097 0.27879962 0.80973487
0.66148769 0.00000000 0.79966472
0.77470768 0.00000000 0.83447877
0.86976715 0.01012838 0.86579356
0.51092323 0.03800410 0.85427572
0.51092323 0.03800410 0.85427572
0.51563714 0.09649102 0.85176694
0.52520151 0.16167522 0.84643284
0.54437552 0.23459137 0.83460351
0.57852097 0.27879962 0.80973487
0.66148769 0.00000000 0.79966472
0.77470768 0.00000000 0.83447877
0.86976715 0.01012838 0.86579356
0.50693104 0.00000000 0.85772175
0.50693104 0.00000000 0.85772175
0.51166044 0.03844262 0.85504010
0.52166316 0.13337235 0.84970838
0.54141341 0.22246934 0.83783458
0.57646281 0.27629334 0.81262502
0.65888202 0.00000000 0.79973207
0.77429481 0.00000000 0.83457836
0.86992910 0.00781012 0.86595527
0.49716118 0.00000000 0.86493971
0.49716118 0.00000000 0.86493971
0.50255104 0.00000000 0.86232747
0.51323530 0.04049401 0.85666437
0.53443312 0.19201130 0.84474199
0.57178606 0.27088990 0.81892740
0.65284899 0.00000000 0.79996317
0.77337892 0.00000000 0.83483262
0.87029606 0.00000000 0.86633005
0.47021462 0.00000000 0.87961741
0.47021462 0.00000000 0.87961741
0.47706639 0.00000000 0.87731461
0.49066670 0.00000000 0.87221030
0.51658761 0.05797969 0.86002984
0.56015300 0.24130525 0.83375386
0.63743420 0.00000000 0.80168797
0.77148716 0.00000000 0.83624621
0.87145957 0.00000000 0.86767910
0.34195699 0.41675764 0.89084423
0.34195699 0.41675764 0.89084423
0.36083596 0.40087300 0.89090422
0.39559901 0.35712481 0.89108812
0.45234649 0.23245286 0.88819596
0.52378188 0.00000000 0.86786674
0.61444405 0.00000000 0.83080580
0.77007901 0.00000000 0.85312358
0.87859502 0.00000000 0.87901079
0.00000000 0.65744512 0.84039273
0.00000000 0.65744512 0.84039273
0.00000000 0.65508755 0.84198833
0.00000000 0.64931457 0.84607354
0.00000000 0.63191161 0.85846252
0.00000000 0.54267752 0.89682827
0.64012925 0.48305353 0.90655477
0.78818428 0.46634873 0.90730564
0.89717348 0.43748460 0.90976417
0.00000000 0.77527292 0.87118737
0.00000000 0.77527292 0.87118737
0.00000000 0.77545136 0.87305960
0.00000000 0.77579397 0.87718202
0.00000000 0.77631585 0.88716370
0.34641795 0.77578226 0.90698580
0.65400805 0.77404934 0.91161438
0.79408144 0.77168981 0.91171567
0.90046580 0.77073914 0.91097124
0.47102101 0.90457457 0.89896307
0.47102101 0.90457457 0.89896307
0.47360793 0.90482208 0.89924329
0.48126015 0.90532467 0.89981648
0.52304452 0.90596358 0.90061147
0.60007304 0.90679744 0.90177930
0.70659753 0.90707759 0.90277145
0.81260178 0.90655695 0.90375498
0.90698993 0.90698993 0.90698993
