Canon/CinemaGamut_CanonLog3-to-BT709_WideDR_33_FF_Ver.2.0.cube
# Gamut : Cinema Gamut to BT.709
# Gamma : Canon Log 3 to Wide DR
# Range : Full in / Full out
# Version : 2.0 2019/10/24
# Copyright(c) 2019 Canon Inc. All Rights Reserved.
LUT_3D_SIZE 9
# LUT_3D_INPUT_RANGE 0.0 1.0
0.00000000 0.00000000 0.00000000
0.00000000 0.00000000 0.00000000
0.28181083 0.00000000 0.02820104
0.54094809 0.00000000 0.06795799
0.75308790 0.00000000 0.10702582
0.90975620 0.00000000 0.11012483
1.00000000 0.02870617 0.10685667
1.00000000 0.19194373 0.16152685
1.00000000 0.30151774 0.23168818
0.00000000 0.00000000 0.00000000
0.00178235 0.00520825 0.00000000
0.28181083 0.00000000 0.02820104
0.54094809 0.00000000 0.06795799
0.75308790 0.00000000 0.10702582
0.90975620 0.00000000 0.11012483
1.00000000 0.02870617 0.10685667
1.00000000 0.19194373 0.16152685
1.00000000 0.30151774 0.23168818
0.01280470 0.19626617 0.04402048
0.01280470 0.19626617 0.04402048
0.22968209 0.24637163 0.00000000
0.52981182 0.24189114 0.00000000
0.80539637 0.17857589 0.01583902
0.97816555 0.14196919 0.08109932
1.00000000 0.26337522 0.21328963
1.00000000 0.34787760 0.28445504
1.00000000 0.42090287 0.34668359
0.00328005 0.39780209 0.08466171
0.00328005 0.39780209 0.08466171
0.15084278 0.44486441 0.00404325
0.44518632 0.47531836 0.00000000
0.75725594 0.45500425 0.00000000
0.98847398 0.40884910 0.11935055
1.00000000 0.46978789 0.34198289
0.99907280 0.52217118 0.43589119
1.00000000 0.57451350 0.50077879
0.00275003 0.57426556 0.09940426
0.00275003 0.57426556 0.09940426
0.06854997 0.61542768 0.01482668
0.33687511 0.65987053 0.00183532
0.63295996 0.67819197 0.00000000
0.93610972 0.63808542 0.04474126
1.00000000 0.64133994 0.41092502
1.00000000 0.67324511 0.56033900
1.00000000 0.71345153 0.64035935
0.00909971 0.70969544 0.06124097
0.00909971 0.70969544 0.06124097
0.05578965 0.74411100 0.01710537
0.24450641 0.79407064 0.00378823
0.48634738 0.83459644 0.00442866
0.77509002 0.83438393 0.01288662
1.00000000 0.79290835 0.33361587
1.00000000 0.79544826 0.63313529
1.00000000 0.82128790 0.74274709
0.04967351 0.80655415 0.01159472
0.04967351 0.80655415 0.01159472
0.10771152 0.83585696 0.01187066
0.21268362 0.88614856 0.01404963
0.37452486 0.93827570 0.01372802
0.60382102 0.96322940 0.04683333
0.87668594 0.94642214 0.13373343
1.00000000 0.90223920 0.60939548
1.00000000 0.90785939 0.81462626
0.14423794 0.87131481 0.00613421
0.14423794 0.87131481 0.00613421
0.17073532 0.89898587 0.01211521
0.23037033 0.94816047 0.03170680
0.39558401 0.99330002 0.17907940
0.63795771 1.00000000 0.42232011
0.80413688 1.00000000 0.55726494
0.94663565 0.99971318 0.63343512
1.00000000 0.98043359 0.88401466
0.19941327 0.94951984 0.00053896
0.19941327 0.94951984 0.00053896
0.21703475 0.97486636 0.01024129
0.37047291 1.00000000 0.20722266
0.61984877 1.00000000 0.48837329
0.79326566 1.00000000 0.69257484
0.90844457 1.00000000 0.83891320
1.00000000 1.00000000 1.00000000
1.00000000 1.00000000 1.00000000
0.00000000 0.00000000 0.00000000
0.00000000 0.00000000 0.00000000
0.28181083 0.00000000 0.02820104
0.54094809 0.00000000 0.06795799
0.75308790 0.00000000 0.10702582
0.90975620 0.00000000 0.11012483
1.00000000 0.02870617 0.10685667
1.00000000 0.19194373 0.16152685
1.00000000 0.30151774 0.23168818
0.00000000 0.00000000 0.00000000
0.00000000 0.00000000 0.00000000
0.28181083 0.00000000 0.02820104
0.54094809 0.00000000 0.06795799
0.75308790 0.00000000 0.10702582
0.90975620 0.00000000 0.11012483
1.00000000 0.02870617 0.10685667
1.00000000 0.19194373 0.16152685
1.00000000 0.30151774 0.23168818
0.01280470 0.19626617 0.04402048
0.01280470 0.19626617 0.04402048
0.22968209 0.24637163 0.00000000
0.52981182 0.24189114 0.00000000
0.80539637 0.17857589 0.01583902
0.97816555 0.14196919 0.08109932
1.00000000 0.26337522 0.21328963
1.00000000 0.34787760 0.28445504
1.00000000 0.42090287 0.34668359
0.00328005 0.39780209 0.08466171
0.00328005 0.39780209 0.08466171
0.15084278 0.44486441 0.00404325
0.44518632 0.47531836 0.00000000
0.75725594 0.45500425 0.00000000
0.98847398 0.40884910 0.11935055
1.00000000 0.46978789 0.34198289
0.99907280 0.52217118 0.43589119
1.00000000 0.57451350 0.50077879
0.00275003 0.57426556 0.09940426
0.00275003 0.57426556 0.09940426
0.06854997 0.61542768 0.01482668
0.33687511 0.65987053 0.00183532
0.63295996 0.67819197 0.00000000
0.93610972 0.63808542 0.04474126
1.00000000 0.64133994 0.41092502
1.00000000 0.67324511 0.56033900
1.00000000 0.71345153 0.64035935
0.00909971 0.70969544 0.06124097
0.00909971 0.70969544 0.06124097
0.05578965 0.74411100 0.01710537
0.24450641 0.79407064 0.00378823
0.48634738 0.83459644 0.00442866
0.77509002 0.83438393 0.01288662
1.00000000 0.79290835 0.33361587
1.00000000 0.79544826 0.63313529
1.00000000 0.82128790 0.74274709
0.04967351 0.80655415 0.01159472
0.04967351 0.80655415 0.01159472
0.10771152 0.83585696 0.01187066
0.21268362 0.88614856 0.01404963
0.37452486 0.93827570 0.01372802
0.60382102 0.96322940 0.04683333
0.87668594 0.94642214 0.13373343
1.00000000 0.90223920 0.60939548
1.00000000 0.90785939 0.81462626
0.14423794 0.87131481 0.00613421
0.14423794 0.87131481 0.00613421
0.17073532 0.89898587 0.01211521
0.23037033 0.94816047 0.03170680
0.39558401 0.99330002 0.17907940
0.63795771 1.00000000 0.42232011
0.80413688 1.00000000 0.55726494
0.94663565 0.99971318 0.63343512
1.00000000 0.98043359 0.88401466
0.19941327 0.94951984 0.00053896
0.19941327 0.94951984 0.00053896
0.21703475 0.97486636 0.01024129
0.37047291 1.00000000 0.20722266
0.61984877 1.00000000 0.48837329
0.79326566 1.00000000 0.69257484
0.90844457 1.00000000 0.83891320
1.00000000 1.00000000 1.00000000
1.00000000 1.00000000 1.00000000
0.01622704 0.00524075 0.14568934
0.01622704 0.00524075 0.14568934
0.24101096 0.00000000 0.20413850
0.49291990 0.00000000 0.25656438
0.71328569 0.00000000 0.27488037
0.87964372 0.00000000 0.25394035
0.98819717 0.00874418 0.20453899
1.00000000 0.17159235 0.19129625
1.00000000 0.28733880 0.22998062
0.01622704 0.00524075 0.14568934
0.01622704 0.00524075 0.14568934
0.24101096 0.00000000 0.20413850
0.49291990 0.00000000 0.25656438
0.71328569 0.00000000 0.27488037
0.87964372 0.00000000 0.25394035
0.98819717 0.00874418 0.20453899
1.00000000 0.17159235 0.19129625
1.00000000 0.28733880 0.22998062
0.00000000 0.22786515 0.21341059
0.00000000 0.22786515 0.21341059
0.23600832 0.23600832 0.23600832
0.59147182 0.16263833 0.22770393
0.82280739 0.10273790 0.23484261
0.96399322 0.11892291 0.24136329
0.99868981 0.24180122 0.27045160
0.99670029 0.33410675 0.29733052
1.00000000 0.40808489 0.34236107
0.00000000 0.48249399 0.25409778
0.00000000 0.48249399 0.25409778
0.03946175 0.51208303 0.16293706
0.47517675 0.50210291 0.09098919
0.82885017 0.43512731 0.10756259
0.99113852 0.41446663 0.26181286
1.00000000 0.47574875 0.38879831
0.99827059 0.52585117 0.45403035
1.00000000 0.57473908 0.50708111
0.00000000 0.67378440 0.21492743
0.00000000 0.67378440 0.21492743
0.00000000 0.71102752 0.10325572
0.30019284 0.73724293 0.00000000
0.67328904 0.72123236 0.00000000
0.99034674 0.65519734 0.09577217
1.00000000 0.66347049 0.46536475
1.00000000 0.69145338 0.59116600
1.00000000 0.72739759 0.66003972
0.00095486 0.78812850 0.15395741
0.00095486 0.78812850 0.15395741
0.00056560 0.81968930 0.08400506
0.19883797 0.86095105 0.00470922
0.49041598 0.88509124 0.00000000
0.80714512 0.86840179 0.01419496
1.00000000 0.82090047 0.42645591
1.00000000 0.82084364 0.68385097
1.00000000 0.84265156 0.77540244
0.02041920 0.87543424 0.05650166
0.02041920 0.87543424 0.05650166
0.04675979 0.90271155 0.02900950
0.19550073 0.94396029 0.03790729
0.40186663 0.98099223 0.10095365
0.64645059 0.99216099 0.20391196
0.90312330 0.97264992 0.25797083
1.00000000 0.92674423 0.70672827
1.00000000 0.93068462 0.86278448
0.13166272 0.93370810 0.02533157
0.13166272 0.93370810 0.02533157
0.18284674 0.95652569 0.05468152
0.32879432 0.98842993 0.18860480
0.57241203 0.99987852 0.42584788
0.75159906 1.00000000 0.60639934
0.87679527 1.00000000 0.72857726
0.97454457 1.00000000 0.83750283
1.00000000 0.99823471 0.96470104
0.27868807 0.99650137 0.12426878
0.27868807 0.99650137 0.12426878
0.39270207 1.00000000 0.25482669
0.57851746 1.00000000 0.45786786
0.75427718 1.00000000 0.66151193
0.88394878 1.00000000 0.82409442
0.97259293 1.00000000 0.94626079
1.00000000 1.00000000 1.00000000
1.00000000 1.00000000 1.00000000
0.03843243 0.01629007 0.31774005
0.03843243 0.01629007 0.31774005
0.20446822 0.00000000 0.30336934
0.44996110 0.00000000 0.37828373
0.67546144 0.00000000 0.40638073
0.84746581 0.00000000 0.38691940
0.96813746 0.00000000 0.33183572
1.00000000 0.13751050 0.27857550
1.00000000 0.26969020 0.27144927
0.03843243 0.01629007 0.31774005
0.03843243 0.01629007 0.31774005
0.20446822 0.00000000 0.30336934
0.44996110 0.00000000 0.37828373
0.67546144 0.00000000 0.40638073
0.84746581 0.00000000 0.38691940
0.96813746 0.00000000 0.33183572
1.00000000 0.13751050 0.27857550
1.00000000 0.26969020 0.27144927
0.00000000 0.17928160 0.31748273
0.00000000 0.17928160 0.31748273
0.19070416 0.12294828 0.52611216
0.54199123 0.07025631 0.48602928
0.78736428 0.02066274 0.44564846
0.94780352 0.03036484 0.40032201
1.00000000 0.18026425 0.36668652
1.00000000 0.29515547 0.35092187
1.00000000 0.38252782 0.35865188
0.00000000 0.43958188 0.41587638
0.00000000 0.43958188 0.41587638
0.00127433 0.46792602 0.44493476
0.45620114 0.45620114 0.45620114
0.78754742 0.40516882 0.44803717
0.96237766 0.39135004 0.44958622
0.99467660 0.45224351 0.47606166
0.99317251 0.51004951 0.49678240
1.00000000 0.56467024 0.52128293
0.00879118 0.66617820 0.41532585
0.00879118 0.66617820 0.41532585
0.02385508 0.68971228 0.39299096
0.23917326 0.72351763 0.33255908
0.66721126 0.69833781 0.33583158
0.97021902 0.63925089 0.39808626
1.00000000 0.66117174 0.56196991
0.99925878 0.69813073 0.63810996
1.00000000 0.73850691 0.68630380
0.07988192 0.83756019 0.30777528
0.07988192 0.83756019 0.30777528
0.11450903 0.85570731 0.27761339
0.23341038 0.88696674 0.21995531
0.51492432 0.90005922 0.22236493
0.81806090 0.87820289 0.23700480
1.00000000 0.83493156 0.52051195
1.00000000 0.84143623 0.73226433
1.00000000 0.86746328 0.81380901
0.02223825 0.96369324 0.18537390
0.02223825 0.96369324 0.18537390
0.10046252 0.97720639 0.18155889
0.30126550 0.99447700 0.24102479
0.53622079 1.00000000 0.36621494
0.73034287 1.00000000 0.44707758
0.92914081 0.99266407 0.46291279
1.00000000 0.95394061 0.81315636
1.00000000 0.96322083 0.92422364
0.38527440 1.00000000 0.31706728
0.38527440 1.00000000 0.31706728
0.47871891 1.00000000 0.39576917
0.61751398 1.00000000 0.52574919
0.75997636 1.00000000 0.67192844
0.87697171 1.00000000 0.80223048
0.96312181 1.00000000 0.91150880
1.00000000 1.00000000 1.00000000
1.00000000 1.00000000 1.00000000
0.66480648 1.00000000 0.57114523
0.66480648 1.00000000 0.57114523
0.72759641 1.00000000 0.64264600
0.82425398 1.00000000 0.75817733
0.92884488 1.00000000 0.89217861
1.00000000 1.00000000 1.00000000
1.00000000 1.00000000 1.00000000
1.00000000 1.00000000 1.00000000
1.00000000 1.00000000 1.00000000
0.04006237 0.02718722 0.48568021
0.04006237 0.02718722 0.48568021
0.16110395 0.00000000 0.41325280
0.40456533 0.00000000 0.48011151
0.63685908 0.00000000 0.52443256
0.81508230 0.00000000 0.51067572
0.94263278 0.00000000 0.45836180
1.00000000 0.09151590 0.38538624
1.00000000 0.24403022 0.34528766
0.04006237 0.02718722 0.48568021
0.04006237 0.02718722 0.48568021
0.16110395 0.00000000 0.41325280
0.40456533 0.00000000 0.48011151
0.63685908 0.00000000 0.52443256
0.81508230 0.00000000 0.51067572
0.94263278 0.00000000 0.45836180
1.00000000 0.09151590 0.38538624
1.00000000 0.24403022 0.34528766
0.00000000 0.17689471 0.42626940
0.00000000 0.17689471 0.42626940
0.06802295 0.04579061 0.57139287
0.45105745 0.00000000 0.62252105
0.71559001 0.00000000 0.60400384
0.89870066 0.00000000 0.55174409
0.99483144 0.07585091 0.48239736
1.00000000 0.23339355 0.42447688
1.00000000 0.33821400 0.40007509
0.00000000 0.38823706 0.51446100
0.00000000 0.38823706 0.51446100
0.02430831 0.40227432 0.62184497
0.41653211 0.38357699 0.72175304
0.77810676 0.31448777 0.70796310
0.97640495 0.30320840 0.62062652
1.00000000 0.39545097 0.56696041
1.00000000 0.46935305 0.54542337
1.00000000 0.53283372 0.54560639
0.00000000 0.62845645 0.59514004
0.00000000 0.62845645 0.59514004
0.00000000 0.65200688 0.61812198
0.20075984 0.67707050 0.64932921
0.65092930 0.65092930 0.65092930
0.91791225 0.61570796 0.64356008
0.99022014 0.63944037 0.66115707
0.99407563 0.68002978 0.68271543
1.00000000 0.72324385 0.70732495
0.00894533 0.80766950 0.52604329
0.00894533 0.80766950 0.52604329
0.04338044 0.82572239 0.52473640
0.21468601 0.85454368 0.52735031
0.53282874 0.86020660 0.56233286
0.81269437 0.84206229 0.57163354
1.00000000 0.80899529 0.66038337
1.00000000 0.83179486 0.77811631
1.00000000 0.86703573 0.83551886
0.17698933 0.93452102 0.35990006
0.17698933 0.93452102 0.35990006
0.23032244 0.94768218 0.36515235
0.36773998 0.96677158 0.40215870
0.57158422 0.97715964 0.49324103
0.74203494 0.98355783 0.55602723
0.92006149 0.98040417 0.49264692
1.00000000 0.94945255 0.82958984
1.00000000 0.97003439 0.94088367
0.42004327 0.99585681 0.39295019
0.42004327 0.99585681 0.39295019
0.50012787 0.99658920 0.45451439
0.62688382 0.99889275 0.56410198
0.76380793 1.00000000 0.69553807
0.87872233 1.00000000 0.81608449
0.96221488 1.00000000 0.91541316
1.00000000 1.00000000 1.00000000
1.00000000 1.00000000 1.00000000
0.74002946 1.00000000 0.66985390
0.74002946 1.00000000 0.66985390
0.78514553 1.00000000 0.72173891
0.86520463 1.00000000 0.81800160
0.95974622 1.00000000 0.93855035
1.00000000 1.00000000 1.00000000
1.00000000 1.00000000 1.00000000
1.00000000 1.00000000 1.00000000
1.00000000 1.00000000 1.00000000
0.00857376 0.07106814 0.58207899
0.00857376 0.07106814 0.58207899
0.11036791 0.00207897 0.56428202
0.33534538 0.00000000 0.58860951
0.58370517 0.00000000 0.63504042
0.77814872 0.00000000 0.62906096
0.91395977 0.00000000 0.58110338
0.99491951 0.04238805 0.50397426
1.00000000 0.21568264 0.44143131
0.00857376 0.07106814 0.58207899
0.00857376 0.07106814 0.58207899
0.11036791 0.00207897 0.56428202
0.33534538 0.00000000 0.58860951
0.58370517 0.00000000 0.63504042
0.77814872 0.00000000 0.62906096
0.91395977 0.00000000 0.58110338
0.99491951 0.04238805 0.50397426
1.00000000 0.21568264 0.44143131
0.00000000 0.19086673 0.52233448
0.00000000 0.19086673 0.52233448
0.01406899 0.07944543 0.62412000
0.31361519 0.00000000 0.69794700
0.62309216 0.00000000 0.70797585
0.83116681 0.00000000 0.67383799
0.96175322 0.00000000 0.60736979
1.00000000 0.15260365 0.52266326
1.00000000 0.28582543 0.46845622
0.00000000 0.34419787 0.58213540
0.00000000 0.34419787 0.58213540
0.00000000 0.35334233 0.68237221
0.30210392 0.32989603 0.88253932
0.69851263 0.25531522 0.89997962
0.95068041 0.20721449 0.81103341
1.00000000 0.33103291 0.68384058
1.00000000 0.42442991 0.61637254
1.00000000 0.49625712 0.58956143
0.00077522 0.57739915 0.71248449
0.00077522 0.57739915 0.71248449
0.01173938 0.59462763 0.77065840
0.21959110 0.61317259 0.87974131
0.61728268 0.60298723 0.86208723
0.91601680 0.55584280 0.84420917
1.00000000 0.59187908 0.75913381
1.00000000 0.64671768 0.72912397
1.00000000 0.69683163 0.73105015
0.00000000 0.77385014 0.73285261
0.00000000 0.77385014 0.73285261
0.00000000 0.79342982 0.75172348
0.00000000 0.82398382 0.78394017
0.46743030 0.82913126 0.80356740
0.80176386 0.80176386 0.80176386
0.97606721 0.78783406 0.80261238
0.99636663 0.81558817 0.82350656
1.00000000 0.85313335 0.85192838
0.00000000 0.91160686 0.60241368
0.00000000 0.91160686 0.60241368
0.04469985 0.92640015 0.60992755
0.22925096 0.94980599 0.63257202
0.47853160 0.96446408 0.67718099
0.72885183 0.95635762 0.73777502
0.91945639 0.94376259 0.74811186
1.00000000 0.93129930 0.87099625
1.00000000 0.96205899 0.94640408
0.37351276 0.98482738 0.45869864
0.37351276 0.98482738 0.45869864
0.46052957 0.98641909 0.50738792
0.59842095 0.98954231 0.60079197
0.74191887 0.99475825 0.71387240
0.85968118 0.99992594 0.81760866
0.94710198 1.00000000 0.90092944
1.00000000 1.00000000 1.00000000
1.00000000 1.00000000 1.00000000
0.71583156 1.00000000 0.66401942
0.71583156 1.00000000 0.66401942
0.76375001 1.00000000 0.71469890
0.84928185 1.00000000 0.81005198
0.95049432 1.00000000 0.93078184
1.00000000 1.00000000 1.00000000
1.00000000 1.00000000 1.00000000
1.00000000 1.00000000 1.00000000
1.00000000 1.00000000 1.00000000
0.00000000 0.15566501 0.56425469
0.00000000 0.15566501 0.56425469
0.00783069 0.07149812 0.62979343
0.19906557 0.00569173 0.70352762
0.49505229 0.00000000 0.76769882
0.71958044 0.00000000 0.74567623
0.87786889 0.00000000 0.70091047
0.97747097 0.01310463 0.62658053
1.00000000 0.18172590 0.54920984
0.00000000 0.15566501 0.56425469
0.00000000 0.15566501 0.56425469
0.00783069 0.07149812 0.62979343
0.19906557 0.00569173 0.70352762
0.49505229 0.00000000 0.76769882
0.71958044 0.00000000 0.74567623
0.87786889 0.00000000 0.70091047
0.97747097 0.01310463 0.62658053
1.00000000 0.18172590 0.54920984
0.00000000 0.21336191 0.57060589
0.00000000 0.21336191 0.57060589
0.00000000 0.16088547 0.61016419
0.12094834 0.00000000 0.74309236
0.48822799 0.00000000 0.82900584
0.74490683 0.00000000 0.78783360
0.91014451 0.00000000 0.72722774
0.99423968 0.03668630 0.63783754
1.00000000 0.22582751 0.55992178
0.00000000 0.33099085 0.65179488
0.00000000 0.33099085 0.65179488
0.00000000 0.30893183 0.70592075
0.17248531 0.30909481 0.92036955
0.53931320 0.29111587 0.97307709
0.87375269 0.18184042 0.93612075
0.99823155 0.25597162 0.81201226
1.00000000 0.37713471 0.70424246
1.00000000 0.45968457 0.65331745
0.00894877 0.53529232 0.79226156
0.00894877 0.53529232 0.79226156
0.01495301 0.55501561 0.84802554
0.16590671 0.58585177 0.93441078
0.52893870 0.58738853 0.96201097
0.83528507 0.54616431 0.96724959
0.99787289 0.55088058 0.87486868
1.00000000 0.61526970 0.79159289
1.00000000 0.67075170 0.76889683
0.00000000 0.72401893 0.86844859
0.00000000 0.72401893 0.86844859
0.00330275 0.74085097 0.90572070
0.20335082 0.76582298 0.95755403
0.53077125 0.77647267 0.95690799
0.77521730 0.76970227 0.95935517
0.97729713 0.75213487 0.92246466
1.00000000 0.78958147 0.86908948
1.00000000 0.83393228 0.87116449
0.00000000 0.87960509 0.83303062
0.00000000 0.87960509 0.83303062
0.00000000 0.89667531 0.84942257
0.00000000 0.92473677 0.87832348
0.32403746 0.94625728 0.90682559
0.68234439 0.93343427 0.91340840
0.91241619 0.91241619 0.91241619
0.99893549 0.91615314 0.92193943
1.00000000 0.95095795 0.95297665
0.13914717 0.97715892 0.66534148
0.13914717 0.97715892 0.66534148
0.23602274 0.98587390 0.68254125
0.44199029 0.99226147 0.73151307
0.64896373 0.99530341 0.80185401
0.80980146 0.99677513 0.86900212
0.92119312 0.99967092 0.92008401
0.99671436 1.00000000 0.96937676
1.00000000 1.00000000 1.00000000
0.68543320 1.00000000 0.68857610
0.68543320 1.00000000 0.68857610
0.73583999 1.00000000 0.73198955
0.82677707 1.00000000 0.81612896
0.93476492 1.00000000 0.92517169
1.00000000 1.00000000 1.00000000
1.00000000 1.00000000 1.00000000
1.00000000 1.00000000 1.00000000
1.00000000 1.00000000 1.00000000
0.00000000 0.20140320 0.54779512
0.00000000 0.20140320 0.54779512
0.00000000 0.17502222 0.54907683
0.00929164 0.08580761 0.70557179
0.31210440 0.01620469 0.92246548
0.61642210 0.00000000 0.89745005
0.81552545 0.00000000 0.82129063
0.94503436 0.00478360 0.74868127
1.00000000 0.13359143 0.66599810
0.00000000 0.20140320 0.54779512
0.00000000 0.20140320 0.54779512
0.00000000 0.17502222 0.54907683
0.00929164 0.08580761 0.70557179
0.31210440 0.01620469 0.92246548
0.61642210 0.00000000 0.89745005
0.81552545 0.00000000 0.82129063
0.94503436 0.00478360 0.74868127
1.00000000 0.13359143 0.66599810
0.00000000 0.23657250 0.59034667
0.00000000 0.23657250 0.59034667
0.00000000 0.20986709 0.58339777
0.00000000 0.09969283 0.64647825
0.27770732 0.00000000 0.94732093
0.61570247 0.00000000 0.93211820
0.83289717 0.00000000 0.84751243
0.96245696 0.00000000 0.76259527
1.00000000 0.15881181 0.67005809
0.00420074 0.32742376 0.70428414
0.00420074 0.32742376 0.70428414
0.00000000 0.29503536 0.71044474
0.05844146 0.30420027 0.89896690
0.35082513 0.33955095 0.98749924
0.68349939 0.29813045 0.99888754
0.94086611 0.21026721 0.95398477
1.00000000 0.32166429 0.81213478
1.00000000 0.42296543 0.73106575
0.01161904 0.49576454 0.86573769
0.01161904 0.49576454 0.86573769
0.04544154 0.51487813 0.91975185
0.22051206 0.55200747 0.96746116
0.43600256 0.58982099 0.98034062
0.69917918 0.58072466 0.99703110
0.95893308 0.53202323 0.96598266
1.00000000 0.58555318 0.86185005
1.00000000 0.64712763 0.81711657
0.03758256 0.68734130 0.95962269
0.03758256 0.68734130 0.95962269
0.10627494 0.70472028 0.98310697
0.30885558 0.73392996 0.98453915
0.50205149 0.76564154 0.97737097
0.71893619 0.76871028 0.98866038
0.91838083 0.75087044 0.98896151
1.00000000 0.76856030 0.92458995
1.00000000 0.81677350 0.89883227
0.03189402 0.82993983 0.97831998
0.03189402 0.82993983 0.97831998
0.12230972 0.84361249 0.99632300
0.35120487 0.86231982 1.00000000
0.57510973 0.88019334 0.99878288
0.75643466 0.89174837 0.99019022
0.89571566 0.89520783 0.99181081
0.99764996 0.89876239 0.97015724
1.00000000 0.93879850 0.96386977
0.00000000 0.95077916 0.90150544
0.00000000 0.95077916 0.90150544
0.00000000 0.96384729 0.91478737
0.22630827 0.98238001 0.93648536
0.53766181 0.98843988 0.95394784
0.75079442 0.98953753 0.96885450
0.89415521 0.99027692 0.98163183
0.99115111 0.99115111 0.99115111
1.00000000 1.00000000 1.00000000
0.57501685 1.00000000 0.79941458
0.57501685 1.00000000 0.79941458
0.64061329 1.00000000 0.82490890
0.75910870 1.00000000 0.87677470
0.89744778 1.00000000 0.94648976
1.00000000 1.00000000 1.00000000
1.00000000 1.00000000 1.00000000
1.00000000 1.00000000 1.00000000
1.00000000 1.00000000 1.00000000
0.00000000 0.23555047 0.56913156
0.00000000 0.23555047 0.56913156
0.00000000 0.21931576 0.55069033
0.00000000 0.17858624 0.58430683
0.08223961 0.09633283 0.96728899
0.38235414 0.13444919 1.00000000
0.69891768 0.01952232 0.97831278
0.88075544 0.00297748 0.87148745
1.00000000 0.06725057 0.79531031
0.00000000 0.23555047 0.56913156
0.00000000 0.23555047 0.56913156
0.00000000 0.21931576 0.55069033
0.00000000 0.17858624 0.58430683
0.08223961 0.09633283 0.96728899
0.38235414 0.13444919 1.00000000
0.69891768 0.01952232 0.97831278
0.88075544 0.00297748 0.87148745
1.00000000 0.06725057 0.79531031
0.00000000 0.26287092 0.62196968
0.00000000 0.26287092 0.62196968
0.00000000 0.24426978 0.59859058
0.00000000 0.19386396 0.58385171
0.02945766 0.09269543 0.95190105
0.36608012 0.12959633 1.00000000
0.70012346 0.00000000 0.99608387
0.89211035 0.00000000 0.88692983
1.00000000 0.08693702 0.79864919
0.00026698 0.33347498 0.74747090
0.00026698 0.33347498 0.74747090
0.00000000 0.31005692 0.73107456
0.00000000 0.30099886 0.82935361
0.18600410 0.34137732 0.99706447
0.43901429 0.37803999 1.00000000
0.75702296 0.30939936 1.00000000
0.97146073 0.23845766 0.95701446
1.00000000 0.37427023 0.82404415
0.00000000 0.45654809 0.92095559
0.00000000 0.45654809 0.92095559
0.03069984 0.47481395 0.96485951
0.19736436 0.52106545 0.99702180
0.37356848 0.57365109 1.00000000
0.55205108 0.60259488 1.00000000
0.80957207 0.57051082 1.00000000
0.98766375 0.54745991 0.95727210
1.00000000 0.61769369 0.87227538
0.17941433 0.64462618 1.00000000
0.17941433 0.64462618 1.00000000
0.25245567 0.66340395 1.00000000
0.37409061 0.69862262 1.00000000
0.51008503 0.73927886 1.00000000
0.64464128 0.76724749 1.00000000
0.82498628 0.76173581 1.00000000
0.99152423 0.74447825 0.97930200
1.00000000 0.79501144 0.92812920
0.29303298 0.78379043 1.00000000
0.29303298 0.78379043 1.00000000
0.35791535 0.79779284 1.00000000
0.47124400 0.82437516 1.00000000
0.60190708 0.85686492 1.00000000
0.72019521 0.88388110 1.00000000
0.85639941 0.88901709 1.00000000
0.97013598 0.88802998 1.00000000
1.00000000 0.92212044 0.97770772
0.30870152 0.88712180 1.00000000
0.30870152 0.88712180 1.00000000
0.39017150 0.89631753 1.00000000
0.53010218 0.91325028 1.00000000
0.68664944 0.93377237 1.00000000
0.81909504 0.95196593 1.00000000
0.91620019 0.96684387 1.00000000
0.97960711 0.97985276 1.00000000
1.00000000 1.00000000 1.00000000
0.38596154 1.00000000 0.96623853
0.38596154 1.00000000 0.96623853
0.49149984 1.00000000 0.97143781
0.66211559 1.00000000 0.98167454
0.84445952 1.00000000 0.99594343
1.00000000 1.00000000 1.00000000
1.00000000 1.00000000 1.00000000
1.00000000 1.00000000 1.00000000
1.00000000 1.00000000 1.00000000
