Canon/CinemaGamut_CanonLog3-to-DCIP3_DCI_33_FF_Ver.2.0.cube
# Gamut : Cinema Gamut to DCI-P3
# Gamma : Canon Log 3 to DCI
# Range : Full in / Full out
# Version : 2.0 2019/10/24
# Copyright(c) 2019 Canon Inc. All Rights Reserved.
LUT_3D_SIZE 5
# LUT_3D_INPUT_RANGE 0.0 1.0
0.00000000 0.00000246 0.00000110
0.30165094 0.04914655 0.10845334
0.78470937 0.00000000 0.23780335
0.99665912 0.19712927 0.23215667
1.00000000 0.39280227 0.30568387
0.10037033 0.25106762 0.12149565
0.27555893 0.28698769 0.09334628
0.78559906 0.30422997 0.00000000
0.99627264 0.33447107 0.26393713
1.00000000 0.45821717 0.36840567
0.07851422 0.66035589 0.18806104
0.24580103 0.67483036 0.05983036
0.71116387 0.74314244 0.00000000
1.00000000 0.71890007 0.51259052
1.00000000 0.75679485 0.68363580
0.24543892 0.85466696 0.07617340
0.29317019 0.86549778 0.08603669
0.51067022 0.95908416 0.11251356
0.91733923 0.96533161 0.28512239
1.00000000 0.91957805 0.83310942
0.36556175 0.93306214 0.03621376
0.37323611 0.94416277 0.03587731
0.64193847 1.00000000 0.48804826
0.89874680 1.00000000 0.81406372
1.00000000 1.00000000 1.00000000
0.08530946 0.06439221 0.20125477
0.26722643 0.00000000 0.24682561
0.76099271 0.00000000 0.39465632
0.99326501 0.14571143 0.32322194
1.00000000 0.38100319 0.30641031
0.10117777 0.26932638 0.26180947
0.27963641 0.27963641 0.27963641
0.82048794 0.18401901 0.31283008
0.99531987 0.31078604 0.33391616
1.00000000 0.44690842 0.36634864
0.09734576 0.70152958 0.30466196
0.14058200 0.71945851 0.19795059
0.72827975 0.76128960 0.00000000
1.00000000 0.72864480 0.55057166
1.00000000 0.76439236 0.69673549
0.19226602 0.88473541 0.12137131
0.25199370 0.89498143 0.10833846
0.51866804 0.97685123 0.19777830
0.92749444 0.97560890 0.36190417
1.00000000 0.92941111 0.85689661
0.36977974 0.95687230 0.11415961
0.38483983 0.96652507 0.14097445
0.71274734 1.00000000 0.58636878
0.92739943 1.00000000 0.86745657
1.00000000 1.00000000 1.00000000
0.16157955 0.13371020 0.57078130
0.28872841 0.00000000 0.51249022
0.69370507 0.00000000 0.61925729
0.95468757 0.00000000 0.55972958
1.00000000 0.32608211 0.42036573
0.00000000 0.27415652 0.49063249
0.16636750 0.16040010 0.58080389
0.71831439 0.00000000 0.65047176
0.98026773 0.00000000 0.55354595
1.00000000 0.35789899 0.42937799
0.00000000 0.70191576 0.67910575
0.00000000 0.71300452 0.69031956
0.72099367 0.72099367 0.72099367
0.98476033 0.71841572 0.72956697
0.99708359 0.76678762 0.74708548
0.34582590 0.95933719 0.46573038
0.39848200 0.96203361 0.47192688
0.70455524 0.98170771 0.62165190
0.94966787 0.99061732 0.63116073
1.00000000 0.97052674 0.94221946
0.72170696 1.00000000 0.63172354
0.74485869 1.00000000 0.65768618
0.91362673 1.00000000 0.87178374
1.00000000 1.00000000 1.00000000
1.00000000 1.00000000 1.00000000
0.00000000 0.26678018 0.67214049
0.12457519 0.17947612 0.72769991
0.57027096 0.00000000 0.81416134
0.89396355 0.00000000 0.77512416
1.00000000 0.23740167 0.61898705
0.00000000 0.31603136 0.64211538
0.00000000 0.27027993 0.68852441
0.55372789 0.00000000 0.83893396
0.90315990 0.00000000 0.78317957
1.00000000 0.25806750 0.61985461
0.12919480 0.61588411 0.85540998
0.13148377 0.62148815 0.88831442
0.62197236 0.66269684 0.96604059
0.99011760 0.63891093 0.90927588
1.00000000 0.71770136 0.80239652
0.00000000 0.91262465 0.88134136
0.00000000 0.91963413 0.88831002
0.48357917 0.96067966 0.93559361
0.93772690 0.93772690 0.93772690
1.00000000 0.95562601 0.95628306
0.65353558 0.99836896 0.65025426
0.68096674 0.99833187 0.67102311
0.88228004 1.00000000 0.86122099
1.00000000 1.00000000 1.00000000
1.00000000 1.00000000 1.00000000
0.00000000 0.33980517 0.65162415
0.00000000 0.32947673 0.64842766
0.21809563 0.18852203 0.96815217
0.74093481 0.12114830 0.99249912
0.97639245 0.04157080 0.83567742
0.00000000 0.35433869 0.67126745
0.00000000 0.34353829 0.66597981
0.17458506 0.20354980 0.95814973
0.73894973 0.11787977 0.99910877
0.98113221 0.00000000 0.83982588
0.15735672 0.54769419 0.96653156
0.21883972 0.55671382 0.97989251
0.51599357 0.65757913 0.99730068
0.84117531 0.66736103 1.00000000
1.00000000 0.67779084 0.90197515
0.50660744 0.83169639 1.00000000
0.53057593 0.83726108 1.00000000
0.72496737 0.89114153 1.00000000
0.90490741 0.92411827 1.00000000
1.00000000 0.93742261 0.98101084
0.16643390 0.99551342 0.96243147
0.28844925 0.99764612 0.96544896
0.77562447 1.00000000 0.98400824
1.00000000 1.00000000 1.00000000
1.00000000 1.00000000 1.00000000
