Canon/CinemaGamut_CanonLog3-to-BT2020_709WideDR_33_FF_Ver.2.0.cube
# Gamut : Cinema Gamut to BT.2020
# Gamma : Canon Log 3 to Wide DR
# Range : Full in / Full out
# Version : 2.0 2019/10/24
# Copyright(c) 2019 Canon Inc. All Rights Reserved.
LUT_3D_SIZE 9
# LUT_3D_INPUT_RANGE 0.0 1.0
0.00000000 0.00000000 0.00000000
0.00000000 0.00000000 0.00000000
0.23099412 0.00572317 0.01634602
0.46060491 0.00000000 0.02701497
0.65547756 0.00000000 0.02975726
0.79879397 0.01893987 0.00838278
0.88541564 0.09605322 0.00000000
0.93279967 0.17445663 0.00000000
0.99975313 0.22787836 0.00000000
0.00000000 0.00000000 0.00000000
0.00206260 0.00515426 0.00000000
0.23099412 0.00572317 0.01634602
0.46060491 0.00000000 0.02701497
0.65547756 0.00000000 0.02975726
0.79879397 0.01893987 0.00838278
0.88541564 0.09605322 0.00000000
0.93279967 0.17445663 0.00000000
0.99975313 0.22787836 0.00000000
0.05407693 0.19775485 0.01720159
0.05407693 0.19775485 0.01720159
0.22903177 0.24489065 0.00198330
0.45553931 0.26075395 0.00000000
0.67222552 0.24516063 0.01792844
0.83399345 0.22770474 0.03622343
0.92228140 0.25589302 0.08102646
0.97142586 0.29564761 0.11241600
1.00000000 0.36192361 0.17585785
0.12873044 0.39857211 0.00877294
0.12873044 0.39857211 0.00877294
0.25346584 0.43595838 0.00009040
0.44451361 0.47156201 0.00000000
0.67627979 0.46844301 0.00000000
0.87123118 0.43692959 0.06840768
0.99442125 0.41991078 0.15207566
0.99560410 0.48144724 0.29846064
1.00000000 0.54153076 0.38403024
0.22386524 0.57058675 0.00926888
0.22386524 0.57058675 0.00926888
0.29966819 0.60324395 0.00762311
0.43477793 0.64897607 0.00296759
0.63385122 0.67239432 0.00000000
0.86407058 0.64378284 0.00000000
1.00000000 0.61688867 0.22914781
1.00000000 0.65264476 0.44552342
1.00000000 0.69806891 0.55528472
0.31468847 0.69992208 0.01135932
0.31468847 0.69992208 0.01135932
0.36105114 0.73004653 0.02072773
0.44207483 0.78140660 0.00620772
0.58395918 0.82402037 0.00476657
0.77912200 0.82814221 0.00179602
0.98530003 0.78666214 0.13911048
1.00000000 0.78846973 0.52187130
1.00000000 0.81693999 0.67668791
0.38800851 0.79265562 0.01262100
0.38800851 0.79265562 0.01262100
0.41818395 0.82148560 0.02470459
0.47222694 0.87292875 0.02750181
0.55536248 0.92924439 0.00000000
0.69944348 0.95489353 0.02925345
0.88444982 0.94175154 0.07172592
1.00000000 0.90393147 0.48644364
1.00000000 0.90996472 0.75837225
0.44151315 0.85785112 0.01230575
0.44151315 0.85785112 0.01230575
0.46368619 0.88553633 0.02444911
0.50475670 0.93609511 0.03995771
0.58072137 0.98863651 0.11659785
0.72644527 1.00000000 0.36090127
0.84644362 1.00000000 0.50619594
0.95371713 1.00000000 0.58503111
1.00000000 0.98511991 0.84840050
0.49243737 0.93766258 0.00500880
0.49243737 0.93766258 0.00500880
0.50882965 0.96390168 0.01062996
0.57137278 1.00000000 0.14424767
0.71745765 1.00000000 0.43179604
0.83977809 1.00000000 0.65040362
0.92657458 1.00000000 0.81037871
0.98833562 1.00000000 0.93970774
1.00000000 1.00000000 1.00000000
0.00000000 0.00000000 0.00000000
0.00000000 0.00000000 0.00000000
0.23099412 0.00572317 0.01634602
0.46060491 0.00000000 0.02701497
0.65547756 0.00000000 0.02975726
0.79879397 0.01893987 0.00838278
0.88541564 0.09605322 0.00000000
0.93279967 0.17445663 0.00000000
0.99975313 0.22787836 0.00000000
0.00000000 0.00000000 0.00000000
0.00000000 0.00000000 0.00000000
0.23099412 0.00572317 0.01634602
0.46060491 0.00000000 0.02701497
0.65547756 0.00000000 0.02975726
0.79879397 0.01893987 0.00838278
0.88541564 0.09605322 0.00000000
0.93279967 0.17445663 0.00000000
0.99975313 0.22787836 0.00000000
0.05407693 0.19775485 0.01720159
0.05407693 0.19775485 0.01720159
0.22903177 0.24489065 0.00198330
0.45553931 0.26075395 0.00000000
0.67222552 0.24516063 0.01792844
0.83399345 0.22770474 0.03622343
0.92228140 0.25589302 0.08102646
0.97142586 0.29564761 0.11241600
1.00000000 0.36192361 0.17585785
0.12873044 0.39857211 0.00877294
0.12873044 0.39857211 0.00877294
0.25346584 0.43595838 0.00009040
0.44451361 0.47156201 0.00000000
0.67627979 0.46844301 0.00000000
0.87123118 0.43692959 0.06840768
0.99442125 0.41991078 0.15207566
0.99560410 0.48144724 0.29846064
1.00000000 0.54153076 0.38403024
0.22386524 0.57058675 0.00926888
0.22386524 0.57058675 0.00926888
0.29966819 0.60324395 0.00762311
0.43477793 0.64897607 0.00296759
0.63385122 0.67239432 0.00000000
0.86407058 0.64378284 0.00000000
1.00000000 0.61688867 0.22914781
1.00000000 0.65264476 0.44552342
1.00000000 0.69806891 0.55528472
0.31468847 0.69992208 0.01135932
0.31468847 0.69992208 0.01135932
0.36105114 0.73004653 0.02072773
0.44207483 0.78140660 0.00620772
0.58395918 0.82402037 0.00476657
0.77912200 0.82814221 0.00179602
0.98530003 0.78666214 0.13911048
1.00000000 0.78846973 0.52187130
1.00000000 0.81693999 0.67668791
0.38800851 0.79265562 0.01262100
0.38800851 0.79265562 0.01262100
0.41818395 0.82148560 0.02470459
0.47222694 0.87292875 0.02750181
0.55536248 0.92924439 0.00000000
0.69944348 0.95489353 0.02925345
0.88444982 0.94175154 0.07172592
1.00000000 0.90393147 0.48644364
1.00000000 0.90996472 0.75837225
0.44151315 0.85785112 0.01230575
0.44151315 0.85785112 0.01230575
0.46368619 0.88553633 0.02444911
0.50475670 0.93609511 0.03995771
0.58072137 0.98863651 0.11659785
0.72644527 1.00000000 0.36090127
0.84644362 1.00000000 0.50619594
0.95371713 1.00000000 0.58503111
1.00000000 0.98511991 0.84840050
0.49243737 0.93766258 0.00500880
0.49243737 0.93766258 0.00500880
0.50882965 0.96390168 0.01062996
0.57137278 1.00000000 0.14424767
0.71745765 1.00000000 0.43179604
0.83977809 1.00000000 0.65040362
0.92657458 1.00000000 0.81037871
0.98833562 1.00000000 0.93970774
1.00000000 1.00000000 1.00000000
0.01736646 0.00111842 0.16644311
0.01736646 0.00111842 0.16644311
0.19785498 0.00000000 0.21383187
0.42562438 0.00000000 0.25619010
0.62944928 0.00000000 0.24956164
0.78605753 0.00000000 0.19608634
0.89692510 0.00524265 0.09309450
0.94951413 0.10105223 0.00000000
0.99891987 0.20371999 0.00000000
0.01736646 0.00111842 0.16644311
0.01736646 0.00111842 0.16644311
0.19785498 0.00000000 0.21383187
0.42562438 0.00000000 0.25619010
0.62944928 0.00000000 0.24956164
0.78605753 0.00000000 0.19608634
0.89692510 0.00524265 0.09309450
0.94951413 0.10105223 0.00000000
0.99891987 0.20371999 0.00000000
0.01331533 0.23339782 0.22708023
0.01331533 0.23339782 0.22708023
0.23600832 0.23600832 0.23600832
0.47902476 0.21827889 0.23290950
0.68877684 0.19242074 0.22020799
0.84932062 0.16805883 0.18249119
0.93971469 0.20091974 0.14549283
0.97210744 0.27356708 0.13438478
1.00000000 0.34694419 0.17283720
0.04620950 0.49866594 0.17092366
0.04620950 0.49866594 0.17092366
0.23155963 0.50580049 0.13549808
0.47416439 0.49836355 0.13524460
0.71729999 0.46409962 0.14974193
0.88793700 0.43428099 0.20654660
0.97339362 0.44430503 0.26382714
0.98736337 0.49169307 0.33583333
1.00000000 0.54260034 0.39496810
0.16109259 0.68636215 0.01322346
0.16109259 0.68636215 0.01322346
0.28021835 0.70562429 0.00698760
0.44948693 0.72328308 0.00000000
0.67429812 0.71479177 0.00000000
0.91829306 0.65937391 0.00000000
1.00000000 0.64154193 0.30908768
1.00000000 0.67298162 0.48674041
1.00000000 0.71336250 0.58022076
0.30759906 0.78807040 0.00611003
0.30759906 0.78807040 0.00611003
0.36268134 0.81110658 0.01819027
0.45737760 0.84709656 0.02309150
0.60500664 0.87402123 0.00253570
0.81175068 0.86225900 0.00414437
1.00000000 0.81582475 0.25632059
1.00000000 0.81642207 0.58958174
1.00000000 0.84012349 0.71937516
0.40054996 0.86566537 0.00989469
0.40054996 0.86566537 0.00989469
0.43209950 0.89008269 0.02471023
0.49307096 0.93108290 0.05247660
0.56958745 0.97911273 0.00000000
0.73323651 0.98719394 0.14879899
0.91164602 0.96972480 0.19081572
1.00000000 0.93058532 0.61272154
1.00000000 0.93394048 0.82375350
0.46451151 0.92166426 0.02148296
0.46451151 0.92166426 0.02148296
0.49003261 0.94500417 0.04936077
0.55206299 0.98121734 0.14951945
0.68176550 0.99931030 0.36582975
0.80657590 1.00000000 0.55812072
0.90160000 1.00000000 0.69356702
0.97848248 1.00000000 0.81723052
1.00000000 1.00000000 0.95608998
0.53122778 0.98963567 0.07168297
0.53122778 0.98963567 0.07168297
0.58023302 1.00000000 0.19137050
0.68883217 1.00000000 0.39964694
0.80992080 1.00000000 0.61579335
0.90605511 1.00000000 0.79191871
0.97571575 1.00000000 0.92819778
1.00000000 1.00000000 1.00000000
1.00000000 1.00000000 1.00000000
0.04761522 0.00277919 0.34942557
0.04761522 0.00277919 0.34942557
0.16911397 0.00000000 0.32045318
0.38680257 0.00000000 0.39991655
0.59384191 0.00000000 0.41498287
0.75691203 0.00000000 0.36961259
0.87703750 0.00000000 0.28030598
0.95908352 0.01198115 0.15025565
1.00000000 0.15036744 0.05535299
0.04761522 0.00277919 0.34942557
0.04761522 0.00277919 0.34942557
0.16911397 0.00000000 0.32045318
0.38680257 0.00000000 0.39991655
0.59384191 0.00000000 0.41498287
0.75691203 0.00000000 0.36961259
0.87703750 0.00000000 0.28030598
0.95908352 0.01198115 0.15025565
1.00000000 0.15036744 0.05535299
0.00000000 0.16827357 0.40364062
0.00000000 0.16827357 0.40364062
0.19696962 0.13807681 0.49935332
0.46184396 0.10820107 0.49567968
0.66945738 0.11008995 0.44143333
0.82900261 0.10728233 0.37716272
0.93756098 0.12855340 0.29687951
0.97865764 0.21612827 0.23086574
1.00000000 0.31328556 0.20814467
0.03602926 0.45233514 0.44126258
0.03602926 0.45233514 0.44126258
0.18863546 0.46543701 0.45729259
0.45620114 0.45620114 0.45620114
0.67338317 0.44318716 0.45218635
0.83792617 0.43104688 0.43707380
0.94405317 0.43463482 0.41314117
0.97317381 0.47826716 0.41103693
1.00000000 0.53046722 0.41965511
0.14080724 0.68842661 0.34436323
0.14080724 0.68842661 0.34436323
0.26271116 0.69600292 0.34601432
0.46160768 0.69779378 0.38225335
0.66702114 0.69320042 0.38894438
0.87801717 0.65709601 0.39849911
0.97702220 0.65090312 0.48271385
0.99096804 0.68133682 0.56087659
1.00000000 0.72270580 0.61411129
0.31357899 0.84944274 0.17476555
0.31357899 0.84944274 0.17476555
0.39274594 0.85419099 0.21122337
0.51130531 0.86603800 0.27031646
0.65240073 0.87904666 0.31236970
0.82301809 0.87165182 0.30626293
0.99141327 0.83422548 0.41351601
1.00000000 0.83618188 0.65113274
1.00000000 0.86314076 0.76373626
0.42139452 0.96234969 0.08658702
0.42139452 0.96234969 0.08658702
0.46969324 0.96955250 0.14394003
0.55957054 0.98238217 0.24121343
0.67826522 0.99430676 0.35107434
0.80117581 0.99965496 0.42720361
0.93710291 0.99172093 0.42010390
1.00000000 0.95788013 0.75036007
1.00000000 0.96574213 0.90166138
0.57748486 1.00000000 0.25299304
0.57748486 1.00000000 0.25299304
0.63025387 1.00000000 0.33972231
0.71729876 1.00000000 0.47717422
0.81583027 1.00000000 0.63198719
0.90275092 1.00000000 0.77339777
0.97057636 1.00000000 0.89587870
1.00000000 1.00000000 1.00000000
1.00000000 1.00000000 1.00000000
0.74968009 1.00000000 0.51726600
0.74968009 1.00000000 0.51726600
0.79348904 1.00000000 0.59312698
0.86328279 1.00000000 0.71652593
0.94100637 1.00000000 0.86181536
1.00000000 1.00000000 1.00000000
1.00000000 1.00000000 1.00000000
1.00000000 1.00000000 1.00000000
1.00000000 1.00000000 1.00000000
0.07467187 0.00398162 0.51860467
0.07467187 0.00398162 0.51860467
0.13784036 0.00000000 0.42780212
0.34683505 0.00000000 0.50991778
0.55563099 0.00000000 0.55656448
0.72378384 0.00000000 0.52644510
0.85005946 0.00000000 0.44611828
0.94127147 0.00000000 0.32828080
1.00000000 0.10253006 0.21593592
0.07467187 0.00398162 0.51860467
0.07467187 0.00398162 0.51860467
0.13784036 0.00000000 0.42780212
0.34683505 0.00000000 0.50991778
0.55563099 0.00000000 0.55656448
0.72378384 0.00000000 0.52644510
0.85005946 0.00000000 0.44611828
0.94127147 0.00000000 0.32828080
1.00000000 0.10253006 0.21593592
0.00287988 0.12052649 0.59437792
0.00287988 0.12052649 0.59437792
0.11197569 0.01280926 0.61161241
0.38474636 0.02599392 0.63754486
0.61291975 0.02212693 0.62695030
0.78766983 0.02378630 0.56174196
0.91238766 0.03750510 0.46456097
0.98112651 0.11517551 0.35420202
1.00000000 0.25194709 0.28752864
0.01062779 0.38460615 0.63183605
0.01062779 0.38460615 0.63183605
0.17309670 0.38658963 0.70361030
0.42422191 0.39143420 0.69479046
0.66006727 0.37223806 0.68400957
0.84725028 0.35249210 0.61666852
0.95706041 0.36526254 0.54110943
0.98469489 0.42607520 0.48808550
1.00000000 0.49149746 0.46403031
0.02595486 0.64829735 0.63236330
0.02595486 0.64829735 0.63236330
0.14549760 0.66203658 0.64789387
0.42202827 0.66003674 0.65139611
0.65092930 0.65092930 0.65092930
0.82040890 0.64187687 0.64669463
0.94251542 0.63543067 0.63239177
0.97724529 0.66302417 0.63686495
1.00000000 0.70376680 0.65029704
0.23057022 0.83006735 0.46445205
0.23057022 0.83006735 0.46445205
0.33103289 0.83408983 0.48398496
0.49979033 0.83490514 0.53871788
0.66111695 0.83913348 0.59455231
0.81376529 0.83751275 0.60526698
0.97374433 0.81073053 0.61084492
0.99988955 0.82400049 0.72448876
1.00000000 0.85964125 0.79459422
0.47988914 0.92590516 0.33769577
0.47988914 0.92590516 0.33769577
0.52935105 0.93111604 0.37650237
0.61426724 0.94276223 0.44635559
0.71329743 0.95967307 0.52021521
0.81100777 0.97432572 0.56239344
0.92669624 0.97227036 0.56338053
1.00000000 0.95172760 0.77296982
1.00000000 0.97015277 0.91954655
0.60302482 0.99038884 0.35989832
0.60302482 0.99038884 0.35989832
0.64912478 0.99144769 0.42377119
0.72950027 0.99466120 0.53705032
0.82225730 1.00000000 0.66990764
0.90681922 1.00000000 0.79788189
0.97141708 1.00000000 0.90672217
1.00000000 1.00000000 1.00000000
1.00000000 1.00000000 1.00000000
0.80431501 1.00000000 0.63027758
0.80431501 1.00000000 0.63027758
0.83696037 1.00000000 0.68676083
0.89625232 1.00000000 0.79127221
0.96857407 1.00000000 0.92341887
1.00000000 1.00000000 1.00000000
1.00000000 1.00000000 1.00000000
1.00000000 1.00000000 1.00000000
1.00000000 1.00000000 1.00000000
0.07854679 0.01573517 0.64638954
0.07854679 0.01573517 0.64638954
0.12644323 0.00000000 0.57152869
0.29210642 0.00000000 0.61374639
0.50633264 0.00000000 0.67851880
0.68470011 0.00000000 0.66980926
0.81735267 0.00000000 0.60271866
0.91557774 0.00000000 0.49568015
1.00000000 0.04762428 0.37779038
0.07854679 0.01573517 0.64638954
0.07854679 0.01573517 0.64638954
0.12644323 0.00000000 0.57152869
0.29210642 0.00000000 0.61374639
0.50633264 0.00000000 0.67851880
0.68470011 0.00000000 0.66980926
0.81735267 0.00000000 0.60271866
0.91557774 0.00000000 0.49568015
1.00000000 0.04762428 0.37779038
0.03093797 0.07237447 0.75115356
0.03093797 0.07237447 0.75115356
0.09315277 0.01262391 0.69664501
0.28088457 0.00000000 0.71452170
0.53525309 0.00000000 0.74672259
0.72567574 0.00000000 0.71289182
0.86303733 0.00000000 0.63012981
0.95684600 0.01701991 0.51262958
1.00000000 0.16875822 0.40594265
0.00000000 0.30201441 0.80774028
0.00000000 0.30201441 0.80774028
0.10305344 0.30173530 0.87519634
0.35362163 0.32624643 0.88280212
0.61347414 0.29583772 0.89702154
0.82492747 0.26024620 0.83121892
0.95145425 0.28198483 0.71336479
0.98879964 0.36330685 0.60436235
1.00000000 0.44495157 0.54136316
0.07586834 0.57844095 0.85438412
0.07586834 0.57844095 0.85438412
0.18425262 0.58725963 0.89922832
0.43254894 0.59828054 0.85303130
0.62544546 0.60759356 0.83922718
0.81309567 0.59233792 0.82443415
0.95546681 0.58056807 0.76596888
0.98815448 0.62161358 0.71227119
1.00000000 0.67165334 0.69462664
0.00525572 0.79990565 0.77992838
0.00525572 0.79990565 0.77992838
0.12978650 0.81146793 0.79258996
0.38376315 0.81665352 0.80132105
0.62700168 0.80935948 0.80155996
0.80176386 0.80176386 0.80176386
0.92669219 0.79552447 0.79809254
0.98262326 0.80738372 0.80234482
1.00000000 0.84269210 0.82518551
0.27246674 0.93641699 0.54096075
0.27246674 0.93641699 0.54096075
0.37913288 0.93598596 0.57104555
0.53297320 0.93579651 0.63106351
0.68808466 0.93673162 0.70496298
0.81185394 0.94035086 0.75964465
0.92090716 0.94012733 0.77059651
1.00000000 0.93088516 0.83696258
1.00000000 0.96016707 0.92985726
0.57187685 0.98118990 0.42302167
0.57187685 0.98118990 0.42302167
0.63135387 0.97856353 0.48972720
0.71423799 0.98309176 0.58448426
0.81086831 0.99005237 0.70086684
0.89441295 0.99773717 0.80608101
0.96036328 1.00000000 0.89478733
1.00000000 1.00000000 1.00000000
1.00000000 1.00000000 1.00000000
0.78893069 1.00000000 0.62884773
0.78893069 1.00000000 0.62884773
0.82353800 1.00000000 0.68424525
0.88652352 1.00000000 0.78748394
0.96357811 1.00000000 0.91920609
1.00000000 1.00000000 1.00000000
1.00000000 1.00000000 1.00000000
1.00000000 1.00000000 1.00000000
1.00000000 1.00000000 1.00000000
0.05878160 0.02708272 0.74888737
0.05878160 0.02708272 0.74888737
0.08886507 0.00956898 0.69436905
0.20367352 0.00000000 0.71741916
0.43310427 0.00000000 0.80688369
0.62874228 0.00000000 0.80057021
0.77718654 0.00000000 0.74862618
0.88263562 0.00000000 0.65432365
0.99101551 0.00595886 0.54681688
0.05878160 0.02708272 0.74888737
0.05878160 0.02708272 0.74888737
0.08886507 0.00956898 0.69436905
0.20367352 0.00000000 0.71741916
0.43310427 0.00000000 0.80688369
0.62874228 0.00000000 0.80057021
0.77718654 0.00000000 0.74862618
0.88263562 0.00000000 0.65432365
0.99101551 0.00595886 0.54681688
0.04101411 0.05943935 0.84291205
0.04101411 0.05943935 0.84291205
0.07383533 0.02825116 0.78777059
0.15613927 0.00000000 0.76302568
0.42631799 0.00000000 0.86333796
0.64664941 0.00000000 0.84294707
0.80451255 0.00000000 0.77823017
0.91282214 0.00000000 0.67250471
1.00000000 0.04475561 0.55749759
0.01542345 0.21595755 0.99776429
0.01542345 0.21595755 0.99776429
0.09787831 0.21821504 0.94292176
0.28624263 0.29705369 0.92824876
0.50614785 0.31182972 0.96439765
0.74950089 0.25740017 0.94227051
0.91658119 0.21330088 0.88126049
0.98197903 0.29339355 0.75017337
1.00000000 0.39352561 0.65132747
0.16002292 0.51167794 0.97471645
0.16002292 0.51167794 0.97471645
0.25682976 0.53332276 0.95722964
0.39079544 0.57006761 0.93828913
0.57191861 0.58592821 0.95072293
0.76731168 0.56829679 0.95876953
0.94079515 0.53380628 0.92532893
0.98915951 0.58041337 0.81666257
1.00000000 0.63872005 0.76332558
0.22931677 0.72327763 0.98791834
0.22931677 0.72327763 0.98791834
0.32600120 0.73177014 0.98504766
0.47477426 0.74811102 0.97160592
0.63652916 0.76535726 0.95261461
0.78238955 0.77252598 0.94158158
0.92337956 0.76058526 0.92744287
0.99011780 0.77603962 0.87524048
1.00000000 0.81926609 0.86223316
0.05814436 0.90698182 0.88416862
0.05814436 0.90698182 0.88416862
0.18271212 0.91594960 0.89387354
0.34688352 0.93118459 0.91092461
0.60527777 0.92491709 0.91077188
0.78513388 0.91825253 0.91192221
0.91241619 0.91241619 0.91241619
0.98769718 0.91427815 0.91526752
1.00000000 0.94712059 0.94461123
0.41816395 0.98909161 0.62567853
0.41816395 0.98909161 0.62567853
0.49811762 0.98748538 0.65824707
0.62112338 0.98725473 0.71913488
0.75287495 0.98908705 0.79547849
0.86259000 0.99218699 0.86533060
0.94273229 0.99695119 0.91876972
0.99709239 1.00000000 0.96524500
1.00000000 1.00000000 1.00000000
0.76580416 1.00000000 0.65577702
0.76580416 1.00000000 0.65577702
0.80258556 1.00000000 0.70415989
0.86948558 1.00000000 0.79565746
0.95157638 1.00000000 0.91459560
1.00000000 1.00000000 1.00000000
1.00000000 1.00000000 1.00000000
1.00000000 1.00000000 1.00000000
1.00000000 1.00000000 1.00000000
0.02979567 0.03474011 0.82804060
0.02979567 0.03474011 0.82804060
0.04024357 0.01887957 0.78553468
0.10833745 0.00000000 0.79227065
0.30993990 0.00651767 0.94128327
0.54066593 0.00080482 0.94652817
0.71619070 0.00000000 0.88459323
0.84152982 0.00049848 0.80273759
0.95654170 0.00470114 0.71205215
0.02979567 0.03474011 0.82804060
0.02979567 0.03474011 0.82804060
0.04024357 0.01887957 0.78553468
0.10833745 0.00000000 0.79227065
0.30993990 0.00651767 0.94128327
0.54066593 0.00080482 0.94652817
0.71619070 0.00000000 0.88459323
0.84152982 0.00049848 0.80273759
0.95654170 0.00470114 0.71205215
0.03411973 0.05784236 0.91016469
0.03411973 0.05784236 0.91016469
0.04415579 0.03768967 0.86156371
0.04670919 0.00000000 0.80975956
0.28674464 0.00000000 0.96325850
0.53783594 0.00000000 0.97613508
0.72857072 0.00000000 0.91224013
0.86056551 0.00000000 0.82362218
0.97727115 0.00000000 0.72465604
0.09616502 0.22552498 0.98504966
0.09616502 0.22552498 0.98504966
0.09238969 0.18462505 0.96589050
0.23345104 0.27192390 0.95141500
0.39618788 0.33930057 0.98286481
0.61475516 0.33060764 0.99662109
0.81670930 0.26898197 0.97895192
0.95696093 0.22450257 0.91034288
1.00000000 0.33420840 0.78513172
0.24190964 0.46383041 0.99263004
0.24190964 0.46383041 0.99263004
0.30508024 0.49220167 0.97440038
0.40167033 0.53853841 0.96556217
0.51974717 0.58289319 0.97489210
0.68190960 0.58864195 0.99254016
0.86779166 0.55442068 0.97896484
0.97831779 0.54615036 0.92719561
1.00000000 0.60687817 0.84935931
0.38412434 0.66883056 0.99736387
0.38412434 0.66883056 0.99736387
0.43074715 0.68562020 0.99190858
0.51503752 0.71734306 0.98095720
0.61819103 0.75394158 0.97316979
0.74676184 0.76663775 0.98479677
0.87771346 0.75968077 0.99039910
0.98054095 0.75354835 0.95949040
1.00000000 0.79789198 0.91344110
0.44015515 0.81396406 1.00000000
0.44015515 0.81396406 1.00000000
0.49061480 0.82409465 1.00000000
0.58411607 0.84359239 1.00000000
0.70094110 0.86663481 0.99717137
0.80964884 0.88513518 0.98780282
0.89950292 0.89548787 0.98987127
0.98216485 0.89589094 0.98199399
1.00000000 0.93274039 0.96665552
0.29036948 0.96572140 0.94214567
0.29036948 0.96572140 0.94214567
0.38063456 0.96913692 0.94662404
0.53669576 0.97239456 0.95283881
0.69555503 0.97752796 0.96294175
0.82598985 0.98247387 0.97379553
0.92309622 0.98690999 0.98353833
0.99115111 0.99115111 0.99115111
1.00000000 1.00000000 1.00000000
0.69019258 1.00000000 0.78140428
0.69019258 1.00000000 0.78140428
0.73642505 1.00000000 0.80978804
0.82091446 1.00000000 0.86584934
0.92379459 1.00000000 0.94065714
1.00000000 1.00000000 1.00000000
1.00000000 1.00000000 1.00000000
1.00000000 1.00000000 1.00000000
1.00000000 1.00000000 1.00000000
0.00958254 0.01502408 0.93852435
0.00958254 0.01502408 0.93852435
0.01146186 0.01908157 0.88661260
0.01605277 0.00000000 0.85172553
0.20435127 0.04354965 0.99726151
0.38034791 0.14087820 1.00000000
0.61139856 0.05903933 1.00000000
0.77932492 0.00000000 0.94659836
0.91522875 0.00000000 0.86894498
0.00958254 0.01502408 0.93852435
0.00958254 0.01502408 0.93852435
0.01146186 0.01908157 0.88661260
0.01605277 0.00000000 0.85172553
0.20435127 0.04354965 0.99726151
0.38034791 0.14087820 1.00000000
0.61139856 0.05903933 1.00000000
0.77932492 0.00000000 0.94659836
0.91522875 0.00000000 0.86894498
0.02963035 0.05078050 0.99442156
0.02963035 0.05078050 0.99442156
0.02458000 0.02492221 0.96184408
0.01029817 0.00000000 0.88191485
0.18027814 0.01476828 1.00000000
0.36978321 0.13509190 1.00000000
0.61010495 0.05379501 1.00000000
0.78895615 0.00000000 0.96543542
0.93032346 0.00000000 0.88519777
0.12572636 0.23565245 1.00000000
0.12572636 0.23565245 1.00000000
0.10735620 0.19595604 0.99977435
0.16677904 0.22182974 0.99150875
0.31311972 0.32815813 1.00000000
0.46258905 0.37911826 1.00000000
0.67572883 0.34412128 1.00000000
0.86235875 0.25786993 1.00000000
1.00000000 0.24446293 0.94547767
0.25622475 0.42338219 1.00000000
0.25622475 0.42338219 1.00000000
0.30011282 0.45163190 1.00000000
0.38225441 0.50667864 1.00000000
0.48218617 0.56407241 1.00000000
0.59348585 0.59974012 1.00000000
0.75995370 0.58464044 1.00000000
0.91744518 0.54493545 1.00000000
1.00000000 0.56596662 0.94975294
0.42806103 0.62733059 1.00000000
0.42806103 0.62733059 1.00000000
0.46285200 0.64735306 1.00000000
0.52892853 0.68495058 1.00000000
0.61323647 0.72894219 1.00000000
0.70071627 0.76143182 1.00000000
0.81608497 0.76505070 1.00000000
0.94448024 0.74607650 1.00000000
1.00000000 0.77144936 0.96929420
0.52857397 0.76545304 1.00000000
0.52857397 0.76545304 1.00000000
0.56142715 0.78055166 1.00000000
0.62499611 0.80952924 1.00000000
0.70622919 0.84543582 1.00000000
0.78444676 0.87620399 1.00000000
0.87233333 0.88748879 1.00000000
0.95084095 0.89076891 1.00000000
1.00000000 0.91440925 0.99430990
0.57259327 0.86783960 1.00000000
0.57259327 0.86783960 1.00000000
0.61235061 0.87786149 1.00000000
0.68717877 0.89759859 1.00000000
0.78106908 0.92267500 1.00000000
0.86751227 0.94560604 1.00000000
0.93448941 0.96435482 1.00000000
0.98050482 0.97980565 1.00000000
1.00000000 1.00000000 1.00000000
0.60019853 1.00000000 0.98315130
0.60019853 1.00000000 0.98315130
0.65901080 1.00000000 0.98570099
0.76446828 1.00000000 0.99160757
0.89035547 1.00000000 1.00000000
1.00000000 1.00000000 1.00000000
1.00000000 1.00000000 1.00000000
1.00000000 1.00000000 1.00000000
1.00000000 1.00000000 1.00000000
