Canon/CinemaGamut_CanonLog3-to-BT2020_PQ_33_FF_Ver.2.0.cube
# Gamut : Cinema Gamut to BT.2020
# Gamma : Canon Log 3 to PQ
# Range : Full in / Full out
# Version : 2.0 2019/10/24
# Copyright(c) 2019 Canon Inc. All Rights Reserved.
LUT_3D_SIZE 33
# LUT_3D_INPUT_RANGE 0.0 1.0
0.00000000 0.00000000 0.00000000
0.00000000 0.00000000 0.00000000
0.00000000 0.00000000 0.00000000
0.00000000 0.00000000 0.00000000
0.00000000 0.00000000 0.00000000
0.09506282 0.01181376 0.01503961
0.17723588 0.01504539 0.02390353
0.23410520 0.01346910 0.02972261
0.27920892 0.00935123 0.03461332
0.31759551 0.00453498 0.04015849
0.35179902 0.00078221 0.04732380
0.38331951 0.00000000 0.05639536
0.41303287 0.00000000 0.06742067
0.44149166 0.00000000 0.08028667
0.46904160 0.00000000 0.09483378
0.49588218 0.00000000 0.11026930
0.52211671 0.00000000 0.12694420
0.54793223 0.00000000 0.14376167
0.57341748 0.00000000 0.16038727
0.59860098 0.00000000 0.17702825
0.62351125 0.00000000 0.19368483
0.64817344 0.00000000 0.21025335
0.67260798 0.00000000 0.22661565
0.69682822 0.00000000 0.24271554
0.72083571 0.00000000 0.25865235
0.74463414 0.00000000 0.27449301
0.76822093 0.00000000 0.29038169
0.79158827 0.00000000 0.30650441
0.81473366 0.00000000 0.32295901
0.83766889 0.00000000 0.33968672
0.86039586 0.00000000 0.35673205
0.88291749 0.00000000 0.37411708
0.90523532 0.00000000 0.39190287
0.00000000 0.00000000 0.00000000
0.00000000 0.00000000 0.00000000
0.00000000 0.00000000 0.00000000
0.00000000 0.00000000 0.00000000
0.00000000 0.00000000 0.00000000
0.09506282 0.01181376 0.01503961
0.17723588 0.01504539 0.02390353
0.23410520 0.01346910 0.02972261
0.27920892 0.00935123 0.03461332
0.31759551 0.00453498 0.04015849
0.35179902 0.00078221 0.04732380
0.38331951 0.00000000 0.05639536
0.41303287 0.00000000 0.06742067
0.44149166 0.00000000 0.08028667
0.46904160 0.00000000 0.09483378
0.49588218 0.00000000 0.11026930
0.52211671 0.00000000 0.12694420
0.54793223 0.00000000 0.14376167
0.57341748 0.00000000 0.16038727
0.59860098 0.00000000 0.17702825
0.62351125 0.00000000 0.19368483
0.64817344 0.00000000 0.21025335
0.67260798 0.00000000 0.22661565
0.69682822 0.00000000 0.24271554
0.72083571 0.00000000 0.25865235
0.74463414 0.00000000 0.27449301
0.76822093 0.00000000 0.29038169
0.79158827 0.00000000 0.30650441
0.81473366 0.00000000 0.32295901
0.83766889 0.00000000 0.33968672
0.86039586 0.00000000 0.35673205
0.88291749 0.00000000 0.37411708
0.90523532 0.00000000 0.39190287
0.00000000 0.00000000 0.00000000
0.00000000 0.00000000 0.00000000
0.00000000 0.00387775 0.00000000
0.04525410 0.04545173 0.00000000
0.09309610 0.08599310 0.01591316
0.09506282 0.01181376 0.01503961
0.17723588 0.01504539 0.02390353
0.23410520 0.01346910 0.02972261
0.27920892 0.00935123 0.03461332
0.31759551 0.00453498 0.04015849
0.35179902 0.00078221 0.04732380
0.38331951 0.00000000 0.05639536
0.41303287 0.00000000 0.06742067
0.44149166 0.00000000 0.08028667
0.46904160 0.00000000 0.09483378
0.49588218 0.00000000 0.11026930
0.52211671 0.00000000 0.12694420
0.54793223 0.00000000 0.14376167
0.57341748 0.00000000 0.16038727
0.59860098 0.00000000 0.17702825
0.62351125 0.00000000 0.19368483
0.64817344 0.00000000 0.21025335
0.67260798 0.00000000 0.22661565
0.69682822 0.00000000 0.24271554
0.72083571 0.00000000 0.25865235
0.74463414 0.00000000 0.27449301
0.76822093 0.00000000 0.29038169
0.79158827 0.00000000 0.30650441
0.81473366 0.00000000 0.32295901
0.83766889 0.00000000 0.33968672
0.86039586 0.00000000 0.35673205
0.88291749 0.00000000 0.37411708
0.90523532 0.00000000 0.39190287
0.16202817 0.19863609 0.12237409
0.18377462 0.20664251 0.13324302
0.20527748 0.21949095 0.14744469
0.22269131 0.23078249 0.16039410
0.13958214 0.14235081 0.04701162
0.09506282 0.01181376 0.01503961
0.17723588 0.01504539 0.02390353
0.23410520 0.01346910 0.02972261
0.27920892 0.00935123 0.03461332
0.31759551 0.00453498 0.04015849
0.35179902 0.00078221 0.04732380
0.38331951 0.00000000 0.05639536
0.41303287 0.00000000 0.06742067
0.44149166 0.00000000 0.08028667
0.46904160 0.00000000 0.09483378
0.49588218 0.00000000 0.11026930
0.52211671 0.00000000 0.12694420
0.54793223 0.00000000 0.14376167
0.57341748 0.00000000 0.16038727
0.59860098 0.00000000 0.17702825
0.62351125 0.00000000 0.19368483
0.64817344 0.00000000 0.21025335
0.67260798 0.00000000 0.22661565
0.69682822 0.00000000 0.24271554
0.72083571 0.00000000 0.25865235
0.74463414 0.00000000 0.27449301
0.76822093 0.00000000 0.29038169
0.79158827 0.00000000 0.30650441
0.81473366 0.00000000 0.32295901
0.83766889 0.00000000 0.33968672
0.86039586 0.00000000 0.35673205
0.88291749 0.00000000 0.37411708
0.90523532 0.00000000 0.39190287
0.19402575 0.23254657 0.15303309
0.19182361 0.22006693 0.13787535
0.19380824 0.21458813 0.12836053
0.19634839 0.21108921 0.12097463
0.11849563 0.12980305 0.01472382
0.09506282 0.01181376 0.01503961
0.17723588 0.01504539 0.02390353
0.23410520 0.01346910 0.02972261
0.27920892 0.00935123 0.03461332
0.31759551 0.00453498 0.04015849
0.35179902 0.00078221 0.04732380
0.38331951 0.00000000 0.05639536
0.41303287 0.00000000 0.06742067
0.44149166 0.00000000 0.08028667
0.46904160 0.00000000 0.09483378
0.49588218 0.00000000 0.11026930
0.52211671 0.00000000 0.12694420
0.54793223 0.00000000 0.14376167
0.57341748 0.00000000 0.16038727
0.59860098 0.00000000 0.17702825
0.62351125 0.00000000 0.19368483
0.64817344 0.00000000 0.21025335
0.67260798 0.00000000 0.22661565
0.69682822 0.00000000 0.24271554
0.72083571 0.00000000 0.25865235
0.74463414 0.00000000 0.27449301
0.76822093 0.00000000 0.29038169
0.79158827 0.00000000 0.30650441
0.81473366 0.00000000 0.32295901
0.83766889 0.00000000 0.33968672
0.86039586 0.00000000 0.35673205
0.88291749 0.00000000 0.37411708
0.90523532 0.00000000 0.39190287
0.03651677 0.08748581 0.02661316
0.03651677 0.08748581 0.02661316
0.03651677 0.08748581 0.02661316
0.03651677 0.08748581 0.02661316
0.03651677 0.08748581 0.02661316
0.11622104 0.12323720 0.02839278
0.18273645 0.13531493 0.02439400
0.23553449 0.13996484 0.02115192
0.27953061 0.14057990 0.01922842
0.31783301 0.13858703 0.01886193
0.35227966 0.13473508 0.02029507
0.38406803 0.12915118 0.02377316
0.41402836 0.12154971 0.02901031
0.44270608 0.11114816 0.03573761
0.47043806 0.09673756 0.04400209
0.50066193 0.00088634 0.00060917
0.52353262 0.06197152 0.07331198
0.54925270 0.04497127 0.09478111
0.57467190 0.02574436 0.11617242
0.59978588 0.00823327 0.13762495
0.62463034 0.00000000 0.15896933
0.64923205 0.00000000 0.17998153
0.67360736 0.00000000 0.20051521
0.69777288 0.00000000 0.22038743
0.72173088 0.00000000 0.23965769
0.74548292 0.00000000 0.25840761
0.76902405 0.00000000 0.27682219
0.79234637 0.00000000 0.29511315
0.81544325 0.00000000 0.31345178
0.83832713 0.00000000 0.33179196
0.86100470 0.00000000 0.35016999
0.88348417 0.00000000 0.36860785
0.90581267 0.00000000 0.38711287
0.06425625 0.16039435 0.03801993
0.06425625 0.16039435 0.03801993
0.06425625 0.16039435 0.03801993
0.06425625 0.16039435 0.03801993
0.06425625 0.16039435 0.03801993
0.12978755 0.18402945 0.02854348
0.18655079 0.19581585 0.01962450
0.23534342 0.20259297 0.01366703
0.27782816 0.20633981 0.01004708
0.31571292 0.20792278 0.00816856
0.35025305 0.20780458 0.00780587
0.38236970 0.20621200 0.00871520
0.41273673 0.20307783 0.01059882
0.44181130 0.19821127 0.01339918
0.46987662 0.19131029 0.01754361
0.49716135 0.18177002 0.02338209
0.52375799 0.16992858 0.03284443
0.54988943 0.15364491 0.04466048
0.57563744 0.13067101 0.05914386
0.60093419 0.10174118 0.08065409
0.62581602 0.06964046 0.10911314
0.65042511 0.03658790 0.13704484
0.67476148 0.00984998 0.16444886
0.69887243 0.00000000 0.19035599
0.72277090 0.00000000 0.21476499
0.74646165 0.00000000 0.23784110
0.76994249 0.00000000 0.25985792
0.79320650 0.00000000 0.28112965
0.81624242 0.00000000 0.30198010
0.83906401 0.00000000 0.32240650
0.86168051 0.00000000 0.34249002
0.88410374 0.00000000 0.36228939
0.90643031 0.00000000 0.38173954
0.08738773 0.21205149 0.04004933
0.08738773 0.21205149 0.04004933
0.08738773 0.21205149 0.04004933
0.08738773 0.21205149 0.04004933
0.08738773 0.21205149 0.04004933
0.14191614 0.22882412 0.02509526
0.19122998 0.23914635 0.01458871
0.23607210 0.24637296 0.00832041
0.27649884 0.25141895 0.00483038
0.31343160 0.25481864 0.00309599
0.34768365 0.25683081 0.00238369
0.37985945 0.25757019 0.00243071
0.41044378 0.25706317 0.00305973
0.43980427 0.25523812 0.00419097
0.46820042 0.25193853 0.00594189
0.49583573 0.24689596 0.00836370
0.52282754 0.23985866 0.01246807
0.54930483 0.23017685 0.01840662
0.57536131 0.21684999 0.02654153
0.60105513 0.19841880 0.03750184
0.62639335 0.17292010 0.05342867
0.65319674 0.00077858 0.00048080
0.67586345 0.09646820 0.11235878
0.70002893 0.05036684 0.14750252
0.72391997 0.01085985 0.18007316
0.74757292 0.00000000 0.20984530
0.77100014 0.00000000 0.23726820
0.79420338 0.00000000 0.26287775
0.81717243 0.00000000 0.28725496
0.83992202 0.00000000 0.31054598
0.86246023 0.00000000 0.33298553
0.88483468 0.00000000 0.35479213
0.90708269 0.00000000 0.37571322
0.10736315 0.25398886 0.03528268
0.10736315 0.25398886 0.03528268
0.10736315 0.25398886 0.03528268
0.10736315 0.25398886 0.03528268
0.10736315 0.25398886 0.03528268
0.15407690 0.26624590 0.01990310
0.19751152 0.27495601 0.01013029
0.23846360 0.28187033 0.00472699
0.27652528 0.28738426 0.00198963
0.31205486 0.29168888 0.00077604
0.34554332 0.29492672 0.00038211
0.37741592 0.29715634 0.00027360
0.40797319 0.29835907 0.00035980
0.43744666 0.29849354 0.00075642
0.46605473 0.29747055 0.00143028
0.49394302 0.29514553 0.00253254
0.52123170 0.29129961 0.00421721
0.54802454 0.28556960 0.00648548
0.57437902 0.27746997 0.01010952
0.60035905 0.26624135 0.01565822
0.62600569 0.25070926 0.02407078
0.65134629 0.22883878 0.03611762
0.67634583 0.19804511 0.05548148
0.70096680 0.15392929 0.08565418
0.72503179 0.10394824 0.12995515
0.74875464 0.04295768 0.17008060
0.77218263 0.00000000 0.20591656
0.79534773 0.00000000 0.23813213
0.81825800 0.00000000 0.26767056
0.84092893 0.00000000 0.29509012
0.86340123 0.00000000 0.32097268
0.88564746 0.00000000 0.34579792
0.90765000 0.00000000 0.37000985
0.12649840 0.29018521 0.02841263
0.12649840 0.29018521 0.02841263
0.12649840 0.29018521 0.02841263
0.12649840 0.29018521 0.02841263
0.12649840 0.29018521 0.02841263
0.16718726 0.29937413 0.01477614
0.20554652 0.30666897 0.00661749
0.24271557 0.31299137 0.00243889
0.27816732 0.31848827 0.00060561
0.31197326 0.32319682 0.00002334
0.34434794 0.32711882 0.00000000
0.37554087 0.33026702 0.00000000
0.40576002 0.33261878 0.00000000
0.43514232 0.33410806 0.00000000
0.46379456 0.33465663 0.00006612
0.49182123 0.33416537 0.00043666
0.51931225 0.33248610 0.00109889
0.54633084 0.32941319 0.00219442
0.57294555 0.32461766 0.00357973
0.59919116 0.31765998 0.00572936
0.62509977 0.30788676 0.00940788
0.65069555 0.29430586 0.01580677
0.67599992 0.27527674 0.02581062
0.70099898 0.24817677 0.04198032
0.72563771 0.20898451 0.06886535
0.74977953 0.15528472 0.11276556
0.77338351 0.08670993 0.16085349
0.79660629 0.01076022 0.20341944
0.81951460 0.00000000 0.24089893
0.84214185 0.00000000 0.27451597
0.86450261 0.00000000 0.30534253
0.88656150 0.00000000 0.33464179
0.90819288 0.11481457 0.36405637
0.14596382 0.32284330 0.02094436
0.14596382 0.32284330 0.02094436
0.14596382 0.32284330 0.02094436
0.14596382 0.32284330 0.02094436
0.14596382 0.32284330 0.02094436
0.18150873 0.32991410 0.01000471
0.21535752 0.33599218 0.00386901
0.24886931 0.34160877 0.00103986
0.28156038 0.34680904 0.00007029
0.31336347 0.35157687 0.00000000
0.34433712 0.35584042 0.00000000
0.37456066 0.35953298 0.00000000
0.40414364 0.36262056 0.00000000
0.43316553 0.36504562 0.00000000
0.46167320 0.36672273 0.00000000
0.48969721 0.36755498 0.00000000
0.51726856 0.36743315 0.00011968
0.54444160 0.36620689 0.00051195
0.57123924 0.36367718 0.00120423
0.59769402 0.35955864 0.00219321
0.62383599 0.35342604 0.00339620
0.64966585 0.34472799 0.00608708
0.67520704 0.33255995 0.01104064
0.70046654 0.31550944 0.01983794
0.72544402 0.29113941 0.03362463
0.75008517 0.25551862 0.05753921
0.77430421 0.20134070 0.09714272
0.79782092 0.13504048 0.15341318
0.82085003 0.04408160 0.20305812
0.84347716 0.00000000 0.24617624
0.86574625 0.00000000 0.28446371
0.88759826 0.03810860 0.32034455
0.90877661 0.20728095 0.35709337
0.16618938 0.35316843 0.01397008
0.16618938 0.35316843 0.01397008
0.16618938 0.35316843 0.01397008
0.16618938 0.35316843 0.01397008
0.16618938 0.35316843 0.01397008
0.19714506 0.35869856 0.00619846
0.22688415 0.36370234 0.00230309
0.25686369 0.36864973 0.00044095
0.28672640 0.37345800 0.00000000
0.31632695 0.37806248 0.00000000
0.34564178 0.38240751 0.00000000
0.37465415 0.38639423 0.00000000
0.40335291 0.38993388 0.00000000
0.43176688 0.39297689 0.00000000
0.45989892 0.39544844 0.00000000
0.48774115 0.39725577 0.00000000
0.51527654 0.39829053 0.00000000
0.54248839 0.39843380 0.00001055
0.56939924 0.39753835 0.00026346
0.59600828 0.39541095 0.00074228
0.62231974 0.39179561 0.00159646
0.64835598 0.38629281 0.00242506
0.67410748 0.37837966 0.00436406
0.69958505 0.36723406 0.00830554
0.72479067 0.35156237 0.01602874
0.74972315 0.32914469 0.02843449
0.77433468 0.29626362 0.05030281
0.79851654 0.24685969 0.08965479
0.82201659 0.18027615 0.14864651
0.84482682 0.10173007 0.20602643
0.86708923 0.05236387 0.25592994
0.88874937 0.13236187 0.30170596
0.90940774 0.26977662 0.34878261
0.18737720 0.38189620 0.00853300
0.18737720 0.38189620 0.00853300
0.18737720 0.38189620 0.00853300
0.18737720 0.38189620 0.00853300
0.18737720 0.38189620 0.00853300
0.21407998 0.38625801 0.00369674
0.24000224 0.39043932 0.00126115
0.26661080 0.39476238 0.00008853
0.29362821 0.39906324 0.00000000
0.32091099 0.40338501 0.00000000
0.34836388 0.40762108 0.00000000
0.37593681 0.41169864 0.00000000
0.40354964 0.41549987 0.00000000
0.43113587 0.41893130 0.00000000
0.45867926 0.42194039 0.00000000
0.48613504 0.42444334 0.00000000
0.51346143 0.42634454 0.00000000
0.54060813 0.42752802 0.00000000
0.56753037 0.42786884 0.00000000
0.59422116 0.42722304 0.00016278
0.62066372 0.42540618 0.00058323
0.64684686 0.42216925 0.00136037
0.67277832 0.41713931 0.00208435
0.69844756 0.40980689 0.00346698
0.72385109 0.39941777 0.00678404
0.74899040 0.38474659 0.01371096
0.77385693 0.36378822 0.02559904
0.79840167 0.33323882 0.04708075
0.82250996 0.28792058 0.08751021
0.84593584 0.22573835 0.14917954
0.86840544 0.17944087 0.21635928
0.88995753 0.21092070 0.27734299
0.91005201 0.32204734 0.33912606
0.20935536 0.40951639 0.00480875
0.20935536 0.40951639 0.00480875
0.20935536 0.40951639 0.00480875
0.20935536 0.40951639 0.00480875
0.20935536 0.40951639 0.00480875
0.23215763 0.41300359 0.00214865
0.25456819 0.41651991 0.00060773
0.27800522 0.42018378 0.00009687
0.30223015 0.42405091 0.00000000
0.32713304 0.42801411 0.00000000
0.35259162 0.43201345 0.00000000
0.37852113 0.43600276 0.00000000
0.40483889 0.43989496 0.00000000
0.43142865 0.44356924 0.00000000
0.45818272 0.44692137 0.00000000
0.48506296 0.44990436 0.00000000
0.51199427 0.45242908 0.00000000
0.53891307 0.45439943 0.00000000
0.56574489 0.45569473 0.00000000
0.59242632 0.45618770 0.00000000
0.61892634 0.45573709 0.00016130
0.64522020 0.45415760 0.00059615
0.67128374 0.45120572 0.00134666
0.69711143 0.44653008 0.00205577
0.72269211 0.43963553 0.00299038
0.74801071 0.42981484 0.00603604
0.77306870 0.41590872 0.01253104
0.79784490 0.39614711 0.02520596
0.82228287 0.36775987 0.04871359
0.84623335 0.32761106 0.09607940
0.86940417 0.27956712 0.16409821
0.89107335 0.28353974 0.24655626
0.91062507 0.37055614 0.32875625
0.23190232 0.43635667 0.00254843
0.23190232 0.43635667 0.00254843
0.23190232 0.43635667 0.00254843
0.23190232 0.43635667 0.00254843
0.23190232 0.43635667 0.00254843
0.25120246 0.43917374 0.00128011
0.27043721 0.44212614 0.00029657
0.29092252 0.44524157 0.00009927
0.31246466 0.44864255 0.00000000
0.33497606 0.45219954 0.00000000
0.35837504 0.45594303 0.00000000
0.38252449 0.45971818 0.00000000
0.40734830 0.46353444 0.00000000
0.43274117 0.46729548 0.00000000
0.45856465 0.47087921 0.00000000
0.48468209 0.47417150 0.00000000
0.51104609 0.47713396 0.00000000
0.53756157 0.47967406 0.00000000
0.56415073 0.48169617 0.00000000
0.59072082 0.48307813 0.00000000
0.61719571 0.48368996 0.00000000
0.64352771 0.48338791 0.00021244
0.66968502 0.48198831 0.00067206
0.69563240 0.47925231 0.00142800
0.72135433 0.47484481 0.00217739
0.74683795 0.46828823 0.00274325
0.77205897 0.45891545 0.00586495
0.79701343 0.44567304 0.01300385
0.82165814 0.42715912 0.02978338
0.84589478 0.40185131 0.06373050
0.86947557 0.37115943 0.12929876
0.89176368 0.35649173 0.21460721
0.91098638 0.41790805 0.31939695
0.25482990 0.46263894 0.00130971
0.25482990 0.46263894 0.00130971
0.25482990 0.46263894 0.00130971
0.25482990 0.46263894 0.00130971
0.25482990 0.46263894 0.00130971
0.27105546 0.46493169 0.00082743
0.28748735 0.46737334 0.00033791
0.30524441 0.47006642 0.00007740
0.32425387 0.47298090 0.00002167
0.34443192 0.47619868 0.00000000
0.36571615 0.47954687 0.00000000
0.38801522 0.48311260 0.00000000
0.41121105 0.48674512 0.00000000
0.43521385 0.49043657 0.00000000
0.45990982 0.49410283 0.00000000
0.48514705 0.49762100 0.00000000
0.51076641 0.50086655 0.00000000
0.53671939 0.50381165 0.00000000
0.56289722 0.50636198 0.00000000
0.58921226 0.50842351 0.00000000
0.61555926 0.50987108 0.00000000
0.64185253 0.51057304 0.00000000
0.66803117 0.51038357 0.00026811
0.69405809 0.50912056 0.00074488
0.71988899 0.50654933 0.00152133
0.74549946 0.50235183 0.00243559
0.77087280 0.49607569 0.00306508
0.79597784 0.48710779 0.00703107
0.82078615 0.47464129 0.01836335
0.84520533 0.45804925 0.04885888
0.86901956 0.43846980 0.11176911
0.89158145 0.42757626 0.20210069
0.91101559 0.46376131 0.31331048
0.27801123 0.48851438 0.00067307
0.27801123 0.48851438 0.00067307
0.27801123 0.48851438 0.00067307
0.27801123 0.48851438 0.00067307
0.27801123 0.48851438 0.00067307
0.29159062 0.49038981 0.00060604
0.30555063 0.49241138 0.00041700
0.32084893 0.49473734 0.00002722
0.33750955 0.49722389 0.00012769
0.35544708 0.50001270 0.00000808
0.37464165 0.50306635 0.00000000
0.39502400 0.50629851 0.00000000
0.41650847 0.50973167 0.00000000
0.43899063 0.51326196 0.00000000
0.46236946 0.51686139 0.00000000
0.48652883 0.52045786 0.00000000
0.51130800 0.52392773 0.00000000
0.53652850 0.52713484 0.00000000
0.56214624 0.53006403 0.00000000
0.58804268 0.53261983 0.00000000
0.61412359 0.53470964 0.00000000
0.64027428 0.53620612 0.00000000
0.66640228 0.53697555 0.00000000
0.69243611 0.53687071 0.00029019
0.71833430 0.53571203 0.00077812
0.74404440 0.53327168 0.00166448
0.76953253 0.52925613 0.00317197
0.79477842 0.52324307 0.00465041
0.81972693 0.51478255 0.01301126
0.84430122 0.50355276 0.03876588
0.86828528 0.49055640 0.10324624
0.89106905 0.48288139 0.19631976
0.91083700 0.50514996 0.30953132
0.30138340 0.51408631 0.00036418
0.30138340 0.51408631 0.00036418
0.30138340 0.51408631 0.00036418
0.30138340 0.51408631 0.00036418
0.30138340 0.51408631 0.00036418
0.31270457 0.51562529 0.00048691
0.32451128 0.51729972 0.00049658
0.33764028 0.51924608 0.00024796
0.35212252 0.52142430 0.00012168
0.36795511 0.52381849 0.00022174
0.38511127 0.52651483 0.00000000
0.40358756 0.52945360 0.00000000
0.42329488 0.53259708 0.00000000
0.44416334 0.53593078 0.00000000
0.46609546 0.53938441 0.00000000
0.48898929 0.54291450 0.00000000
0.51272607 0.54645834 0.00000000
0.53713928 0.54989159 0.00000000
0.56203248 0.55306544 0.00000000
0.58736954 0.55597885 0.00000000
0.61302488 0.55853540 0.00000000
0.63889972 0.56064401 0.00000000
0.66487223 0.56217554 0.00000000
0.69084471 0.56299505 0.00000000
0.71673732 0.56295472 0.00026570
0.74250361 0.56188065 0.00086472
0.76808298 0.55955883 0.00228850
0.79343454 0.55571724 0.00536475
0.81851641 0.55004563 0.01106959
0.84323065 0.54239746 0.03385708
0.86737937 0.53349477 0.09522821
0.89037939 0.52799263 0.19219819
0.91054718 0.54214558 0.30575574
0.32491434 0.53942526 0.00021783
0.32491434 0.53942526 0.00021783
0.32491434 0.53942526 0.00021783
0.32491434 0.53942526 0.00021783
0.32491434 0.53942526 0.00021783
0.33432432 0.54069030 0.00041195
0.34426718 0.54207683 0.00054001
0.35547212 0.54370181 0.00045376
0.36798872 0.54559231 0.00007799
0.38186323 0.54765171 0.00027922
0.39708645 0.54998026 0.00029521
0.41367830 0.55262012 0.00000000
0.43160256 0.55546312 0.00000000
0.45079576 0.55853974 0.00000000
0.47118678 0.56179711 0.00000000
0.49268820 0.56519222 0.00000000
0.51519421 0.56866828 0.00000000
0.53859020 0.57217118 0.00000000
0.56270399 0.57557574 0.00000000
0.58732148 0.57871952 0.00000000
0.61241685 0.58161648 0.00000000
0.63785943 0.58416958 0.00000000
0.66354727 0.58628937 0.00000000
0.68935290 0.58784557 0.00000000
0.71517411 0.58870362 0.00000000
0.74092423 0.58871713 0.00031920
0.76655124 0.58771937 0.00141045
0.79198755 0.58551341 0.00432968
0.81717216 0.58189764 0.01248174
0.84202487 0.57676013 0.03160781
0.86633251 0.57065392 0.08988136
0.88957127 0.56661400 0.18637331
0.91018942 0.57570778 0.30083068
0.34861546 0.56457886 0.00021413
0.34861546 0.56457886 0.00021413
0.34861546 0.56457886 0.00021413
0.34861546 0.56457886 0.00021413
0.34861546 0.56457886 0.00021413
0.35640878 0.56561918 0.00041324
0.36473841 0.56676612 0.00056515
0.37424787 0.56811948 0.00058999
0.38501048 0.56970664 0.00035775
0.39707417 0.57152459 0.00008374
0.41048029 0.57351892 0.00040825
0.42525355 0.57580196 0.00031063
0.44141888 0.57839951 0.00000000
0.45891577 0.58116667 0.00000000
0.47770858 0.58419157 0.00000000
0.49772221 0.58738902 0.00000000
0.51887930 0.59073841 0.00000000
0.54106885 0.59417140 0.00000000
0.56418220 0.59764114 0.00000000
0.58804507 0.60102303 0.00000000
0.61242345 0.60413890 0.00000000
0.63730430 0.60701885 0.00000000
0.66255325 0.60956559 0.00000000
0.68806602 0.61169143 0.00000000
0.71371061 0.61326561 0.00000000
0.73938141 0.61415392 0.00000000
0.76498574 0.61421266 0.00066198
0.79046319 0.61329087 0.00318055
0.81573234 0.61123166 0.01067923
0.84069476 0.60796893 0.03265444
0.86516781 0.60385496 0.08550419
0.88865707 0.60092758 0.18029407
0.90979064 0.60664458 0.29335939
0.37246809 0.58957750 0.00033235
0.37246809 0.58957750 0.00033235
0.37246809 0.58957750 0.00033235
0.37246809 0.58957750 0.00033235
0.37246809 0.58957750 0.00033235
0.37891782 0.59043292 0.00056045
0.38587918 0.59138052 0.00075517
0.39390058 0.59250458 0.00081285
0.40308300 0.59383146 0.00066149
0.41349954 0.59538807 0.00018891
0.42521415 0.59713234 0.00019108
0.43825754 0.59908879 0.00046582
0.45269806 0.60134740 0.00025418
0.46852425 0.60389978 0.00000000
0.48568393 0.60661111 0.00000000
0.50415861 0.60959472 0.00000000
0.52386794 0.61274392 0.00000000
0.54474465 0.61605682 0.00000000
0.56667210 0.61945545 0.00000000
0.58954383 0.62289735 0.00000000
0.61318943 0.62626023 0.00000000
0.63735431 0.62934887 0.00000000
0.66203975 0.63221070 0.00000000
0.68710853 0.63474834 0.00000000
0.71245407 0.63687549 0.00000000
0.73794091 0.63846159 0.00000000
0.76345945 0.63937523 0.00000000
0.78890959 0.63948079 0.00185543
0.81421891 0.63865325 0.00855200
0.83927482 0.63682494 0.02870282
0.86389132 0.63422950 0.08282552
0.88764938 0.63217066 0.17291647
0.90934421 0.63563915 0.28376584
0.39643722 0.61443829 0.00053390
0.39643722 0.61443829 0.00053390
0.39643722 0.61443829 0.00053390
0.39643722 0.61443829 0.00053390
0.39643722 0.61443829 0.00053390
0.40177327 0.61514119 0.00080477
0.40757671 0.61592281 0.00103778
0.41432367 0.61685413 0.00116750
0.42212202 0.61795940 0.00113845
0.43106159 0.61926439 0.00078713
0.44121271 0.62079547 0.00005676
0.45263967 0.62247806 0.00032904
0.46540933 0.62441718 0.00050571
0.47957414 0.62664567 0.00011594
0.49512646 0.62914848 0.00000000
0.51201625 0.63182567 0.00000000
0.53023278 0.63477507 0.00000000
0.54969290 0.63788455 0.00000000
0.57033419 0.64116709 0.00000000
0.59203669 0.64453657 0.00000000
0.61469963 0.64795564 0.00000000
0.63815144 0.65130134 0.00000000
0.66212134 0.65436309 0.00000000
0.68662516 0.65720587 0.00000000
0.71152331 0.65973255 0.00000000
0.73670638 0.66185794 0.00000000
0.76203563 0.66345379 0.00000000
