Canon/CinemaGamut_CanonLog3-to-DCIP3_DCI_33_FF_Ver.2.0.cube
# Gamut : Cinema Gamut to DCI-P3
# Gamma : Canon Log 3 to DCI
# Range : Full in / Full out
# Version : 2.0 2019/10/24
# Copyright(c) 2019 Canon Inc. All Rights Reserved.
LUT_3D_SIZE 9
# LUT_3D_INPUT_RANGE 0.0 1.0
0.00000000 0.00000246 0.00000110
0.00000000 0.00000246 0.00000110
0.30165094 0.04914655 0.10845334
0.57253813 0.04909017 0.19124892
0.78470937 0.00000000 0.23780335
0.92289436 0.00000000 0.23584397
0.99665912 0.19712927 0.23215667
1.00000000 0.33613240 0.28256317
1.00000000 0.39280227 0.30568387
0.00000000 0.00000246 0.00000110
0.00000000 0.00000246 0.00000110
0.30165094 0.04914655 0.10845334
0.57253813 0.04909017 0.19124892
0.78470937 0.00000000 0.23780335
0.92289436 0.00000000 0.23584397
0.99665912 0.19712927 0.23215667
1.00000000 0.33613240 0.28256317
1.00000000 0.39280227 0.30568387
0.10037033 0.25106762 0.12149565
0.10037033 0.25106762 0.12149565
0.27555893 0.28698769 0.09334628
0.53546791 0.33034901 0.00000000
0.78559906 0.30422997 0.00000000
0.95018648 0.24558112 0.11759381
0.99627264 0.33447107 0.26393713
0.99966161 0.41628750 0.33758918
1.00000000 0.45821717 0.36840567
0.09716999 0.48035674 0.17433880
0.09716999 0.48035674 0.17433880
0.28318288 0.49878309 0.00000000
0.51975156 0.54189207 0.07480537
0.77594235 0.54635469 0.08887642
0.99058033 0.49259775 0.13611766
0.99916946 0.55260634 0.42029947
0.99786891 0.59501549 0.50378559
1.00000000 0.61900344 0.53843245
0.07851422 0.66035589 0.18806104
0.07851422 0.66035589 0.18806104
0.24580103 0.67483036 0.05983036
0.46390654 0.71742489 0.04804900
0.71116387 0.74314244 0.00000000
0.95431321 0.71365908 0.16683238
1.00000000 0.71890007 0.51259052
1.00000000 0.74237143 0.63733879
1.00000000 0.75679485 0.68363580
0.12734612 0.77826485 0.12867689
0.12734612 0.77826485 0.12867689
0.24284081 0.78998998 0.06409169
0.39821537 0.83376086 0.06728507
0.60025252 0.87540085 0.07481150
0.83547620 0.87643924 0.11065713
1.00000000 0.84573896 0.46598798
1.00000000 0.84617461 0.70815172
1.00000000 0.84980972 0.77546725
0.24543892 0.85466696 0.07617340
0.24543892 0.85466696 0.07617340
0.29317019 0.86549778 0.08603669
0.37784573 0.90894549 0.11576380
0.51067022 0.95908416 0.11251356
0.70223458 0.98001034 0.19392639
0.91733923 0.96533161 0.28512239
1.00000000 0.93060432 0.69951166
1.00000000 0.91957805 0.83310942
0.32201483 0.90330353 0.07290614
0.32201483 0.90330353 0.07290614
0.34210975 0.91416299 0.09192969
0.38927941 0.95650438 0.13911439
0.53927572 0.99829908 0.32198729
0.74263426 1.00000000 0.55333419
0.86618712 1.00000000 0.66927759
0.96521832 1.00000000 0.73416404
1.00000000 0.97625639 0.87153331
0.36556175 0.93306214 0.03621376
0.36556175 0.93306214 0.03621376
0.37323611 0.94416277 0.03587731
0.41108771 0.98484548 0.15308897
0.64193847 1.00000000 0.48804826
0.80380701 1.00000000 0.69026137
0.89874680 1.00000000 0.81406372
0.96056644 1.00000000 0.90011150
1.00000000 1.00000000 1.00000000
0.00000000 0.00000246 0.00000110
0.00000000 0.00000246 0.00000110
0.30165094 0.04914655 0.10845334
0.57253813 0.04909017 0.19124892
0.78470937 0.00000000 0.23780335
0.92289436 0.00000000 0.23584397
0.99665912 0.19712927 0.23215667
1.00000000 0.33613240 0.28256317
1.00000000 0.39280227 0.30568387
0.00000000 0.00000246 0.00000110
0.00000000 0.00000246 0.00000110
0.30165094 0.04914655 0.10845334
0.57253813 0.04909017 0.19124892
0.78470937 0.00000000 0.23780335
0.92289436 0.00000000 0.23584397
0.99665912 0.19712927 0.23215667
1.00000000 0.33613240 0.28256317
1.00000000 0.39280227 0.30568387
0.10037033 0.25106762 0.12149565
0.10037033 0.25106762 0.12149565
0.27555893 0.28698769 0.09334628
0.53546791 0.33034901 0.00000000
0.78559906 0.30422997 0.00000000
0.95018648 0.24558112 0.11759381
0.99627264 0.33447107 0.26393713
0.99966161 0.41628750 0.33758918
1.00000000 0.45821717 0.36840567
0.09716999 0.48035674 0.17433880
0.09716999 0.48035674 0.17433880
0.28318288 0.49878309 0.00000000
0.51975156 0.54189207 0.07480537
0.77594235 0.54635469 0.08887642
0.99058033 0.49259775 0.13611766
0.99916946 0.55260634 0.42029947
0.99786891 0.59501549 0.50378559
1.00000000 0.61900344 0.53843245
0.07851422 0.66035589 0.18806104
0.07851422 0.66035589 0.18806104
0.24580103 0.67483036 0.05983036
0.46390654 0.71742489 0.04804900
0.71116387 0.74314244 0.00000000
0.95431321 0.71365908 0.16683238
1.00000000 0.71890007 0.51259052
1.00000000 0.74237143 0.63733879
1.00000000 0.75679485 0.68363580
0.12734612 0.77826485 0.12867689
0.12734612 0.77826485 0.12867689
0.24284081 0.78998998 0.06409169
0.39821537 0.83376086 0.06728507
0.60025252 0.87540085 0.07481150
0.83547620 0.87643924 0.11065713
1.00000000 0.84573896 0.46598798
1.00000000 0.84617461 0.70815172
1.00000000 0.84980972 0.77546725
0.24543892 0.85466696 0.07617340
0.24543892 0.85466696 0.07617340
0.29317019 0.86549778 0.08603669
0.37784573 0.90894549 0.11576380
0.51067022 0.95908416 0.11251356
0.70223458 0.98001034 0.19392639
0.91733923 0.96533161 0.28512239
1.00000000 0.93060432 0.69951166
1.00000000 0.91957805 0.83310942
0.32201483 0.90330353 0.07290614
0.32201483 0.90330353 0.07290614
0.34210975 0.91416299 0.09192969
0.38927941 0.95650438 0.13911439
0.53927572 0.99829908 0.32198729
0.74263426 1.00000000 0.55333419
0.86618712 1.00000000 0.66927759
0.96521832 1.00000000 0.73416404
1.00000000 0.97625639 0.87153331
0.36556175 0.93306214 0.03621376
0.36556175 0.93306214 0.03621376
0.37323611 0.94416277 0.03587731
0.41108771 0.98484548 0.15308897
0.64193847 1.00000000 0.48804826
0.80380701 1.00000000 0.69026137
0.89874680 1.00000000 0.81406372
0.96056644 1.00000000 0.90011150
1.00000000 1.00000000 1.00000000
0.08530946 0.06439221 0.20125477
0.08530946 0.06439221 0.20125477
0.26722643 0.00000000 0.24682561
0.53939420 0.00000000 0.35822250
0.76099271 0.00000000 0.39465632
0.90567185 0.00000000 0.37343314
0.99326501 0.14571143 0.32322194
1.00000000 0.31722690 0.31091199
1.00000000 0.38100319 0.30641031
0.08530946 0.06439221 0.20125477
0.08530946 0.06439221 0.20125477
0.26722643 0.00000000 0.24682561
0.53939420 0.00000000 0.35822250
0.76099271 0.00000000 0.39465632
0.90567185 0.00000000 0.37343314
0.99326501 0.14571143 0.32322194
1.00000000 0.31722690 0.31091199
1.00000000 0.38100319 0.30641031
0.10117777 0.26932638 0.26180947
0.10117777 0.26932638 0.26180947
0.27963641 0.27963641 0.27963641
0.62018898 0.20731994 0.27930741
0.82048794 0.18401901 0.31283008
0.95059297 0.18693673 0.31659625
0.99531987 0.31078604 0.33391616
0.99956193 0.40215903 0.35303123
1.00000000 0.44690842 0.36634864
0.00000000 0.55192223 0.33668508
0.00000000 0.55192223 0.33668508
0.00000000 0.57457100 0.21022681
0.54916108 0.56922682 0.00000000
0.85350522 0.51720529 0.12051540
0.99718619 0.49119111 0.32038487
1.00000000 0.54936391 0.45397276
1.00000000 0.59173847 0.51250114
1.00000000 0.61578505 0.53996705
0.09734576 0.70152958 0.30466196
0.09734576 0.70152958 0.30466196
0.14058200 0.71945851 0.19795059
0.43981408 0.75318885 0.05347559
0.72827975 0.76128960 0.00000000
0.97983609 0.71846623 0.22833890
1.00000000 0.72864480 0.55057166
1.00000000 0.75057890 0.65668007
1.00000000 0.76439236 0.69673549
0.11567031 0.81060008 0.23514975
0.11567031 0.81060008 0.23514975
0.16123095 0.82452821 0.15299306
0.36795111 0.86346952 0.10803184
0.59691108 0.89714999 0.07967267
0.84864155 0.89025568 0.13718491
1.00000000 0.85694304 0.51754997
1.00000000 0.85642808 0.73390185
1.00000000 0.85951374 0.79258810
0.19226602 0.88473541 0.12137131
0.19226602 0.88473541 0.12137131
0.25199370 0.89498143 0.10833846
0.36576460 0.93351607 0.15870993
0.51866804 0.97685123 0.19777830
0.72048382 0.99114610 0.29646436
0.92749444 0.97560890 0.36190417
1.00000000 0.94014750 0.74712754
1.00000000 0.92941111 0.85689661
0.30883292 0.92973829 0.10462456
0.30883292 0.92973829 0.10462456
0.33536176 0.93945069 0.12938665
0.41452433 0.97555828 0.22373944
0.62298332 0.99920144 0.45666435
0.79014929 1.00000000 0.64018049
0.89514895 1.00000000 0.74769204
0.97506768 1.00000000 0.82592010
1.00000000 0.98343831 0.91576237
0.36977974 0.95687230 0.11415961
0.36977974 0.95687230 0.11415961
0.38483983 0.96652507 0.14097445
0.49068676 0.99538501 0.31186467
0.71274734 1.00000000 0.58636878
0.84535426 1.00000000 0.75563719
0.92739943 1.00000000 0.86745657
0.98032013 1.00000000 0.94938005
1.00000000 1.00000000 1.00000000
0.14582706 0.11259664 0.39961646
0.14582706 0.11259664 0.39961646
0.26875392 0.00000000 0.35304941
0.50576237 0.00000000 0.45981373
0.72698149 0.00000000 0.51409411
0.87735880 0.00000000 0.49747738
0.97681889 0.08850108 0.44268734
1.00000000 0.27936218 0.39018956
1.00000000 0.35901592 0.34723680
0.14582706 0.11259664 0.39961646
0.14582706 0.11259664 0.39961646
0.26875392 0.00000000 0.35304941
0.50576237 0.00000000 0.45981373
0.72698149 0.00000000 0.51409411
0.87735880 0.00000000 0.49747738
0.97681889 0.08850108 0.44268734
1.00000000 0.27936218 0.39018956
1.00000000 0.35901592 0.34723680
0.00000000 0.25207403 0.36213578
0.00000000 0.25207403 0.36213578
0.21073225 0.15073277 0.47767072
0.55199680 0.08065716 0.52174729
0.78244819 0.00000000 0.51667103
0.92536771 0.00000000 0.48014772
0.99553919 0.23092550 0.43763528
1.00000000 0.35909064 0.41246947
1.00000000 0.41811194 0.38557954
0.13686262 0.51008031 0.49469093
0.13686262 0.51008031 0.49469093
0.04560363 0.52635450 0.51125882
0.52628255 0.52628255 0.52628255
0.81359584 0.49156403 0.52404462
0.95706138 0.48312324 0.52593708
0.98826611 0.53528112 0.54705162
0.99354819 0.58084638 0.55909226
0.99584190 0.60922269 0.55855506
0.09748113 0.74017268 0.51511534
0.09748113 0.74017268 0.51511534
0.12017443 0.75133291 0.48590691
0.37166233 0.77916919 0.43111490
0.74070969 0.76379866 0.43578921
0.98184328 0.71624305 0.49655019
1.00000000 0.73421707 0.64101641
1.00000000 0.76130971 0.70241325
1.00000000 0.77856044 0.72537595
0.18086934 0.88821230 0.40187352
0.18086934 0.88821230 0.40187352
0.22316236 0.89551649 0.36656106
0.37395232 0.91867626 0.32339222
0.62804878 0.93137172 0.34716167
0.87208313 0.91461733 0.36072170
1.00000000 0.88049231 0.62089097
1.00000000 0.88149181 0.78643614
1.00000000 0.88645993 0.83349743
0.00000000 0.98902015 0.25925098
0.00000000 0.98902015 0.25925098
0.16737603 0.99343469 0.24758776
0.44043085 1.00000000 0.34819147
0.65698677 1.00000000 0.48967705
0.81287548 1.00000000 0.57507490
0.95761901 1.00000000 0.61823643
1.00000000 0.96977505 0.85869618
1.00000000 0.96210992 0.92001257
0.48421842 1.00000000 0.39071137
0.48421842 1.00000000 0.39071137
0.53645147 1.00000000 0.43279662
0.67214234 1.00000000 0.56493886
0.80880273 1.00000000 0.71530458
0.90754668 1.00000000 0.83538745
0.97501366 1.00000000 0.92966626
1.00000000 1.00000000 1.00000000
1.00000000 1.00000000 1.00000000
0.62667981 1.00000000 0.50514984
0.62667981 1.00000000 0.50514984
0.66262088 1.00000000 0.54475872
0.76704584 1.00000000 0.66942328
0.87854873 1.00000000 0.81458292
0.95849511 1.00000000 0.92836837
1.00000000 1.00000000 1.00000000
1.00000000 1.00000000 1.00000000
1.00000000 1.00000000 1.00000000
0.16157955 0.13371020 0.57078130
0.16157955 0.13371020 0.57078130
0.28872841 0.00000000 0.51249022
0.47374646 0.00000000 0.54874431
0.69370507 0.00000000 0.61925729
0.84871814 0.00000000 0.61056991
0.95468757 0.00000000 0.55972958
1.00000000 0.22277726 0.48782129
1.00000000 0.32608211 0.42036573
0.16157955 0.13371020 0.57078130
0.16157955 0.13371020 0.57078130
0.28872841 0.00000000 0.51249022
0.47374646 0.00000000 0.54874431
0.69370507 0.00000000 0.61925729
0.84871814 0.00000000 0.61056991
0.95468757 0.00000000 0.55972958
1.00000000 0.22277726 0.48782129
1.00000000 0.32608211 0.42036573
0.00000000 0.27415652 0.49063249
0.00000000 0.27415652 0.49063249
0.16636750 0.16040010 0.58080389
0.46294233 0.00000000 0.60861030
0.71831439 0.00000000 0.65047176
0.88138475 0.00000000 0.61701472
0.98026773 0.00000000 0.55354595
1.00000000 0.27072854 0.48745162
1.00000000 0.35789899 0.42937799
0.00000000 0.46170499 0.57711256
0.00000000 0.46170499 0.57711256
0.00843981 0.46007979 0.65275937
0.48278366 0.44436356 0.76729165
0.79850117 0.39369721 0.76142360
0.96515729 0.39066320 0.68209137
1.00000000 0.47214313 0.62939111
1.00000000 0.53723820 0.60314346
1.00000000 0.57362817 0.57902845
0.00000000 0.70191576 0.67910575
0.00000000 0.70191576 0.67910575
0.00000000 0.71300452 0.69031956
0.32909585 0.73581471 0.71738857
0.72099367 0.72099367 0.72099367
0.92059238 0.70181546 0.71797564
0.98476033 0.71841572 0.72956697
0.99339726 0.74732823 0.74351399
0.99708359 0.76678762 0.74708548
0.15143722 0.85874597 0.61457275
0.15143722 0.85874597 0.61457275
0.19329449 0.86631005 0.60693659
0.38875505 0.88660987 0.61586122
0.66050635 0.89124301 0.66398494
0.86210558 0.88284560 0.67382015
1.00000000 0.86025694 0.73895934
1.00000000 0.87538589 0.82844875
1.00000000 0.88892099 0.85847581
0.34582590 0.95933719 0.46573038
0.34582590 0.95933719 0.46573038
0.39848200 0.96203361 0.47192688
0.51771285 0.97625103 0.51128655
0.70455524 0.98170771 0.62165190
0.82771622 0.98882415 0.67938295
0.94966787 0.99061732 0.63116073
1.00000000 0.96743895 0.88172120
1.00000000 0.97052674 0.94221946
0.57046446 0.99891186 0.51369202
0.57046446 0.99891186 0.51369202
0.60730862 0.99831074 0.54144880
0.71151181 0.99993728 0.63803840
0.83085435 1.00000000 0.76410081
0.92043940 1.00000000 0.86872048
0.98093719 1.00000000 0.95121758
1.00000000 1.00000000 1.00000000
1.00000000 1.00000000 1.00000000
0.72170696 1.00000000 0.63172354
0.72170696 1.00000000 0.63172354
0.74485869 1.00000000 0.65768618
0.82032613 1.00000000 0.74953769
0.91362673 1.00000000 0.87178374
0.98559331 1.00000000 0.97395476
1.00000000 1.00000000 1.00000000
1.00000000 1.00000000 1.00000000
1.00000000 1.00000000 1.00000000
0.10481887 0.18085586 0.66961366
0.10481887 0.18085586 0.66961366
0.24831793 0.09633061 0.65213423
0.41725234 0.00000000 0.63768447
0.64707001 0.00000000 0.71215064
0.81464154 0.00000000 0.71478889
0.92776482 0.00000000 0.67107081
0.99612414 0.14983108 0.59754264
1.00000000 0.28982144 0.51518147
0.10481887 0.18085586 0.66961366
0.10481887 0.18085586 0.66961366
0.24831793 0.09633061 0.65213423
0.41725234 0.00000000 0.63768447
0.64707001 0.00000000 0.71215064
0.81464154 0.00000000 0.71478889
0.92776482 0.00000000 0.67107081
0.99612414 0.14983108 0.59754264
1.00000000 0.28982144 0.51518147
0.00000000 0.29339893 0.59064425
0.00000000 0.29339893 0.59064425
0.12134545 0.20124710 0.67356632
0.36743834 0.00000000 0.67751259
0.65024600 0.00000000 0.73868350
0.82991731 0.00000000 0.72830036
0.94395051 0.00000000 0.67516036
1.00000000 0.18073443 0.59629833
1.00000000 0.31008089 0.51577390
0.00000000 0.43237269 0.64407991
0.00000000 0.43237269 0.64407991
0.00000000 0.40894503 0.69563028
0.37757085 0.38473637 0.87877647
0.72038305 0.33426409 0.90961730
0.92953533 0.29783332 0.84504213
0.99916212 0.40179373 0.74101611
1.00000000 0.49055848 0.67292787
1.00000000 0.53527710 0.62397602
0.11208618 0.65536929 0.78438635
0.11208618 0.65536929 0.78438635
0.13309466 0.65909262 0.82195384
0.36753518 0.67413095 0.90475864
0.69086517 0.67913295 0.88585420
0.91509576 0.65201284 0.87427247
0.99771323 0.67621642 0.81079294
1.00000000 0.71667090 0.78272269
1.00000000 0.74160286 0.76699913
0.00000000 0.82802928 0.80011232
0.00000000 0.82802928 0.80011232
0.00000000 0.83658007 0.80866891
0.12145865 0.86072375 0.83454253
0.61002688 0.86470352 0.84941806
0.85006914 0.85006914 0.85006914
0.97650183 0.84287289 0.85103002
0.99507987 0.86237810 0.86551325
0.99894686 0.87800464 0.87412971
0.09268178 0.94134736 0.67732047
0.09268178 0.94134736 0.67732047
0.18834545 0.94687231 0.67802255
0.40264656 0.96229237 0.70300055
0.64785574 0.96843690 0.76130844
0.81717437 0.96665415 0.81148528
0.94536721 0.96164157 0.82089766
1.00000000 0.95348177 0.90771203
1.00000000 0.96382777 0.94845469
0.52107082 0.99193151 0.55809345
0.52107082 0.99193151 0.55809345
0.56473198 0.99134671 0.58092823
0.68550031 0.99252182 0.66707439
0.81354455 0.99637425 0.77768494
0.90601703 1.00000000 0.86799808
0.96992444 1.00000000 0.93798180
1.00000000 1.00000000 1.00000000
1.00000000 1.00000000 1.00000000
0.69063860 1.00000000 0.62157815
0.69063860 1.00000000 0.62157815
0.71589070 1.00000000 0.64684800
0.79900167 1.00000000 0.73883493
0.90050745 1.00000000 0.86176107
0.97769839 1.00000000 0.96431316
1.00000000 1.00000000 1.00000000
1.00000000 1.00000000 1.00000000
1.00000000 1.00000000 1.00000000
0.00000000 0.26678018 0.67214049
0.00000000 0.26678018 0.67214049
0.12457519 0.17947612 0.72769991
0.29821219 0.00000000 0.72777028
0.57027096 0.00000000 0.81416134
0.76277903 0.00000000 0.81156282
0.89396355 0.00000000 0.77512416
0.97687734 0.07872544 0.70817570
1.00000000 0.23740167 0.61898705
0.00000000 0.26678018 0.67214049
0.00000000 0.26678018 0.67214049
0.12457519 0.17947612 0.72769991
0.29821219 0.00000000 0.72777028
0.57027096 0.00000000 0.81416134
0.76277903 0.00000000 0.81156282
0.89396355 0.00000000 0.77512416
0.97687734 0.07872544 0.70817570
1.00000000 0.23740167 0.61898705
0.00000000 0.31603136 0.64211538
0.00000000 0.31603136 0.64211538
0.00000000 0.27027993 0.68852441
0.22132663 0.00000000 0.74238457
0.55372789 0.00000000 0.83893396
0.76708902 0.00000000 0.82620691
0.90315990 0.00000000 0.78317957
0.98361323 0.06337536 0.71067936
1.00000000 0.25806750 0.61985461
0.04215955 0.42223333 0.71217932
0.04215955 0.42223333 0.71217932
0.00000000 0.39557922 0.74068831
0.25099410 0.35928157 0.90132687
0.59210008 0.35792981 0.96939789
0.86025639 0.27671088 0.94012855
0.98278995 0.31984249 0.85709229
1.00000000 0.43860895 0.75967496
1.00000000 0.49570674 0.69004764
0.12919480 0.61588411 0.85540998
0.12919480 0.61588411 0.85540998
0.13148377 0.62148815 0.88831442
0.32443867 0.64884953 0.94819936
0.62197236 0.66269684 0.96604059
0.85532730 0.63842701 0.97282254
0.99011760 0.63891093 0.90927588
1.00000000 0.68840801 0.83855774
1.00000000 0.71770136 0.80239652
0.10093910 0.78340276 0.92148754
0.10093910 0.78340276 0.92148754
0.12606308 0.78856547 0.94267263
0.37718459 0.80765522 0.97525345
0.65011637 0.82271335 0.96540359
0.82861140 0.82459526 0.96388585
0.97571060 0.81400017 0.94340148
1.00000000 0.84055251 0.90213606
1.00000000 0.86090443 0.89035562
0.00000000 0.91262465 0.88134136
0.00000000 0.91262465 0.88134136
0.00000000 0.91963413 0.88831002
0.05873414 0.94067816 0.91058429
0.48357917 0.96067966 0.93559361
0.78330707 0.94825497 0.93695010
0.93772690 0.93772690 0.93772690
0.99735748 0.94169048 0.94463231
1.00000000 0.95562601 0.95628306
0.27398779 0.98964839 0.72555879
0.27398779 0.98964839 0.72555879
0.34412571 0.99184289 0.73325015
0.55061572 0.99477764 0.77792917
0.74193500 0.99633737 0.84605354
0.86991141 0.99737498 0.90449671
0.95170226 0.99987550 0.94740285
1.00000000 1.00000000 1.00000000
1.00000000 1.00000000 1.00000000
0.65353558 0.99836896 0.65025426
0.65353558 0.99836896 0.65025426
0.68096674 0.99833187 0.67102311
0.77208467 0.99956447 0.75110183
0.88228004 1.00000000 0.86122099
0.96545920 1.00000000 0.95490436
1.00000000 1.00000000 1.00000000
1.00000000 1.00000000 1.00000000
1.00000000 1.00000000 1.00000000
0.00000000 0.31549686 0.65718662
0.00000000 0.31549686 0.65718662
0.00000000 0.29245618 0.67360033
0.00000000 0.17608823 0.73918557
0.41559795 0.10320204 0.92445665
0.67435236 0.00000000 0.92740593
0.83941889 0.00000000 0.87424452
0.94487635 0.04720463 0.81298395
1.00000000 0.13567411 0.72889779
0.00000000 0.31549686 0.65718662
0.00000000 0.31549686 0.65718662
0.00000000 0.29245618 0.67360033
0.00000000 0.17608823 0.73918557
0.41559795 0.10320204 0.92445665
0.67435236 0.00000000 0.92740593
0.83941889 0.00000000 0.87424452
0.94487635 0.04720463 0.81298395
1.00000000 0.13567411 0.72889779
0.00000000 0.33794893 0.66274530
0.00000000 0.33794893 0.66274530
0.00000000 0.31882622 0.67308877
0.00000000 0.21708806 0.70490495
0.38778079 0.06396747 0.93533918
0.66871943 0.00000000 0.94202844
0.84386080 0.00000000 0.88370412
0.95104830 0.00000000 0.81837991
1.00000000 0.16016827 0.73021170
0.05768298 0.41723557 0.76026164
0.05768298 0.41723557 0.76026164
0.00000000 0.39715286 0.76937445
0.12476257 0.36316215 0.86638108
0.43561059 0.40001746 0.98569932
0.71526267 0.37562931 0.99732632
0.92137487 0.29157266 0.96577935
0.99609587 0.37321122 0.86301767
1.00000000 0.45214401 0.77012068
0.12999289 0.57794236 0.92186396
0.12999289 0.57794236 0.92186396
0.17680396 0.58312176 0.94997418
0.36489461 0.61967333 0.97435667
0.55018856 0.66285993 0.98490929
0.75444050 0.66316694 0.99732746
0.95293118 0.62713907 0.97827867
1.00000000 0.66183550 0.90152149
1.00000000 0.69594908 0.84820847
0.25199199 0.74933045 0.99095962
0.25199199 0.74933045 0.99095962
0.30866955 0.75529987 0.99485716
0.46931071 0.78116733 0.98933775
0.62760216 0.81412206 0.98252530
0.78777720 0.82211902 0.99167856
0.93151634 0.81252515 0.99302543
1.00000000 0.82307141 0.94848931
1.00000000 0.84617096 0.91568008
0.28795167 0.86630659 0.99856114
0.28795167 0.86630659 0.99856114
0.34808352 0.86986752 1.00000000
0.51505275 0.88567153 1.00000000
0.69365726 0.90535503 0.99992684
0.82716853 0.91861024 0.99349766
0.92511341 0.92463976 0.99410390
0.99690985 0.92799582 0.98067588
1.00000000 0.94521093 0.96605369
0.00000000 0.96547545 0.93267631
0.00000000 0.96547545 0.93267631
0.00000000 0.97052400 0.93794564
0.36851788 0.98417821 0.95409857
0.65714318 0.98956938 0.96785995
0.82476346 0.99170851 0.97921594
0.93087024 0.99338797 0.98856160
0.99564408 0.99564408 0.99564408
1.00000000 1.00000000 1.00000000
0.50937844 1.00000000 0.77838041
0.50937844 1.00000000 0.77838041
0.55025378 1.00000000 0.78926513
0.68389643 1.00000000 0.83561334
0.83373906 1.00000000 0.90340822
0.94290640 1.00000000 0.96349058
1.00000000 1.00000000 1.00000000
1.00000000 1.00000000 1.00000000
1.00000000 1.00000000 1.00000000
0.00000000 0.33980517 0.65162415
0.00000000 0.33980517 0.65162415
0.00000000 0.32947673 0.64842766
0.00000000 0.27756756 0.65360000
0.21809563 0.18852203 0.96815217
0.48352468 0.25317881 1.00000000
0.74093481 0.12114830 0.99249912
0.88849489 0.05274102 0.91277000
0.97639245 0.04157080 0.83567742
0.00000000 0.33980517 0.65162415
0.00000000 0.33980517 0.65162415
0.00000000 0.32947673 0.64842766
0.00000000 0.27756756 0.65360000
0.21809563 0.18852203 0.96815217
0.48352468 0.25317881 1.00000000
0.74093481 0.12114830 0.99249912
0.88849489 0.05274102 0.91277000
0.97639245 0.04157080 0.83567742
0.00000000 0.35433869 0.67126745
0.00000000 0.35433869 0.67126745
0.00000000 0.34353829 0.66597981
0.00000000 0.29647154 0.65275229
0.17458506 0.20354980 0.95814973
0.47133630 0.25768895 1.00000000
0.73894973 0.11787977 0.99910877
0.89294105 0.00000000 0.91990377
0.98113221 0.00000000 0.83982588
0.00000000 0.41729806 0.78495080
0.00000000 0.41729806 0.78495080
0.00000000 0.40367002 0.78225542
0.00000000 0.37403114 0.82153554
0.30375253 0.41638559 0.98979000
0.52626063 0.46090056 1.00000000
0.77953294 0.40761468 1.00000000
0.95584059 0.31975520 0.97916243
1.00000000 0.40505209 0.86536966
0.15735672 0.54769419 0.96653156
0.15735672 0.54769419 0.96653156
0.21883972 0.55671382 0.97989251
0.36827537 0.60243055 0.99074407
0.51599357 0.65757913 0.99730068
0.65256677 0.68702539 1.00000000
0.84117531 0.66736103 1.00000000
0.98511751 0.64013140 0.98161206
1.00000000 0.67779084 0.90197515
0.41068640 0.72051360 1.00000000
0.41068640 0.72051360 1.00000000
0.43918733 0.72789439 1.00000000
0.53223472 0.75883128 1.00000000
0.64588240 0.79897206 0.99736863
0.74517207 0.82576306 1.00000000
0.86851378 0.82644769 1.00000000
0.98866384 0.81286591 0.99022211
1.00000000 0.83506255 0.94435369
0.50660744 0.83169639 1.00000000
0.50660744 0.83169639 1.00000000
0.53057593 0.83726108 1.00000000
0.61564475 0.86006837 1.00000000
0.72496737 0.89114153 1.00000000
0.81546463 0.91532084 0.99840842
0.90490741 0.92411827 1.00000000
0.97632105 0.92642441 1.00000000
1.00000000 0.93742261 0.98101084
0.51130163 0.91046637 1.00000000
0.51130163 0.91046637 1.00000000
0.54225200 0.91397002 1.00000000
0.64908943 0.92881033 1.00000000
0.78015490 0.94925687 1.00000000
0.88208375 0.96600785 1.00000000
0.95283543 0.97932674 1.00000000
0.99128969 0.99137492 1.00000000
1.00000000 1.00000000 1.00000000
0.16643390 0.99551342 0.96243147
0.16643390 0.99551342 0.96243147
0.28844925 0.99764612 0.96544896
0.56110297 0.99930454 0.97278572
0.77562447 1.00000000 0.98400824
0.91732243 1.00000000 0.99470557
1.00000000 1.00000000 1.00000000
1.00000000 1.00000000 1.00000000
1.00000000 1.00000000 1.00000000
