BMD_Gen5/Blackmagic Gen 5 Film to Video.cube
# DaVinci Resolve Cube (3D LUT)
#
# Blackmagic Film to Video v5
# Blackmagic Film to Video using v5 Color Science.
# Matches the Gen 5 'Video' output from Blackmagic cameras.
#
BMD_TITLE "Gen 5 Film to Video"
LUT_3D_SIZE 5
0.0000000000 0.0000000000 0.0000000000
0.2021484375 0.0000000000 0.0000000000
0.7802734375 0.0078125000 0.1191406250
0.9912109375 0.4326171875 0.6572265625
0.9990234375 0.9414062500 0.9873046875
0.0000000000 0.1953125000 0.0000000000
0.1464843750 0.1728515625 0.0000000000
0.7744140625 0.2050781250 0.0351562500
0.9912109375 0.4687500000 0.6474609375
0.9990234375 0.9414062500 0.9873046875
0.0000000000 0.6376953125 0.0000000000
0.0000000000 0.6464843750 0.0000000000
0.6689453125 0.7021484375 0.0000000000
0.9912109375 0.7509765625 0.5283203125
0.9990234375 0.9521484375 0.9863281250
0.0000000000 0.9853515625 0.0000000000
0.0000000000 0.9853515625 0.0000000000
0.0000000000 0.9863281250 0.0000000000
0.9873046875 0.9892578125 0.0000000000
0.9990234375 0.9902343750 0.9697265625
0.0000000000 0.9980468750 0.0000000000
0.0000000000 0.9980468750 0.0000000000
0.0000000000 0.9980468750 0.0000000000
0.0000000000 0.9980468750 0.0000000000
0.9990234375 0.9990234375 0.0000000000
0.0000000000 0.0000000000 0.1816406250
0.1982421875 0.0000000000 0.1718750000
0.7773437500 0.0000000000 0.2734375000
0.9912109375 0.4238281250 0.6748046875
0.9990234375 0.9404296875 0.9873046875
0.0000000000 0.1542968750 0.1494140625
0.1435546875 0.1435546875 0.1435546875
0.7646484375 0.1728515625 0.2285156250
0.9912109375 0.4687500000 0.6689453125
0.9990234375 0.9414062500 0.9873046875
0.0000000000 0.6386718750 0.0000000000
0.0000000000 0.6416015625 0.0000000000
0.6679687500 0.6982421875 0.0000000000
0.9912109375 0.7470703125 0.5566406250
0.9990234375 0.9521484375 0.9863281250
0.0000000000 0.9853515625 0.0000000000
0.0000000000 0.9853515625 0.0000000000
0.0000000000 0.9863281250 0.0000000000
0.9873046875 0.9892578125 0.0000000000
0.9990234375 0.9902343750 0.9697265625
0.0000000000 0.9980468750 0.0000000000
0.0000000000 0.9980468750 0.0000000000
0.0000000000 0.9980468750 0.0000000000
0.0000000000 0.9980468750 0.0000000000
0.9990234375 0.9990234375 0.0000000000
0.0000000000 0.0000000000 0.7011718750
0.2187500000 0.0000000000 0.7031250000
0.7519531250 0.0000000000 0.7177734375
0.9912109375 0.2148437500 0.8339843750
0.9990234375 0.9375000000 0.9873046875
0.0000000000 0.0000000000 0.7001953125
0.1806640625 0.0000000000 0.6943359375
0.7421875000 0.0000000000 0.7099609375
0.9912109375 0.3164062500 0.8310546875
0.9990234375 0.9394531250 0.9873046875
0.0000000000 0.6406250000 0.6347656250
0.0000000000 0.6455078125 0.6406250000
0.6718750000 0.6718750000 0.6718750000
0.9912109375 0.7158203125 0.7890625000
0.9990234375 0.9521484375 0.9873046875
0.0000000000 0.9853515625 0.0000000000
0.0000000000 0.9853515625 0.0000000000
0.0000000000 0.9853515625 0.0000000000
0.9873046875 0.9892578125 0.0000000000
0.9990234375 0.9902343750 0.9746093750
0.0000000000 0.9980468750 0.0000000000
0.0000000000 0.9980468750 0.0000000000
0.0000000000 0.9980468750 0.0000000000
0.0000000000 0.9980468750 0.0000000000
0.9990234375 0.9990234375 0.0000000000
0.3310546875 0.0000000000 0.9892578125
0.4160156250 0.0000000000 0.9892578125
0.7734375000 0.0000000000 0.9892578125
0.9902343750 0.0000000000 0.9892578125
0.9990234375 0.7890625000 0.9921875000
0.2841796875 0.0000000000 0.9892578125
0.4003906250 0.0000000000 0.9892578125
0.7705078125 0.0000000000 0.9892578125
0.9902343750 0.0000000000 0.9892578125
0.9990234375 0.7968750000 0.9921875000
0.0000000000 0.0000000000 0.9892578125
0.0000000000 0.0000000000 0.9892578125
0.7304687500 0.0000000000 0.9882812500
0.9902343750 0.0000000000 0.9892578125
0.9990234375 0.8750000000 0.9921875000
0.0000000000 0.9853515625 0.9853515625
0.0000000000 0.9853515625 0.9853515625
0.0000000000 0.9863281250 0.9853515625
0.9873046875 0.9873046875 0.9873046875
0.9990234375 0.9892578125 0.9912109375
0.0000000000 0.9980468750 0.0000000000
0.0000000000 0.9980468750 0.0000000000
0.0000000000 0.9980468750 0.0000000000
0.0000000000 0.9980468750 0.0000000000
0.9990234375 0.9990234375 0.0000000000
0.8925781250 0.0000000000 0.9990234375
0.8955078125 0.0000000000 0.9990234375
0.9316406250 0.0000000000 0.9990234375
0.9912109375 0.0000000000 0.9990234375
0.9990234375 0.0000000000 0.9990234375
0.8906250000 0.0000000000 0.9990234375
0.8955078125 0.0000000000 0.9990234375
0.9316406250 0.0000000000 0.9990234375
0.9912109375 0.0000000000 0.9990234375
0.9990234375 0.0000000000 0.9990234375
0.8652343750 0.0000000000 0.9990234375
0.8710937500 0.0000000000 0.9990234375
0.9257812500 0.0000000000 0.9990234375
0.9912109375 0.0000000000 0.9990234375
0.9990234375 0.0000000000 0.9990234375
0.0000000000 0.0000000000 0.9990234375
0.0000000000 0.0000000000 0.9990234375
0.0000000000 0.0000000000 0.9990234375
0.9902343750 0.0000000000 0.9990234375
0.9990234375 0.0000000000 0.9990234375
0.0000000000 0.9980468750 0.9980468750
0.0000000000 0.9980468750 0.9980468750
0.0000000000 0.9980468750 0.9980468750
0.0000000000 0.9980468750 0.9980468750
0.9990234375 0.9990234375 0.9990234375
