BMD_Gen5/Blackmagic Gen 5 Film to Extended Video.cube
# DaVinci Resolve Cube (3D LUT)
#
# Blackmagic Film to Extended Video v5
# Blackmagic Film to Extended Video using v5 Color Science.
# Matches the Gen 5 'Extended Video' output from Blackmagic cameras.
#
BMD_TITLE "Gen 5 Film to Extended Video"
LUT_3D_SIZE 5
0.0000000000 0.0000000000 0.0000000000
0.1738281250 0.0000000000 0.0000000000
0.8720703125 0.0000000000 0.0000000000
0.9990234375 0.0000000000 0.0000000000
0.9990234375 0.0000000000 0.0000000000
0.0000000000 0.1738281250 0.0000000000
0.1552734375 0.1552734375 0.0000000000
0.8535156250 0.0820312500 0.0000000000
0.9990234375 0.0449218750 0.0000000000
0.9990234375 0.0410156250 0.0000000000
0.0000000000 0.8720703125 0.0000000000
0.0820312500 0.8535156250 0.0000000000
0.7802734375 0.7802734375 0.0000000000
0.9990234375 0.7431640625 0.0000000000
0.9990234375 0.7392578125 0.0000000000
0.0000000000 0.9990234375 0.0000000000
0.0449218750 0.9990234375 0.0000000000
0.7431640625 0.9990234375 0.0000000000
0.9990234375 0.9990234375 0.0000000000
0.9990234375 0.9990234375 0.0000000000
0.0000000000 0.9990234375 0.0000000000
0.0410156250 0.9990234375 0.0000000000
0.7392578125 0.9990234375 0.0000000000
0.9990234375 0.9990234375 0.0000000000
0.9990234375 0.9990234375 0.0000000000
0.0000000000 0.0000000000 0.1738281250
0.1552734375 0.0000000000 0.1552734375
0.8535156250 0.0000000000 0.0820312500
0.9990234375 0.0000000000 0.0449218750
0.9990234375 0.0000000000 0.0410156250
0.0000000000 0.1552734375 0.1552734375
0.1367187500 0.1367187500 0.1367187500
0.8349609375 0.0634765625 0.0634765625
0.9990234375 0.0263671875 0.0263671875
0.9990234375 0.0224609375 0.0224609375
0.0000000000 0.8535156250 0.0820312500
0.0634765625 0.8349609375 0.0634765625
0.7617187500 0.7617187500 0.0000000000
0.9990234375 0.7246093750 0.0000000000
0.9990234375 0.7207031250 0.0000000000
0.0000000000 0.9990234375 0.0449218750
0.0263671875 0.9990234375 0.0263671875
0.7246093750 0.9990234375 0.0000000000
0.9990234375 0.9990234375 0.0000000000
0.9990234375 0.9990234375 0.0000000000
0.0000000000 0.9990234375 0.0410156250
0.0224609375 0.9990234375 0.0224609375
0.7207031250 0.9990234375 0.0000000000
0.9990234375 0.9990234375 0.0000000000
0.9990234375 0.9990234375 0.0000000000
0.0000000000 0.0000000000 0.8720703125
0.0820312500 0.0000000000 0.8535156250
0.7802734375 0.0000000000 0.7802734375
0.9990234375 0.0000000000 0.7431640625
0.9990234375 0.0000000000 0.7392578125
0.0000000000 0.0820312500 0.8535156250
0.0634765625 0.0634765625 0.8349609375
0.7617187500 0.0000000000 0.7617187500
0.9990234375 0.0000000000 0.7246093750
0.9990234375 0.0000000000 0.7207031250
0.0000000000 0.7802734375 0.7802734375
0.0000000000 0.7617187500 0.7617187500
0.6884765625 0.6884765625 0.6884765625
0.9990234375 0.6513671875 0.6513671875
0.9990234375 0.6474609375 0.6474609375
0.0000000000 0.9990234375 0.7431640625
0.0000000000 0.9990234375 0.7246093750
0.6513671875 0.9990234375 0.6513671875
0.9990234375 0.9990234375 0.6142578125
0.9990234375 0.9970703125 0.6103515625
0.0000000000 0.9990234375 0.7392578125
0.0000000000 0.9990234375 0.7207031250
0.6474609375 0.9990234375 0.6474609375
0.9970703125 0.9990234375 0.6103515625
0.9990234375 0.9990234375 0.6064453125
0.0000000000 0.0000000000 0.9990234375
0.0449218750 0.0000000000 0.9990234375
0.7431640625 0.0000000000 0.9990234375
0.9990234375 0.0000000000 0.9990234375
0.9990234375 0.0000000000 0.9990234375
0.0000000000 0.0449218750 0.9990234375
0.0263671875 0.0263671875 0.9990234375
0.7246093750 0.0000000000 0.9990234375
0.9990234375 0.0000000000 0.9990234375
0.9990234375 0.0000000000 0.9990234375
0.0000000000 0.7431640625 0.9990234375
0.0000000000 0.7246093750 0.9990234375
0.6513671875 0.6513671875 0.9990234375
0.9990234375 0.6142578125 0.9990234375
0.9990234375 0.6103515625 0.9970703125
0.0000000000 0.9990234375 0.9990234375
0.0000000000 0.9990234375 0.9990234375
0.6142578125 0.9990234375 0.9990234375
0.9638671875 0.9638671875 0.9638671875
0.9990234375 0.9599609375 0.9599609375
0.0000000000 0.9990234375 0.9990234375
0.0000000000 0.9990234375 0.9990234375
0.6103515625 0.9990234375 0.9970703125
0.9599609375 0.9990234375 0.9599609375
0.9990234375 0.9990234375 0.9560546875
0.0000000000 0.0000000000 0.9990234375
0.0410156250 0.0000000000 0.9990234375
0.7392578125 0.0000000000 0.9990234375
0.9990234375 0.0000000000 0.9990234375
0.9990234375 0.0000000000 0.9990234375
0.0000000000 0.0410156250 0.9990234375
0.0224609375 0.0224609375 0.9990234375
0.7207031250 0.0000000000 0.9990234375
0.9990234375 0.0000000000 0.9990234375
0.9990234375 0.0000000000 0.9990234375
0.0000000000 0.7392578125 0.9990234375
0.0000000000 0.7207031250 0.9990234375
0.6474609375 0.6474609375 0.9990234375
0.9970703125 0.6103515625 0.9990234375
0.9990234375 0.6064453125 0.9990234375
0.0000000000 0.9990234375 0.9990234375
0.0000000000 0.9990234375 0.9990234375
0.6103515625 0.9970703125 0.9990234375
0.9599609375 0.9599609375 0.9990234375
0.9990234375 0.9560546875 0.9990234375
0.0000000000 0.9990234375 0.9990234375
0.0000000000 0.9990234375 0.9990234375
0.6064453125 0.9990234375 0.9990234375
0.9560546875 0.9990234375 0.9990234375
0.9960937500 0.9960937500 0.9960937500
