BMD_Gen5/Blackmagic Gen 5 Film to Extended Video.cube
# DaVinci Resolve Cube (3D LUT)
#
# Blackmagic Film to Extended Video v5
# Blackmagic Film to Extended Video using v5 Color Science.
# Matches the Gen 5 'Extended Video' output from Blackmagic cameras.
#
BMD_TITLE "Gen 5 Film to Extended Video"
LUT_3D_SIZE 33
0.0000000000 0.0000000000 0.0000000000
0.0078125000 0.0000000000 0.0000000000
0.0185546875 0.0000000000 0.0000000000
0.0322265625 0.0000000000 0.0000000000
0.0488281250 0.0000000000 0.0000000000
0.0693359375 0.0000000000 0.0000000000
0.0957031250 0.0000000000 0.0000000000
0.1298828125 0.0000000000 0.0000000000
0.1738281250 0.0000000000 0.0000000000
0.2304687500 0.0000000000 0.0000000000
0.3066406250 0.0000000000 0.0000000000
0.4003906250 0.0000000000 0.0000000000
0.4951171875 0.0000000000 0.0000000000
0.5888671875 0.0000000000 0.0000000000
0.6835937500 0.0000000000 0.0000000000
0.7773437500 0.0000000000 0.0000000000
0.8720703125 0.0000000000 0.0000000000
0.9580078125 0.0000000000 0.0000000000
0.9990234375 0.0000000000 0.0000000000
0.9990234375 0.0000000000 0.0000000000
0.9990234375 0.0000000000 0.0000000000
0.9990234375 0.0000000000 0.0000000000
0.9990234375 0.0000000000 0.0000000000
0.9990234375 0.0000000000 0.0000000000
0.9990234375 0.0000000000 0.0000000000
0.9990234375 0.0000000000 0.0000000000
0.9990234375 0.0000000000 0.0000000000
0.9990234375 0.0000000000 0.0000000000
0.9990234375 0.0000000000 0.0000000000
0.9990234375 0.0000000000 0.0000000000
0.9990234375 0.0000000000 0.0000000000
0.9990234375 0.0000000000 0.0000000000
0.9990234375 0.0000000000 0.0000000000
0.0000000000 0.0078125000 0.0000000000
0.0068359375 0.0068359375 0.0000000000
0.0175781250 0.0058593750 0.0000000000
0.0312500000 0.0048828125 0.0000000000
0.0478515625 0.0029296875 0.0000000000
0.0683593750 0.0009765625 0.0000000000
0.0957031250 0.0000000000 0.0000000000
0.1289062500 0.0000000000 0.0000000000
0.1728515625 0.0000000000 0.0000000000
0.2294921875 0.0000000000 0.0000000000
0.3056640625 0.0000000000 0.0000000000
0.3994140625 0.0000000000 0.0000000000
0.4941406250 0.0000000000 0.0000000000
0.5878906250 0.0000000000 0.0000000000
0.6826171875 0.0000000000 0.0000000000
0.7763671875 0.0000000000 0.0000000000
0.8710937500 0.0000000000 0.0000000000
0.9570312500 0.0000000000 0.0000000000
0.9990234375 0.0000000000 0.0000000000
0.9990234375 0.0000000000 0.0000000000
0.9990234375 0.0000000000 0.0000000000
0.9990234375 0.0000000000 0.0000000000
0.9990234375 0.0000000000 0.0000000000
0.9990234375 0.0000000000 0.0000000000
0.9990234375 0.0000000000 0.0000000000
0.9990234375 0.0000000000 0.0000000000
0.9990234375 0.0000000000 0.0000000000
0.9990234375 0.0000000000 0.0000000000
0.9990234375 0.0000000000 0.0000000000
0.9990234375 0.0000000000 0.0000000000
0.9990234375 0.0000000000 0.0000000000
0.9990234375 0.0000000000 0.0000000000
0.9990234375 0.0000000000 0.0000000000
0.0000000000 0.0185546875 0.0000000000
0.0058593750 0.0175781250 0.0000000000
0.0166015625 0.0166015625 0.0000000000
0.0302734375 0.0156250000 0.0000000000
0.0468750000 0.0136718750 0.0000000000
0.0673828125 0.0117187500 0.0000000000
0.0937500000 0.0087890625 0.0000000000
0.1279296875 0.0048828125 0.0000000000
0.1718750000 0.0000000000 0.0000000000
0.2285156250 0.0000000000 0.0000000000
0.3046875000 0.0000000000 0.0000000000
0.3984375000 0.0000000000 0.0000000000
0.4931640625 0.0000000000 0.0000000000
0.5869140625 0.0000000000 0.0000000000
0.6816406250 0.0000000000 0.0000000000
0.7753906250 0.0000000000 0.0000000000
0.8701171875 0.0000000000 0.0000000000
0.9560546875 0.0000000000 0.0000000000
0.9990234375 0.0000000000 0.0000000000
0.9990234375 0.0000000000 0.0000000000
0.9990234375 0.0000000000 0.0000000000
0.9990234375 0.0000000000 0.0000000000
0.9990234375 0.0000000000 0.0000000000
0.9990234375 0.0000000000 0.0000000000
0.9990234375 0.0000000000 0.0000000000
0.9990234375 0.0000000000 0.0000000000
0.9990234375 0.0000000000 0.0000000000
0.9990234375 0.0000000000 0.0000000000
0.9990234375 0.0000000000 0.0000000000
0.9990234375 0.0000000000 0.0000000000
0.9990234375 0.0000000000 0.0000000000
0.9990234375 0.0000000000 0.0000000000
0.9990234375 0.0000000000 0.0000000000
0.0000000000 0.0322265625 0.0000000000
0.0048828125 0.0312500000 0.0000000000
0.0156250000 0.0302734375 0.0000000000
0.0283203125 0.0283203125 0.0000000000
0.0449218750 0.0263671875 0.0000000000
0.0664062500 0.0244140625 0.0000000000
0.0927734375 0.0214843750 0.0000000000
0.1269531250 0.0185546875 0.0000000000
0.1699218750 0.0136718750 0.0000000000
0.2265625000 0.0078125000 0.0000000000
0.3037109375 0.0000000000 0.0000000000
0.3974609375 0.0000000000 0.0000000000
0.4912109375 0.0000000000 0.0000000000
0.5859375000 0.0000000000 0.0000000000
0.6796875000 0.0000000000 0.0000000000
0.7744140625 0.0000000000 0.0000000000
0.8681640625 0.0000000000 0.0000000000
0.9550781250 0.0000000000 0.0000000000
0.9990234375 0.0000000000 0.0000000000
0.9990234375 0.0000000000 0.0000000000
0.9990234375 0.0000000000 0.0000000000
0.9990234375 0.0000000000 0.0000000000
0.9990234375 0.0000000000 0.0000000000
0.9990234375 0.0000000000 0.0000000000
0.9990234375 0.0000000000 0.0000000000
0.9990234375 0.0000000000 0.0000000000
0.9990234375 0.0000000000 0.0000000000
0.9990234375 0.0000000000 0.0000000000
0.9990234375 0.0000000000 0.0000000000
0.9990234375 0.0000000000 0.0000000000
0.9990234375 0.0000000000 0.0000000000
0.9990234375 0.0000000000 0.0000000000
0.9990234375 0.0000000000 0.0000000000
0.0000000000 0.0488281250 0.0000000000
0.0029296875 0.0478515625 0.0000000000
0.0136718750 0.0468750000 0.0000000000
0.0263671875 0.0449218750 0.0000000000
0.0429687500 0.0429687500 0.0000000000
0.0644531250 0.0410156250 0.0000000000
0.0908203125 0.0380859375 0.0000000000
0.1250000000 0.0351562500 0.0000000000
0.1679687500 0.0302734375 0.0000000000
0.2255859375 0.0244140625 0.0000000000
0.3017578125 0.0166015625 0.0000000000
0.3955078125 0.0068359375 0.0000000000
0.4892578125 0.0000000000 0.0000000000
0.5839843750 0.0000000000 0.0000000000
0.6777343750 0.0000000000 0.0000000000
0.7724609375 0.0000000000 0.0000000000
0.8662109375 0.0000000000 0.0000000000
0.9531250000 0.0000000000 0.0000000000
0.9990234375 0.0000000000 0.0000000000
0.9990234375 0.0000000000 0.0000000000
0.9990234375 0.0000000000 0.0000000000
0.9990234375 0.0000000000 0.0000000000
0.9990234375 0.0000000000 0.0000000000
0.9990234375 0.0000000000 0.0000000000
0.9990234375 0.0000000000 0.0000000000
0.9990234375 0.0000000000 0.0000000000
0.9990234375 0.0000000000 0.0000000000
0.9990234375 0.0000000000 0.0000000000
0.9990234375 0.0000000000 0.0000000000
0.9990234375 0.0000000000 0.0000000000
0.9990234375 0.0000000000 0.0000000000
0.9990234375 0.0000000000 0.0000000000
0.9990234375 0.0000000000 0.0000000000
0.0000000000 0.0693359375 0.0000000000
0.0009765625 0.0683593750 0.0000000000
0.0117187500 0.0673828125 0.0000000000
0.0244140625 0.0664062500 0.0000000000
0.0410156250 0.0644531250 0.0000000000
0.0625000000 0.0625000000 0.0000000000
0.0888671875 0.0595703125 0.0000000000
0.1230468750 0.0556640625 0.0000000000
0.1660156250 0.0517578125 0.0000000000
0.2226562500 0.0449218750 0.0000000000
0.2998046875 0.0371093750 0.0000000000
0.3935546875 0.0273437500 0.0000000000
0.4873046875 0.0175781250 0.0000000000
0.5820312500 0.0078125000 0.0000000000
0.6757812500 0.0000000000 0.0000000000
0.7705078125 0.0000000000 0.0000000000
0.8642578125 0.0000000000 0.0000000000
0.9511718750 0.0000000000 0.0000000000
0.9990234375 0.0000000000 0.0000000000
0.9990234375 0.0000000000 0.0000000000
0.9990234375 0.0000000000 0.0000000000
0.9990234375 0.0000000000 0.0000000000
0.9990234375 0.0000000000 0.0000000000
0.9990234375 0.0000000000 0.0000000000
0.9990234375 0.0000000000 0.0000000000
0.9990234375 0.0000000000 0.0000000000
0.9990234375 0.0000000000 0.0000000000
0.9990234375 0.0000000000 0.0000000000
0.9990234375 0.0000000000 0.0000000000
0.9990234375 0.0000000000 0.0000000000
0.9990234375 0.0000000000 0.0000000000
0.9990234375 0.0000000000 0.0000000000
0.9990234375 0.0000000000 0.0000000000
0.0000000000 0.0957031250 0.0000000000
0.0000000000 0.0957031250 0.0000000000
0.0087890625 0.0937500000 0.0000000000
0.0214843750 0.0927734375 0.0000000000
0.0380859375 0.0908203125 0.0000000000
0.0595703125 0.0888671875 0.0000000000
0.0859375000 0.0859375000 0.0000000000
0.1201171875 0.0820312500 0.0000000000
0.1630859375 0.0781250000 0.0000000000
0.2207031250 0.0722656250 0.0000000000
0.2968750000 0.0634765625 0.0000000000
0.3906250000 0.0537109375 0.0000000000
0.4843750000 0.0439453125 0.0000000000
0.5791015625 0.0341796875 0.0000000000
0.6728515625 0.0244140625 0.0000000000
0.7675781250 0.0146484375 0.0000000000
0.8613281250 0.0048828125 0.0000000000
0.9482421875 0.0000000000 0.0000000000
0.9990234375 0.0000000000 0.0000000000
0.9990234375 0.0000000000 0.0000000000
0.9990234375 0.0000000000 0.0000000000
0.9990234375 0.0000000000 0.0000000000
0.9990234375 0.0000000000 0.0000000000
0.9990234375 0.0000000000 0.0000000000
0.9990234375 0.0000000000 0.0000000000
0.9990234375 0.0000000000 0.0000000000
0.9990234375 0.0000000000 0.0000000000
0.9990234375 0.0000000000 0.0000000000
0.9990234375 0.0000000000 0.0000000000
0.9990234375 0.0000000000 0.0000000000
0.9990234375 0.0000000000 0.0000000000
0.9990234375 0.0000000000 0.0000000000
0.9990234375 0.0000000000 0.0000000000
0.0000000000 0.1298828125 0.0000000000
0.0000000000 0.1289062500 0.0000000000
0.0048828125 0.1279296875 0.0000000000
0.0185546875 0.1269531250 0.0000000000
0.0351562500 0.1250000000 0.0000000000
0.0556640625 0.1230468750 0.0000000000
0.0820312500 0.1201171875 0.0000000000
0.1162109375 0.1162109375 0.0000000000
0.1601562500 0.1113281250 0.0000000000
0.2167968750 0.1054687500 0.0000000000
0.2929687500 0.0976562500 0.0000000000
0.3867187500 0.0878906250 0.0000000000
0.4814453125 0.0781250000 0.0000000000
0.5751953125 0.0683593750 0.0000000000
0.6699218750 0.0576171875 0.0000000000
0.7636718750 0.0478515625 0.0000000000
0.8583984375 0.0380859375 0.0000000000
0.9443359375 0.0292968750 0.0000000000
0.9990234375 0.0224609375 0.0000000000
0.9990234375 0.0166015625 0.0000000000
0.9990234375 0.0117187500 0.0000000000
0.9990234375 0.0087890625 0.0000000000
0.9990234375 0.0058593750 0.0000000000
0.9990234375 0.0029296875 0.0000000000
0.9990234375 0.0009765625 0.0000000000
0.9990234375 0.0000000000 0.0000000000
0.9990234375 0.0000000000 0.0000000000
0.9990234375 0.0000000000 0.0000000000
0.9990234375 0.0000000000 0.0000000000
0.9990234375 0.0000000000 0.0000000000
0.9990234375 0.0000000000 0.0000000000
0.9990234375 0.0000000000 0.0000000000
0.9990234375 0.0000000000 0.0000000000
0.0000000000 0.1738281250 0.0000000000
0.0000000000 0.1728515625 0.0000000000
0.0000000000 0.1718750000 0.0000000000
0.0136718750 0.1699218750 0.0000000000
0.0302734375 0.1679687500 0.0000000000
0.0517578125 0.1660156250 0.0000000000
0.0781250000 0.1630859375 0.0000000000
0.1113281250 0.1601562500 0.0000000000
0.1552734375 0.1552734375 0.0000000000
0.2119140625 0.1494140625 0.0000000000
0.2880859375 0.1416015625 0.0000000000
0.3818359375 0.1308593750 0.0000000000
0.4765625000 0.1210937500 0.0000000000
0.5703125000 0.1113281250 0.0000000000
0.6650390625 0.1015625000 0.0000000000
0.7587890625 0.0917968750 0.0000000000
0.8535156250 0.0820312500 0.0000000000
0.9404296875 0.0722656250 0.0000000000
0.9990234375 0.0654296875 0.0000000000
0.9990234375 0.0595703125 0.0000000000
0.9990234375 0.0556640625 0.0000000000
0.9990234375 0.0517578125 0.0000000000
0.9990234375 0.0488281250 0.0000000000
0.9990234375 0.0468750000 0.0000000000
0.9990234375 0.0449218750 0.0000000000
0.9990234375 0.0439453125 0.0000000000
0.9990234375 0.0419921875 0.0000000000
0.9990234375 0.0419921875 0.0000000000
0.9990234375 0.0410156250 0.0000000000
0.9990234375 0.0410156250 0.0000000000
0.9990234375 0.0410156250 0.0000000000
0.9990234375 0.0410156250 0.0000000000
0.9990234375 0.0410156250 0.0000000000
0.0000000000 0.2304687500 0.0000000000
0.0000000000 0.2294921875 0.0000000000
0.0000000000 0.2285156250 0.0000000000
0.0078125000 0.2265625000 0.0000000000
0.0244140625 0.2255859375 0.0000000000
0.0449218750 0.2226562500 0.0000000000
0.0722656250 0.2207031250 0.0000000000
0.1054687500 0.2167968750 0.0000000000
0.1494140625 0.2119140625 0.0000000000
0.2060546875 0.2060546875 0.0000000000
0.2822265625 0.1982421875 0.0000000000
0.3759765625 0.1884765625 0.0000000000
0.4707031250 0.1787109375 0.0000000000
0.5644531250 0.1679687500 0.0000000000
0.6591796875 0.1582031250 0.0000000000
0.7529296875 0.1484375000 0.0000000000
0.8476562500 0.1386718750 0.0000000000
0.9335937500 0.1298828125 0.0000000000
0.9990234375 0.1220703125 0.0000000000
0.9990234375 0.1171875000 0.0000000000
0.9990234375 0.1123046875 0.0000000000
0.9990234375 0.1083984375 0.0000000000
0.9990234375 0.1054687500 0.0000000000
0.9990234375 0.1035156250 0.0000000000
0.9990234375 0.1015625000 0.0000000000
0.9990234375 0.1005859375 0.0000000000
0.9990234375 0.0996093750 0.0000000000
0.9990234375 0.0986328125 0.0000000000
0.9990234375 0.0976562500 0.0000000000
0.9990234375 0.0976562500 0.0000000000
0.9990234375 0.0976562500 0.0000000000
0.9990234375 0.0976562500 0.0000000000
0.9990234375 0.0976562500 0.0000000000
0.0000000000 0.3066406250 0.0000000000
0.0000000000 0.3056640625 0.0000000000
0.0000000000 0.3046875000 0.0000000000
0.0000000000 0.3037109375 0.0000000000
0.0166015625 0.3017578125 0.0000000000
0.0371093750 0.2998046875 0.0000000000
0.0634765625 0.2968750000 0.0000000000
0.0976562500 0.2929687500 0.0000000000
0.1416015625 0.2880859375 0.0000000000
0.1982421875 0.2822265625 0.0000000000
0.2744140625 0.2744140625 0.0000000000
0.3681640625 0.2646484375 0.0000000000
0.4628906250 0.2548828125 0.0000000000
0.5566406250 0.2451171875 0.0000000000
0.6513671875 0.2343750000 0.0000000000
0.7451171875 0.2246093750 0.0000000000
0.8398437500 0.2148437500 0.0000000000
0.9257812500 0.2060546875 0.0000000000
0.9931640625 0.1982421875 0.0000000000
0.9990234375 0.1933593750 0.0000000000
0.9990234375 0.1884765625 0.0000000000
0.9990234375 0.1855468750 0.0000000000
0.9990234375 0.1826171875 0.0000000000
0.9990234375 0.1796875000 0.0000000000
0.9990234375 0.1777343750 0.0000000000
0.9990234375 0.1767578125 0.0000000000
0.9990234375 0.1757812500 0.0000000000
0.9990234375 0.1748046875 0.0000000000
0.9990234375 0.1748046875 0.0000000000
0.9990234375 0.1738281250 0.0000000000
0.9990234375 0.1738281250 0.0000000000
0.9990234375 0.1738281250 0.0000000000
0.9990234375 0.1738281250 0.0000000000
0.0000000000 0.4003906250 0.0000000000
0.0000000000 0.3994140625 0.0000000000
0.0000000000 0.3984375000 0.0000000000
0.0000000000 0.3974609375 0.0000000000
0.0068359375 0.3955078125 0.0000000000
0.0273437500 0.3935546875 0.0000000000
0.0537109375 0.3906250000 0.0000000000
0.0878906250 0.3867187500 0.0000000000
0.1308593750 0.3818359375 0.0000000000
0.1884765625 0.3759765625 0.0000000000
0.2646484375 0.3681640625 0.0000000000
0.3583984375 0.3583984375 0.0000000000
0.4521484375 0.3486328125 0.0000000000
0.5468750000 0.3388671875 0.0000000000
0.6406250000 0.3281250000 0.0000000000
0.7353515625 0.3183593750 0.0000000000
0.8291015625 0.3085937500 0.0000000000
0.9160156250 0.2998046875 0.0000000000
0.9833984375 0.2929687500 0.0000000000
0.9990234375 0.2871093750 0.0000000000
0.9990234375 0.2822265625 0.0000000000
0.9990234375 0.2792968750 0.0000000000
0.9990234375 0.2763671875 0.0000000000
0.9990234375 0.2734375000 0.0000000000
0.9990234375 0.2714843750 0.0000000000
0.9990234375 0.2705078125 0.0000000000
0.9990234375 0.2695312500 0.0000000000
0.9990234375 0.2685546875 0.0000000000
0.9990234375 0.2685546875 0.0000000000
0.9990234375 0.2675781250 0.0000000000
0.9990234375 0.2675781250 0.0000000000
0.9990234375 0.2675781250 0.0000000000
0.9990234375 0.2675781250 0.0000000000
0.0000000000 0.4951171875 0.0000000000
0.0000000000 0.4941406250 0.0000000000
0.0000000000 0.4931640625 0.0000000000
0.0000000000 0.4912109375 0.0000000000
0.0000000000 0.4892578125 0.0000000000
0.0175781250 0.4873046875 0.0000000000
0.0439453125 0.4843750000 0.0000000000
0.0781250000 0.4814453125 0.0000000000
0.1210937500 0.4765625000 0.0000000000
0.1787109375 0.4707031250 0.0000000000
0.2548828125 0.4628906250 0.0000000000
0.3486328125 0.4521484375 0.0000000000
0.4423828125 0.4423828125 0.0000000000
0.5371093750 0.4326171875 0.0000000000
0.6308593750 0.4228515625 0.0000000000
0.7255859375 0.4130859375 0.0000000000
0.8193359375 0.4033203125 0.0000000000
0.9062500000 0.3935546875 0.0000000000
0.9736328125 0.3867187500 0.0000000000
0.9990234375 0.3808593750 0.0000000000
0.9990234375 0.3769531250 0.0000000000
0.9990234375 0.3730468750 0.0000000000
0.9990234375 0.3701171875 0.0000000000
0.9990234375 0.3681640625 0.0000000000
0.9990234375 0.3662109375 0.0000000000
0.9990234375 0.3652343750 0.0000000000
0.9990234375 0.3632812500 0.0000000000
0.9990234375 0.3632812500 0.0000000000
0.9990234375 0.3623046875 0.0000000000
0.9990234375 0.3623046875 0.0000000000
0.9990234375 0.3623046875 0.0000000000
0.9990234375 0.3623046875 0.0000000000
0.9990234375 0.3623046875 0.0000000000
0.0000000000 0.5888671875 0.0000000000
0.0000000000 0.5878906250 0.0000000000
0.0000000000 0.5869140625 0.0000000000
0.0000000000 0.5859375000 0.0000000000
0.0000000000 0.5839843750 0.0000000000
0.0078125000 0.5820312500 0.0000000000
0.0341796875 0.5791015625 0.0000000000
0.0683593750 0.5751953125 0.0000000000
0.1113281250 0.5703125000 0.0000000000
0.1679687500 0.5644531250 0.0000000000
0.2451171875 0.5566406250 0.0000000000
0.3388671875 0.5468750000 0.0000000000
0.4326171875 0.5371093750 0.0000000000
0.5273437500 0.5273437500 0.0000000000
0.6210937500 0.5166015625 0.0000000000
0.7158203125 0.5068359375 0.0000000000
0.8095703125 0.4970703125 0.0000000000
0.8964843750 0.4882812500 0.0000000000
0.9638671875 0.4814453125 0.0000000000
0.9990234375 0.4755859375 0.0000000000
0.9990234375 0.4707031250 0.0000000000
0.9990234375 0.4677734375 0.0000000000
0.9990234375 0.4648437500 0.0000000000
0.9990234375 0.4619140625 0.0000000000
0.9990234375 0.4599609375 0.0000000000
0.9990234375 0.4589843750 0.0000000000
0.9990234375 0.4580078125 0.0000000000
0.9990234375 0.4570312500 0.0000000000
0.9990234375 0.4570312500 0.0000000000
0.9990234375 0.4560546875 0.0000000000
0.9990234375 0.4560546875 0.0000000000
0.9990234375 0.4560546875 0.0000000000
0.9990234375 0.4560546875 0.0000000000
0.0000000000 0.6835937500 0.0000000000
0.0000000000 0.6826171875 0.0000000000
0.0000000000 0.6816406250 0.0000000000
0.0000000000 0.6796875000 0.0000000000
0.0000000000 0.6777343750 0.0000000000
0.0000000000 0.6757812500 0.0000000000
0.0244140625 0.6728515625 0.0000000000
0.0576171875 0.6699218750 0.0000000000
0.1015625000 0.6650390625 0.0000000000
0.1582031250 0.6591796875 0.0000000000
0.2343750000 0.6513671875 0.0000000000
0.3281250000 0.6406250000 0.0000000000
0.4228515625 0.6308593750 0.0000000000
0.5166015625 0.6210937500 0.0000000000
0.6113281250 0.6113281250 0.0000000000
0.7060546875 0.6015625000 0.0000000000
0.7998046875 0.5917968750 0.0000000000
0.8867187500 0.5820312500 0.0000000000
0.9541015625 0.5751953125 0.0000000000
0.9990234375 0.5693359375 0.0000000000
0.9990234375 0.5654296875 0.0000000000
0.9990234375 0.5615234375 0.0000000000
0.9990234375 0.5585937500 0.0000000000
0.9990234375 0.5566406250 0.0000000000
0.9990234375 0.5546875000 0.0000000000
0.9990234375 0.5537109375 0.0000000000
0.9990234375 0.5517578125 0.0000000000
0.9990234375 0.5517578125 0.0000000000
0.9990234375 0.5507812500 0.0000000000
0.9990234375 0.5507812500 0.0000000000
0.9990234375 0.5507812500 0.0000000000
0.9990234375 0.5507812500 0.0000000000
0.9990234375 0.5507812500 0.0000000000
0.0000000000 0.7773437500 0.0000000000
0.0000000000 0.7763671875 0.0000000000
0.0000000000 0.7753906250 0.0000000000
0.0000000000 0.7744140625 0.0000000000
0.0000000000 0.7724609375 0.0000000000
0.0000000000 0.7705078125 0.0000000000
0.0146484375 0.7675781250 0.0000000000
0.0478515625 0.7636718750 0.0000000000
0.0917968750 0.7587890625 0.0000000000
0.1484375000 0.7529296875 0.0000000000
0.2246093750 0.7451171875 0.0000000000
0.3183593750 0.7353515625 0.0000000000
0.4130859375 0.7255859375 0.0000000000
0.5068359375 0.7158203125 0.0000000000
0.6015625000 0.7060546875 0.0000000000
0.6953125000 0.6953125000 0.0000000000
0.7900390625 0.6855468750 0.0000000000
0.8759765625 0.6767578125 0.0000000000
0.9443359375 0.6699218750 0.0000000000
0.9970703125 0.6640625000 0.0000000000
0.9990234375 0.6591796875 0.0000000000
0.9990234375 0.6562500000 0.0000000000
0.9990234375 0.6533203125 0.0000000000
0.9990234375 0.6503906250 0.0000000000
0.9990234375 0.6494140625 0.0000000000
0.9990234375 0.6474609375 0.0000000000
0.9990234375 0.6464843750 0.0000000000
0.9990234375 0.6455078125 0.0000000000
0.9990234375 0.6455078125 0.0000000000
0.9990234375 0.6445312500 0.0000000000
0.9990234375 0.6445312500 0.0000000000
0.9990234375 0.6445312500 0.0000000000
0.9990234375 0.6445312500 0.0000000000
0.0000000000 0.8720703125 0.0000000000
0.0000000000 0.8710937500 0.0000000000
0.0000000000 0.8701171875 0.0000000000
0.0000000000 0.8681640625 0.0000000000
0.0000000000 0.8662109375 0.0000000000
0.0000000000 0.8642578125 0.0000000000
0.0048828125 0.8613281250 0.0000000000
0.0380859375 0.8583984375 0.0000000000
0.0820312500 0.8535156250 0.0000000000
0.1386718750 0.8476562500 0.0000000000
0.2148437500 0.8398437500 0.0000000000
0.3085937500 0.8291015625 0.0000000000
0.4033203125 0.8193359375 0.0000000000
0.4970703125 0.8095703125 0.0000000000
0.5917968750 0.7998046875 0.0000000000
0.6855468750 0.7900390625 0.0000000000
0.7802734375 0.7802734375 0.0000000000
0.8662109375 0.7705078125 0.0000000000
0.9345703125 0.7636718750 0.0000000000
0.9873046875 0.7578125000 0.0000000000
0.9990234375 0.7539062500 0.0000000000
0.9990234375 0.7500000000 0.0000000000
0.9990234375 0.7470703125 0.0000000000
0.9990234375 0.7451171875 0.0000000000
0.9990234375 0.7431640625 0.0000000000
0.9990234375 0.7421875000 0.0000000000
0.9990234375 0.7402343750 0.0000000000
0.9990234375 0.7402343750 0.0000000000
0.9990234375 0.7392578125 0.0000000000
0.9990234375 0.7392578125 0.0000000000
0.9990234375 0.7392578125 0.0000000000
0.9990234375 0.7392578125 0.0000000000
0.9990234375 0.7392578125 0.0000000000
0.0000000000 0.9580078125 0.0000000000
0.0000000000 0.9570312500 0.0000000000
0.0000000000 0.9560546875 0.0000000000
0.0000000000 0.9550781250 0.0000000000
0.0000000000 0.9531250000 0.0000000000
0.0000000000 0.9511718750 0.0000000000
0.0000000000 0.9482421875 0.0000000000
0.0292968750 0.9443359375 0.0000000000
0.0722656250 0.9404296875 0.0000000000
0.1298828125 0.9335937500 0.0000000000
0.2060546875 0.9257812500 0.0000000000
0.2998046875 0.9160156250 0.0000000000
0.3935546875 0.9062500000 0.0000000000
0.4882812500 0.8964843750 0.0000000000
0.5820312500 0.8867187500 0.0000000000
0.6767578125 0.8759765625 0.0000000000
0.7705078125 0.8662109375 0.0000000000
0.8574218750 0.8574218750 0.0000000000
0.9248046875 0.8505859375 0.0000000000
0.9785156250 0.8447265625 0.0000000000
0.9990234375 0.8398437500 0.0000000000
0.9990234375 0.8369140625 0.0000000000
0.9990234375 0.8339843750 0.0000000000
0.9990234375 0.8310546875 0.0000000000
0.9990234375 0.8300781250 0.0000000000
0.9990234375 0.8281250000 0.0000000000
0.9990234375 0.8271484375 0.0000000000
0.9990234375 0.8261718750 0.0000000000
0.9990234375 0.8261718750 0.0000000000
0.9990234375 0.8251953125 0.0000000000
0.9990234375 0.8251953125 0.0000000000
0.9990234375 0.8251953125 0.0000000000
0.9990234375 0.8251953125 0.0000000000
0.0000000000 0.9990234375 0.0000000000
0.0000000000 0.9990234375 0.0000000000
0.0000000000 0.9990234375 0.0000000000
0.0000000000 0.9990234375 0.0000000000
0.0000000000 0.9990234375 0.0000000000
0.0000000000 0.9990234375 0.0000000000
0.0000000000 0.9990234375 0.0000000000
0.0224609375 0.9990234375 0.0000000000
0.0654296875 0.9990234375 0.0000000000
0.1220703125 0.9990234375 0.0000000000
0.1982421875 0.9931640625 0.0000000000
0.2929687500 0.9833984375 0.0000000000
0.3867187500 0.9736328125 0.0000000000
0.4814453125 0.9638671875 0.0000000000
