luts/AgX-Resolve.cube
TITLE "Generated by Resolve"
LUT_3D_SIZE 5
0 0 0
0.0200046 0 0.000137331
0.4206 0.0104372 0.0138705
0.845396 0.462226 0.370062
1 0.846174 0.805615
0 0.0151522 0
0.0217746 0.0198062 0
0.418585 0.0582132 0.012726
0.843687 0.480018 0.371069
1 0.846937 0.805661
0 0.403296 0
0.018967 0.406073 0
0.403113 0.423392 0.0102541
0.834043 0.583963 0.381598
1 0.852796 0.806058
0.314153 0.87538 0.287648
0.345907 0.873564 0.291447
0.507469 0.863996 0.319783
0.817121 0.845792 0.497734
1 0.896132 0.811078
0.781857 1 0.769268
0.783368 1 0.769451
0.794568 1 0.770855
0.864195 1 0.784024
0.993713 1 0.860807
0.000320439 0 0.0214389
0.0254978 0 0.0256199
0.423911 0.0160678 0.0626841
0.845441 0.463416 0.400778
1 0.846204 0.80705
0 0.0219425 0.0227512
0.0266117 0.0266117 0.0266117
0.421607 0.0661631 0.0627146
0.843778 0.480858 0.401495
1 0.846967 0.807095
0 0.406363 0.0203403
0.0256046 0.408637 0.025391
0.406592 0.423636 0.0691539
0.834287 0.5832 0.409842
1 0.852811 0.807477
0.318746 0.871077 0.324529
0.349996 0.869352 0.32784
0.509544 0.860304 0.352636
0.817426 0.844312 0.512551
1 0.896086 0.812375
0.782071 1 0.771084
0.783566 1 0.771252
0.794751 1 0.772625
0.864271 1 0.78558
0.993729 1 0.861433
0.0226749 0.0247349 0.425132
0.0737469 0.0304417 0.427482
0.446097 0.082948 0.444541
0.845075 0.480537 0.555642
1 0.846525 0.817792
0.02121 0.079408 0.422629
0.0734417 0.0858167 0.424887
0.44271 0.140566 0.44152
0.843671 0.49543 0.555352
1 0.847272 0.817823
0.0245212 0.419425 0.41059
0.0843519 0.420325 0.413123
0.432059 0.432059 0.432059
0.835416 0.585534 0.555459
1 0.853025 0.818112
0.351919 0.850858 0.50454
0.379553 0.849531 0.506035
0.524437 0.842817 0.51725
0.819486 0.836301 0.599939
1 0.895766 0.822095
0.783719 1 0.784482
0.785183 1 0.784634
0.796216 1 0.78584
0.864973 1 0.797223
0.99382 1 0.866224
0.429526 0.553338 0.837568
0.452033 0.553796 0.837644
0.574685 0.559915 0.838102
0.842054 0.637675 0.840864
1 0.853574 0.884199
0.430732 0.562905 0.836805
0.453025 0.563287 0.836896
0.574807 0.568811 0.837415
0.841642 0.642741 0.840513
1 0.8542 0.884184
0.441245 0.624628 0.832074
0.461952 0.624613 0.832212
0.576898 0.626871 0.833005
0.838911 0.677913 0.838087
1 0.859052 0.884092
0.540597 0.831861 0.821759
0.551827 0.831464 0.821897
0.621393 0.829297 0.823011
0.831662 0.831662 0.831662
1 0.896498 0.884123
0.798642 1 0.862974
0.799908 1 0.863035
0.809415 1 0.863523
0.871183 1 0.868208
0.994705 1 0.902358
0.832029 0.883665 1
0.833021 0.88368 1
0.840543 0.883803 1
0.892103 0.886259 1
1 0.917998 1
0.83209 0.884062 1
0.833066 0.884077 1
0.840589 0.884199 1
0.892119 0.886625 1
1 0.918212 1
0.832502 0.887129 1
0.833478 0.887129 1
0.84094 0.887251 1
0.892149 0.889479 1
1 0.919844 1
0.83711 0.912535 0.999893
0.83801 0.912535 0.999893
0.844877 0.91252 0.999939
0.893019 0.913405 1
1 0.934432 1
0.878431 0.999786 0.995682
0.878889 0.999771 0.995682
0.88249 0.999634 0.995743
0.911177 0.998779 0.996216
1 1 1
