luts/AgX-Resolve_Bombastic.cube
TITLE "Generated by Resolve"
LUT_3D_SIZE 33
0 0 0
0 0 0
3.0518e-05 0 0
0.000106813 0 0
0.000244144 0 0
0.000518807 0 0
0.00112917 0 0
0.00242618 0 0
0.0049897 0 0
0.0100557 0 0
0.0199435 0 0
0.0388952 0 0
0.0733349 0 0
0.130434 0 0
0.213077 0 0
0.315618 0 0
0.426719 0.00161746 0.00257877
0.534218 0.0131991 0.0138094
0.629541 0.0383917 0.0379797
0.708919 0.0848554 0.0827039
0.772183 0.157626 0.153429
0.821347 0.253315 0.247517
0.859297 0.361364 0.354818
0.888808 0.469184 0.462776
0.912169 0.567269 0.561547
0.931029 0.651179 0.646357
0.946502 0.720363 0.716426
0.959381 0.776333 0.773159
0.970214 0.821286 0.818753
0.979416 0.857389 0.85536
0.987289 0.886503 0.884871
0.994064 0.910155 0.908827
0.999939 0.929503 0.92842
0 0 0
0 0 0
3.0518e-05 0 0
0.000106813 1.5259e-05 0
0.000259403 1.5259e-05 0
0.000534066 0 0
0.00117494 0 0
0.00248722 0 0
0.00508125 0 0
0.010193 0 0
0.0201572 0 0
0.0391699 0 0
0.0736858 0 0
0.1308 0 0
0.213382 0 0
0.31577 0 0
0.426642 0.00361639 0.00234989
0.533867 0.0161135 0.0134737
0.628916 0.042359 0.0375525
0.708049 0.0897231 0.0822156
0.771237 0.162768 0.152941
0.820493 0.257939 0.247089
0.85861 0.364996 0.354498
0.888334 0.471748 0.462547
0.911864 0.568963 0.56141
0.930831 0.652247 0.646265
0.94638 0.721004 0.716381
0.959304 0.776715 0.773129
0.970169 0.821515 0.818723
0.979385 0.857527 0.855344
0.987274 0.886595 0.884871
0.994064 0.910201 0.908827
0.999939 0.929534 0.92842
0 1.5259e-05 0
0 3.0518e-05 0
3.0518e-05 3.0518e-05 0
0.000106813 3.0518e-05 0
0.000259403 4.57771e-05 0
0.000549325 4.57771e-05 0
0.00120546 3.0518e-05 0
0.00254826 1.5259e-05 0
0.00517281 0 0
0.0103304 0 0
0.0203403 0 0
0.0394293 0 0
0.073991 0 0
0.131151 0 0
0.213657 0 0
0.315892 0.000259403 0
0.426535 0.00578317 0.00205997
0.533486 0.0191806 0.0131075
0.62826 0.0464485 0.0370947
0.707179 0.094667 0.0816968
0.770291 0.167895 0.152453
0.819638 0.262516 0.246677
0.857939 0.368597 0.354177
0.887846 0.474296 0.462333
0.911543 0.570626 0.561273
0.930632 0.653284 0.646189
0.946258 0.721645 0.71632
0.959228 0.777096 0.773098
0.970138 0.821744 0.818708
0.97937 0.857664 0.855329
0.987259 0.886671 0.884855
0.994049 0.910262 0.908827
0.999924 0.929564 0.92842
0 6.10361e-05 0
0 7.62951e-05 0
3.0518e-05 7.62951e-05 0
0.000106813 9.15541e-05 0
0.000259403 0.000106813 0
0.000564584 0.000122072 0
0.00123598 0.000122072 0
0.00259403 0.000122072 0
0.0052491 0.000106813 0
0.0104372 7.62951e-05 0
0.0205081 0 0
0.0396582 0 0
0.0742809 0 0
0.131456 0 0
0.213901 0 0
0.315969 0.00189212 0
0.426383 0.00808728 0.00170901
0.533074 0.022385 0.0126802
0.627573 0.05066 0.0365911
0.70631 0.0996414 0.081178
0.76936 0.173022 0.151965
0.818799 0.267063 0.246281
0.857282 0.372152 0.353887
0.887388 0.476814 0.462119
0.911238 0.57229 0.561135
0.930434 0.654322 0.646097
0.946136 0.722286 0.716274
0.959167 0.777493 0.773068
0.970092 0.821973 0.818692
0.979339 0.857801 0.855314
0.987243 0.886763 0.884855
0.994034 0.910307 0.908812
0.999924 0.929595 0.92842
0 0.000137331 0
0 0.00015259 0
1.5259e-05 0.000183108 0
9.15541e-05 0.000198367 0
0.000259403 0.000228885 0
0.000564584 0.000244144 0
0.00125124 0.000274662 0
0.00262455 0.00030518 0
0.00531014 0.000335698 0
0.0105287 0.000381476 0
0.0206455 0.000411994 0
0.0398413 0.000427253 0
0.0745403 0.000396735 0
0.131731 0.000457771 0
0.214115 0.00111391 0
0.316014 0.00369268 0
0.426215 0.0105745 0.00131228
0.532616 0.025742 0.0122072
0.626871 0.054963 0.0360571
0.705409 0.104662 0.0806439
0.768429 0.178119 0.151492
0.81796 0.27158 0.245899
0.856626 0.375677 0.353597
0.886915 0.479301 0.461921
0.910933 0.573938 0.560998
0.930236 0.65536 0.646006
0.946029 0.722911 0.716213
0.959091 0.777874 0.773037
0.970047 0.822202 0.818677
0.979309 0.857939 0.855314
0.987228 0.886839 0.88484
0.994034 0.910353 0.908812
0.999924 0.929641 0.92842
0 0.000274662 0
0 0.00030518 0
0 0.000350958 0
6.10361e-05 0.000396735 0
0.000228885 0.000427253 0
0.000549325 0.00047303 0
0.00125124 0.000534066 0
0.00263981 0.000610361 0
0.00534066 0.000701915 0
0.0105898 0.000823987 0
0.0207523 0.000961318 0
0.0400244 0.00109865 0
0.0747692 0.00123598 0
0.131991 0.00154116 0
0.214298 0.00256352 0
0.31603 0.00564584 0
0.425986 0.0132143 0.000854505
0.532143 0.0292515 0.0116732
0.626139 0.0593881 0.0354925
0.704509 0.109743 0.0800946
0.767498 0.18323 0.151019
0.817136 0.276081 0.245518
0.85597 0.379187 0.353323
0.886458 0.481788 0.461723
0.910613 0.57557 0.560876
0.930053 0.656397 0.64593
0.945907 0.723552 0.716167
0.959014 0.778256 0.773007
0.970001 0.822431 0.818647
0.979294 0.858076 0.855299
0.987213 0.886931 0.88484
0.994018 0.910414 0.908812
0.999908 0.929671 0.928405
0 0.000579843 0
0 0.000656138 0
0 0.000717174 0
0 0.000793469 0
0.000137331 0.000885023 0
0.00047303 0.000961318 0
0.0011902 0.00105287 0
0.00259403 0.00117494 0
0.0053254 0.00134279 0
0.0106203 0.00154116 0
0.0208438 0.00180056 0
0.0401923 0.00209049 0
0.0750134 0.0024567 0
0.13225 0.00308232 0
0.214466 0.00454719 0
0.315999 0.00825513 0
0.425681 0.0166629 0.000228885
0.531502 0.0337377 0.0109712
0.625208 0.0649424 0.0347601
0.703395 0.116014 0.079408
0.766354 0.189471 0.150454
0.816129 0.281544 0.245075
0.855177 0.383444 0.353002
0.885893 0.48481 0.461509
0.910246 0.577569 0.560723
0.929808 0.657649 0.645838
0.945754 0.724315 0.716106
0.958938 0.778714 0.772961
0.969955 0.822721 0.818631
0.979263 0.858244 0.855283
0.987198 0.887037 0.884825
0.994003 0.910475 0.908797
0.999908 0.929702 0.928405
0 0.00134279 0
0 0.00144961 0
0 0.00155642 0
0 0.00167849 0
0 0.00180056 0
0.000320439 0.00190738 0
0.00105287 0.00205997 0
0.00248722 0.00224308 0
0.0052491 0.00248722 0
0.0105898 0.00280766 0
0.0208896 0.00321965 0
0.0403449 0.00373846 0
0.0752728 0.00442512 0
0.132525 0.00549325 0
0.214618 0.00758373 0
0.315877 0.0121309 0
0.425162 0.0216526 0
0.530587 0.0400549 0.00991836
0.623926 0.0725567 0.0337072
0.701885 0.124468 0.0784772
0.764843 0.197772 0.149722
0.814801 0.288746 0.244526
0.854139 0.389059 0.35259
0.885145 0.488792 0.461219
0.909758 0.580194 0.56054
0.929503 0.659312 0.645716
0.945571 0.725338 0.71603
0.958816 0.779339 0.772915
0.969879 0.823087 0.818601
0.979217 0.858473 0.855268
0.987167 0.887175 0.88481
0.993988 0.910567 0.908797
0.999893 0.929763 0.928405
0 0.00288396 0
0 0.0030518 0
0 0.00321965 0
0 0.0033875 0
0 0.00355535 0
0 0.0037232 0
0.000732433 0.00393683 0
0.0021973 0.00422675 0
0.00500496 0.00459297 0
0.0104372 0.00508125 0
0.0208438 0.00573739 0
0.0404212 0.00656138 0
0.0754559 0.00769055 0
0.132738 0.00936904 0
0.214664 0.0122988 0
0.315557 0.0179599 0
0.424353 0.0289311 0
0.529244 0.0489967 0.00836194
0.622141 0.0830701 0.0322118
0.699855 0.135821 0.0772106
0.76286 0.208743 0.148775
0.813062 0.298222 0.243839
0.852796 0.396414 0.352117
0.884184 0.494011 0.460883
0.909117 0.583658 0.560296
0.929091 0.661509 0.645548
0.945312 0.726696 0.715923
0.958663 0.780163 0.772854
0.969787 0.82359 0.818555
0.979156 0.858778 0.855238
0.987137 0.887358 0.884794
0.993973 0.910674 0.908782
0.999878 0.929824 0.928389
0 0.00598154 0
0 0.00622568 0
0 0.00646983 0
0 0.00671397 0
0 0.00697337 0
0 0.00721752 0
7.62951e-05 0.0075227 0
0.00158694 0.00793469 0
0.00445563 0.00849927 0
0.0099794 0.00923171 0
0.0205081 0.0102083 0
0.0402686 0.01149 0
0.0754711 0.0132296 0
0.132753 0.0157321 0
0.21445 0.019791 0
0.31487 0.0269322 0
0.423026 0.039704 0
0.527276 0.0617685 0.00601205
0.619669 0.0975662 0.0300908
0.697139 0.151064 0.0755474
0.760235 0.223209 0.147616
0.810819 0.310597 0.24303
0.851041 0.405997 0.351553
0.882933 0.500816 0.460487
0.908278 0.58819 0.560021
0.928557 0.664393 0.645365
0.944976 0.728481 0.715801
0.958465 0.781262 0.772778
0.969665 0.824262 0.818509
0.97908 0.85919 0.855207
0.987091 0.887602 0.884779
0.993942 0.910826 0.908766
0.999863 0.929915 0.928389
0 0.0121157 0
0 0.0124666 0
0 0.0128328 0
0 0.0131838 0
0 0.01355 0
0 0.0139162 0
0 0.014374 0
0.00030518 0.0149691 0
0.00326543 0.0157778 0
0.00889601 0.0168612 0
0.0196231 0.0182956 0
0.0395972 0.0202029 0
0.0749981 0.0227665 0
0.132311 0.0263828 0
0.213703 0.0318761 0
0.313497 0.0408484 0
0.42089 0.0557717 0
0.524376 0.0800183 0.00250248
0.61622 0.117494 0.0271305
0.693538 0.171359 0.0733806
0.756848 0.2421 0.146227
0.807919 0.326604 0.242145
0.848798 0.418357 0.350958
0.881331 0.509621 0.46006
0.907195 0.594079 0.559701
0.927871 0.668162 0.645136
0.944549 0.730846 0.715648
0.95819 0.782696 0.772671
0.969497 0.825132 0.818448
0.978988 0.859724 0.855161
0.98703 0.887922 0.884749
0.993912 0.911025 0.908751
0.999847 0.930037 0.928374
0 0.024094 0
0 0.0245975 0
0 0.0251164 0
0 0.0256352 0
0 0.026154 0
0 0.0266728 0
0 0.0273136 0
0 0.0281834 0
0.000823987 0.0293278 0
0.00663767 0.030869 0
0.0176089 0.0328985 0
0.0378882 0.0356146 0
0.0735485 0.0392157 0
0.130907 0.0441901 0
0.211933 0.0514076 0
0.311009 0.0624399 0
0.417502 0.0796216 0
0.52018 0.105943 0
0.611536 0.14464 0.0231327
0.688823 0.198047 0.0707561
0.752514 0.266453 0.144717
0.804273 0.347051 0.241306
0.845975 0.434119 0.350408
0.879301 0.520897 0.459648
0.905821 0.601678 0.55938
0.92697 0.673075 0.644892
0.943984 0.733913 0.715465
0.957839 0.784588 0.772549
0.969284 0.826291 0.818357
0.978851 0.860426 0.855116
0.986938 0.888365 0.884718
0.993851 0.911284 0.908736
0.999817 0.930205 0.928359
0 0.0466926 0
0 0.0474098 0
0 0.0481117 0
0 0.0488136 0
0 0.0495308 0
0 0.0502327 0
0 0.0511025 0
0 0.0522774 0
0 0.0538186 0
0.00224308 0.0558785 0
0.0135805 0.0586099 0
0.034287 0.062211 0
0.0703441 0.0669566 0
0.12784 0.0733654 0
0.208499 0.0822919 0
0.306783 0.0952468 0
0.412345 0.114305 0
0.51429 0.142 0
0.605341 0.180804 0.0181277
0.682811 0.232547 0.0678569
0.747127 0.297337 0.143359
0.799771 0.372732 0.240742
0.842481 0.45391 0.350118
0.876753 0.535134 0.459373
0.904082 0.611353 0.559091
0.925826 0.679362 0.644633
0.943252 0.737896 0.715267
0.957382 0.787076 0.772396
0.968994 0.827817 0.81825
0.978683 0.861357 0.855039
0.986831 0.88893 0.884672
0.99379 0.91165 0.908705
0.999771 0.930434 0.928344
0 0.0864881 0
0 0.0873732 0
0 0.0882734 0
0 0.0891432 0
0 0.0900282 0
0 0.0909133 0
0 0.0919966 0
0 0.093431 0
0 0.0953384 0
0 0.0978561 0
0.00645457 0.101167 0
0.0278325 0.105501 0
0.0645609 0.111162 0
0.122393 0.118624 0
0.202808 0.128725 0
0.300374 0.142794 0
0.405112 0.1626 0
0.506493 0.190143 0
0.597498 0.227451 0.0126192
0.675441 0.275914 0.0652628
0.740627 0.335515 0.142718
0.794385 0.404257 0.240955
0.838285 0.478279 0.350423
0.873671 0.552804 0.459449
0.90193 0.623499 0.558984
0.924392 0.687358 0.644434
0.942321 0.743008 0.715068
0.956802 0.79028 0.772244
0.968627 0.829801 0.818143
0.978454 0.862593 0.854963
0.986694 0.889693 0.884627
0.993698 0.912108 0.908675
0.99971 0.930724 0.928328
0 0.148959 0
0 0.149935 0
0 0.150912 0
0 0.151873 0
0 0.152819 0
0 0.15378 0
0 0.154955 0
0 0.156497 0
0 0.158541 0
0 0.161242 0
0 0.164752 0
0.0181582 0.169299 0
0.0559396 0.175174 0
0.114473 0.182788 0
0.194873 0.192905 0
0.29189 0.206622 0
0.395972 0.225437 0
0.497017 0.251041 0
0.58822 0.284993 0.00796521
0.666896 0.328389 0.0642405
0.73315 0.381201 0.143847
0.78819 0.441901 0.242756
0.833402 0.507515 0.351858
0.870039 0.574243 0.460243
0.899336 0.638437 0.559228
0.922621 0.697353 0.644388
0.941161 0.749493 0.714916
0.956054 0.794385 0.772076
0.96817 0.83238 0.818006
0.978149 0.864195 0.854871
0.986511 0.890684 0.88455
0.993591 0.912734 0.908629
0.999649 0.931105 0.928298
0 0.233341 0
0 0.234241 0
0 0.235157 0
0 0.236057 0
0 0.236942 0
0 0.237827 0
0 0.238911 0
0 0.240345 0
0 0.242237 0
0 0.244694 0
0 0.247883 0
0.00642405 0.251987 0
0.0457465 0.257252 0
0.105318 0.264012 0
0.185901 0.272892 0
0.28246 0.284871 0
0.385931 0.301167 0
0.486702 0.323156 0
0.57821 0.352132 0.00679026
0.65771 0.388968 0.0669566
0.725109 0.433692 0.14844
0.78146 0.485283 0.247364
0.828 0.541543 0.355322
0.865888 0.599588 0.462287
0.896315 0.656428 0.560174
0.920516 0.709621 0.644678
0.939742 0.75758 0.7149
0.955123 0.799603 0.771954
0.967559 0.835691 0.817884
0.977768 0.86627 0.854765
0.986267 0.891981 0.884474
0.993439 0.913542 0.908568
0.999542 0.931609 0.928252
0 0.331823 0
0 0.33257 0
0 0.333303 0
0 0.334035 0
0 0.334768 0
0 0.335485 0
0 0.33637 0
0 0.337514 0
0 0.339025 0
0 0.340993 0
0 0.343526 0
0 0.346746 0
0.036759 0.350835 0
0.0975814 0.356085 0
0.178332 0.362982 0
0.274266 0.372335 0
0.376867 0.385153 0
0.477134 0.402579 0
0.568734 0.425666 0.0130617
0.648844 0.455177 0.076463
0.717174 0.491249 0.158785
0.774624 0.533272 0.256458
0.822354 0.579767 0.361959
0.861418 0.628626 0.466361
0.892912 0.677516 0.56228
0.918059 0.724315 0.645579
0.938033 0.767483 0.71516
0.953979 0.806119 0.771954
0.966812 0.839887 0.817777
0.977295 0.86894 0.854658
0.985962 0.893675 0.884382
0.99324 0.914611 0.908507
0.99942 0.93228 0.928206
0 0.433631 0
0 0.43418 0
0 0.43473 0
0 0.435264 0
0 0.435782 0
0 0.436316 0
0 0.436942 0
0 0.437766 0
0 0.438849 0
0 0.440238 0
0 0.441993 0
0 0.444221 0
0.0328832 0.447013 0
0.0948959 0.450584 0
0.175479 0.455344 0
0.270222 0.461921 0
0.371313 0.471153 0
0.47039 0.48397 0
0.56141 0.501228 0.0314946
0.641505 0.523583 0.0963302
0.710231 0.551293 0.1776
0.768353 0.584085 0.272023
0.816876 0.621042 0.373205
0.85684 0.660731 0.473457
0.889296 0.701442 0.566217
0.915312 0.741466 0.647471
0.936065 0.779339 0.715908
0.952605 0.814084 0.772168
0.965896 0.845121 0.817761
0.976684 0.872328 0.854566
0.98558 0.895842 0.884291
0.992996 0.915984 0.908431
0.999268 0.933165 0.928161
0 0.529717 0
0 0.530098 0
0 0.530449 0
0 0.530816 0
0 0.531151 0
0 0.531502 0
0 0.531914 0
0 0.532448 0
0 0.533135 0
0 0.534005 0
0 0.535088 0
0 0.536431 0
0.0383459 0.538079 0
0.101076 0.54023 0
0.180713 0.54316 0
0.273289 0.547372 0
0.371725 0.553506 0
0.468452 0.562325 0.0169833
0.557809 0.574517 0.0664073
0.636957 0.590631 0.129946
0.705272 0.611002 0.207385
0.763333 0.635554 0.295979
0.812085 0.663828 0.390555
0.852552 0.694926 0.484733
0.885649 0.727703 0.572778
0.912413 0.760845 0.650889
0.933867 0.793149 0.717494
0.951019 0.823606 0.772778
0.964797 0.851545 0.817929
0.975937 0.876554 0.854551
0.985077 0.898604 0.88423
0.992676 0.917769 0.908354
0.999054 0.934295 0.9281
0 0.615305 0
0 0.615518 0
0 0.615732 0
0 0.615946 0
0 0.616144 0
0 0.616342 0
0 0.616571 0
0 0.616876 0
0 0.617243 0
0 0.6177 0
0 0.61825 0
0.00979629 0.618906 0
0.0567941 0.619699 0
0.119249 0.620768 0
0.196719 0.622309 0
0.285679 0.62472 0.00972
0.37995 0.628489 0.0370489
0.472847 0.63418 0.0733501
0.559197 0.642359 0.120394
0.636194 0.653483 0.179278
0.703059 0.667872 0.249775
0.76022 0.685588 0.329747
0.80853 0.706432 0.415259
0.848905 0.729976 0.501228
0.882277 0.755459 0.582834
0.909514 0.782025 0.656474
0.931548 0.808743 0.720317
0.949264 0.834714 0.774044
0.963516 0.85922 0.818418
0.975052 0.881743 0.854673
0.984482 0.902037 0.884199
0.992264 0.920012 0.908293
0.998795 0.93576 0.928038
0 0.689052 0.016144
0 0.689158 0.01738
0 0.68925 0.0185855
0 0.689326 0.0198062
0 0.689418 0.0210117
0 0.689494 0.0222171
0 0.689586 0.0236973
0 0.689677 0.0256504
0 0.689799 0.0282597
0 0.689937 0.0317082
0.00813306 0.690074 0.0362707
0.0432593 0.690227 0.0423133
0.0904707 0.69041 0.0503243
0.151156 0.6907 0.0609751
0.224826 0.691264 0.0751507
0.308431 0.692378 0.0940261
0.396811 0.694438 0.11899
0.48426 0.697841 0.151492
0.56614 0.703029 0.192889
0.639735 0.710369 0.244007
0.704112 0.720134 0.304738
0.759487 0.732479 0.373663
0.806607 0.747356 0.447929
0.846326 0.764584 0.523766
0.879469 0.783764 0.597192
0.906844 0.804379 0.664912
0.929229 0.825772 0.72488
0.947387 0.847257 0.776303
0.962097 0.868177 0.819409
0.974014 0.887968 0.855055
0.983749 0.906264 0.884291
0.991775 0.922835 0.908278
0.998459 0.937621 0.927977
0 0.751232 0.134936
0 0.751232 0.135943
0 0.751217 0.13695
0 0.751202 0.137957
0 0.751186 0.138949
0 0.751171 0.139956
0 0.751141 0.141161
0 0.751095 0.142794
0.0131991 0.751019 0.144945
0.0327306 0.750912 0.147799
0.059144 0.750759 0.151568
0.094316 0.750561 0.156588
0.139925 0.750332 0.163241
0.196963 0.750103 0.172076
0.264942 0.750011 0.18381
0.341405 0.750256 0.199359
0.422202 0.751125 0.219776
0.502632 0.752895 0.246204
0.578637 0.755947 0.279728
0.647639 0.760525 0.32105
0.708537 0.766873 0.370275
0.761334 0.775158 0.426627
0.806592 0.785443 0.488273
0.845075 0.797665 0.55256
0.877516 0.811658 0.616342
0.904646 0.827161 0.676783
0.927092 0.843763 0.731716
0.945525 0.860975 0.77995
0.960586 0.878309 0.82121
0.972869 0.895232 0.855833
0.98291 0.911345 0.884581
0.99118 0.926314 0.908339
0.998047 0.939956 0.927962
0.0170138 0.802579 0.267445
0.0235447 0.802502 0.268162
0.0301061 0.802411 0.268864
0.0367132 0.802335 0.269566
0.0433509 0.802243 0.270268
0.0500496 0.802152 0.270985
0.0582742 0.802045 0.271839
0.069276 0.801907 0.272999
0.0839551 0.801724 0.274525
0.103426 0.801465 0.27657
0.129 0.801144 0.279286
0.162112 0.800732 0.282918
0.204013 0.800259 0.287755
0.255375 0.799725 0.294209
0.315801 0.799252 0.302815
0.383429 0.798947 0.31426
0.455146 0.799023 0.329351
0.527199 0.799725 0.348974
0.596139 0.801266 0.373983
0.659525 0.803891 0.405081
0.716136 0.807797 0.442573
0.765698 0.813123 0.486183
0.80856 0.819989 0.53492
0.845319 0.828397 0.58706
0.876631 0.838315 0.64036
0.903105 0.849622 0.692454
0.925322 0.862119 0.741283
0.943801 0.875502 0.785412
0.959075 0.889433 0.824109
0.971633 0.903487 0.857252
0.981964 0.917281 0.885206
0.990478 0.93048 0.908568
0.997559 0.942824 0.928008
0.110628 0.844099 0.396475
0.117128 0.843992 0.396918
0.123598 0.84387 0.397345
0.130022 0.843748 0.397787
0.1364 0.843641 0.39823
0.142779 0.843519 0.398672
0.150546 0.843381 0.399207
0.1608 0.843198 0.399939
0.174304 0.842969 0.400916
0.191943 0.842664 0.402213
0.21474 0.842268 0.403952
0.243778 0.841794 0.406302
0.279988 0.84123 0.409461
0.323873 0.840589 0.413703
0.375219 0.839933 0.419425
0.432761 0.839353 0.427115
0.494285 0.838972 0.437339
0.556939 0.838987 0.450797
0.617884 0.839551 0.468162
0.674876 0.840864 0.490074
0.726543 0.843076 0.516976
0.772351 0.846326 0.548943
0.81239 0.850706 0.585595
0.847059 0.856306 0.626001
0.87689 0.863127 0.668696
0.902403 0.871138 0.71191
0.924086 0.880278 0.753857
0.942367 0.890379 0.793042
0.957671 0.901228 0.828443
0.970397 0.912551 0.859556
0.980957 0.924041 0.886336
0.9897 0.935378 0.909056
0.996979 0.946288 0.928176
0.224201 0.877195 0.51107
0.22977 0.877073 0.511315
0.235294 0.876967 0.511559
0.240742 0.876844 0.511818
0.246128 0.876738 0.512062
0.251499 0.876631 0.512322
0.258 0.876493 0.512627
0.266545 0.876326 0.513054
0.277729 0.876097 0.513619
0.292241 0.875807 0.514382
0.310857 0.875441 0.515419
0.334401 0.874983 0.516808
0.363622 0.874449 0.518715
0.398962 0.873823 0.521309
0.440421 0.873152 0.524834
0.487282 0.872496 0.529641
0.538079 0.871916 0.536126
0.590768 0.871565 0.544778
0.643107 0.87155 0.55613
0.693111 0.872023 0.570718
0.73933 0.873121 0.589029
0.780987 0.874952 0.611322
0.817899 0.877607 0.637613
0.850217 0.881178 0.667552
0.878309 0.88571 0.700298
0.902602 0.891234 0.734722
0.923491 0.897734 0.769421
0.941329 0.90515 0.803067
0.956466 0.913359 0.834516
0.969238 0.922225 0.863005
0.979934 0.931502 0.888167
0.988861 0.940963 0.909941
0.996338 0.950362 0.928573
0.344869 0.903456 0.607187
0.349081 0.903365 0.607324
0.353246 0.903273 0.607462
0.357366 0.903181 0.607599
0.36144 0.90309 0.607736
0.365469 0.902998 0.607874
0.370367 0.902892 0.608042
0.376791 0.902754 0.60827
0.385183 0.902571 0.608591
0.396078 0.902342 0.609018
0.41004 0.902037 0.609598
0.427741 0.901671 0.610391
0.449744 0.901228 0.61149
0.476539 0.90071 0.613001
0.508263 0.900114 0.615076
0.544656 0.899489 0.617929
0.584878 0.898894 0.621836
0.627573 0.898405 0.627131
0.671092 0.8981 0.634211
0.713741 0.8981 0.643503
0.754147 0.898497 0.655421
0.791348 0.899397 0.670314
0.824887 0.900893 0.68838
0.854658 0.903059 0.709636
0.880842 0.905959 0.73373
0.903716 0.909636 0.760037
0.923613 0.914122 0.787625
0.94081 0.919417 0.815473
0.955612 0.92546 0.842496
0.968246 0.932189 0.867842
0.978958 0.939483 0.890913
0.988022 0.947158 0.911421
0.995636 0.955016 0.92929
0.460075 0.924453 0.685328
0.462974 0.924392 0.685405
0.465843 0.924315 0.685481
0.468681 0.924254 0.685542
0.471473 0.924193 0.685618
0.474266 0.924132 0.685695
0.477638 0.924056 0.685802
0.482094 0.923949 0.685924
0.487907 0.923827 0.686091
0.495476 0.923659 0.686336
0.505226 0.92343 0.686656
0.517662 0.923171 0.687099
0.533242 0.922835 0.687709
0.552422 0.922438 0.688563
0.575494 0.921965 0.689754
0.602441 0.921462 0.691402
0.632929 0.920928 0.693675
0.666194 0.920424 0.696818
0.701091 0.920027 0.701091
0.73637 0.919783 0.706798
0.770748 0.919783 0.71429
0.803235 0.920119 0.723873
0.833173 0.920851 0.735851
0.860227 0.922087 0.750378
0.884367 0.923842 0.767422
0.905699 0.926207 0.78674
0.924468 0.929213 0.807843
0.940871 0.932891 0.829999
0.955154 0.937209 0.852399
0.967514 0.942184 0.874235
0.978134 0.947753 0.894804
0.987198 0.953796 0.913634
0.994919 0.960189 0.930465
0.561837 0.941466 0.747951
0.563714 0.941421 0.747997
0.56556 0.941375 0.748043
0.567391 0.941329 0.748074
0.569207 0.941283 0.748119
0.571008 0.941253 0.748165
0.573205 0.941192 0.748211
0.576104 0.941131 0.748287
0.579904 0.941039 0.748379
