luts/AgX-Resolve_Bombastic.cube
TITLE "Generated by Resolve"
LUT_3D_SIZE 9
0 0 0
0.000244144 0 0
0.0049897 0 0
0.0733349 0 0
0.426719 0.00161746 0.00257877
0.772183 0.157626 0.153429
0.912169 0.567269 0.561547
0.970214 0.821286 0.818753
0.999939 0.929503 0.92842
0 0.000137331 0
0.000259403 0.000228885 0
0.00531014 0.000335698 0
0.0745403 0.000396735 0
0.426215 0.0105745 0.00131228
0.768429 0.178119 0.151492
0.910933 0.573938 0.560998
0.970047 0.822202 0.818677
0.999924 0.929641 0.92842
0 0.00288396 0
0 0.00355535 0
0.00500496 0.00459297 0
0.0754559 0.00769055 0
0.424353 0.0289311 0
0.76286 0.208743 0.148775
0.909117 0.583658 0.560296
0.969787 0.82359 0.818555
0.999878 0.929824 0.928389
0 0.0466926 0
0 0.0495308 0
0 0.0538186 0
0.0703441 0.0669566 0
0.412345 0.114305 0
0.747127 0.297337 0.143359
0.904082 0.611353 0.559091
0.968994 0.827817 0.81825
0.999771 0.930434 0.928344
0 0.331823 0
0 0.334768 0
0 0.339025 0
0.036759 0.350835 0
0.376867 0.385153 0
0.717174 0.491249 0.158785
0.892912 0.677516 0.56228
0.966812 0.839887 0.817777
0.99942 0.93228 0.928206
0 0.689052 0.016144
0 0.689418 0.0210117
0 0.689799 0.0282597
0.0904707 0.69041 0.0503243
0.396811 0.694438 0.11899
0.704112 0.720134 0.304738
0.879469 0.783764 0.597192
0.962097 0.868177 0.819409
0.998459 0.937621 0.927977
0.224201 0.877195 0.51107
0.246128 0.876738 0.512062
0.277729 0.876097 0.513619
0.363622 0.874449 0.518715
0.538079 0.871916 0.536126
0.73933 0.873121 0.589029
0.878309 0.88571 0.700298
0.956466 0.913359 0.834516
0.996338 0.950362 0.928573
0.647334 0.955444 0.797971
0.651896 0.955337 0.798062
0.65861 0.955184 0.798215
0.677958 0.954742 0.798733
0.725795 0.953735 0.800671
0.808133 0.952468 0.807935
0.894072 0.953109 0.83035
0.955642 0.958755 0.877058
0.993637 0.971572 0.934844
0.85452 0.99237 0.917739
0.855131 0.992355 0.917754
0.856046 0.99234 0.917784
0.858854 0.992279 0.917845
0.867048 0.992096 0.91809
0.887327 0.991684 0.918959
0.92285 0.991196 0.922194
0.962142 0.991577 0.932204
0.992935 0.99443 0.953643
3.0518e-05 1.5259e-05 0.000198367
0.000381476 1.5259e-05 0.000320439
0.00575265 0 0.000534066
0.0762493 0 0.00144961
0.429877 0.00386053 0.0147097
0.775082 0.163378 0.181689
0.913069 0.569177 0.570962
0.970352 0.821546 0.820066
0.999954 0.929549 0.928603
0 0.000259403 0.000259403
0.000411994 0.000411994 0.000411994
0.00608835 0.000656138 0.000671397
0.0774548 0.0011902 0.00140383
0.429328 0.0133669 0.014023
0.771328 0.183825 0.179706
0.911833 0.575784 0.570352
0.970169 0.822461 0.819974
0.999939 0.929671 0.928588
0 0.00364691 0
0 0.00442512 0
0.00576791 0.00561532 0
0.0783551 0.00926223 0
0.427436 0.0325017 0.0113527
0.765774 0.214313 0.176913
0.910018 0.585428 0.569558
0.969909 0.82385 0.819867
0.999893 0.929854 0.928573
0 0.049897 0
0 0.0528267 0
0 0.0572671 0
0.073228 0.0708324 0
0.415534 0.119326 0
0.750118 0.302296 0.171206
0.904982 0.612924 0.568093
0.969131 0.828061 0.819547
0.999786 0.930465 0.928527
0 0.33576 0
0 0.338704 0
0 0.342977 0
0.0413672 0.354803 0
0.381323 0.389212 0
0.720211 0.494499 0.18468
0.893797 0.67866 0.570443
0.966934 0.840101 0.819028
0.999451 0.932311 0.928389
0 0.691234 0.0449073
0 0.691569 0.0496376
0 0.691936 0.056672
0.0966964 0.69247 0.0780499
0.401236 0.696361 0.144183
0.706355 0.721553 0.32195
0.880171 0.784375 0.603204
0.962219 0.86833 0.820523
0.998474 0.937652 0.928145
0.227771 0.877653 0.519112
0.249592 0.877211 0.520073
0.280995 0.876554 0.521553
0.366369 0.874907 0.526436
0.539818 0.872374 0.543191
0.740185 0.873487 0.594446
0.878676 0.885939 0.70309
0.956573 0.913436 0.835309
0.996353 0.950378 0.928725
0.648005 0.955505 0.799054
0.652552 0.955398 0.799146
0.659236 0.955245 0.799298
0.678523 0.954803 0.799817
0.726223 0.953796 0.801709
0.808377 0.952529 0.808896
0.894179 0.953155 0.831083
0.955688 0.958785 0.877424
0.993652 0.971588 0.934951
0.854612 0.992386 0.917891
0.855222 0.99237 0.917906
0.856138 0.992355 0.917937
0.85893 0.992279 0.917998
0.867124 0.992111 0.918227
0.887373 0.991699 0.919097
0.922881 0.991211 0.922332
0.962158 0.991592 0.932311
0.99295 0.99443 0.953704
0.000503548 0.000259403 0.00421149
0.0011902 0.000320439 0.00517281
0.00759899 0.000335698 0.00669871
0.0814374 0 0.01178
0.435447 0.00788891 0.0400702
0.779416 0.172091 0.223957
0.914382 0.572015 0.584649
0.970535 0.821942 0.822034
0.999985 0.929595 0.928878
0.000518807 0.000823987 0.00512703
0.00128176 0.00114443 0.00611887
0.00798047 0.00164797 0.00764477
0.0826429 0.00292973 0.0125887
0.434836 0.018204 0.0401923
0.775662 0.192432 0.22182
0.91313 0.578531 0.583963
0.970367 0.822858 0.821942
0.999954 0.929717 0.928862
0 0.00529488 0.0053254
0.00062562 0.00624094 0.0062562
0.00769055 0.00769055 0.00769055
0.0835431 0.012192 0.012314
0.432883 0.0385138 0.0387732
0.770108 0.222705 0.218814
0.91133 0.588083 0.583062
0.970108 0.824231 0.82182
0.999924 0.929915 0.928847
0 0.0552834 0
0 0.0583658 0
0 0.0630198 0
0.0784772 0.0772259 0
0.421088 0.127352 0.0260777
0.754528 0.309728 0.21236
0.906294 0.61529 0.581201
0.969314 0.828428 0.821485
0.999817 0.93051 0.928801
0 0.342077 0
0 0.345022 0
0 0.349294 0
0.0491188 0.361105 0
0.388403 0.395529 0.00730907
0.724651 0.499321 0.222416
0.895079 0.680385 0.582361
0.967132 0.840421 0.820905
0.999466 0.932372 0.928649
0 0.694453 0.0873732
0 0.694759 0.0918593
0 0.695079 0.0985275
0.105989 0.695521 0.1187
0.407736 0.699184 0.180804
0.709621 0.723613 0.346822
0.881209 0.78526 0.612039
0.962402 0.868559 0.822217
0.998505 0.937697 0.928405
0.233143 0.87834 0.530907
0.254765 0.877882 0.531792
0.285893 0.877241 0.533165
0.370489 0.875593 0.537743
0.542428 0.873045 0.553567
0.741466 0.874052 0.602472
0.87921 0.886259 0.70724
0.95671 0.913558 0.83653
0.996384 0.950408 0.928954
0.649027 0.955581 0.800702
0.653559 0.955474 0.800793
0.660197 0.955322 0.800931
0.679377 0.954894 0.801434
0.726864 0.953887 0.803281
0.808728 0.952636 0.81033
0.894362 0.953231 0.832166
0.955764 0.958831 0.877989
0.993667 0.971603 0.935119
0.854749 0.992401 0.91812
0.85536 0.992386 0.918135
0.856275 0.992355 0.918166
0.859068 0.992294 0.918227
0.867231 0.992126 0.918456
0.887465 0.991714 0.919326
0.922927 0.991226 0.92253
0.962188 0.991592 0.932464
0.99295 0.99443 0.953796
0.00808728 0.00434882 0.0682689
0.0104067 0.00479133 0.0722515
0.0201419 0.00546273 0.078294
0.104204 0.00726329 0.0971084
0.457282 0.0244297 0.160388
0.79176 0.19881 0.345922
0.917983 0.580575 0.623377
0.971099 0.823178 0.828
1 0.929763 0.929732
0.00814832 0.00686656 0.0720378
0.0106203 0.00770581 0.0759594
0.0206302 0.0089723 0.0819257
0.105394 0.0128176 0.100343
0.456321 0.0372015 0.161532
0.787991 0.218738 0.343038
0.916762 0.586877 0.622492
0.970932 0.824079 0.827893
1 0.9299 0.929717
0.00732433 0.0148775 0.0763104
0.0100099 0.0164034 0.0801251
0.0204013 0.0187076 0.0858778
0.106142 0.0259709 0.103517
0.45391 0.0607767 0.161624
0.782437 0.248203 0.338949
0.914977 0.596078 0.621271
0.970672 0.825437 0.827756
1 0.930083 0.929702
0 0.0763867 0.0766461
0.000137331 0.079881 0.0800641
0.0118868 0.0851301 0.0852216
0.100969 0.100969 0.100969
0.441749 0.154452 0.154192
0.766995 0.332082 0.329198
0.909972 0.622385 0.618418
0.969894 0.829587 0.827359
0.999893 0.930678 0.929641
0 0.363729 0.0528878
0 0.366583 0.0572061
0 0.370703 0.0636454
0.0768597 0.382101 0.0831311
0.411124 0.415366 0.145266
0.737041 0.513588 0.327489
0.898695 0.685542 0.616419
0.967712 0.841443 0.826596
0.999557 0.932525 0.929488
0 0.703838 0.207965
0 0.704036 0.211566
0.00708019 0.704204 0.216907
0.133577 0.704341 0.233021
0.426535 0.707317 0.282551
0.718791 0.72958 0.41593
0.884199 0.787961 0.637659
0.962951 0.869276 0.827329
0.998596 0.937835 0.929213
0.24947 0.880293 0.564675
0.270527 0.87985 0.565377
0.300801 0.87921 0.566491
0.38294 0.877577 0.570214
0.550256 0.874983 0.58349
0.745281 0.875685 0.625803
0.880796 0.887236 0.719615
0.957153 0.913939 0.840238
0.99646 0.950515 0.929686
0.652201 0.955856 0.805707
0.656657 0.955749 0.805798
0.663188 0.955596 0.80592
0.682063 0.955169 0.806378
0.728847 0.954177 0.808103
0.809857 0.952911 0.814725
0.894896 0.95346 0.835523
0.955978 0.958968 0.879728
0.993729 0.971664 0.935668
0.855177 0.992432 0.918837
0.855787 0.992416 0.918853
0.856687 0.992401 0.918883
0.859464 0.99234 0.918944
0.867597 0.992157 0.919173
0.887739 0.99176 0.920012
0.923095 0.991272 0.923171
0.962264 0.991638 0.932952
0.992996 0.994461 0.954055
0.0600748 0.0422522 0.483726
0.0681773 0.0438849 0.487205
0.0876631 0.0463264 0.492195
0.193652 0.0541543 0.505806
0.522118 0.0915847 0.539544
0.816251 0.274113 0.605112
0.925811 0.604715 0.713695
0.972686 0.826917 0.844907
1 0.930312 0.932342
0.0588998 0.0519875 0.484703
0.067155 0.054078 0.487938
0.0869001 0.0572213 0.492561
0.193118 0.0671855 0.505089
0.519463 0.109911 0.53611
0.812573 0.292241 0.600458
0.924666 0.610376 0.712459
0.972519 0.827787 0.844785
1 0.930434 0.932326
0.0560616 0.0714733 0.484184
0.0645762 0.0742046 0.487083
0.0847028 0.0783093 0.491188
0.191394 0.0910811 0.502235
0.514961 0.139757 0.529992
0.807233 0.318654 0.593805
0.922972 0.618647 0.710704
0.972259 0.829099 0.844587
1 0.930617 0.932311
0.0412146 0.158892 0.471107
0.0507973 0.162661 0.47335
0.0725567 0.168231 0.476509
0.181598 0.184726 0.485023
0.499855 0.237232 0.508812
0.792599 0.392462 0.576471
0.918212 0.64239 0.706065
0.971481 0.833082 0.844053
1 0.931212 0.93225
0 0.427787 0.427359
0.0128634 0.429999 0.429541
0.0410163 0.433143 0.432685
0.159655 0.441917 0.441611
0.469047 0.469047 0.469047
0.763561 0.55082 0.550027
0.907164 0.700023 0.697993
0.969314 0.844511 0.842802
0.999802 0.933043 0.932082
0.0182803 0.726055 0.466606
0.0428168 0.725994 0.468116
0.0823529 0.725826 0.470344
0.206073 0.725307 0.477165
0.472816 0.726864 0.499916
0.740047 0.744564 0.568658
0.891676 0.795438 0.701656
0.964523 0.871489 0.842039
0.99884 0.938293 0.931731
0.296574 0.8851 0.646464
0.315847 0.884672 0.646784
0.343481 0.884077 0.647334
0.418372 0.882521 0.649302
0.572122 0.879942 0.657145
0.755566 0.880018 0.685008
0.885176 0.889998 0.753048
0.958419 0.915099 0.851133
0.996704 0.950851 0.93196
0.661906 0.956634 0.820157
0.666117 0.956527 0.820218
0.672312 0.95639 0.820325
0.690227 0.955978 0.820661
0.734936 0.955016 0.822019
0.813245 0.95375 0.827512
0.896513 0.954177 0.845411
0.956664 0.959396 0.885008
0.993927 0.971832 0.937346
0.856535 0.992569 0.921065
0.85713 0.992554 0.92108
0.858015 0.992523 0.921096
0.860746 0.992462 0.921157
0.868742 0.992294 0.92137
0.888594 0.991882 0.922164
0.923583 0.991394 0.925139
0.962509 0.991745 0.934478
0.993103 0.994522 0.954879
0.177142 0.236164 0.926268
0.201389 0.239307 0.92491
0.239918 0.244038 0.922789
0.357931 0.2589 0.916228
0.605249 0.307408 0.899016
0.833997 0.443198 0.867613
0.934722 0.661997 0.848066
0.976028 0.8374 0.883482
1 0.93196 0.939818
0.174411 0.256062 0.918883
0.198764 0.259144 0.91754
0.237354 0.263767 0.915465
0.355261 0.278218 0.909072
0.60206 0.325063 0.892515
0.831434 0.455253 0.86331
0.933837 0.666148 0.846754
0.975875 0.838163 0.883314
1 0.932082 0.939803
0.170459 0.285618 0.907958
0.194965 0.288548 0.906661
0.233677 0.292943 0.904677
0.351431 0.306645 0.898558
0.597482 0.350759 0.883101
0.827756 0.472679 0.857145
0.932525 0.672251 0.844862
0.975631 0.839323 0.883055
1 0.93225 0.939773
0.160113 0.370169 0.876997
0.185107 0.372519 0.875914
0.22417 0.376043 0.87425
0.341436 0.386984 0.86923
0.585199 0.422339 0.857298
0.817685 0.521065 0.84036
0.928756 0.689982 0.83949
0.974914 0.842878 0.882277
1 0.93283 0.939696
0.148501 0.552666 0.81384
0.174441 0.553567 0.813275
0.213886 0.554925 0.812421
0.328435 0.559335 0.809995
0.563226 0.575525 0.805676
0.796582 0.628122 0.806073
0.919524 0.734478 0.827207
0.972854 0.853101 0.880247
1 0.934585 0.939467
0.199466 0.762707 0.761105
0.224186 0.762448 0.760922
0.260243 0.762097 0.760693
0.35964 0.761334 0.760296
0.559503 0.762051 0.761654
0.774182 0.774182 0.774182
0.904723 0.812985 0.812604
0.96817 0.877638 0.876783
0.999573 0.939651 0.938918
0.412161 0.893614 0.77998
0.426551 0.893294 0.77995
0.447227 0.892836 0.779904
0.503624 0.891646 0.780011
0.623484 0.88954 0.781643
0.777981 0.889067 0.791241
0.894652 0.896574 0.821653
0.961608 0.918303 0.878233
0.997406 0.951843 0.938506
0.68893 0.958526 0.854734
0.6925 0.958434 0.854749
0.697749 0.958312 0.85478
0.713085 0.957961 0.854917
0.752041 0.957107 0.855573
0.822675 0.955901 0.858747
0.900877 0.956054 0.870481
0.958572 0.960632 0.899336
0.994507 0.972381 0.94229
0.860655 0.99292 0.927535
0.861219 0.99292 0.927535
0.862058 0.992889 0.92755
0.864652 0.992844 0.927596
0.872251 0.992676 0.927764
0.891218 0.992279 0.928389
0.925093 0.991791 0.930892
0.963256 0.992081 0.93901
0.993423 0.994736 0.957382
0.512566 0.620981 1
0.525628 0.621759 1
0.544381 0.622965 1
0.595544 0.626917 0.999786
0.704311 0.640085 0.991958
0.842176 0.679362 0.975525
0.936233 0.761639 0.951812
0.979873 0.861891 0.94052
1 0.936584 0.957214
0.512184 0.626947 1
0.525216 0.62768 1
0.543908 0.62884 1
0.594949 0.632624 0.997513
0.703502 0.645289 0.989914
0.841382 0.683299 0.973999
0.935805 0.763607 0.95108
0.979751 0.86244 0.940352
1 0.93669 0.957183
0.511696 0.63566 0.998611
0.524666 0.636362 0.997955
0.543282 0.63743 0.996994
0.59411 0.64097 0.994202
0.702358 0.652888 0.986908
0.840238 0.689097 0.971756
0.93518 0.766537 0.950011
0.979583 0.863279 0.940093
1 0.936858 0.957153
0.510735 0.660548 0.988693
0.523522 0.661097 0.988113
0.541863 0.661967 0.987243
0.592035 0.66482 0.984756
0.699229 0.674754 0.978347
0.836942 0.705943 0.96527
0.933303 0.775265 0.946822
0.979034 0.865858 0.9393
1 0.937362 0.957046
0.511803 0.720241 0.96524
0.523964 0.7205 0.964797
0.541451 0.720913 0.964157
0.589426 0.722377 0.962325
0.692943 0.728099 0.957794
0.829068 0.748379 0.949294
0.928328 0.798795 0.93846
0.977432 0.873396 0.937026
1 0.938933 0.95671
0.532509 0.816205 0.929641
0.542855 0.816144 0.929397
0.557778 0.816083 0.92903
0.599069 0.816052 0.928038
0.690562 0.816983 0.925856
0.817792 0.823743 0.923064
0.91873 0.846967 0.922774
0.973556 0.892241 0.931868
1 0.943511 0.955825
0.611978 0.905837 0.904936
0.618433 0.905715 0.90483
0.627832 0.905531 0.904692
0.654505 0.905058 0.904311
0.717571 0.904143 0.903639
0.816983 0.904036 0.903868
0.909194 0.909194 0.909194
0.967269 0.925872 0.925719
0.999084 0.95465 0.954269
0.749523 0.961959 0.911269
0.751812 0.961898 0.911254
0.755184 0.961822 0.911238
0.765209 0.961593 0.911192
0.791836 0.961028 0.911177
0.844739 0.960128 0.911849
0.910491 0.960052 0.91603
0.962753 0.963592 0.929305
0.996002 0.973892 0.954787
0.87216 0.993851 0.943252
0.872633 0.993835 0.943252
0.87335 0.99382 0.943252
0.875547 0.993774 0.943282
0.882048 0.993622 0.943358
0.898619 0.993286 0.943679
0.92932 0.992813 0.94519
0.965316 0.992981 0.950637
0.994354 0.995346 0.964279
0.794446 0.844617 1
0.79646 0.844709 1
0.799451 0.844862 1
0.808347 0.845365 1
0.83212 0.847044 1
0.879774 0.852705 1
0.93843 0.869474 0.997269
0.981247 0.904143 0.987823
1 0.947585 0.984222
0.794415 0.845426 1
0.796429 0.845533 1
0.79942 0.845685 1
0.808301 0.846174 1
0.832044 0.847822 1
0.879667 0.853422 1
0.938323 0.870008 0.99707
0.981186 0.904402 0.987732
1 0.947662 0.984192
0.794369 0.846662 1
0.796368 0.846754 1
0.799359 0.846906 1
0.808225 0.847379 1
0.831922 0.848997 1
0.879499 0.854475 1
0.93817 0.870787 0.996765
0.981109 0.904799 0.987579
1 0.947784 0.984161
0.794232 0.850416 1
0.796216 0.850492 1
0.799191 0.850629 1
0.807996 0.851072 1
0.831586 0.852567 1
0.879011 0.85771 1
0.937682 0.873228 0.995819
0.98085 0.906035 0.987137
1 0.948165 0.984039
0.794064 0.861173 1
0.796017 0.861234 1
0.798917 0.861341 1
0.807568 0.861677 1
0.830762 0.862867 1
0.877653 0.867094 0.998474
0.936294 0.880385 0.993103
0.980056 0.909758 0.985809
1 0.949325 0.983688
0.7953 0.88658 0.992935
0.797131 0.88661 0.992859
0.799847 0.886656 0.992767
0.80798 0.886809 0.992493
0.829923 0.887373 0.991699
0.875013 0.889769 0.989807
0.932982 0.89836 0.986389
0.977951 0.919844 0.982269
1 0.952758 0.982681
0.805798 0.927382 0.977951
0.807294 0.927367 0.97792
0.809522 0.927352 0.977859
0.816205 0.927321 0.977707
0.834592 0.927291 0.977279
0.873991 0.927703 0.976379
0.928191 0.930678 0.975341
0.973816 0.940902 0.97557
1 0.961471 0.980362
0.840665 0.96759 0.967208
0.841535 0.967575 0.967193
0.842847 0.967544 0.967163
0.84683 0.967468 0.967117
0.858244 0.967285 0.966964
0.884993 0.966934 0.96672
0.927581 0.96701 0.966934
0.969512 0.969512 0.969512
0.998749 0.977584 0.977508
0.898054 0.995636 0.970047
0.89836 0.995621 0.970047
0.898817 0.995621 0.970047
0.900236 0.99559 0.970047
0.90454 0.995499 0.970031
0.915999 0.99527 0.970062
0.939315 0.994919 0.970459
0.969924 0.99498 0.972519
0.996445 0.996857 0.97908
0.918975 0.9402 1
0.919234 0.940215 1
0.919646 0.94023 1
0.920913 0.940307 1
0.924727 0.94052 1
0.935012 0.941268 1
0.956085 0.943786 1
0.983566 0.951263 1
1 0.967208 1
0.918959 0.940307 1
0.919234 0.940322 1
0.919646 0.940337 1
0.920913 0.940414 1
0.924727 0.940627 1
0.934997 0.941375 1
0.956069 0.943877 1
0.983551 0.951324 1
1 0.967239 1
0.918959 0.940475 1
0.919234 0.94049 1
0.919631 0.94052 1
0.920897 0.940581 1
0.924712 0.940795 1
0.934981 0.941543 1
0.956054 0.94403 1
0.983536 0.951446 1
1 0.9673 1
0.918929 0.941024 1
0.919203 0.941024 1
0.9196 0.941054 1
0.920867 0.941115 1
0.924666 0.941329 1
0.93492 0.942046 1
0.955978 0.944488 1
0.983459 0.951797 1
1 0.967483 1
0.918868 0.942672 1
0.919127 0.942687 1
0.919539 0.942702 1
0.92079 0.942763 1
0.924575 0.942962 1
0.934768 0.943633 1
0.955764 0.945937 1
0.983246 0.952895 1
1 0.968078 1
0.918746 0.947463 1
0.919005 0.947478 1
0.919402 0.947494 1
0.920638 0.94754 1
0.924346 0.947692 1
0.934386 0.948226 1
0.955169 0.950149 1
0.98262 0.956161 1
1 0.969848 1
0.919127 0.958968 1
0.919387 0.958984 1
0.919753 0.958984 1
0.920913 0.958999 1
0.924407 0.959075 1
0.933928 0.959365 1
0.953948 0.960494 1
0.981109 0.964492 1
1 0.974701 1
0.923262 0.978271 1
0.923461 0.978271 1
0.923766 0.978271 1
0.924727 0.978256 1
0.927626 0.978256 1
0.935683 0.978271 1
0.953323 0.978515 1
0.978851 0.980011 1
1 0.985107 1
0.937926 0.998779 0.998596
0.938048 0.998764 0.998596
0.938231 0.998764 0.998596
0.938811 0.998764 0.998581
0.940597 0.998734 0.998566
0.945724 0.998657 0.998505
0.958007 0.99852 0.998428
0.978408 0.998627 0.998596
1 1 1
