luts/AgX-Resolve.cube
TITLE "Generated by Resolve"
LUT_3D_SIZE 9
0 0 0
0.00175479 0 1.5259e-05
0.0200046 0 0.000137331
0.124636 0 0.00111391
0.4206 0.0104372 0.0138705
0.688319 0.158846 0.100191
0.845396 0.462226 0.370062
0.941527 0.6963 0.632013
1 0.846174 0.805615
0 0.00122072 0
0.00205997 0.00172427 0
0.0212253 0.00205997 0
0.126009 0.00447089 0.000534066
0.419928 0.0281224 0.0135195
0.68629 0.181109 0.100175
0.844694 0.469459 0.370443
0.941375 0.69781 0.632105
1 0.846479 0.805646
0 0.0151522 0
0.00138857 0.017258 0
0.0217746 0.0198062 0
0.12723 0.0267948 0
0.418585 0.0582132 0.012726
0.683375 0.213291 0.100328
0.843687 0.480018 0.371069
0.941161 0.700099 0.632242
1 0.846937 0.805661
0 0.105028 0
0 0.108248 0
0.0202029 0.11252 0
0.128359 0.124376 0
0.413001 0.165438 0.00953689
0.675654 0.300359 0.102205
0.840833 0.510262 0.37322
0.94049 0.707057 0.632715
1 0.848371 0.805753
0 0.403296 0
0 0.404532 0
0.018967 0.406073 0
0.135058 0.409628 0
0.403113 0.423392 0.0102541
0.661479 0.476097 0.117952
0.834043 0.583963 0.381598
0.938598 0.727092 0.634379
1 0.852796 0.806058
0.0357671 0.70808 0.0259251
0.060502 0.707057 0.028275
0.0989395 0.705455 0.0319066
0.210788 0.700847 0.0434424
0.421805 0.693248 0.080766
0.651301 0.690044 0.195132
0.82356 0.710094 0.412757
0.934173 0.77499 0.640665
1 0.865553 0.807111
0.314153 0.87538 0.287648
0.327214 0.874632 0.289158
0.345907 0.873564 0.291447
0.396841 0.870619 0.298512
0.507469 0.863996 0.319783
0.666682 0.853819 0.377234
0.817121 0.845792 0.497734
0.927535 0.855283 0.662776
1 0.896132 0.811078
0.595071 0.962081 0.575219
0.598062 0.961913 0.57557
0.602502 0.961654 0.576104
0.615717 0.960876 0.577783
0.65127 0.958755 0.583001
0.725078 0.954147 0.598505
0.827207 0.947188 0.639033
0.923506 0.941695 0.719539
0.996323 0.947982 0.82501
0.781857 1 0.769268
0.782467 1 0.769345
0.783368 1 0.769451
0.78616 1 0.769787
0.794568 1 0.770855
0.817197 1 0.774166
0.864195 1 0.784024
0.929946 1 0.809735
0.993713 1 0.860807
3.0518e-05 0 0.0019379
0.0024567 0 0.00248722
0.0220798 0 0.00360113
0.127672 0 0.00888075
0.421897 0.0128328 0.0309911
0.688365 0.161807 0.125368
0.845411 0.462654 0.382712
0.941527 0.696361 0.634867
1 0.846189 0.806195
0 0.00202945 0.0021973
0.00276188 0.00276188 0.00276188
0.0231632 0.00355535 0.00387579
0.128878 0.00668345 0.0089723
0.42118 0.0309758 0.030869
0.686351 0.183825 0.125429
0.844724 0.469825 0.383047
0.94139 0.697871 0.634958
1 0.846494 0.80621
0 0.0184939 0.00154116
0.00207523 0.0205997 0.00213626
0.0235904 0.0231174 0.0033875
0.130007 0.0300145 0.00852979
0.419776 0.0615549 0.0304723
0.683482 0.21561 0.125673
0.843732 0.480308 0.383581
0.941161 0.700145 0.635096
1 0.846952 0.806241
0 0.110079 0
0 0.113146 0
0.022034 0.11725 0
0.131029 0.128679 0.00540169
0.414115 0.169177 0.0284581
0.675883 0.301488 0.127794
0.840894 0.510323 0.385519
0.940505 0.707088 0.635554
1 0.848386 0.806332
0 0.404852 0
0 0.405982 0
0.0215457 0.407401 0
0.138079 0.41062 0.00225834
0.404471 0.423667 0.0323949
0.661921 0.475135 0.143801
0.83415 0.583612 0.393194
0.938613 0.727077 0.637156
1 0.852796 0.806622
0.0390478 0.70573 0.0508583
0.063859 0.704692 0.0532998
0.102327 0.703059 0.0570535
0.21355 0.698421 0.068925
0.423194 0.690806 0.106783
0.651804 0.68806 0.21677
0.823697 0.709377 0.422431
0.934203 0.774899 0.643244
1 0.865538 0.80766
0.315984 0.873594 0.302876
0.328969 0.872877 0.304311
0.347539 0.871824 0.306477
0.398184 0.86894 0.313161
0.508293 0.86247 0.333303
0.667033 0.852659 0.387961
0.817243 0.845182 0.503746
0.927565 0.855116 0.664866
1 0.896117 0.811597
0.595499 0.961654 0.57882
0.598474 0.961486 0.579156
0.602899 0.961227 0.579675
0.616083 0.960464 0.581323
0.65156 0.958358 0.586435
0.725246 0.953796 0.601602
0.827268 0.946929 0.641367
0.923537 0.941573 0.72076
0.996338 0.947951 0.825422
0.781949 1 0.769985
0.782544 1 0.770062
0.783444 1 0.770169
0.786236 1 0.770504
0.794644 1 0.771557
0.817258 1 0.774853
0.864225 1 0.784649
0.929961 1 0.810208
0.993713 1 0.861051
0.000320439 0 0.0214389
0.00402838 0 0.0230564
0.0254978 0 0.0256199
0.132357 0 0.0340581
0.423911 0.0160678 0.0626841
0.688441 0.16614 0.164324
0.845441 0.463416 0.400778
0.941543 0.696468 0.639124
1 0.846204 0.80705
0 0.00241093 0.022385
0.00427253 0.00364691 0.0239109
0.0263066 0.00500496 0.0263371
0.133364 0.00898756 0.0344701
0.423102 0.0348821 0.0627756
0.686473 0.187808 0.164401
0.84477 0.470497 0.401053
0.94139 0.697978 0.639216
1 0.84651 0.807065
0 0.0219425 0.0227512
0.0037232 0.024033 0.0242313
0.0266117 0.0266117 0.0266117
0.134356 0.0337987 0.0346075
0.421607 0.0661631 0.0627146
0.68365 0.218982 0.164706
0.843778 0.480858 0.401495
0.941176 0.700236 0.639338
1 0.846967 0.807095
0 0.116106 0.0212863
0 0.119051 0.022797
0.0250553 0.123049 0.0252232
0.135225 0.134264 0.0333257
0.415839 0.174273 0.0618601
0.676234 0.30309 0.166918
0.84097 0.510552 0.403113
0.94052 0.707149 0.639765
1 0.848402 0.807187
0 0.406363 0.0203403
0 0.40737 0.0223239
0.0256046 0.408637 0.025391
0.142763 0.411444 0.0354162
0.406592 0.423636 0.0691539
0.662562 0.473777 0.181979
0.834287 0.5832 0.409842
0.938628 0.727062 0.641276
1 0.852811 0.807477
0.0440833 0.701976 0.0901808
0.068986 0.700908 0.0926833
0.107485 0.699275 0.0965133
0.217731 0.694636 0.108568
0.425284 0.687114 0.146044
0.652552 0.685359 0.247303
0.823896 0.708385 0.436423
0.934234 0.774746 0.647089
1 0.865538 0.808499
0.318746 0.871077 0.324529
0.331594 0.870375 0.325841
0.349996 0.869352 0.32784
0.400198 0.866545 0.33402
0.509544 0.860304 0.352636
0.667582 0.85098 0.403403
0.817426 0.844312 0.512551
0.927596 0.854871 0.667979
1 0.896086 0.812375
0.596124 0.961028 0.584146
0.599084 0.960861 0.584482
0.603494 0.960601 0.584985
0.616632 0.959854 0.586572
0.652003 0.957778 0.591516
0.725521 0.953262 0.60621
0.82739 0.946548 0.644877
0.923568 0.94139 0.722622
0.996338 0.947906 0.826062
0.782071 1 0.771084
0.782666 1 0.771145
0.783566 1 0.771252
0.786358 1 0.771588
0.794751 1 0.772625
0.817349 1 0.775891
0.864271 1 0.78558
0.929992 1 0.81091
0.993729 1 0.861433
0.00218204 0 0.130312
0.0114748 0 0.132601
0.0366979 0 0.136126
0.147112 0 0.147311
0.430152 0.0258183 0.182086
0.688624 0.180438 0.274708
0.845457 0.46656 0.449866
0.941558 0.69688 0.651789
1 0.846281 0.809735
0.0012665 0.00512703 0.131182
0.011368 0.00680552 0.133425
0.0370184 0.00895705 0.136873
0.147768 0.0152438 0.14789
0.429129 0.0463417 0.182284
0.686778 0.2009 0.274449
0.8448 0.473365 0.449989
0.941421 0.69836 0.65185
1 0.846571 0.80975
0 0.0302739 0.132021
0.0107729 0.0324407 0.134218
0.0370642 0.0353704 0.137606
0.148394 0.0437781 0.14844
0.427405 0.079408 0.182391
0.684153 0.230213 0.274205
0.843854 0.483345 0.450187
0.941207 0.700603 0.651957
1 0.847028 0.809766
0 0.131243 0.132738
0.00732433 0.133989 0.13489
0.0355688 0.137835 0.138216
0.148836 0.148836 0.148836
0.421439 0.187961 0.182345
0.677241 0.309255 0.274571
0.841154 0.512016 0.451057
0.940551 0.707424 0.652293
1 0.848447 0.809857
0 0.407736 0.139452
0.00584421 0.408484 0.141787
0.0391394 0.409415 0.145373
0.157733 0.411429 0.15671
0.41326 0.422339 0.191348
0.664378 0.471611 0.282811
0.834684 0.582635 0.45539
0.938689 0.727108 0.653544
1 0.852857 0.810132
0.0600748 0.690822 0.20795
0.0852216 0.689784 0.210025
0.123659 0.688212 0.213184
0.230564 0.683986 0.222904
0.431617 0.677653 0.251698
0.654704 0.678767 0.327199
0.824475 0.705867 0.475257
0.93434 0.77438 0.658564
1 0.865538 0.811093
0.327199 0.864393 0.382635
0.339651 0.863737 0.383688
0.357519 0.862791 0.38526
0.406363 0.860212 0.390158
0.513344 0.854536 0.404974
0.6692 0.846479 0.445991
0.817975 0.841871 0.537835
0.927733 0.85417 0.677378
1 0.895994 0.814786
0.598093 0.959182 0.599878
0.601022 0.959014 0.600168
0.605386 0.95877 0.600626
0.618372 0.958038 0.60206
0.653391 0.956039 0.606546
0.726329 0.95172 0.619898
0.827741 0.945403 0.65539
0.92369 0.940826 0.728298
0.996368 0.947753 0.828016
0.782467 1 0.774441
0.783062 1 0.774502
0.783963 1 0.774609
0.78674 1 0.774929
0.795102 1 0.775937
0.817624 1 0.779095
0.864439 1 0.788495
0.930053 1 0.813123
0.993744 1 0.862608
0.0226749 0.0247349 0.425132
0.0412146 0.0270542 0.426062
0.0737469 0.0304417 0.427482
0.191119 0.0407874 0.431922
0.446097 0.082948 0.444541
0.688304 0.233982 0.476646
0.845075 0.480537 0.555642
0.941573 0.698802 0.685817
1 0.846525 0.817792
0.0221408 0.0457771 0.424201
0.0409094 0.048249 0.425116
0.0736706 0.0518502 0.426505
0.191165 0.0627909 0.430869
0.444755 0.105867 0.443336
0.686839 0.25069 0.475853
0.844495 0.486564 0.55552
0.941451 0.700221 0.685847
1 0.84683 0.817807
0.02121 0.079408 0.422629
0.0403296 0.0820172 0.423514
0.0734417 0.0858167 0.424887
0.191135 0.0972763 0.42916
0.44271 0.140566 0.44152
0.684749 0.274601 0.474754
0.843671 0.49543 0.555352
0.941238 0.702373 0.685893
1 0.847272 0.817823
0.0183871 0.188113 0.41738
0.0385901 0.190463 0.41828
0.0728161 0.193835 0.419638
0.191135 0.203555 0.423987
0.437491 0.237461 0.436881
0.67924 0.339605 0.472251
0.841276 0.521111 0.555032
0.940612 0.708934 0.68603
1 0.848676 0.817899
0.0245212 0.419425 0.41059
0.0474098 0.419821 0.411597
0.0843519 0.420325 0.413123
0.202152 0.421668 0.417914
0.432059 0.432059 0.432059
0.668666 0.478447 0.47013
0.835416 0.585534 0.555459
0.938827 0.727886 0.686687
1 0.853025 0.818112
0.110155 0.673671 0.427771
0.135134 0.67274 0.428717
0.171344 0.671443 0.430152
0.267048 0.668254 0.434562
0.449271 0.664286 0.447578
0.660258 0.669459 0.483101
0.825895 0.701991 0.563577
0.934615 0.773785 0.689799
1 0.865553 0.818906
0.351919 0.850858 0.50454
0.363241 0.850309 0.505135
0.379553 0.849531 0.506035
0.424445 0.847395 0.508812
0.524437 0.842817 0.51725
0.673823 0.837034 0.541299
0.819486 0.836301 0.599939
0.92813 0.852399 0.703487
1 0.895766 0.822095
0.60415 0.954376 0.641215
0.606973 0.954223 0.641443
0.61117 0.953994 0.641794
0.623697 0.953323 0.642878
0.657633 0.951507 0.646281
0.728832 0.947646 0.656489
0.828794 0.942321 0.684306
0.924041 0.939239 0.744732
0.99646 0.947326 0.833997
0.783719 1 0.784482
0.784298 1 0.784543
0.785183 1 0.784634
0.78793 1 0.784924
0.796216 1 0.78584
0.818509 1 0.788693
0.864973 1 0.797223
0.930282 1 0.819806
0.99382 1 0.866224
0.139193 0.259327 0.680705
0.164141 0.260655 0.680827
0.200946 0.262684 0.681041
0.29865 0.269749 0.681605
0.482689 0.295979 0.683055
0.689189 0.375647 0.687419
0.843275 0.530159 0.704982
0.941314 0.708003 0.756054
1 0.847745 0.839445
0.139925 0.274891 0.6795
0.164874 0.276081 0.679652
0.201541 0.277928 0.679866
0.298772 0.284428 0.680491
0.482124 0.309041 0.682078
0.688441 0.384939 0.686763
0.842878 0.534447 0.704738
0.941207 0.709255 0.756024
1 0.848035 0.83946
0.141192 0.297185 0.677821
0.166125 0.298207 0.677974
0.202579 0.299794 0.678218
0.299077 0.305516 0.678904
0.481361 0.327855 0.68069
0.687388 0.398459 0.685832
0.842298 0.54081 0.704402
0.941024 0.711131 0.755993
1 0.848463 0.83946
0.146181 0.357992 0.673335
0.170932 0.358572 0.673548
0.206638 0.359518 0.673838
0.300832 0.363272 0.674693
0.479667 0.379797 0.676982
0.68452 0.436652 0.683284
0.840604 0.559564 0.703426
0.940475 0.716899 0.755871
1 0.849805 0.83949
0.167971 0.489158 0.664729
0.191257 0.489006 0.664988
0.224338 0.488884 0.66537
0.311223 0.489342 0.666499
0.479042 0.495689 0.669627
0.678569 0.526802 0.678019
0.836301 0.608713 0.701259
0.938903 0.733745 0.755657
1 0.853986 0.839582
0.245808 0.672328 0.658137
0.263661 0.671763 0.658412
0.288975 0.671 0.658824
0.356298 0.669215 0.660075
0.493812 0.667369 0.663691
0.673609 0.673609 0.673609
0.828717 0.705379 0.699565
0.935119 0.775448 0.755947
1 0.866056 0.839994
0.415625 0.835111 0.671214
0.424262 0.834745 0.671427
0.436805 0.834195 0.671763
0.472023 0.832731 0.672786
0.554131 0.829602 0.675868
0.685969 0.826215 0.684779
0.823133 0.829236 0.708614
0.929061 0.849744 0.761288
1 0.895399 0.841962
0.621607 0.945159 0.72314
0.624125 0.945037 0.723262
0.627878 0.944854 0.723445
0.639124 0.944305 0.724025
0.669917 0.942824 0.725856
0.73608 0.939788 0.731365
0.831754 0.93608 0.746975
0.925017 0.935668 0.784665
0.996719 0.946212 0.850614
0.787564 1 0.810819
0.788128 1 0.810864
0.788983 1 0.810941
0.791623 1 0.811154
0.799603 1 0.811856
0.821195 1 0.814008
0.86656 1 0.820508
0.930968 1 0.838193
0.994064 1 0.876722
0.429526 0.553338 0.837568
0.438712 0.553506 0.837598
0.452033 0.553796 0.837644
0.489204 0.55491 0.837781
0.574685 0.559915 0.838102
0.7084 0.580041 0.838712
0.842054 0.637675 0.840864
0.940124 0.740459 0.851637
1 0.853574 0.884199
0.429999 0.557183 0.837263
0.439155 0.557336 0.837293
0.452415 0.55761 0.837339
0.489464 0.558679 0.837491
0.574731 0.563485 0.837827
0.708247 0.583108 0.838483
0.841886 0.639704 0.840726
0.940032 0.741329 0.851591
1 0.853819 0.884184
0.430732 0.562905 0.836805
0.439841 0.563043 0.836835
0.453025 0.563287 0.836896
0.489891 0.564263 0.837049
0.574807 0.568811 0.837415
0.708019 0.587686 0.838132
0.841642 0.642741 0.840513
0.93991 0.742641 0.851514
1 0.8542 0.884184
0.433127 0.579812 0.835477
0.442069 0.579904 0.835523
0.455024 0.580072 0.835584
0.491295 0.580819 0.835752
0.575143 0.584619 0.836179
0.707393 0.601328 0.837095
0.840909 0.651942 0.839857
0.939544 0.7467 0.851301
1 0.855375 0.884153
0.441245 0.624628 0.832074
0.449683 0.624613 0.832135
0.461952 0.624613 0.832212
0.496422 0.624826 0.832425
0.576898 0.626871 0.833005
0.70605 0.638453 0.834363
0.838911 0.677913 0.838087
0.93846 0.758785 0.85066
1 0.859052 0.884092
0.468254 0.714443 0.826032
0.475364 0.71429 0.826093
0.485756 0.714092 0.826185
0.515267 0.713619 0.826459
0.586191 0.713237 0.827237
0.705562 0.717037 0.829252
0.834897 0.737499 0.834531
0.935699 0.790295 0.849256
1 0.869795 0.88394
0.540597 0.831861 0.821759
0.545144 0.831693 0.82182
0.551827 0.831464 0.821897
0.571359 0.830793 0.822187
0.621393 0.829297 0.823011
0.71574 0.827771 0.825345
0.831662 0.831662 0.831662
0.930892 0.85185 0.848188
1 0.896498 0.884123
0.665278 0.93492 0.830121
0.667124 0.934844 0.830167
0.669871 0.934722 0.830228
0.678218 0.934371 0.830442
0.701717 0.933379 0.831098
0.755276 0.931334 0.833066
0.839475 0.929198 0.838727
0.927367 0.931228 0.853895
0.99733 0.944579 0.88751
0.798642 1 0.862974
0.799146 1 0.862989
0.799908 1 0.863035
0.802258 1 0.863142
0.809415 1 0.863523
0.829023 1 0.864683
0.871183 1 0.868208
0.932876 1 0.878172
0.994705 1 0.902358
0.673671 0.75552 0.936461
0.675639 0.75555 0.936461
0.678599 0.755596 0.936477
0.68751 0.755749 0.936507
0.712459 0.75642 0.936599
0.768383 0.759564 0.936828
0.853788 0.772412 0.937224
0.939437 0.808988 0.938704
1 0.874159 0.945861
0.673762 0.756298 0.936385
0.675746 0.756329 0.9364
0.678691 0.756374 0.936416
0.687602 0.756527 0.936446
0.71252 0.757183 0.936553
0.768383 0.760281 0.936767
0.853758 0.773022 0.937179
0.939406 0.8094 0.938674
1 0.874327 0.945846
0.67393 0.757473 0.936294
0.675898 0.757504 0.936309
0.678843 0.757534 0.936324
0.687739 0.757687 0.936355
0.712612 0.758328 0.936461
0.768399 0.761364 0.936675
0.853712 0.773953 0.937118
0.939361 0.81001 0.938628
1 0.874586 0.94583
0.674449 0.761105 0.936019
0.676402 0.76112 0.936019
0.679332 0.761151 0.936034
0.688167 0.761288 0.936065
0.712886 0.761868 0.936172
0.768444 0.764736 0.936416
0.853574 0.776837 0.936889
0.939208 0.811917 0.938491
1 0.875425 0.945785
0.676127 0.771954 0.935164
0.678035 0.771969 0.93518
0.680903 0.771984 0.93518
0.68957 0.772076 0.935225
0.713863 0.772503 0.935347
0.768673 0.774868 0.935622
0.853178 0.785565 0.936233
0.938735 0.817761 0.938079
1 0.878019 0.945647
0.681758 0.80058 0.932998
0.683558 0.800565 0.933013
0.686259 0.800549 0.933028
0.694392 0.800534 0.933074
0.717357 0.800626 0.933227
0.769833 0.801862 0.933608
0.852308 0.809216 0.934493
0.937484 0.834287 0.936965
1 0.885756 0.945251
0.700038 0.857664 0.929168
0.701518 0.857633 0.929183
0.703746 0.857588 0.929213
0.710536 0.85745 0.929274
0.729946 0.857114 0.929458
0.77586 0.856825 0.929961
0.852003 0.859236 0.931258
0.934951 0.872267 0.934722
1 0.906035 0.944366
0.747219 0.932876 0.926482
0.748135 0.932845 0.926497
0.749523 0.932799 0.926513
0.75378 0.932647 0.926574
0.766354 0.932219 0.926757
0.798367 0.931258 0.927291
0.858427 0.930327 0.928801
0.932891 0.932891 0.932891
0.998566 0.946029 0.943679
0.826337 1 0.931838
0.826703 1 0.931838
0.827253 1 0.931853
0.828977 1 0.931899
0.834287 1 0.932036
0.849256 0.999924 0.932464
0.883467 0.998642 0.933745
0.937911 0.99733 0.937423
0.996277 0.998779 0.947341
0.832029 0.883665 1
0.832425 0.883665 1
0.833021 0.88368 1
0.834867 0.883711 1
0.840543 0.883803 1
0.856413 0.884245 1
0.892103 0.886259 1
0.947311 0.894484 1
1 0.917998 1
0.832059 0.883818 1
0.832441 0.883833 1
0.833036 0.883833 1
0.834897 0.883864 1
0.840574 0.88397 1
0.856428 0.884398 1
0.892103 0.886397 1
0.947295 0.894606 1
1 0.91809 1
0.83209 0.884062 1
0.832471 0.884062 1
0.833066 0.884077 1
0.834928 0.884092 1
0.840589 0.884199 1
0.856443 0.884627 1
0.892119 0.886625 1
0.947295 0.894789 1
1 0.918212 1
0.832181 0.884794 1
0.832578 0.88481 1
0.833173 0.88481 1
0.835019 0.88484 1
0.840681 0.884932 1
0.856504 0.885344 1
0.892119 0.887312 1
0.947265 0.895384 1
1 0.918608 1
0.832502 0.887129 1
0.832898 0.887129 1
0.833478 0.887129 1
0.835325 0.88716 1
0.84094 0.887251 1
0.856687 0.887617 1
0.892149 0.889479 1
0.947173 0.897231 1
1 0.919844 1
0.83357 0.894087 1
0.833951 0.894087 1
0.834516 0.894102 1
0.836316 0.894118 1
0.84184 0.894163 1
0.857298 0.894453 1
0.892287 0.895979 1
0.946929 0.902861 1
1 0.923644 1
0.83711 0.912535 0.999893
0.837461 0.912535 0.999893
0.83801 0.912535 0.999893
0.839704 0.91252 0.999908
0.844877 0.91252 0.999939
0.85951 0.912581 1
0.893019 0.913405 1
0.94638 0.918166 1
1 0.934432 1
0.8486 0.949706 0.997436
0.848905 0.949691 0.997436
0.849348 0.949691 0.997436
0.850752 0.94966 0.997452
0.85507 0.949569 0.997497
0.867445 0.949371 0.997604
0.896834 0.949218 0.997955
0.946181 0.950835 0.99884
1 0.959411 1
0.878431 0.999786 0.995682
0.878614 0.999771 0.995682
0.878889 0.999771 0.995682
0.879759 0.999741 0.995697
0.88249 0.999634 0.995743
0.890547 0.999374 0.99585
0.911177 0.998779 0.996216
0.950317 0.99823 0.997223
1 1 1
