luts/AgX-Resolve.cube
TITLE "Generated by Resolve"
LUT_3D_SIZE 33
0 0 0
6.10361e-05 0 0
0.000289921 0 0
0.000823987 0 0
0.00175479 0 1.5259e-05
0.00331121 0 3.0518e-05
0.00634775 0 4.57771e-05
0.0116274 0 7.62951e-05
0.0200046 0 0.000137331
0.0329747 0 0.000228885
0.0526589 0 0.000381476
0.082002 0 0.000656138
0.124636 0 0.00111391
0.184009 0 0.0019379
0.258625 0 0.00357061
0.339437 0.000885023 0.00733959
0.4206 0.0104372 0.0138705
0.4981 0.0275578 0.0242466
0.569375 0.0555123 0.0402228
0.63299 0.0981918 0.0644083
0.688319 0.158846 0.100191
0.735943 0.233387 0.151659
0.77734 0.311681 0.219287
0.813535 0.388952 0.294087
0.845396 0.462226 0.370062
0.87361 0.529931 0.443488
0.898756 0.591455 0.512169
0.921263 0.646799 0.575097
0.941527 0.6963 0.632013
0.959808 0.740444 0.683055
0.976394 0.779797 0.728679
0.99147 0.814862 0.769345
1 0.846174 0.805615
0 4.57771e-05 0
6.10361e-05 6.10361e-05 0
0.000320439 6.10361e-05 0
0.000869764 6.10361e-05 0
0.0018616 4.57771e-05 0
0.00347906 0 1.5259e-05
0.0065919 0 3.0518e-05
0.0119326 0 6.10361e-05
0.0203555 0 0.000122072
0.0333715 0 0.000213626
0.0531014 0 0.000350958
0.0824598 0 0.000610361
0.125063 0 0.00103761
0.184344 0 0.00180056
0.258808 0 0.00344854
0.339452 0.00453193 0.00724804
0.420462 0.0146792 0.0137942
0.49781 0.0323491 0.0241703
0.568978 0.0608225 0.0401617
0.632502 0.103838 0.0643626
0.6878 0.164477 0.100175
0.7355 0.238087 0.151751
0.777005 0.315267 0.219409
0.813291 0.391562 0.294194
0.845212 0.464057 0.370169
0.873487 0.531182 0.443565
0.898665 0.592309 0.51223
0.921218 0.647364 0.575143
0.941482 0.696681 0.632029
0.959792 0.740703 0.683085
0.976379 0.779965 0.728679
0.991455 0.814984 0.76936
1 0.84625 0.805631
0 0.000213626 0
6.10361e-05 0.000259403 0
0.000335698 0.000289921 0
0.000915541 0.000320439 0
0.00195315 0.000320439 0
0.00363165 0.00030518 0
0.00683604 0.000244144 1.5259e-05
0.0122072 0.000106813 3.0518e-05
0.020676 0 9.15541e-05
0.0337377 0 0.000167849
0.0534829 0 0.00030518
0.0828565 0 0.000518807
0.125429 0 0.000915541
0.184649 6.10361e-05 0.00164797
0.258976 0.00270085 0.00331121
0.339452 0.00836194 0.00715648
0.420294 0.0190433 0.0137179
0.497505 0.0372473 0.024094
0.568566 0.0661784 0.0401007
0.632029 0.109514 0.0643168
0.687297 0.170077 0.100175
0.735073 0.242725 0.151843
0.776669 0.318807 0.219547
0.813046 0.394141 0.294316
0.845045 0.465873 0.37026
0.873365 0.532433 0.443626
0.898589 0.593149 0.512276
0.921157 0.647944 0.575174
0.941451 0.697063 0.632059
0.959762 0.740963 0.683101
0.976364 0.780133 0.728695
0.99144 0.815091 0.76936
1 0.846326 0.805631
0 0.000579843 0
3.0518e-05 0.000656138 0
0.000335698 0.000732433 0
0.000946059 0.000808728 0
0.00201419 0.000854505 0
0.00376898 0.000885023 0
0.00704967 0.000869764 0
0.0124666 0.000823987 0
0.0209812 0.000747692 3.0518e-05
0.0340581 0.000640879 9.15541e-05
0.0538338 0.000595102 0.000198367
0.0832074 0.000793469 0.000396735
0.125734 0.00157168 0.000732433
0.184909 0.00311284 0.00146487
0.259113 0.00619516 0.00315862
0.339437 0.0123598 0.00704967
0.420127 0.0235294 0.013611
0.4972 0.0422217 0.0240024
0.568154 0.0715801 0.0400244
0.63154 0.11519 0.064271
0.686778 0.175616 0.100175
0.734646 0.247303 0.151949
0.776333 0.322316 0.219684
0.812802 0.396689 0.294438
0.844877 0.467674 0.370352
0.873243 0.533669 0.443702
0.898512 0.593988 0.512322
0.921096 0.648508 0.575204
0.941405 0.697444 0.632074
0.959747 0.741207 0.683116
0.976349 0.780301 0.72871
0.99144 0.815198 0.769375
1 0.846403 0.805631
0 0.00122072 0
0 0.00135805 0
0.000289921 0.00148013 0
0.000946059 0.0016022 0
0.00205997 0.00172427 0
0.00387579 0.00181582 0
0.00721752 0.00187686 0
0.0126802 0.00195315 0
0.0212253 0.00205997 0
0.0343328 0.00222782 0
0.0541238 0.00260929 4.57771e-05
0.0834821 0.00332647 0.000198367
0.126009 0.00447089 0.000534066
0.185153 0.00639353 0.0012665
0.259236 0.00988785 0.00300603
0.339406 0.016495 0.0069276
0.419928 0.0281224 0.0135195
0.496895 0.0472877 0.0239109
0.567727 0.0770428 0.0399481
0.631037 0.120897 0.06421
0.68629 0.181109 0.100175
0.734218 0.25182 0.152056
0.776013 0.32578 0.219821
0.812558 0.399207 0.29456
0.844694 0.469459 0.370443
0.873137 0.534905 0.443778
0.898421 0.594827 0.512367
0.92105 0.649073 0.575235
0.941375 0.69781 0.632105
0.959716 0.741466 0.683131
0.976333 0.780468 0.72871
0.991424 0.81532 0.769375
1 0.846479 0.805646
0 0.00224308 0
0 0.00244144 0
0.000228885 0.00265507 0
0.000900282 0.00285344 0
0.00205997 0.0030518 0
0.00393683 0.00321965 0
0.00733959 0.00340276 0
0.0128481 0.00364691 0
0.0214084 0.00399786 0
0.0345312 0.00450141 0
0.0543526 0.00521859 0
0.0837262 0.00621042 0
0.126268 0.00764477 0.00030518
0.185382 0.0099031 0.00105287
0.259342 0.0137789 0.00283818
0.339345 0.0207828 0.00680552
0.41973 0.0328679 0.0133974
0.496559 0.0524453 0.0238041
0.5673 0.0825818 0.0398718
0.630549 0.126635 0.0641642
0.685786 0.186572 0.100191
0.733806 0.256306 0.152163
0.775692 0.329213 0.219959
0.812314 0.401724 0.294682
0.844526 0.471229 0.37055
0.873014 0.536126 0.443839
0.898344 0.595666 0.512428
0.920989 0.649638 0.57528
0.941344 0.698192 0.63212
0.959686 0.741711 0.683146
0.976318 0.780636 0.728725
0.991409 0.815427 0.76939
1 0.846555 0.805646
0 0.00419623 0
0 0.00453193 0
6.10361e-05 0.00486763 0
0.000762951 0.00520333 0
0.00198367 0.00553903 0
0.00393683 0.00585946 0
0.00741588 0.00619516 0
0.0129549 0.00663767 0
0.021561 0.007187 0
0.0347295 0.00790417 0
0.0545815 0.00883497 0
0.0840009 0.0100862 0
0.126543 0.0118563 1.5259e-05
0.185626 0.0144656 0.00077821
0.259449 0.0187686 0.00262455
0.339269 0.0262455 0.00663767
0.419486 0.0388037 0.0132448
0.496147 0.0588693 0.023682
0.566781 0.0894179 0.039765
0.629938 0.133684 0.0641031
0.685191 0.193194 0.100206
0.733303 0.261738 0.1523
0.775296 0.333379 0.220142
0.812024 0.404776 0.29485
0.844327 0.473396 0.370672
0.872877 0.537636 0.443931
0.898253 0.596689 0.512489
0.920928 0.650324 0.575311
0.941299 0.698665 0.632151
0.959655 0.742031 0.683162
0.976287 0.78085 0.72874
0.991394 0.815564 0.76939
1 0.846647 0.805646
0 0.00831617 0
0 0.00875868 0
0 0.00921645 0
0.000457771 0.00965896 0
0.00177005 0.010071 0
0.00386053 0.0104677 0
0.00741588 0.0108949 0
0.0130159 0.0114595 0
0.0216983 0.0121614 0
0.0349279 0.013077 0
0.0548409 0.0142519 0
0.0843061 0.0158083 0
0.126864 0.0179446 0
0.185916 0.0209812 0.000381476
0.259541 0.0257725 0.00231937
0.339132 0.0337987 0.00639353
0.41912 0.0469673 0.0130312
0.495583 0.0676127 0.0234989
0.566064 0.0986496 0.0396277
0.629129 0.143114 0.0640269
0.684398 0.201907 0.100252
0.732631 0.268864 0.152514
0.774777 0.338857 0.220386
0.811643 0.408804 0.295064
0.844053 0.476249 0.37084
0.872679 0.53962 0.444053
0.898116 0.598047 0.512566
0.920836 0.65124 0.575372
0.941238 0.699275 0.632197
0.959625 0.742443 0.683192
0.976272 0.781125 0.728756
0.991379 0.815747 0.769406
1 0.846769 0.805661
0 0.0151522 0
0 0.0157015 0
0 0.0162356 0
0 0.0167544 0
0.00138857 0.017258 0
0.00366217 0.0177157 0
0.00730907 0.0182498 0
0.0130159 0.0189364 0
0.0217746 0.0198062 0
0.035111 0.0209201 0
0.0551003 0.0223697 0
0.0846265 0.0242618 0
0.12723 0.0267948 0
0.186236 0.0303197 0
0.259632 0.0356756 0.00189212
0.338903 0.044358 0.00602731
0.418585 0.0582132 0.012726
0.494804 0.0795453 0.0232395
0.565087 0.111116 0.0394293
0.628046 0.155703 0.06392
0.683375 0.213291 0.100328
0.731777 0.278157 0.152804
0.774105 0.346014 0.220722
0.811154 0.414069 0.295354
0.843687 0.480018 0.371069
0.872435 0.542245 0.444221
0.897948 0.599847 0.512688
0.920729 0.652461 0.575448
0.941161 0.700099 0.632242
0.959564 0.742992 0.683223
0.976226 0.781491 0.728786
0.991363 0.816007 0.769421
1 0.846937 0.805661
0 0.0259709 0
0 0.0265965 0
0 0.0272221 0
0 0.0278172 0
0.00077821 0.028397 0
0.00328069 0.0289311 0
0.00704967 0.0295567 0
0.0128634 0.0303655 0
0.0217594 0.0314031 0
0.0352178 0.0327459 0
0.0553292 0.0344701 0
0.0849622 0.0367132 0
0.127611 0.0396887 0
0.186572 0.0437476 0
0.259648 0.0497444 0.00128176
0.338521 0.059144 0.00550851
0.417823 0.0737926 0.0122835
0.493736 0.0958572 0.0228733
0.563775 0.127932 0.0391546
0.626612 0.172427 0.0637827
0.682048 0.228061 0.100481
0.730663 0.290211 0.153231
0.773236 0.355306 0.221195
0.810498 0.420966 0.295766
0.843229 0.484947 0.371374
0.872099 0.545693 0.44445
0.897719 0.602213 0.51284
0.920562 0.654078 0.575555
0.941054 0.701198 0.632319
0.959503 0.743725 0.683268
0.976181 0.781979 0.728817
0.991333 0.816327 0.769436
1 0.847166 0.805676
0 0.0426184 0
0 0.0433356 0
0 0.0440375 0
0 0.0447242 0
0 0.0453651 0
0.00260929 0.0459754 0
0.00653086 0.0466926 0
0.0125124 0.0476387 0
0.0215763 0.0488441 0
0.0351873 0.0504005 0
0.0554665 0.0524147 0
0.0852369 0.055024 0
0.127962 0.0584573 0
0.186877 0.0630655 0
0.259541 0.0697185 0.000396735
0.337911 0.0798962 0.00474556
0.416739 0.0953384 0.0116426
0.492241 0.118105 0.0223697
0.562005 0.150515 0.0388037
0.62475 0.194217 0.0636759
0.680354 0.246998 0.100771
0.729259 0.305638 0.153857
0.772122 0.367269 0.221881
0.809659 0.429862 0.296315
0.842618 0.491371 0.371801
0.871672 0.55021 0.444755
0.897414 0.605341 0.513054
0.920363 0.656214 0.575708
0.940917 0.702632 0.63241
0.959411 0.744701 0.68333
0.97612 0.782635 0.728847
0.991287 0.81677 0.769467
1 0.847456 0.805692
0 0.0677958 0
0 0.0685893 0
0 0.0693675 0
0 0.0701152 0
0 0.0708171 0
0.00151064 0.0715038 0
0.00561532 0.0723125 0
0.0118105 0.0733654 0
0.021088 0.0747387 0
0.0349432 0.0765087 0
0.055436 0.0787976 0
0.0853895 0.0817426 0
0.128237 0.0856031 0
0.187076 0.0907454 0
0.25922 0.0980392 0
0.33695 0.108934 0.00366217
0.415167 0.125048 0.0107424
0.490196 0.148272 0.0216678
0.559655 0.180529 0.0383764
0.6224 0.221942 0.0636759
0.678233 0.270863 0.101289
0.727474 0.325109 0.154803
0.770703 0.382467 0.222843
0.808591 0.441276 0.297108
0.841825 0.499672 0.372396
0.871107 0.5561 0.445167
0.897032 0.609445 0.513344
0.920089 0.659022 0.575906
0.940734 0.704555 0.632547
0.959289 0.745998 0.683421
0.976043 0.783505 0.728908
0.991226 0.817349 0.769512
1 0.847852 0.805722
0 0.105028 0
0 0.105882 0
0 0.106706 0
0 0.1075 0
0 0.108248 0
0 0.108995 0
0.00418097 0.109865 0
0.0106355 0.111025 0
0.0202029 0.11252 0
0.0343328 0.114458 0
0.0551308 0.11696 0
0.0853437 0.120195 0
0.128359 0.124376 0
0.187121 0.129915 0
0.258595 0.137682 0
0.3355 0.149035 0.00218204
0.413001 0.165438 0.00953689
0.48748 0.188464 0.0208133
0.556695 0.218799 0.037995
0.619532 0.256352 0.0639506
0.675654 0.300359 0.102205
0.725292 0.349294 0.156222
0.768963 0.401495 0.224231
0.807248 0.455695 0.298238
0.840833 0.510262 0.37322
0.87039 0.563684 0.445747
0.896529 0.614755 0.513741
0.919738 0.662699 0.576165
0.94049 0.707057 0.632715
0.959121 0.747692 0.683528
0.975921 0.784665 0.728985
0.99115 0.818128 0.769558
1 0.848371 0.805753
0 0.158389 0
0 0.159258 0
0 0.160098 0
0 0.160891 0
0 0.161669 0
0 0.162417 0
0.00210575 0.163333 0
0.00888075 0.164523 0
0.0188144 0.166079 0
0.033341 0.168078 0
0.0545205 0.170657 0
0.0850843 0.173983 0
0.128328 0.178256 0
0.186984 0.183856 0
0.257588 0.191669 0
0.333532 0.202792 0.000335698
0.410208 0.218189 0.00816358
0.484184 0.238788 0.0200504
0.553231 0.265232 0.0379797
0.616175 0.297765 0.0647593
0.672602 0.335943 0.103807
0.722683 0.378653 0.158389
0.766827 0.424857 0.22623
0.805585 0.47364 0.299809
0.839582 0.523598 0.37438
0.869474 0.573343 0.446571
0.895872 0.621607 0.51429
0.919295 0.667475 0.576532
0.940185 0.710353 0.632959
0.958907 0.749935 0.683696
0.975784 0.786175 0.729091
0.991058 0.819165 0.769635
1 0.849058 0.805798
0 0.230655 0
0 0.231434 0
0 0.232181 0
0 0.232898 0
0 0.233616 0
0 0.234302 0
0 0.235126 0
0.00677501 0.236194 0
0.0171664 0.237583 0
0.0322118 0.239368 0
0.0539101 0.241627 0
0.0849622 0.244495 0
0.128527 0.248127 0
0.187045 0.252811 0
0.256641 0.259251 0
0.331472 0.268315 0
0.407233 0.280842 0.00721752
0.480613 0.297612 0.0199435
0.549416 0.319234 0.0388037
0.612406 0.345953 0.0665599
0.669123 0.377569 0.106508
0.719646 0.413397 0.161669
0.764309 0.452888 0.229114
0.803571 0.495506 0.302068
0.838041 0.540139 0.376028
0.868345 0.585489 0.4477
0.895048 0.63032 0.515053
0.9187 0.673609 0.577035
0.939773 0.714611 0.633295
0.958633 0.752865 0.683909
0.975586 0.788174 0.729229
0.990921 0.820523 0.769726
1 0.849989 0.805859
0 0.315221 0
0 0.31577 0
0 0.316304 0
0 0.316808 0
0 0.317311 0
0 0.3178 0
0 0.318379 0
0.00567636 0.319142 0
0.0166476 0.320104 0
0.0323186 0.321324 0
0.0546883 0.322866 0
0.0863355 0.324788 0
0.130297 0.327199 0
0.188479 0.330312 0
0.256733 0.334737 0
0.330114 0.341192 0
0.404654 0.350347 0.00753796
0.47718 0.36286 0.0212406
0.545525 0.379278 0.0411841
0.608423 0.399893 0.0700236
0.665354 0.424674 0.110933
0.716274 0.453285 0.166537
0.761425 0.485649 0.233295
0.801221 0.521553 0.305287
0.836194 0.560189 0.378332
0.866941 0.600504 0.449302
0.894026 0.641276 0.516121
0.917967 0.681437 0.577737
0.939254 0.720104 0.633753
0.958267 0.75668 0.684215
0.975341 0.790799 0.729427
0.990753 0.822309 0.769848
1 0.851194 0.805951
0 0.403296 0
0 0.403616 0
0 0.403937 0
0 0.404242 0
0 0.404532 0
0 0.404807 0
0 0.405127 0
0.00732433 0.405554 0
0.018967 0.406073 0
0.0353552 0.406729 0
0.0584573 0.407523 0
0.0907607 0.408469 0
0.135058 0.409628 0
0.192462 0.411185 0
0.258854 0.413642 0
0.330266 0.417517 0
0.403113 0.423392 0.0102541
0.474388 0.431815 0.0250095
0.54197 0.443229 0.0461128
0.604547 0.457969 0.0760967
0.661479 0.476097 0.117952
0.712673 0.497597 0.173663
0.758251 0.522789 0.239246
0.79855 0.551736 0.309834
0.834043 0.583963 0.381598
0.865263 0.618662 0.451545
0.89276 0.65478 0.517617
0.917052 0.691234 0.578714
0.938598 0.727092 0.634379
0.957809 0.761578 0.684611
0.975021 0.794202 0.729686
0.990539 0.824643 0.770016
1 0.852796 0.806058
0 0.489586 0
0 0.489708 0
0 0.48983 0
0 0.489952 0
0 0.490043 0
0 0.490135 0
0.00471504 0.490242 0
0.013611 0.490364 0
0.0259556 0.490501 0
0.0431373 0.490639 0
0.0670024 0.490776 0
0.0999008 0.490883 0
0.144305 0.490974 0
0.200122 0.491203 0
0.263996 0.491966 0
0.332784 0.49366 0.00547799
0.403326 0.496712 0.0167849
0.472847 0.501564 0.0326543
0.539223 0.508583 0.0549172
0.601114 0.518059 0.0860151
0.657801 0.530175 0.128649
0.709056 0.545144 0.183856
0.75491 0.563561 0.247623
0.795636 0.585687 0.316213
0.831617 0.611368 0.386175
0.863325 0.640116 0.454688
0.891264 0.671092 0.519722
0.915923 0.703334 0.580087
0.937774 0.735851 0.635264
0.957214 0.767819 0.685191
0.974609 0.798566 0.730053
0.99025 0.82768 0.77026
1 0.854887 0.80621
0 0.570489 0
0 0.570459 0
0 0.570413 0
0 0.570367 0
0.00471504 0.570306 0
0.0102846 0.57026 0
0.0172427 0.570169 0
0.0267643 0.570047 0
0.039826 0.569879 0
0.0577554 0.569604 0
0.0823072 0.569207 0
0.115602 0.568658 0
0.159411 0.56791 0
0.212604 0.567178 0.00132753
0.273136 0.566659 0.00784314
0.338521 0.566644 0.0167697
0.406058 0.567468 0.0290532
0.473152 0.569436 0.0459754
0.537789 0.572869 0.0693523
0.59855 0.577981 0.101396
0.654627 0.585016 0.144411
0.705669 0.594415 0.198001
0.751598 0.606821 0.259174
0.792599 0.622644 0.325017
0.828977 0.642023 0.392538
0.861128 0.664775 0.459068
0.889509 0.690333 0.522652
0.91458 0.717922 0.58201
0.936767 0.746639 0.636515
0.956481 0.775631 0.685985
0.974075 0.804135 0.730571
0.989883 0.831586 0.770581
1 0.857603 0.806424
0.00291447 0.643748 0
0.00856031 0.643595 0
0.0142977 0.643427 0
0.0201114 0.643259 0
0.0260014 0.643091 0.00030518
0.0319982 0.642908 0.000854505
0.0394446 0.642695 0.00151064
0.0495155 0.64239 0.00239567
0.0631876 0.641962 0.00358587
0.0817121 0.641398 0.00518807
0.106645 0.64062 0.00733959
0.139727 0.639567 0.0102541
0.181338 0.638315 0.0141756
0.230869 0.636912 0.0194705
0.28716 0.635508 0.0266117
0.348287 0.634287 0.036286
0.411994 0.633478 0.0494087
0.475944 0.63331 0.067277
0.538201 0.633982 0.0915084
0.597299 0.635721 0.124086
0.652338 0.638804 0.166323
0.7028 0.643778 0.217075
0.748531 0.651209 0.274678
0.789609 0.661585 0.336904
0.82623 0.675242 0.40119
0.858763 0.692256 0.46511
0.887556 0.712383 0.526726
0.913024 0.735103 0.584695
0.935561 0.759655 0.638239
0.955581 0.78526 0.687099
0.973434 0.811109 0.731273
0.98941 0.836545 0.771038
1 0.861097 0.806714
0.0357671 0.70808 0.0259251
0.041886 0.707835 0.0265049
0.0480659 0.707576 0.0271
0.0542611 0.707317 0.0276799
0.060502 0.707057 0.028275
0.066804 0.706798 0.0288701
0.0745708 0.706477 0.0296025
0.0849928 0.706035 0.0305791
0.0989395 0.705455 0.0319066
0.117556 0.704677 0.0336614
0.14197 0.703655 0.0360266
0.172885 0.702388 0.0392004
0.210788 0.700847 0.0434424
0.255665 0.699062 0.049134
0.306798 0.697139 0.0567636
0.362799 0.69514 0.0670024
0.421805 0.693248 0.080766
0.481819 0.6916 0.0991836
0.540993 0.690349 0.123735
0.597833 0.689708 0.155673
0.651301 0.690044 0.195132
0.700771 0.691752 0.241856
0.745968 0.695354 0.294896
0.786862 0.701305 0.35256
0.82356 0.710094 0.412757
0.856321 0.721965 0.473304
0.885435 0.73695 0.532326
0.911269 0.754803 0.588403
0.934173 0.77499 0.640665
0.954513 0.796872 0.68864
0.972625 0.819699 0.732265
0.98883 0.842786 0.771664
1 0.865553 0.807111
0.0862745 0.762753 0.0695354
0.092607 0.762432 0.070161
0.0989242 0.762127 0.0707866
0.105226 0.761822 0.0714122
0.111513 0.761517 0.0720378
0.1178 0.761196 0.0726787
0.125475 0.76083 0.0734569
0.135576 0.760327 0.0744945
0.148775 0.759686 0.0758679
0.165835 0.758846 0.0777295
0.187594 0.757778 0.0802014
0.214771 0.756451 0.0835126
0.247959 0.754849 0.0879225
0.287327 0.752941 0.0938125
0.332494 0.750759 0.101656
0.382559 0.748379 0.112078
0.436057 0.745876 0.125887
0.491325 0.743358 0.143938
0.546639 0.741009 0.167041
0.600534 0.73901 0.195956
0.651865 0.737606 0.23122
0.699886 0.737133 0.272892
0.744183 0.737987 0.320409
0.784573 0.740627 0.37261
0.821103 0.745525 0.427802
0.853925 0.753048 0.484154
0.883253 0.763455 0.539864
0.909392 0.776699 0.593484
0.932616 0.792569 0.644007
0.953277 0.810559 0.690806
0.971679 0.830076 0.733654
0.988113 0.850477 0.772549
1 0.871122 0.807675
0.155245 0.807675 0.131991
0.160952 0.80737 0.132601
0.166567 0.807065 0.133211
0.172107 0.806775 0.133822
0.177554 0.806485 0.134432
0.182971 0.806195 0.135042
0.189502 0.805844 0.13579
0.198062 0.805386 0.136797
0.209186 0.804776 0.138125
0.223499 0.804013 0.13991
0.241703 0.803021 0.14226
0.264454 0.801801 0.145403
0.292332 0.80029 0.149554
0.325643 0.798474 0.155047
0.364324 0.796353 0.162249
0.407813 0.793957 0.171664
0.455116 0.791348 0.183871
0.50486 0.788602 0.199557
0.555566 0.78584 0.219425
0.605814 0.7832 0.24419
0.654398 0.78085 0.274372
0.700465 0.779065 0.310201
0.74342 0.778149 0.351476
0.783001 0.778485 0.397436
0.819089 0.780499 0.446845
0.851743 0.784619 0.498161
0.881132 0.791165 0.549813
0.907439 0.800336 0.60032
0.930938 0.812116 0.648569
0.951888 0.82623 0.693797
0.970581 0.842298 0.735576
0.987259 0.859754 0.77377
1 0.878004 0.808454
0.233585 0.844541 0.207645
0.238087 0.844297 0.208148
0.242512 0.844053 0.208652
0.246876 0.843809 0.20914
0.251179 0.843565 0.209644
0.255451 0.84332 0.210147
0.260594 0.84303 0.210758
0.267338 0.842664 0.211566
0.276127 0.842161 0.212665
0.287465 0.841535 0.214115
0.301915 0.840711 0.216037
0.320104 0.839689 0.218585
0.34258 0.838407 0.221973
0.369741 0.836851 0.226429
0.40174 0.835004 0.232273
0.438361 0.832853 0.239918
0.478996 0.830442 0.249805
0.522652 0.827832 0.262516
0.568093 0.825071 0.27866
0.614008 0.822263 0.298833
0.659236 0.819562 0.323568
0.702785 0.817136 0.353246
0.743969 0.815213 0.3879
0.782345 0.814099 0.427131
0.817685 0.814145 0.470146
0.849958 0.815747 0.515755
0.879194 0.819287 0.5626
0.905547 0.825055 0.609323
0.929213 0.833204 0.654704
0.950393 0.843687 0.697887
0.969329 0.856321 0.738247
0.986282 0.87068 0.775494
1 0.88632 0.809552
0.314153 0.87538 0.287648
0.317479 0.875181 0.288029
0.32076 0.874998 0.288411
0.32401 0.874815 0.288792
0.327214 0.874632 0.289158
0.330388 0.874449 0.28954
0.334234 0.874235 0.290013
0.3393 0.873945 0.290623
0.345907 0.873564 0.291447
0.354467 0.873075 0.292546
0.365469 0.872435 0.294011
0.379416 0.871626 0.295949
0.396841 0.870619 0.298512
0.418189 0.869368 0.3019
0.443763 0.867842 0.306355
0.47361 0.866056 0.3122
0.507469 0.863996 0.319783
0.544701 0.861677 0.329549
0.584375 0.859159 0.342031
0.625406 0.856519 0.357748
0.666682 0.853819 0.377234
0.707164 0.851209 0.4009
0.74609 0.848844 0.428992
0.782864 0.846937 0.461402
0.817121 0.845792 0.497734
0.848722 0.845701 0.537148
0.877607 0.847059 0.578592
0.903838 0.850156 0.620859
0.927535 0.855283 0.662776
0.948852 0.862547 0.703365
0.968002 0.871931 0.741878
0.985168 0.883238 0.777859
1 0.896132 0.811078
0.392554 0.90161 0.366903
0.394919 0.901473 0.367178
0.397253 0.901335 0.367437
0.399573 0.901198 0.367712
0.401862 0.901076 0.367987
0.40415 0.900938 0.368261
0.406912 0.900786 0.368597
0.410574 0.900572 0.369039
0.415351 0.900298 0.369635
0.421592 0.899931 0.370428
0.429664 0.899458 0.371481
0.439994 0.898848 0.372885
0.45304 0.898085 0.374762
0.469261 0.897124 0.377218
0.489036 0.895949 0.380468
0.512596 0.89453 0.384726
0.539925 0.892851 0.390295
0.570718 0.890913 0.397528
0.60441 0.888762 0.406806
0.640131 0.886427 0.418601
0.676936 0.883955 0.433387
0.713863 0.881453 0.451606
0.750027 0.879011 0.47361
0.784772 0.876799 0.499519
0.817594 0.875013 0.529229
0.848219 0.873915 0.562295
0.876509 0.873777 0.597955
0.902419 0.874952 0.635233
0.925994 0.877714 0.673106
0.947356 0.882292 0.710552
0.966628 0.888808 0.746761
0.983978 0.897246 0.781094
0.999588 0.907408 0.813184
0.466194 0.924315 0.442206
0.467842 0.924224 0.44239
0.469459 0.924132 0.442573
0.471077 0.924041 0.442771
0.472679 0.923949 0.442954
0.474266 0.923858 0.443153
0.476204 0.923735 0.443381
0.478767 0.923598 0.443702
0.482139 0.9234 0.444114
0.486564 0.92314 0.444663
0.492332 0.922805 0.445411
0.499763 0.922362 0.446403
0.509255 0.921798 0.4477
0.521218 0.921096 0.449439
0.536049 0.920211 0.451743
0.55407 0.919127 0.454765
0.575448 0.917815 0.458732
0.600153 0.916274 0.46389
0.627909 0.914519 0.470588
0.658152 0.912551 0.479164
0.69015 0.910414 0.490043
0.723049 0.908156 0.503639
0.756008 0.905867 0.520333
0.788281 0.903655 0.540413
0.819303 0.901625 0.563958
0.848646 0.900008 0.590829
0.876066 0.898985 0.6206
0.901442 0.898863 0.652598
0.924727 0.899916 0.685954
0.945983 0.902403 0.719768
0.965286 0.906523 0.75317
0.982742 0.912398 0.785443
0.99852 0.919982 0.816068
0.533837 0.944289 0.511864
0.534951 0.944228 0.511986
0.536065 0.944167 0.512123
0.537163 0.944106 0.512245
0.538262 0.944045 0.512383
0.539361 0.943969 0.512505
0.540688 0.943893 0.512673
0.542458 0.943801 0.512886
0.544793 0.943664 0.513176
