luts/AgX-Resolve_Bombastic.cube
TITLE "Generated by Resolve"
LUT_3D_SIZE 5
0 0 0
0.0049897 0 0
0.426719 0.00161746 0.00257877
0.912169 0.567269 0.561547
0.999939 0.929503 0.92842
0 0.00288396 0
0.00500496 0.00459297 0
0.424353 0.0289311 0
0.909117 0.583658 0.560296
0.999878 0.929824 0.928389
0 0.331823 0
0 0.339025 0
0.376867 0.385153 0
0.892912 0.677516 0.56228
0.99942 0.93228 0.928206
0.224201 0.877195 0.51107
0.277729 0.876097 0.513619
0.538079 0.871916 0.536126
0.878309 0.88571 0.700298
0.996338 0.950362 0.928573
0.85452 0.99237 0.917739
0.856046 0.99234 0.917784
0.867048 0.992096 0.91809
0.92285 0.991196 0.922194
0.992935 0.99443 0.953643
0.000503548 0.000259403 0.00421149
0.00759899 0.000335698 0.00669871
0.435447 0.00788891 0.0400702
0.914382 0.572015 0.584649
0.999985 0.929595 0.928878
0 0.00529488 0.0053254
0.00769055 0.00769055 0.00769055
0.432883 0.0385138 0.0387732
0.91133 0.588083 0.583062
0.999924 0.929915 0.928847
0 0.342077 0
0 0.349294 0
0.388403 0.395529 0.00730907
0.895079 0.680385 0.582361
0.999466 0.932372 0.928649
0.233143 0.87834 0.530907
0.285893 0.877241 0.533165
0.542428 0.873045 0.553567
0.87921 0.886259 0.70724
0.996384 0.950408 0.928954
0.854749 0.992401 0.91812
0.856275 0.992355 0.918166
0.867231 0.992126 0.918456
0.922927 0.991226 0.92253
0.99295 0.99443 0.953796
0.0600748 0.0422522 0.483726
0.0876631 0.0463264 0.492195
0.522118 0.0915847 0.539544
0.925811 0.604715 0.713695
1 0.930312 0.932342
0.0560616 0.0714733 0.484184
0.0847028 0.0783093 0.491188
0.514961 0.139757 0.529992
0.922972 0.618647 0.710704
1 0.930617 0.932311
0 0.427787 0.427359
0.0410163 0.433143 0.432685
0.469047 0.469047 0.469047
0.907164 0.700023 0.697993
0.999802 0.933043 0.932082
0.296574 0.8851 0.646464
0.343481 0.884077 0.647334
0.572122 0.879942 0.657145
0.885176 0.889998 0.753048
0.996704 0.950851 0.93196
0.856535 0.992569 0.921065
0.858015 0.992523 0.921096
0.868742 0.992294 0.92137
0.923583 0.991394 0.925139
0.993103 0.994522 0.954879
0.512566 0.620981 1
0.544381 0.622965 1
0.704311 0.640085 0.991958
0.936233 0.761639 0.951812
1 0.936584 0.957214
0.511696 0.63566 0.998611
0.543282 0.63743 0.996994
0.702358 0.652888 0.986908
0.93518 0.766537 0.950011
1 0.936858 0.957153
0.511803 0.720241 0.96524
0.541451 0.720913 0.964157
0.692943 0.728099 0.957794
0.928328 0.798795 0.93846
1 0.938933 0.95671
0.611978 0.905837 0.904936
0.627832 0.905531 0.904692
0.717571 0.904143 0.903639
0.909194 0.909194 0.909194
0.999084 0.95465 0.954269
0.87216 0.993851 0.943252
0.87335 0.99382 0.943252
0.882048 0.993622 0.943358
0.92932 0.992813 0.94519
0.994354 0.995346 0.964279
0.918975 0.9402 1
0.919646 0.94023 1
0.924727 0.94052 1
0.956085 0.943786 1
1 0.967208 1
0.918959 0.940475 1
0.919631 0.94052 1
0.924712 0.940795 1
0.956054 0.94403 1
1 0.9673 1
0.918868 0.942672 1
0.919539 0.942702 1
0.924575 0.942962 1
0.955764 0.945937 1
1 0.968078 1
0.919127 0.958968 1
0.919753 0.958984 1
0.924407 0.959075 1
0.953948 0.960494 1
1 0.974701 1
0.937926 0.998779 0.998596
0.938231 0.998764 0.998596
0.940597 0.998734 0.998566
0.958007 0.99852 0.998428
1 1 1
