luts/AgX_NR2383_Default_Contrast.spi1d
Version 1
From 0.0000000 1.0000000
Length 4096
Components 1
{
 0.0000000
 0.0000108
 0.0000217
 0.0000325
 0.0000434
 0.0000542
 0.0000651
 0.0000760
 0.0000869
 0.0000978
 0.0001088
 0.0001197
 0.0001307
 0.0001417
 0.0001527
 0.0001637
 0.0001747
 0.0001857
 0.0001968
 0.0002078
 0.0002189
 0.0002300
 0.0002411
 0.0002522
 0.0002633
 0.0002745
 0.0002856
 0.0002968
 0.0003080
 0.0003192
 0.0003304
 0.0003416
 0.0003528
 0.0003641
 0.0003753
 0.0003866
 0.0003979
 0.0004092
 0.0004205
 0.0004319
 0.0004432
 0.0004546
 0.0004660
 0.0004773
 0.0004887
 0.0005002
 0.0005116
 0.0005230
 0.0005345
 0.0005460
 0.0005575
 0.0005690
 0.0005805
 0.0005920
 0.0006036
 0.0006151
 0.0006267
 0.0006383
 0.0006499
 0.0006615
 0.0006731
 0.0006848
 0.0006964
 0.0007081
 0.0007198
 0.0007315
 0.0007432
 0.0007550
 0.0007667
 0.0007785
 0.0007902
 0.0008020
 0.0008138
 0.0008257
 0.0008375
 0.0008493
 0.0008612
 0.0008731
 0.0008850
 0.0008969
 0.0009088
 0.0009208
 0.0009327
 0.0009447
 0.0009567
 0.0009687
 0.0009807
 0.0009927
 0.0010047
 0.0010168
 0.0010289
 0.0010410
 0.0010531
 0.0010652
 0.0010773
 0.0010895
 0.0011016
 0.0011138
 0.0011260
 0.0011382
 0.0011505
 0.0011627
 0.0011750
 0.0011872
 0.0011995
 0.0012118
 0.0012241
 0.0012365
 0.0012488
 0.0012612
 0.0012736
 0.0012860
 0.0012984
 0.0013108
 0.0013233
 0.0013357
 0.0013482
 0.0013607
 0.0013732
 0.0013857
 0.0013983
 0.0014108
 0.0014234
 0.0014360
 0.0014486
 0.0014612
 0.0014738
 0.0014865
 0.0014992
 0.0015118
 0.0015245
 0.0015373
 0.0015500
 0.0015627
 0.0015755
 0.0015883
 0.0016011
 0.0016139
 0.0016267
 0.0016396
 0.0016524
 0.0016653
 0.0016782
 0.0016911
 0.0017040
 0.0017170
 0.0017300
 0.0017429
 0.0017559
 0.0017689
 0.0017820
 0.0017950
 0.0018081
 0.0018211
 0.0018342
 0.0018474
 0.0018605
 0.0018736
 0.0018868
 0.0019000
 0.0019132
 0.0019264
 0.0019396
 0.0019529
 0.0019661
 0.0019794
 0.0019927
 0.0020060
 0.0020193
 0.0020327
 0.0020461
 0.0020594
 0.0020729
 0.0020863
 0.0020997
 0.0021132
 0.0021266
 0.0021401
 0.0021536
 0.0021672
 0.0021807
 0.0021942
 0.0022078
 0.0022214
 0.0022350
 0.0022487
 0.0022623
 0.0022760
 0.0022897
 0.0023034
 0.0023171
 0.0023308
 0.0023446
 0.0023583
 0.0023721
 0.0023859
 0.0023998
 0.0024136
 0.0024275
 0.0024413
 0.0024552
 0.0024692
 0.0024831
 0.0024970
 0.0025110
 0.0025250
 0.0025390
 0.0025530
 0.0025671
 0.0025811
 0.0025952
 0.0026093
 0.0026234
 0.0026376
 0.0026517
 0.0026659
 0.0026801
 0.0026943
 0.0027085
 0.0027228
 0.0027370
 0.0027513
 0.0027656
 0.0027800
 0.0027943
 0.0028087
 0.0028230
 0.0028374
 0.0028519
 0.0028663
 0.0028807
 0.0028952
 0.0029097
 0.0029242
 0.0029388
 0.0029533
 0.0029679
 0.0029825
 0.0029971
 0.0030117
 0.0030264
 0.0030410
 0.0030557
 0.0030704
 0.0030851
 0.0030999
 0.0031147
 0.0031294
 0.0031442
 0.0031591
 0.0031739
 0.0031888
 0.0032037
 0.0032186
 0.0032335
 0.0032484
 0.0032634
 0.0032784
 0.0032934
 0.0033084
 0.0033234
 0.0033385
 0.0033536
 0.0033687
 0.0033838
 0.0033990
 0.0034141
 0.0034293
 0.0034445
 0.0034597
 0.0034750
 0.0034902
 0.0035055
 0.0035208
 0.0035362
 0.0035515
 0.0035669
 0.0035823
 0.0035977
 0.0036131
 0.0036286
 0.0036440
 0.0036595
 0.0036750
 0.0036906
 0.0037061
 0.0037217
 0.0037373
 0.0037529
 0.0037686
 0.0037842
 0.0037999
 0.0038156
 0.0038313
 0.0038471
 0.0038628
 0.0038786
 0.0038944
 0.0039103
 0.0039261
 0.0039420
 0.0039579
 0.0039738
 0.0039897
 0.0040057
 0.0040217
 0.0040377
 0.0040537
 0.0040698
 0.0040858
 0.0041019
 0.0041180
 0.0041342
 0.0041503
 0.0041665
 0.0041827
 0.0041989
 0.0042152
 0.0042314
 0.0042477
 0.0042640
 0.0042804
 0.0042967
 0.0043131
 0.0043295
 0.0043459
 0.0043624
 0.0043788
 0.0043953
 0.0044118
 0.0044284
 0.0044449
 0.0044615
 0.0044781
 0.0044947
 0.0045114
 0.0045281
 0.0045448
 0.0045615
 0.0045782
 0.0045950
 0.0046118
 0.0046286
 0.0046454
 0.0046623
 0.0046792
 0.0046961
 0.0047130
 0.0047299
 0.0047469
 0.0047639
 0.0047809
 0.0047980
 0.0048150
 0.0048321
 0.0048493
 0.0048664
 0.0048836
 0.0049007
 0.0049179
 0.0049352
 0.0049524
 0.0049697
 0.0049870
 0.0050044
 0.0050217
 0.0050391
 0.0050565
 0.0050739
 0.0050914
 0.0051088
 0.0051263
 0.0051439
 0.0051614
 0.0051790
 0.0051966
 0.0052142
 0.0052319
 0.0052495
 0.0052672
 0.0052849
 0.0053027
 0.0053205
 0.0053383
 0.0053561
 0.0053739
 0.0053918
 0.0054097
 0.0054276
 0.0054455
 0.0054635
 0.0054815
 0.0054995
 0.0055176
 0.0055356
 0.0055537
 0.0055719
 0.0055900
 0.0056082
 0.0056264
 0.0056446
 0.0056629
 0.0056811
 0.0056994
 0.0057178
 0.0057361
 0.0057545
 0.0057729
 0.0057913
 0.0058098
 0.0058283
 0.0058468
 0.0058653
 0.0058839
 0.0059025
 0.0059211
 0.0059397
 0.0059584
 0.0059771
 0.0059958
 0.0060146
 0.0060333
 0.0060521
 0.0060710
 0.0060898
 0.0061087
 0.0061276
 0.0061465
 0.0061655
 0.0061845
 0.0062035
 0.0062225
 0.0062416
 0.0062607
 0.0062798
 0.0062990
 0.0063182
 0.0063374
 0.0063566
 0.0063759
 0.0063952
 0.0064145
 0.0064338
 0.0064532
 0.0064726
 0.0064920
 0.0065115
 0.0065310
 0.0065505
 0.0065700
 0.0065896
 0.0066092
 0.0066288
 0.0066484
 0.0066681
 0.0066878
 0.0067076
 0.0067273
 0.0067471
 0.0067669
 0.0067868
 0.0068067
 0.0068266
 0.0068465
 0.0068665
 0.0068865
 0.0069065
 0.0069266
 0.0069466
 0.0069668
 0.0069869
 0.0070071
 0.0070273
 0.0070475
 0.0070677
 0.0070880
 0.0071083
 0.0071287
 0.0071491
 0.0071695
 0.0071899
 0.0072104
 0.0072309
 0.0072514
 0.0072719
 0.0072925
 0.0073131
 0.0073338
 0.0073545
 0.0073752
 0.0073959
 0.0074167
 0.0074374
 0.0074583
 0.0074791
 0.0075000
 0.0075209
 0.0075419
 0.0075629
 0.0075839
 0.0076049
 0.0076260
 0.0076471
 0.0076682
 0.0076894
 0.0077106
 0.0077318
 0.0077530
 0.0077743
 0.0077956
 0.0078170
 0.0078384
 0.0078598
 0.0078812
 0.0079027
 0.0079242
 0.0079458
 0.0079673
 0.0079889
 0.0080106
 0.0080322
 0.0080539
 0.0080757
 0.0080974
 0.0081192
 0.0081411
 0.0081629
 0.0081848
 0.0082067
 0.0082287
 0.0082507
 0.0082727
 0.0082948
 0.0083169
 0.0083390
 0.0083611
 0.0083833
 0.0084055
 0.0084278
 0.0084501
 0.0084724
 0.0084947
 0.0085171
 0.0085396
 0.0085620
 0.0085845
 0.0086070
 0.0086296
 0.0086522
 0.0086748
 0.0086974
 0.0087201
 0.0087428
 0.0087656
 0.0087884
 0.0088112
 0.0088341
 0.0088570
 0.0088799
 0.0089029
 0.0089259
 0.0089489
 0.0089719
 0.0089951
 0.0090182
 0.0090414
 0.0090646
 0.0090878
 0.0091111
 0.0091344
 0.0091577
 0.0091811
 0.0092045
 0.0092280
 0.0092515
 0.0092750
 0.0092985
 0.0093221
 0.0093458
 0.0093694
 0.0093931
 0.0094169
 0.0094406
 0.0094645
 0.0094883
 0.0095122
 0.0095361
 0.0095600
 0.0095840
 0.0096081
 0.0096321
 0.0096562
 0.0096804
 0.0097045
 0.0097287
 0.0097530
 0.0097773
 0.0098016
 0.0098260
 0.0098503
 0.0098748
 0.0098992
 0.0099238
 0.0099483
 0.0099729
 0.0099975
 0.0100222
 0.0100469
 0.0100716
 0.0100964
 0.0101212
 0.0101460
 0.0101709
 0.0101958
 0.0102208
 0.0102458
 0.0102708
 0.0102959
 0.0103210
 0.0103462
 0.0103714
 0.0103966
 0.0104219
 0.0104472
 0.0104725
 0.0104979
 0.0105233
 0.0105488
 0.0105743
 0.0105998
 0.0106254
 0.0106510
 0.0106767
 0.0107024
 0.0107282
 0.0107539
 0.0107798
 0.0108056
 0.0108315
 0.0108575
 0.0108834
 0.0109095
 0.0109355
 0.0109616
 0.0109878
 0.0110140
 0.0110402
 0.0110665
 0.0110928
 0.0111191
 0.0111455
 0.0111719
 0.0111984
 0.0112249
 0.0112515
 0.0112781
 0.0113047
 0.0113314
 0.0113581
 0.0113849
 0.0114117
 0.0114385
 0.0114654
 0.0114923
 0.0115193
 0.0115463
 0.0115734
 0.0116005
 0.0116276
 0.0116548
 0.0116821
 0.0117093
 0.0117366
 0.0117640
 0.0117914
 0.0118188
 0.0118463
 0.0118739
 0.0119014
 0.0119290
 0.0119567
 0.0119844
 0.0120122
 0.0120400
 0.0120678
 0.0120957
 0.0121236
 0.0121516
 0.0121796
 0.0122076
 0.0122357
 0.0122639
 0.0122921
 0.0123203
 0.0123486
 0.0123769
 0.0124053
 0.0124337
 0.0124622
 0.0124907
 0.0125192
 0.0125478
 0.0125764
 0.0126051
 0.0126339
 0.0126626
 0.0126915
 0.0127203
 0.0127493
 0.0127782
 0.0128072
 0.0128363
 0.0128654
 0.0128945
 0.0129237
 0.0129530
 0.0129823
 0.0130116
 0.0130410
 0.0130704
 0.0130999
 0.0131294
 0.0131590
 0.0131886
 0.0132183
 0.0132480
 0.0132778
 0.0133076
 0.0133374
 0.0133673
 0.0133973
 0.0134273
 0.0134573
 0.0134874
 0.0135176
 0.0135478
 0.0135780
 0.0136083
 0.0136387
 0.0136691
 0.0136995
 0.0137300
 0.0137605
 0.0137911
 0.0138218
 0.0138525
 0.0138832
 0.0139140
 0.0139448
 0.0139757
 0.0140067
 0.0140377
 0.0140687
 0.0140998
 0.0141309
 0.0141621
 0.0141934
 0.0142247
 0.0142560
 0.0142874
 0.0143189
 0.0143504
 0.0143819
 0.0144135
 0.0144452
 0.0144769
 0.0145086
 0.0145404
 0.0145723
 0.0146042
 0.0146362
 0.0146682
 0.0147003
 0.0147324
 0.0147646
 0.0147968
 0.0148291
 0.0148614
 0.0148938
 0.0149262
 0.0149587
 0.0149913
 0.0150239
 0.0150566
 0.0150893
 0.0151220
 0.0151548
 0.0151877
 0.0152206
 0.0152536
 0.0152867
 0.0153198
 0.0153529
 0.0153861
 0.0154194
 0.0154527
 0.0154860
 0.0155195
 0.0155529
 0.0155865
 0.0156200
 0.0156537
 0.0156874
 0.0157211
 0.0157550
 0.0157888
 0.0158228
 0.0158567
 0.0158908
 0.0159249
 0.0159590
 0.0159932
 0.0160275
 0.0160618
 0.0160962
 0.0161306
 0.0161651
 0.0161997
 0.0162343
 0.0162690
 0.0163037
 0.0163385
 0.0163733
 0.0164082
 0.0164432
 0.0164782
 0.0165133
 0.0165484
 0.0165836
 0.0166188
 0.0166542
 0.0166895
 0.0167250
 0.0167605
 0.0167960
 0.0168316
 0.0168673
 0.0169030
 0.0169388
 0.0169747
 0.0170106
 0.0170466
 0.0170826
 0.0171187
 0.0171548
 0.0171911
 0.0172273
 0.0172637
 0.0173001
 0.0173366
 0.0173731
 0.0174097
 0.0174463
 0.0174830
 0.0175198
 0.0175566
 0.0175935
 0.0176305
 0.0176675
 0.0177046
 0.0177418
 0.0177790
 0.0178163
 0.0178536
 0.0178910
 0.0179285
 0.0179660
 0.0180036
 0.0180413
 0.0180790
 0.0181168
 0.0181547
 0.0181926
 0.0182306
 0.0182686
 0.0183067
 0.0183449
 0.0183832
 0.0184215
 0.0184599
 0.0184983
 0.0185368
 0.0185754
 0.0186140
 0.0186527
 0.0186915
 0.0187304
 0.0187693
 0.0188082
 0.0188473
 0.0188864
 0.0189256
 0.0189648
 0.0190041
 0.0190435
 0.0190830
 0.0191225
 0.0191621
 0.0192017
 0.0192415
 0.0192813
 0.0193211
 0.0193611
 0.0194011
 0.0194411
 0.0194813
 0.0195215
 0.0195618
 0.0196021
 0.0196425
 0.0196830
 0.0197236
 0.0197642
 0.0198049
 0.0198457
 0.0198866
 0.0199275
 0.0199685
 0.0200095
 0.0200507
 0.0200919
 0.0201331
 0.0201745
 0.0202159
 0.0202574
 0.0202990
 0.0203406
 0.0203823
 0.0204241
 0.0204660
 0.0205079
 0.0205499
 0.0205920
 0.0206341
 0.0206763
 0.0207187
 0.0207610
 0.0208035
 0.0208460
 0.0208886
 0.0209313
 0.0209740
 0.0210169
 0.0210598
 0.0211027
 0.0211458
 0.0211889
 0.0212321
 0.0212754
 0.0213188
 0.0213622
 0.0214057
 0.0214493
 0.0214930
 0.0215367
 0.0215806
 0.0216245
 0.0216684
 0.0217125
 0.0217566
 0.0218008
 0.0218451
 0.0218895
 0.0219340
 0.0219785
 0.0220231
 0.0220678
 0.0221126
 0.0221574
 0.0222023
 0.0222473
 0.0222924
 0.0223376
 0.0223828
 0.0224282
 0.0224736
 0.0225191
 0.0225647
 0.0226103
 0.0226561
 0.0227019
 0.0227478
 0.0227938
 0.0228398
 0.0228860
 0.0229322
 0.0229785
 0.0230250
 0.0230714
 0.0231180
 0.0231647
 0.0232114
 0.0232582
 0.0233051
 0.0233521
 0.0233992
 0.0234464
 0.0234936
 0.0235409
 0.0235883
 0.0236358
 0.0236834
 0.0237311
 0.0237789
 0.0238267
 0.0238747
 0.0239227
 0.0239708
 0.0240190
 0.0240673
 0.0241156
 0.0241641
 0.0242127
 0.0242613
 0.0243100
 0.0243588
 0.0244077
 0.0244567
 0.0245058
 0.0245550
 0.0246042
 0.0246536
 0.0247030
 0.0247526
 0.0248022
 0.0248519
 0.0249017
 0.0249516
 0.0250016
 0.0250517
 0.0251018
 0.0251521
 0.0252025
 0.0252529
 0.0253034
 0.0253541
 0.0254048
 0.0254556
 0.0255065
 0.0255575
 0.0256086
 0.0256598
 0.0257111
 0.0257625
 0.0258140
 0.0258656
 0.0259172
 0.0259690
 0.0260209
 0.0260728
 0.0261249
 0.0261770
 0.0262293
 0.0262816
 0.0263340
 0.0263866
 0.0264392
 0.0264919
 0.0265448
 0.0265977
 0.0266507
 0.0267039
 0.0267571
 0.0268104
 0.0268638
 0.0269173
 0.0269710
 0.0270247
 0.0270785
 0.0271324
 0.0271864
 0.0272406
 0.0272948
 0.0273491
 0.0274035
 0.0274581
 0.0275127
 0.0275674
 0.0276223
 0.0276772
 0.0277323
 0.0277874
 0.0278426
 0.0278980
 0.0279535
 0.0280090
 0.0280647
 0.0281204
 0.0281763
 0.0282323
 0.0282884
 0.0283446
 0.0284009
 0.0284573
 0.0285138
 0.0285704
 0.0286271
 0.0286839
 0.0287409
 0.0287979
 0.0288551
 0.0289123
 0.0289697
 0.0290272
 0.0290848
 0.0291425
 0.0292003
 0.0292582
 0.0293162
 0.0293743
 0.0294326
 0.0294909
 0.0295494
 0.0296080
 0.0296667
 0.0297255
 0.0297844
 0.0298434
 0.0299025
 0.0299618
 0.0300212
 0.0300806
 0.0301402
 0.0301999
 0.0302597
 0.0303197
 0.0303797
 0.0304399
 0.0305002
 0.0305606
 0.0306211
 0.0306817
 0.0307424
 0.0308033
 0.0308643
 0.0309253
 0.0309865
 0.0310479
 0.0311093
 0.0311709
 0.0312326
 0.0312944
 0.0313563
 0.0314183
 0.0314805
 0.0315427
 0.0316051
 0.0316676
 0.0317303
 0.0317930
 0.0318559
 0.0319189
 0.0319820
 0.0320453
 0.0321087
 0.0321721
 0.0322358
 0.0322995
 0.0323633
 0.0324273
 0.0324914
 0.0325557
 0.0326200
 0.0326845
 0.0327491
 0.0328138
 0.0328787
 0.0329437
 0.0330088
 0.0330740
 0.0331394
 0.0332049
 0.0332705
 0.0333363
 0.0334021
 0.0334681
 0.0335343
 0.0336005
 0.0336669
 0.0337335
 0.0338001
 0.0338669
 0.0339338
 0.0340008
 0.0340680
 0.0341353
 0.0342028
 0.0342703
 0.0343380
 0.0344059
 0.0344739
 0.0345420
 0.0346102
 0.0346786
 0.0347471
 0.0348157
 0.0348845
 0.0349534
 0.0350225
 0.0350916
 0.0351610
 0.0352304
 0.0353000
 0.0353698
 0.0354396
 0.0355096
 0.0355798
 0.0356501
 0.0357205
 0.0357911
 0.0358618
 0.0359326
 0.0360036
 0.0360747
 0.0361460
 0.0362174
 0.0362890
 0.0363606
 0.0364325
 0.0365045
 0.0365766
 0.0366489
 0.0367213
 0.0367938
 0.0368665
 0.0369394
 0.0370123
 0.0370855
 0.0371588
 0.0372322
 0.0373058
 0.0373795
 0.0374533
 0.0375274
 0.0376015
 0.0376758
 0.0377503
 0.0378249
 0.0378997
 0.0379746
 0.0380496
 0.0381249
 0.0382002
 0.0382757
 0.0383514
 0.0384272
 0.0385032
 0.0385793
 0.0386556
 0.0387320
 0.0388086
 0.0388853
 0.0389622
 0.0390393
 0.0391165
 0.0391938
 0.0392713
 0.0393490
 0.0394268
 0.0395048
 0.0395830
 0.0396613
 0.0397397
 0.0398184
 0.0398971
 0.0399761
 0.0400552
 0.0401344
 0.0402139
 0.0402934
 0.0403732
 0.0404531
 0.0405331
 0.0406134
 0.0406938
 0.0407743
 0.0408551
 0.0409359
 0.0410170
 0.0410982
 0.0411796
 0.0412611
 0.0413428
 0.0414247
 0.0415068
 0.0415890
 0.0416714
 0.0417539
 0.0418366
 0.0419195
 0.0420026
 0.0420858
 0.0421692
 0.0422528
 0.0423365
 0.0424205
 0.0425045
 0.0425888
 0.0426732
 0.0427578
 0.0428426
 0.0429276
 0.0430127
 0.0430980
 0.0431835
 0.0432691
 0.0433550
 0.0434410
 0.0435272
 0.0436135
 0.0437001
 0.0437868
 0.0438737
 0.0439608
 0.0440481
 0.0441355
 0.0442231
 0.0443109
 0.0443989
 0.0444871
 0.0445754
 0.0446640
 0.0447527
 0.0448416
 0.0449307
 0.0450199
 0.0451094
 0.0451990
 0.0452889
 0.0453789
 0.0454691
 0.0455595
 0.0456500
 0.0457408
 0.0458318
 0.0459229
 0.0460142
 0.0461058
 0.0461975
 0.0462894
 0.0463815
 0.0464738
 0.0465663
 0.0466590
 0.0467518
 0.0468449
 0.0469382
 0.0470316
 0.0471253
 0.0472191
 0.0473132
 0.0474074
 0.0475018
 0.0475965
 0.0476913
 0.0477864
 0.0478816
 0.0479770
 0.0480727
 0.0481685
 0.0482646
 0.0483608
 0.0484572
 0.0485539
 0.0486507
 0.0487478
 0.0488451
 0.0489425
 0.0490402
 0.0491381
 0.0492362
 0.0493345
 0.0494330
 0.0495317
 0.0496306
 0.0497297
 0.0498290
 0.0499286
 0.0500283
 0.0501283
 0.0502285
 0.0503289
 0.0504295
 0.0505303
 0.0506313
 0.0507326
 0.0508341
 0.0509357
 0.0510376
 0.0511397
 0.0512421
 0.0513446
 0.0514474
 0.0515504
 0.0516536
 0.0517570
 0.0518606
 0.0519645
 0.0520686
 0.0521729
 0.0522774
 0.0523822
 0.0524872
 0.0525924
 0.0526978
 0.0528035
 0.0529093
 0.0530154
 0.0531218
 0.0532283
 0.0533351
 0.0534422
 0.0535494
 0.0536569
 0.0537646
 0.0538725
 0.0539807
 0.0540891
 0.0541977
 0.0543066
 0.0544157
 0.0545251
 0.0546346
 0.0547445
 0.0548545
 0.0549648
 0.0550753
 0.0551861
 0.0552971
 0.0554083
 0.0555198
 0.0556315
 0.0557435
 0.0558557
 0.0559681
 0.0560808
 0.0561937
 0.0563069
 0.0564203
 0.0565340
 0.0566479
 0.0567621
 0.0568765
 0.0569911
 0.0571061
 0.0572212
 0.0573366
 0.0574523
 0.0575682
 0.0576843
 0.0578007
 0.0579174
 0.0580343
 0.0581515
 0.0582689
 0.0583866
 0.0585045
 0.0586227
 0.0587412
 0.0588599
 0.0589788
 0.0590981
 0.0592176
 0.0593373
 0.0594573
 0.0595776
 0.0596981
 0.0598189
 0.0599400
 0.0600613
 0.0601829
 0.0603048
 0.0604269
 0.0605493
 0.0606719
 0.0607949
 0.0609181
 0.0610415
 0.0611653
 0.0612893
 0.0614136
 0.0615381
 0.0616629
 0.0617880
 0.0619134
 0.0620391
 0.0621650
 0.0622912
 0.0624177
 0.0625444
 0.0626715
 0.0627988
 0.0629264
 0.0630543
 0.0631824
 0.0633109
 0.0634396
 0.0635686
 0.0636979
 0.0638275
 0.0639574
 0.0640875
 0.0642180
 0.0643487
 0.0644797
 0.0646110
 0.0647426
 0.0648745
 0.0650067
 0.0651392
 0.0652719
 0.0654050
 0.0655383
 0.0656720
 0.0658059
 0.0659402
 0.0660747
 0.0662096
 0.0663447
 0.0664801
 0.0666159
 0.0667519
 0.0668883
 0.0670249
 0.0671619
 0.0672991
 0.0674367
 0.0675745
 0.0677127
 0.0678512
 0.0679900
 0.0681291
 0.0682685
 0.0684082
 0.0685482
 0.0686886
 0.0688292
 0.0689702
 0.0691115
 0.0692531
 0.0693950
 0.0695372
 0.0696798
 0.0698226
 0.0699658
 0.0701093
 0.0702531
 0.0703973
 0.0705418
 0.0706865
 0.0708317
 0.0709771
 0.0711229
 0.0712690
 0.0714154
 0.0715621
 0.0717092
 0.0718566
 0.0720043
 0.0721524
 0.0723008
 0.0724495
 0.0725986
 0.0727480
 0.0728978
 0.0730478
 0.0731982
 0.0733490
 0.0735001
 0.0736515
 0.0738033
 0.0739554
 0.0741078
 0.0742606
 0.0744138
 0.0745672
 0.0747211
 0.0748752
 0.0750298
 0.0751846
 0.0753398
 0.0754954
 0.0756513
 0.0758076
 0.0759642
 0.0761212
 0.0762785
 0.0764362
 0.0765943
 0.0767527
 0.0769114
 0.0770705
 0.0772300
 0.0773898
 0.0775500
 0.0777106
 0.0778715
 0.0780328
 0.0781944
 0.0783564
 0.0785188
 0.0786816
 0.0788447
 0.0790082
 0.0791720
 0.0793363
 0.0795009
 0.0796658
 0.0798312
 0.0799969
 0.0801630
 0.0803295
 0.0804963
 0.0806635
 0.0808311
 0.0809991
 0.0811675
 0.0813363
 0.0815054
 0.0816749
 0.0818448
 0.0820151
 0.0821858
 0.0823568
 0.0825283
 0.0827001
 0.0828724
 0.0830450
 0.0832180
 0.0833914
 0.0835652
 0.0837394
 0.0839140
 0.0840890
 0.0842644
 0.0844402
 0.0846164
 0.0847930
 0.0849700
 0.0851474
 0.0853252
 0.0855034
 0.0856820
 0.0858610
 0.0860404
 0.0862203
 0.0864005
 0.0865812
 0.0867623
 0.0869437
 0.0871256
 0.0873079
 0.0874907
 0.0876738
 0.0878574
 0.0880414
 0.0882258
 0.0884106
 0.0885958
 0.0887815
 0.0889676
 0.0891541
 0.0893410
 0.0895284
 0.0897162
 0.0899044
 0.0900931
 0.0902822
 0.0904717
 0.0906616
 0.0908520
 0.0910429
 0.0912341
 0.0914258
 0.0916179
 0.0918105
 0.0920035
 0.0921970
 0.0923909
 0.0925852
 0.0927800
 0.0929752
 0.0931709
 0.0933671
 0.0935636
 0.0937607
 0.0939581
 0.0941561
 0.0943544
 0.0945533
 0.0947526
 0.0949523
 0.0951525
 0.0953532
 0.0955543
 0.0957559
 0.0959579
 0.0961604
 0.0963634
 0.0965668
 0.0967707
 0.0969751
 0.0971799
 0.0973852
 0.0975910
 0.0977973
 0.0980040
 0.0982112
 0.0984189
 0.0986270
 0.0988356
 0.0990447
 0.0992543
 0.0994644
 0.0996749
 0.0998859
 0.1000974
 0.1003094
 0.1005219
 0.1007348
 0.1009483
 0.1011622
 0.1013767
 0.1015916
 0.1018070
 0.1020229
 0.1022393
 0.1024562
 0.1026736
 0.1028915
 0.1031099
 0.1033288
 0.1035482
 0.1037681
 0.1039885
 0.1042094
 0.1044308
 0.1046527
 0.1048751
 0.1050981
 0.1053215
 0.1055455
 0.1057700
 0.1059949
 0.1062204
 0.1064465
 0.1066730
 0.1069000
 0.1071276
 0.1073557
 0.1075843
 0.1078135
 0.1080431
 0.1082733
 0.1085040
 0.1087353
 0.1089671
 0.1091994
 0.1094322
 0.1096656
 0.1098995
 0.1101339
 0.1103689
 0.1106044
 0.1108405
 0.1110770
 0.1113142
 0.1115518
 0.1117901
 0.1120288
 0.1122681
 0.1125080
 0.1127484
 0.1129893
 0.1132308
 0.1134729
 0.1137155
 0.1139586
 0.1142023
 0.1144466
 0.1146914
 0.1149368
 0.1151828
 0.1154293
 0.1156764
 0.1159240
 0.1161722
 0.1164209
 0.1166703
 0.1169202
 0.1171706
 0.1174217
 0.1176733
 0.1179255
 0.1181782
 0.1184316
 0.1186855
 0.1189400
 0.1191950
 0.1194507
 0.1197069
 0.1199637
 0.1202211
 0.1204791
 0.1207376
 0.1209968
 0.1212565
 0.1215169
 0.1217778
 0.1220393
 0.1223014
 0.1225641
 0.1228274
 0.1230913
 0.1233558
 0.1236209
 0.1238866
 0.1241529
 0.1244198
 0.1246873
 0.1249554
 0.1252241
 0.1254935
 0.1257634
 0.1260340
 0.1263051
 0.1265769
 0.1268493
 0.1271223
 0.1273959
 0.1276701
 0.1279450
 0.1282205
 0.1284966
 0.1287733
 0.1290506
 0.1293286
 0.1296072
 0.1298864
 0.1301663
 0.1304467
 0.1307278
 0.1310096
 0.1312920
 0.1315750
 0.1318586
 0.1321429
 0.1324279
 0.1327134
 0.1329996
 0.1332865
 0.1335740
 0.1338621
 0.1341509
 0.1344403
 0.1347304
 0.1350211
 0.1353125
 0.1356045
 0.1358972
 0.1361905
 0.1364845
 0.1367792
 0.1370745
 0.1373705
 0.1376671
 0.1379644
 0.1382623
 0.1385609
 0.1388602
 0.1391602
 0.1394608
 0.1397621
 0.1400640
 0.1403666
 0.1406699
 0.1409739
 0.1412785
 0.1415839
 0.1418899
 0.1421965
 0.1425039
 0.1428119
 0.1431206
 0.1434300
 0.1437401
 0.1440509
 0.1443623
 0.1446745
 0.1449873
 0.1453008
 0.1456150
 0.1459300
 0.1462455
 0.1465618
 0.1468788
 0.1471965
 0.1475149
 0.1478340
 0.1481538
 0.1484742
 0.1487954
 0.1491173
 0.1494399
 0.1497632
 0.1500872
 0.1504119
 0.1507374
 0.1510635
 0.1513904
 0.1517179
 0.1520462
 0.1523752
 0.1527049
 0.1530353
 0.1533665
 0.1536983
 0.1540309
 0.1543642
 0.1546982
 0.1550330
 0.1553685
 0.1557047
 0.1560416
 0.1563793
 0.1567176
 0.1570568
 0.1573966
 0.1577372
 0.1580785
 0.1584206
 0.1587634
 0.1591069
 0.1594511
 0.1597961
 0.1601419
 0.1604884
 0.1608356
 0.1611836
 0.1615323
 0.1618817
 0.1622320
 0.1625829
 0.1629346
 0.1632871
 0.1636403
 0.1639942
 0.1643489
 0.1647044
 0.1650606
 0.1654176
 0.1657753
 0.1661338
 0.1664930
 0.1668530
 0.1672138
 0.1675753
 0.1679376
 0.1683007
 0.1686645
 0.1690291
 0.1693944
 0.1697605
 0.1701274
 0.1704951
 0.1708635
 0.1712327
 0.1716027
 0.1719734
 0.1723449
 0.1727172
 0.1730903
 0.1734641
 0.1738387
 0.1742141
 0.1745903
 0.1749673
 0.1753450
 0.1757235
 0.1761028
 0.1764829
 0.1768638
 0.1772454
 0.1776279
 0.1780111
 0.1783951
 0.1787799
 0.1791655
 0.1795519
 0.1799391
 0.1803271
 0.1807158
 0.1811054
 0.1814957
 0.1818869
 0.1822788
 0.1826716
 0.1830651
 0.1834594
 0.1838546
 0.1842505
 0.1846472
 0.1850448
 0.1854431
 0.1858422
 0.1862422
 0.1866429
 0.1870445
 0.1874468
 0.1878500
 0.1882540
 0.1886587
 0.1890643
 0.1894707
 0.1898779
 0.1902859
 0.1906948
 0.1911044
 0.1915148
 0.1919261
 0.1923382
 0.1927511
 0.1931648
 0.1935793
 0.1939946
 0.1944108
 0.1948277
 0.1952455
 0.1956641
 0.1960835
 0.1965038
 0.1969248
 0.1973467
 0.1977694
 0.1981929
 0.1986172
 0.1990424
 0.1994684
 0.1998952
 0.2003228
 0.2007513
 0.2011805
 0.2016106
 0.2020416
 0.2024733
 0.2029059
 0.2033393
 0.2037735
 0.2042086
 0.2046445
 0.2050812
 0.2055187
 0.2059571
 0.2063963
 0.2068363
 0.2072772
 0.2077188
 0.2081614
 0.2086047
 0.2090489
 0.2094939
 0.2099397
 0.2103864
 0.2108339
 0.2112822
 0.2117314
 0.2121814
 0.2126322
 0.2130839
 0.2135364
 0.2139897
 0.2144438
 0.2148988
 0.2153547
 0.2158113
 0.2162688
 0.2167271
 0.2171863
 0.2176463
 0.2181071
 0.2185688
 0.2190313
 0.2194946
 0.2199588
 0.2204238
 0.2208896
 0.2213563
 0.2218238
 0.2222921
 0.2227613
 0.2232313
 0.2237021
 0.2241738
 0.2246463
 0.2251196
 0.2255938
 0.2260688
 0.2265446
 0.2270213
 0.2274988
 0.2279771
 0.2284563
 0.2289363
 0.2294172
 0.2298988
 0.2303813
 0.2308647
 0.2313488
 0.2318338
 0.2323196
 0.2328063
 0.2332938
 0.2337821
 0.2342713
 0.2347612
 0.2352520
 0.2357437
 0.2362361
 0.2367294
 0.2372236
 0.2377185
 0.2382143
 0.2387109
 0.2392083
 0.2397066
 0.2402056
 0.2407055
 0.2412063
 0.2417078
 0.2422102
 0.2427134
 0.2432174
 0.2437223
 0.2442279
 0.2447344
 0.2452417
 0.2457498
 0.2462588
 0.2467685
 0.2472791
 0.2477905
 0.2483027
 0.2488157
 0.2493296
 0.2498442
 0.2503597
 0.2508760
 0.2513931
 0.2519110
 0.2524297
 0.2529492
 0.2534696
 0.2539907
 0.2545127
 0.2550354
 0.2555590
 0.2560833
 0.2566085
 0.2571345
 0.2576613
 0.2581888
 0.2587172
 0.2592464
 0.2597764
 0.2603071
 0.2608387
 0.2613711
 0.2619042
 0.2624382
 0.2629729
 0.2635084
 0.2640448
 0.2645819
 0.2651198
 0.2656585
 0.2661979
