luts/AgX_Base_Rec2100-HLG.cube
TITLE "AgX_Formation_Rec2100HLG"
# AgX Base Rec.2020 Formation LUT
# This LUT expects input to be E Gamut Log2 encoding from -10 stops to +15 stops
# But the end image formation will be Rec2100-HLG
#  rotate = [3.0, -1, -2.0], inset = [0.4, 0.22, 0.13], outset = [0.4, 0.22, 0.04]
# The image formed has 40% per-channel shifts
LUT_3D_SIZE 5
0 0 0
0.1088577 0.0172920 0
0.7657434 0.2793883 0.0576924
1 1 1
1 1 1
0.0234042 0.1026730 0
0.1054428 0.1033166 0
0.7653000 0.2996993 0.0575045
1 1 1
1 1 1
0.3003003 0.7479563 0.0716331
0.3183237 0.7478577 0.0699011
0.7522008 0.7458155 0.2210742
1 1 1
1 1 1
1 1 1
1 1 1
1 1 1
1 1 1
1 1 1
1 1 1
1 1 1
1 1 1
1 1 1
1 1 1
0.0048055 0.0187888 0.1033363
0.1016334 0.0247641 0.1078145
0.7672248 0.2591355 0.0618136
1 1 1
1 1 1
0 0.1003256 0.1054551
0.0966682 0.0966677 0.0966756
0.7666794 0.2812968 0.0613373
1 1 1
1 1 1
0.2797099 0.7474174 0.0719939
0.2991975 0.7473098 0.0701668
0.7512424 0.7448398 0.2174074
1 1 1
1 1 1
1 1 1
1 1 1
1 1 1
1 1 1
1 1 1
1 1 1
1 1 1
1 1 1
1 1 1
1 1 1
0.2062952 0.2515137 0.7398604
0.2199969 0.2519056 0.7423474
0.7409360 0.3556178 0.7601209
1 1 1
1 1 1
0.1982639 0.2581415 0.7455581
0.2129301 0.2586238 0.7477776
0.7414257 0.3569561 0.7605842
1 1 1
1 1 1
0.2084271 0.7393680 0.7560583
0.2071067 0.7386775 0.7553906
0.7239743 0.7239728 0.7239945
1 1 1
1 1 1
1 1 1
1 1 1
1 1 1
1 1 1
1 1 1
1 1 1
1 1 1
1 1 1
1 1 1
1 1 1
1 1 1
1 1 1
1 1 1
1 1 1
1 1 1
1 1 1
1 1 1
1 1 1
1 1 1
1 1 1
1 1 1
1 1 1
1 1 1
1 1 1
1 1 1
1 1 1
1 1 1
1 1 1
1 1 1
1 1 1
1 1 1
1 1 1
1 1 1
1 1 1
1 1 1
1 1 1
1 1 1
1 1 1
1 1 1
1 1 1
1 1 1
1 1 1
1 1 1
1 1 1
1 1 1
1 1 1
1 1 1
1 1 1
1 1 1
1 1 1
1 1 1
1 1 1
1 1 1
1 1 1
1 1 1
1 1 1
1 1 1
1 1 1
1 1 1
1 1 1
