luts/AgX_Base_Rec2100-HLG.cube
TITLE "AgX_Formation_Rec2100HLG"
# AgX Base Rec.2020 Formation LUT
# This LUT expects input to be E Gamut Log2 encoding from -10 stops to +15 stops
# But the end image formation will be Rec2100-HLG
#  rotate = [3.0, -1, -2.0], inset = [0.4, 0.22, 0.13], outset = [0.4, 0.22, 0.04]
# The image formed has 40% per-channel shifts
LUT_3D_SIZE 45
0 0 0
0.0021954 0 0
0.0063730 0 0
0.0120537 0 0
0.0191346 0 0
0.0276042 0 0
0.0375001 0 0
0.0484202 0 0
0.0607877 0 0
0.0748260 0 0
0.0907503 0.0067461 0
0.1088577 0.0172920 0
0.1295535 0.0270180 0
0.1534039 0.0374415 0
0.1812379 0.0489132 0
0.2143572 0.0616003 0
0.2550574 0.0755474 0
0.3084049 0.0904295 0
0.4016549 0.1014415 0
0.5319990 0.1132306 0
0.6310172 0.1420954 0
0.7059251 0.1927492 0
0.7657434 0.2793883 0.0576924
0.8147587 0.4037514 0.2346110
0.8562113 0.5486570 0.4199815
0.8932899 0.6547514 0.5772139
0.9268420 0.7356545 0.6843659
0.9574987 0.8021893 0.7654862
0.9857294 0.8592057 0.8319601
1 0.9093502 0.8888169
1 0.9542492 0.9387713
1 0.9949849 0.9834779
1 1 1
1 1 1
1 1 1
1 1 1
1 1 1
1 1 1
1 1 1
1 1 1
1 1 1
1 1 1
1 1 1
1 1 1
1 1 1
0 0.0018776 0
0.0021653 0.0020797 0
0.0062707 0.0029973 0
0.0118767 0.0034173 0
0.0189082 0.0028572 0
0.0273530 0 0
0.0372432 0 0
0.0482024 0 0
0.0606314 0 0
0.0747108 0 0
0.0906650 0.0110717 0
0.1087947 0.0193524 0
0.1295073 0.0283236 0
0.1533706 0.0383395 0
0.1812145 0.0495578 0
0.2143416 0.0620777 0
0.2550486 0.0759120 0
0.3084033 0.0907201 0
0.4016749 0.1017109 0
0.5320052 0.1135018 0
0.6310177 0.1423202 0
0.7059238 0.1929172 0
0.7657405 0.2795240 0.0576911
0.8147566 0.4038373 0.2346271
0.8562101 0.5486994 0.4199892
0.8932893 0.6547696 0.5772175
0.9268416 0.7356633 0.6843676
0.9574985 0.8021937 0.7654871
0.9857293 0.8592080 0.8319607
1 0.9093515 0.8888172
1 0.9542499 0.9387715
1 0.9949853 0.9834780
1 1 1
1 1 1
1 1 1
1 1 1
1 1 1
1 1 1
1 1 1
1 1 1
1 1 1
1 1 1
1 1 1
1 1 1
1 1 1
0 0.0055056 0
0.0030186 0.0057074 0
0.0061500 0.0059298 0
0.0116693 0.0071105 0
0.0186197 0.0078630 0
0.0270142 0.0079579 0
0.0368525 0.0072318 0
0.0479079 0.0067527 0
0.0604123 0.0074369 0
0.0745463 0.0103716 0
0.0905415 0.0153891 0
0.1087028 0.0220518 0
0.1294396 0.0301525 0
0.1533216 0.0396315 0
0.1811800 0.0504974 0
0.2143186 0.0627784 0
0.2550355 0.0764491 0
0.3084010 0.0911492 0
0.4017044 0.1021091 0
0.5320144 0.1139028 0
0.6310185 0.1426529 0
0.7059219 0.1931662 0
0.7657363 0.2797251 0.0576891
0.8147534 0.4039646 0.2346509
0.8562084 0.5487622 0.4200006
0.8932884 0.6547966 0.5772230
0.9268411 0.7356762 0.6843702
0.9574983 0.8022003 0.7654885
0.9857292 0.8592114 0.8319614
1 0.9093533 0.8888177
1 0.9542509 0.9387718
1 0.9949858 0.9834782
1 1 1
1 1 1
1 1 1
1 1 1
1 1 1
1 1 1
1 1 1
1 1 1
1 1 1
1 1 1
1 1 1
1 1 1
1 1 1
0 0.0104980 0
0.0037743 0.0106669 0
0.0071405 0.0108390 0
0.0114377 0.0110611 0
0.0182783 0.0123346 0
0.0265863 0.0131627 0
0.0363847 0.0135934 0
0.0475318 0.0139916 0
0.0601159 0.0147516 0
0.0743162 0.0166155 0
0.0903655 0.0201494 0
0.1085699 0.0255260 0
0.1293409 0.0326697 0
0.1532498 0.0414691 0
0.1811292 0.0518569 0
0.2142847 0.0638019 0
0.2550161 0.0772380 0
0.3083976 0.0917814 0
0.4017481 0.1026967 0
0.5320280 0.1144947 0
0.6310196 0.1431447 0
0.7059190 0.1935348 0
0.7657299 0.2800230 0.0576862
0.8147487 0.4041533 0.2346861
0.8562058 0.5488553 0.4200176
0.8932870 0.6548367 0.5772311
0.9268404 0.7356955 0.6843740
0.9574979 0.8022101 0.7654905
0.9857290 0.8592165 0.8319626
1 0.9093560 0.8888183
1 0.9542523 0.9387722
1 0.9949866 0.9834784
1 1 1
1 1 1
1 1 1
1 1 1
1 1 1
1 1 1
1 1 1
1 1 1
1 1 1
1 1 1
1 1 1
1 1 1
1 1 1
0 0.0167761 0
0.0042537 0.0169019 0
0.0080821 0.0170433 0
0.0124249 0.0171698 0
0.0179211 0.0173719 0
0.0260962 0.0186333 0
0.0359108 0.0197535 0
0.0470918 0.0205712 0
0.0597370 0.0214496 0
0.0740057 0.0229339 0
0.0901198 0.0256129 0
0.1083806 0.0299267 0
0.1291984 0.0360671 0
0.1531451 0.0440444 0
0.1810547 0.0538046 0
0.2142348 0.0652872 0
0.2549875 0.0783918 0
0.3083926 0.0927104 0
0.4018125 0.1035619 0
0.5320480 0.1153667 0
0.6310213 0.1438709 0
0.7059147 0.1940802 0
0.7657206 0.2804639 0.0576819
0.8147418 0.4044329 0.2347383
0.8562021 0.5489932 0.4200427
0.8932849 0.6548960 0.5772431
0.9268393 0.7357240 0.6843796
0.9574974 0.8022246 0.7654935
0.9857288 0.8592241 0.8319642
1 0.9093600 0.8888193
1 0.9542545 0.9387728
1 0.9949877 0.9834788
1 1 1
1 1 1
1 1 1
1 1 1
1 1 1
1 1 1
1 1 1
1 1 1
1 1 1
1 1 1
1 1 1
1 1 1
1 1 1
0 0.0243369 0
0.0043915 0.0244230 0
0.0087902 0.0245235 0
0.0133695 0.0246232 0
0.0188124 0.0246968 0
0.0258671 0.0251351 0
0.0355278 0.0265684 0
0.0466412 0.0276577 0
0.0592919 0.0286386 0
0.0736088 0.0299145 0
0.0897885 0.0320041 0
0.1081166 0.0354248 0
0.1289953 0.0405577 0
0.1529937 0.0475899 0
0.1809462 0.0565591 0
0.2141616 0.0674240 0
0.2549453 0.0800693 0
0.3083852 0.0940698 0
0.4019076 0.1048318 0
0.5320776 0.1166478 0
0.6310237 0.1449410 0
0.7059083 0.1948863 0
0.7657067 0.2811164 0.0576756
0.8147315 0.4048469 0.2348157
0.8561965 0.5491975 0.4200800
0.8932819 0.6549839 0.5772609
0.9268377 0.7357663 0.6843879
0.9574966 0.8022460 0.7654979
0.9857284 0.8592353 0.8319667
1 0.9093660 0.8888208
1 0.9542576 0.9387736
1 0.9949894 0.9834793
1 1 1
1 1 1
1 1 1
1 1 1
1 1 1
1 1 1
1 1 1
1 1 1
1 1 1
1 1 1
1 1 1
1 1 1
1 1 1
0 0.0332203 0
0.0041931 0.0332902 0
0.0093800 0.0334165 0
0.0143718 0.0335750 0
0.0201086 0.0337693 0
0.0269751 0.0340103 0
0.0353608 0.0344409 0
0.0462743 0.0356922 0
0.0588320 0.0367493 0
0.0731404 0.0378913 0
0.0893642 0.0395430 0
0.1077605 0.0422101 0
0.1287121 0.0463713 0
0.1527781 0.0523732 0
0.1807892 0.0603921 0
0.2140547 0.0704618 0
0.2548834 0.0824880 0
0.3083742 0.0960476 0
0.4020474 0.1066876 0
0.5321211 0.1185217 0
0.6310272 0.1465134 0
0.7058988 0.1960761 0
0.7656861 0.2820807 0.0576663
0.8147162 0.4054598 0.2349303
0.8561882 0.5494999 0.4201352
0.8932774 0.6551141 0.5772872
0.9268353 0.7358289 0.6844002
0.9574953 0.8022778 0.7655044
0.9857278 0.8592519 0.8319704
1 0.9093748 0.8888229
1 0.9542623 0.9387750
1 0.9949919 0.9834801
1 1 1
1 1 1
1 1 1
1 1 1
1 1 1
1 1 1
1 1 1
1 1 1
1 1 1
1 1 1
1 1 1
1 1 1
1 1 1
0 0.0438340 0
0.0053316 0.0438932 0
0.0105950 0.0439724 0
0.0156767 0.0440751 0
0.0214098 0.0442054 0
0.0281855 0.0443714 0
0.0363046 0.0445921 0
0.0461209 0.0450011 0
0.0584522 0.0460920 0
0.0726518 0.0471364 0
0.0888613 0.0484536 0
0.1073033 0.0504906 0
0.1283294 0.0537498 0
0.1524770 0.0586869 0
0.1805653 0.0656243 0
0.2139002 0.0747161 0
0.2547930 0.0859374 0
0.3083582 0.0989022 0
0.4022522 0.1093825 0
0.5321847 0.1212472 0
0.6310321 0.1488148 0
0.7058845 0.1978287 0
0.7656556 0.2835037 0.0576526
0.8146937 0.4063663 0.2350999
0.8561759 0.5499470 0.4202171
0.8932707 0.6553070 0.5773263
0.9268318 0.7359217 0.6844185
0.9574936 0.8023249 0.7655141
0.9857270 0.8592766 0.8319759
1 0.9093879 0.8888262
1 0.9542693 0.9387769
1 0.9949957 0.9834813
1 1 1
1 1 1
1 1 1
1 1 1
1 1 1
1 1 1
1 1 1
1 1 1
1 1 1
1 1 1
1 1 1
1 1 1
1 1 1
0.0016712 0.0559143 0
0.0080248 0.0559472 0
0.0125983 0.0559919 0
0.0174327 0.0560516 0
0.0229770 0.0561297 0
0.0295484 0.0562316 0
0.0374334 0.0563691 0
0.0469045 0.0565691 0
0.0582906 0.0569557 0
0.0722412 0.0579106 0
0.0883315 0.0589686 0
0.1067587 0.0604893 0
0.1278371 0.0629442 0
0.1520697 0.0668388 0
0.1802523 0.0726144 0
0.2136794 0.0805666 0
0.2546622 0.0907872 0
0.3083351 0.1029791 0
0.4025505 0.1132631 0
0.5322775 0.1251797 0
0.6310389 0.1521639 0
0.7058630 0.2004025 0
0.7656104 0.2855992 0.0576326
0.8146603 0.4077056 0.2353509
0.8561577 0.5506075 0.4203383
0.8932609 0.6555924 0.5773842
0.9268266 0.7360592 0.6844456
0.9574909 0.8023948 0.7655284
0.9857257 0.8593131 0.8319840
1 0.9094073 0.8888309
1 0.9542797 0.9387797
1 0.9950012 0.9834830
1 1 1
1 1 1
1 1 1
1 1 1
1 1 1
1 1 1
1 1 1
1 1 1
1 1 1
1 1 1
1 1 1
1 1 1
1 1 1
0.0091466 0.0695918 0
0.0122793 0.0696078 0
0.0158677 0.0696299 0
0.0201064 0.0696601 0
0.0251991 0.0697005 0
0.0313721 0.0697545 0
0.0388737 0.0698289 0
0.0479679 0.0699394 0
0.0589243 0.0701205 0
0.0720584 0.0704886 0
0.0878791 0.0713369 0
0.1061805 0.0724447 0
0.1272483 0.0742135 0
0.1515446 0.0771423 0
0.1798285 0.0817442 0
0.2133707 0.0884459 0
0.2544754 0.0974884 0
0.3083022 0.1087223 0
0.4029818 0.1187894 0
0.5324114 0.1307943 0
0.6310477 0.1570007 0
0.7058303 0.2041670 0
0.7655437 0.2886754 0.0576037
0.8146109 0.4096808 0.2357217
0.8561307 0.5515814 0.4205179
0.8932463 0.6560144 0.5774699
0.9268189 0.7362627 0.6844858
0.9574870 0.8024982 0.7655497
0.9857239 0.8593672 0.8319960
1 0.9094360 0.8888379
1 0.9542951 0.9387840
1 0.9950094 0.9834856
1 1 1
1 1 1
1 1 1
1 1 1
1 1 1
1 1 1
1 1 1
1 1 1
1 1 1
1 1 1
1 1 1
1 1 1
1 1 1
0.0158535 0.0850818 0
0.0179143 0.0850879 0
0.0206091 0.0850965 0
0.0240802 0.0851083 0
0.0284946 0.0851245 0
0.0340484 0.0851465 0
0.0409687 0.0851779 0
0.0495096 0.0852269 0
0.0599451 0.0853132 0
0.0725593 0.0854796 0
0.0876687 0.0858380 0
0.1056811 0.0866195 0
0.1266200 0.0878294 0
0.1509151 0.0899144 0
0.1792817 0.0934046 0
0.2129527 0.0988224 0
0.2542146 0.1065632 0
0.3082576 0.1166790 0
0.4035989 0.1265512 0
0.5326026 0.1387045 0
0.6310585 0.1639153 0
0.7057802 0.2096425 0
0.7654452 0.2931709 0.0575624
0.8145379 0.4125870 0.2362687
0.8560909 0.5530137 0.4207837
0.8932246 0.6566376 0.5775969
0.9268074 0.7365637 0.6845453
0.9574812 0.8026514 0.7655813
0.9857211 0.8594474 0.8320138
1 0.9094786 0.8888484
1 0.9543178 0.9387903
1 0.9950215 0.9834895
1 1 1
1 1 1
1 1 1
1 1 1
1 1 1
1 1 1
1 1 1
1 1 1
1 1 1
1 1 1
1 1 1
1 1 1
1 1 1
0.0234042 0.1026730 0
0.0248448 0.1026739 0
0.0268429 0.1026752 0
0.0295649 0.1026769 0
0.0332030 0.1026792 0
0.0379745 0.1026824 0
0.0441211 0.1026877 0
0.0519083 0.1026989 0
0.0616237 0.1027261 0
0.0735708 0.1027934 0
0.0880645 0.1029528 0
0.1054428 0.1033166 0
0.1260749 0.1040904 0
0.1502432 0.1054828 0
0.1786270 0.1079914 0
0.2124149 0.1121835 0
0.2538640 0.1185878 0
0.3082021 0.1274921 0
0.4044697 0.1372763 0
0.5328713 0.1496725 0
0.6310694 0.1736745 0
0.7057021 0.2175507 0
0.7653000 0.2996993 0.0575045
0.8144305 0.4168476 0.2370740
0.8560321 0.5551120 0.4211768
0.8931927 0.6575561 0.5777848
0.9267905 0.7370086 0.6846335
0.9574726 0.8028780 0.7656280
0.9857170 0.8595661 0.8320401
1 0.9095417 0.8888639
1 0.9543515 0.9387996
1 0.9950395 0.9834952
1 1 1
1 1 1
1 1 1
1 1 1
1 1 1
1 1 1
1 1 1
1 1 1
1 1 1
1 1 1
1 1 1
1 1 1
1 1 1
0.0320295 0.1227555 0
0.0330674 0.1227541 0
0.0345494 0.1227521 0
0.0366374 0.1227491 0
0.0395317 0.1227449 0
0.0434696 0.1227389 0
0.0487212 0.1227312 0
0.0555838 0.1227229 0
0.0643769 0.1227182 0
0.0754375 0.1227299 0
0.0891170 0.1227875 0
0.1057799 0.1229534 0
0.1258167 0.1233483 0
0.1496644 0.1242092 0
0.1779335 0.1259164 0
0.2117773 0.1290320 0
0.2534215 0.1341775 0
0.3081469 0.1418888 0
0.4056782 0.1518323 0
0.5332405 0.1646116 0
0.6310750 0.1872414 0
0.7055773 0.2288796 0
0.7650868 0.3090984 0.0574265
0.8142728 0.4230619 0.2382556
0.8559454 0.5581692 0.4217576
0.8931455 0.6589061 0.5780627
0.9267655 0.7376649 0.6847640
0.9574599 0.8032131 0.7656972
0.9857110 0.8597418 0.8320792
1 0.9096352 0.8888868
1 0.9544015 0.9388134
1 0.9950662 0.9835037
1 1 1
1 1 1
1 1 1
1 1 1
1 1 1
1 1 1
1 1 1
1 1 1
1 1 1
1 1 1
1 1 1
1 1 1
1 1 1
0.0418693 0.1458725 0
0.0426317 0.1458705 0
0.0437372 0.1458677 0
0.0453261 0.1458635 0
0.0475827 0.1458574 0
0.0507403 0.1458489 0
0.0550810 0.1458372 0
0.0609304 0.1458223 0
0.0686485 0.1458056 0
0.0786202 0.1457931 0
0.0912487 0.1458008 0
0.1069530 0.1458655 0
0.1261748 0.1460617 0
0.1494076 0.1465317 0
0.1773536 0.1476446 0
0.2111209 0.1499069 0
0.2529217 0.1539902 0
0.3081307 0.1606769 0
0.4073240 0.1712335 0
0.5337338 0.1845900 0
0.6310618 0.2057931 0
0.7053688 0.2449984 0
0.7647748 0.3224743 0.0573297
0.8140423 0.4320603 0.2399816
0.8558181 0.5625881 0.4226144
0.8930760 0.6608821 0.5784730
0.9267286 0.7386311 0.6849571
0.9574410 0.8037078 0.7657996
0.9857021 0.8600017 0.8321371
1 0.9097735 0.8889208
1 0.9544755 0.9388339
1 0.9951057 0.9835162
1 1 1
1 1 1
1 1 1
1 1 1
1 1 1
1 1 1
1 1 1
1 1 1
1 1 1
1 1 1
1 1 1
1 1 1
1 1 1
0.0530607 0.1728178 0
0.0536294 0.1728162 0
0.0544613 0.1728138 0
0.0556712 0.1728104 0
0.0574165 0.1728055 0
0.0599071 0.1727986 0
0.0634125 0.1727890 0
0.0682636 0.1727764 0
0.0748473 0.1727613 0
0.0835959 0.1727466 0
0.0949742 0.1727413 0
0.1094714 0.1727669 0
0.1276032 0.1728700 0
0.1499312 0.1731406 0
0.1771465 0.1737663 0
0.2106226 0.1754483 0
0.2524721 0.1787745 0
0.3082548 0.1847824 0
0.4095255 0.1966759 0
0.5343695 0.2108624 0
0.6309980 0.2307713 0
0.7049799 0.2681273 0
0.7643219 0.3412256 0.0572334
0.8137077 0.4449600 0.2424873
0.8556320 0.5689035 0.4238752
0.8929739 0.6637574 0.5790779
0.9266742 0.7400485 0.6852424
0.9574133 0.8044366 0.7659512
0.9856889 0.8603854 0.8322228
1 0.9099781 0.8889711
1 0.9545851 0.9388642
1 0.9951642 0.9835348
1 1 1
1 1 1
1 1 1
1 1 1
1 1 1
1 1 1
1 1 1
1 1 1
1 1 1
1 1 1
1 1 1
1 1 1
1 1 1
0.0657590 0.2048393 0
0.0661899 0.2048386 0
0.0668234 0.2048377 0
0.0677513 0.2048363 0
0.0691030 0.2048344 0
0.0710575 0.2048318 0
0.0738553 0.2048284 0
0.0778084 0.2048243 0
0.0833042 0.2048204 0
0.0908016 0.2048194 0
0.1008195 0.2048277 0
0.1139231 0.2048603 0
0.1307181 0.2049486 0
0.1518637 0.2051545 0
0.1781206 0.2055900 0
0.2105779 0.2065366 0
0.2522938 0.2095042 0
0.3087439 0.2153844 0
0.4124264 0.2296538 0
0.5351490 0.2449949 0
0.6308037 0.2641002 0
0.7041011 0.3029211 0
0.7636717 0.3670242 0.0572143
0.8132270 0.4632028 0.2460957
0.8553618 0.5777892 0.4257248
0.8928247 0.6679055 0.5799671
0.9265943 0.7421177 0.6856634
0.9573724 0.8055072 0.7661753
0.9856694 0.8609511 0.8323496
1 0.9102803 0.8890456
1 0.9547472 0.9389091
1 0.9952508 0.9835624
1 1 1
1 1 1
1 1 1
1 1 1
1 1 1
1 1 1
1 1 1
1 1 1
1 1 1
1 1 1
1 1 1
1 1 1
1 1 1
0.0801387 0.2441493 0
0.0804715 0.2441501 0
0.0809622 0.2441513 0
0.0816841 0.2441532 0
0.0827422 0.2441559 0
0.0842854 0.2441602 0
0.0865201 0.2441668 0
0.0897256 0.2441771 0
0.0942665 0.2441938 0
0.1006005 0.2442211 0
0.1092754 0.2442674 0
0.1209202 0.2443479 0
0.1362343 0.2444911 0
0.1559926 0.2447492 0
0.1810876 0.2452146 0
0.2126552 0.2460394 0
0.2527330 0.2477264 0
0.3100319 0.2543212 0
0.4161808 0.2723305 0
0.5359984 0.2893574 0
0.6301149 0.3101741 0
0.7028872 0.3475928 0
0.7627556 0.4017343 0.0575174
0.8125471 0.4885473 0.2512395
0.8549734 0.5900293 0.4284260
0.8926082 0.6738184 0.5812694
0.9264777 0.7451168 0.6862831
0.9573125 0.8070731 0.7665060
0.9856408 0.8617828 0.8325370
1 0.9107261 0.8891558
1 0.9549866 0.9389756
1 0.9953789 0.9836032
1 1 1
1 1 1
1 1 1
1 1 1
1 1 1
1 1 1
1 1 1
1 1 1
1 1 1
1 1 1
1 1 1
1 1 1
1 1 1
0.0963319 0.2957237 0
0.0965969 0.2957271 0
0.0969885 0.2957322 0
0.0975661 0.2957398 0
0.0984160 0.2957511 0
0.0996622 0.2957679 0
0.1014808 0.2957930 0
0.1041166 0.2958306 0
0.1079018 0.2958871 0
0.1132727 0.2959727 0
0.1207809 0.2961032 0
0.1310953 0.2963045 0
0.1449990 0.2966190 0
0.1633930 0.2971177 0
0.1873374 0.2979200 0
0.2181887 0.2992254 0
0.2580247 0.3013509 0
0.3127857 0.3057700 0
0.4205656 0.3296329 0
0.5358474 0.3523446 0
0.6283185 0.3747431 0
0.7012957 0.4035551 0
0.7615021 0.4472618 0.0588435
0.8116068 0.5220881 0.2584831
0.8544234 0.6064310 0.4323484
0.8922970 0.6821071 0.5831667
0.9263086 0.7494201 0.6871926
0.9572250 0.8093489 0.7669931
0.9855989 0.8630007 0.8328137
1 0.9113818 0.8893187
1 0.9553399 0.9390739
1 0.9955683 0.9836637
1 1 1
1 1 1
1 1 1
1 1 1
1 1 1
1 1 1
1 1 1
1 1 1
1 1 1
1 1 1
1 1 1
1 1 1
1 1 1
0.1132176 0.3871141 0
0.1134546 0.3871268 0
0.1138050 0.3871457 0
0.1143225 0.3871737 0
0.1150856 0.3872152 0
0.1162080 0.3872767 0
0.1178529 0.3873679 0
0.1202509 0.3875030 0
0.1237225 0.3877033 0
0.1287014 0.3880001 0
0.1357563 0.3884395 0
0.1456085 0.3890897 0
0.1591433 0.3900503 0
0.1774269 0.3914656 0
0.2017579 0.3935397 0
0.2338167 0.3965474 0
0.2761301 0.4008049 0
0.3355329 0.4061870 0
0.4238619 0.4137219 0
0.5352559 0.4335867 0
0.6264622 0.4510288 0
0.6993518 0.4721271 0
0.7598610 0.5053095 0.0630122
0.8103488 0.5613838 0.2685465
0.8536617 0.6276665 0.4380024
0.8918568 0.6934686 0.5859107
0.9260658 0.7555076 0.6885211
0.9570983 0.8126272 0.7677083
0.9855378 0.8647740 0.8332211
1 0.9123427 0.8895592
1 0.9558597 0.9392192
1 0.9958477 0.9837531
1 1 1
1 1 1
1 1 1
1 1 1
1 1 1
1 1 1
1 1 1
1 1 1
1 1 1
1 1 1
1 1 1
1 1 1
1 1 1
0.1360897 0.5098835 0
0.1363043 0.5098900 0
0.1366219 0.5098997 0
0.1370914 0.5099140 0
0.1377847 0.5099353 0
0.1388064 0.5099669 0
0.1403079 0.5100136 0
0.1425057 0.5100829 0
0.1457051 0.5101855 0
0.1503272 0.5103375 0
0.1569382 0.5105623 0
0.1662759 0.5108944 0
0.1792703 0.5113841 0
0.1970643 0.5121031 0
0.2210593 0.5131508 0
0.2530703 0.5146521 0
0.2959765 0.5167050 0
0.3597324 0.5187046 0
0.4413313 0.5211553 0
0.5364188 0.5260436 0
0.6250085 0.5375949 0
0.6972364 0.5496345 0
0.7578458 0.5684923 0.0742730
0.8087450 0.6051631 0.2823318
0.8526409 0.6540703 0.4460798
0.8912476 0.7085956 0.5898409
0.9257228 0.7639542 0.6904498
0.9569167 0.8172904 0.7687540
0.9854495 0.8673349 0.8338193
1 0.9137436 0.8899132
1 0.9566219 0.9394336
1 0.9962589 0.9838851
1 1 1
1 1 1
1 1 1
1 1 1
1 1 1
1 1 1
1 1 1
1 1 1
1 1 1
1 1 1
1 1 1
1 1 1
1 1 1
