luts/AgX_Base_Rec2100-HLG.cube
TITLE "AgX_Formation_Rec2100HLG"
# AgX Base Rec.2020 Formation LUT
# This LUT expects input to be E Gamut Log2 encoding from -10 stops to +15 stops
# But the end image formation will be Rec2100-HLG
#  rotate = [3.0, -1, -2.0], inset = [0.4, 0.22, 0.13], outset = [0.4, 0.22, 0.04]
# The image formed has 40% per-channel shifts
LUT_3D_SIZE 8
DOMAIN_MIN 0.000000 0.000000 0.000000
DOMAIN_MAX 0.954545 0.954545 0.954545
0 0 0
0.0375001 0 0
0.1295535 0.0270180 0
0.4016549 0.1014415 0
0.8562113 0.5486570 0.4199815
1 0.9542492 0.9387713
1 1 1
1 1 1
0 0.0332203 0
0.0353608 0.0344409 0
0.1287121 0.0463713 0
0.4020474 0.1066876 0
0.8561882 0.5494999 0.4201352
1 0.9542623 0.9387750
1 1 1
1 1 1
0.0320295 0.1227555 0
0.0487212 0.1227312 0
0.1258167 0.1233483 0
0.4056782 0.1518323 0
0.8559454 0.5581692 0.4217576
1 0.9544015 0.9388134
1 1 1
1 1 1
0.1132176 0.3871141 0
0.1178529 0.3873679 0
0.1591433 0.3900503 0
0.4238619 0.4137219 0
0.8536617 0.6276665 0.4380024
1 0.9558597 0.9392192
1 1 1
1 1 1
0.5380483 0.8447564 0.3652191
0.5389598 0.8447451 0.3654234
0.5483214 0.8446266 0.3675847
0.6226293 0.8435210 0.3895656
0.8460622 0.8412760 0.5578673
1 0.9694451 0.9432816
1 1 1
1 1 1
0.9490554 1 0.9270327
0.9490700 1 0.9270373
0.9492250 1 0.9270861
0.9508482 1 0.9276018
0.9658882 1 0.9328509
1 1 0.9733090
1 1 1
1 1 1
1 1 1
1 1 1
1 1 1
1 1 1
1 1 1
1 1 1
1 1 1
1 1 1
1 1 1
1 1 1
1 1 1
1 1 1
1 1 1
1 1 1
1 1 1
1 1 1
0 0.0032225 0.0375286
0.0345886 0 0.0373919
0.1321329 0 0
0.4027874 0.0958931 0
0.8562746 0.5479382 0.4200038
1 0.9542402 0.9387722
1 1 1
1 1 1
0 0.0324869 0.0346237
0.0321253 0.0321250 0.0321291
0.1317541 0.0295245 0
0.4031103 0.1014960 0
0.8562512 0.5487854 0.4201569
1 0.9542533 0.9387759
1 1 1
1 1 1
0 0.1213998 0
0.0318551 0.1211570 0
0.1232106 0.1207864 0
0.4061345 0.1486166 0
0.8560057 0.5574980 0.4217728
1 0.9543925 0.9388143
1 1 1
1 1 1
0.1082361 0.3859836 0
0.1130925 0.3862344 0
0.1557612 0.3888886 0
0.4225956 0.4124717 0
0.8536976 0.6272706 0.4379614
1 0.9558508 0.9392199
1 1 1
1 1 1
0.5370469 0.8447398 0.3649003
0.5379648 0.8447285 0.3651049
0.5473904 0.8446095 0.3672688
0.6220976 0.8434989 0.3892748
0.8460190 0.8412321 0.5577288
1 0.9694377 0.9432808
1 1 1
1 1 1
0.9490380 1 0.9270250
0.9490526 1 0.9270296
0.9492077 1 0.9270783
0.9508314 1 0.9275941
0.9658754 1 0.9328438
1 1 0.9733048
1 1 1
1 1 1
1 1 1
1 1 1
1 1 1
1 1 1
1 1 1
1 1 1
1 1 1
1 1 1
1 1 1
1 1 1
1 1 1
1 1 1
1 1 1
1 1 1
1 1 1
1 1 1
0.0133751 0.0258383 0.1226635
0.0344120 0.0263500 0.1258040
0.1211634 0.0353031 0.1282910
0.4105040 0.0416776 0.0550729
0.8569758 0.5400491 0.4203260
1 0.9541443 0.9387821
1 1 1
1 1 1
0 0.0389905 0.1312496
0.0191656 0.0316694 0.1380396
0.1224048 0.0359521 0.1295938
0.4130132 0.0393404 0.0396205
0.8569495 0.5409449 0.4204721
1 0.9541575 0.9387857
1 1 1
1 1 1
0.0029326 0.1199691 0.1259348
0 0.1182765 0.1241705
0.1155681 0.1155675 0.1155766
0.4168581 0.1051352 0
0.8566738 0.5501434 0.4220148
1 0.9542968 0.9388239
1 1 1
1 1 1
0.0321731 0.3758914 0
0.0403899 0.3755812 0
0.1129563 0.3769962 0
0.4087946 0.3988449 0
0.8540973 0.6229774 0.4375771
1 0.9557571 0.9392277
1 1 1
1 1 1
0.5259251 0.8445680 0.3614891
0.5269168 0.8445562 0.3616965
0.5370756 0.8444316 0.3638898
0.6162935 0.8432675 0.3861666
0.8455582 0.8407638 0.5562492
1 0.9693595 0.9432728
1 1 1
1 1 1
0.9488532 1 0.9269428
0.9488678 1 0.9269474
0.9490234 1 0.9269962
0.9506524 1 0.9275126
0.9657395 1 0.9327682
1 1 0.9732598
1 1 1
1 1 1
1 1 1
1 1 1
1 1 1
1 1 1
1 1 1
1 1 1
1 1 1
1 1 1
1 1 1
1 1 1
1 1 1
1 1 1
1 1 1
1 1 1
1 1 1
1 1 1
0.0817601 0.1023978 0.3350371
0.0862401 0.1028996 0.3363434
0.1257400 0.1072393 0.3483540
0.3745006 0.1129185 0.4042784
0.8592836 0.5139551 0.5256172
1 0.9531226 0.9389105
1 1 1
1 1 1
0.0782728 0.1034342 0.3388806
0.0830285 0.1039252 0.3401380
0.1240619 0.1080615 0.3517290
0.3752344 0.1128830 0.4050270
0.8593616 0.5140414 0.5247542
1 0.9531359 0.9389139
1 1 1
1 1 1
0.0618010 0.1340104 0.3717103
0.0620787 0.1319893 0.3742958
0.0953104 0.1192121 0.3967253
0.3828752 0.1125512 0.4128665
0.8601957 0.5149524 0.5151389
1 0.9532773 0.9389501
1 1 1
1 1 1
0.0564743 0.3809206 0.4054686
0.0566288 0.3800193 0.4045449
0.0583270 0.3702476 0.3945480
0.3706449 0.3706417 0.3706904
0.8601593 0.5706544 0.4546770
1 0.9547577 0.9393329
1 1 1
1 1 1
0.4018320 0.8428568 0.3830301
0.4007027 0.8428601 0.3802968
0.4024030 0.8427980 0.3653687
0.5322113 0.8411714 0.3602420
0.8404990 0.8356216 0.5396122
1 0.9685262 0.9432010
1 1 1
1 1 1
0.9468485 1 0.9260644
0.9468637 1 0.9260690
0.9470249 1 0.9261184
0.9487125 1 0.9266409
0.9642726 1 0.9319600
1 1 0.9727811
1 1 1
1 1 1
1 1 1
1 1 1
1 1 1
1 1 1
1 1 1
1 1 1
1 1 1
1 1 1
1 1 1
1 1 1
1 1 1
1 1 1
1 1 1
1 1 1
1 1 1
1 1 1
0.3450209 0.3984942 0.8486503
0.3462640 0.3988397 0.8487110
0.3594745 0.4026271 0.8493099
0.5060663 0.4506567 0.8514261
0.8355497 0.6187623 0.8499146
1 0.9530458 0.9544991
1 1 1
1 1 1
0.3444138 0.3988535 0.8489114
0.3456591 0.3991987 0.8489716
0.3588885 0.4029812 0.8495652
0.5058107 0.4511387 0.8516106
0.8355719 0.6188143 0.8499356
1 0.9530502 0.9544923
1 1 1
1 1 1
0.3376432 0.4026452 0.8517055
0.3389173 0.4029894 0.8517596
0.3523921 0.4067457 0.8522929
0.5029798 0.4562905 0.8535805
0.8358064 0.6193655 0.8501589
1 0.9530970 0.9544194
1 1 1
1 1 1
0.3198134 0.5104575 0.8689693
0.3199962 0.5098933 0.8691211
0.3220270 0.5037463 0.8707872
0.4228916 0.4870397 0.8799491
0.8382570 0.6250925 0.8524921
1 0.9535961 0.9536186
1 1 1
1 1 1
0.5133353 0.8368945 0.8498456
0.5132316 0.8368643 0.8498166
0.5121256 0.8365436 0.8495083
0.4998915 0.8330587 0.8461586
0.8243168 0.8243158 0.8243306
1 0.9607647 0.9463485
1 1 1
1 1 1
0.9289726 1 0.9266090
0.9289481 1 0.9265656
0.9286860 1 0.9261022
0.9283212 1 0.9236508
0.9464466 1 0.9243779
1 1 0.9675287
1 1 1
1 1 1
1 1 1
1 1 1
1 1 1
1 1 1
1 1 1
1 1 1
1 1 1
1 1 1
1 1 1
1 1 1
1 1 1
1 1 1
1 1 1
1 1 1
1 1 1
1 1 1
0.8830293 0.8945313 1
0.8830832 0.8945617 1
0.8836533 0.8948832 1
0.8894262 0.8981663 1
0.9260145 0.9176627 1
1 0.9720978 1
1 1 1
1 1 1
0.8830108 0.8945343 1
0.8830648 0.8945647 1
0.8836352 0.8948864 1
0.8894112 0.8981705 1
0.9260183 0.9176773 1
1 0.9720998 1
1 1 1
1 1 1
0.8828124 0.8945654 1
0.8828666 0.8945959 1
0.8834406 0.8949188 1
0.8892502 0.8982147 1
0.9260591 0.9178333 1
1 0.9721207 1
1 1 1
1 1 1
0.8804644 0.8947918 1
0.8805227 0.8948238 1
0.8811387 0.8951619 1
0.8873482 0.8986013 1
0.9264863 0.9194981 1
1 0.9723427 1
1 1 1
1 1 1
0.8824986 0.9195441 1
0.8825041 0.9195370 1
0.8825631 0.9194614 1
0.8832376 0.9186708 1
0.9214116 0.9308009 1
1 0.9746642 1
1 1 1
1 1 1
0.9533483 1 1
0.9533453 1 1
0.9533138 1 1
0.9529779 1 1
0.9493313 1 1
1 1 1
1 1 1
1 1 1
1 1 1
1 1 1
1 1 1
1 1 1
1 1 1
1 1 1
1 1 1
1 1 1
1 1 1
1 1 1
1 1 1
1 1 1
1 1 1
1 1 1
1 1 1
1 1 1
1 1 1
1 1 1
1 1 1
1 1 1
1 1 1
1 1 1
1 1 1
1 1 1
1 1 1
1 1 1
1 1 1
1 1 1
1 1 1
1 1 1
1 1 1
1 1 1
1 1 1
1 1 1
1 1 1
1 1 1
1 1 1
1 1 1
1 1 1
1 1 1
1 1 1
1 1 1
1 1 1
1 1 1
1 1 1
1 1 1
1 1 1
1 1 1
1 1 1
1 1 1
1 1 1
1 1 1
1 1 1
1 1 1
1 1 1
1 1 1
1 1 1
1 1 1
1 1 1
1 1 1
1 1 1
1 1 1
1 1 1
1 1 1
1 1 1
1 1 1
1 1 1
1 1 1
1 1 1
1 1 1
1 1 1
1 1 1
1 1 1
1 1 1
1 1 1
1 1 1
1 1 1
1 1 1
1 1 1
1 1 1
1 1 1
1 1 1
1 1 1
1 1 1
1 1 1
1 1 1
1 1 1
1 1 1
1 1 1
1 1 1
1 1 1
1 1 1
1 1 1
1 1 1
1 1 1
1 1 1
1 1 1
1 1 1
1 1 1
1 1 1
1 1 1
1 1 1
1 1 1
1 1 1
1 1 1
1 1 1
1 1 1
1 1 1
1 1 1
1 1 1
1 1 1
1 1 1
1 1 1
1 1 1
1 1 1
1 1 1
1 1 1
1 1 1
1 1 1
1 1 1
1 1 1
1 1 1
1 1 1
1 1 1
1 1 1
1 1 1
1 1 1
1 1 1
1 1 1
1 1 1
1 1 1
1 1 1
1 1 1
1 1 1
1 1 1
1 1 1
1 1 1
1 1 1
1 1 1
1 1 1
1 1 1
1 1 1
1 1 1
1 1 1
