luts/AppleLogToLin-v1.0.cube
TITLE "Apple Log to linear LUT v1.0"

LUT_1D_SIZE 4096
-0.056410877873 -0.056410877873 -0.056410877873
-0.054138433859 -0.054138433859 -0.054138433859
-0.053197129047 -0.053197129047 -0.053197129047
-0.052474841437 -0.052474841437 -0.052474841437
-0.051865925565 -0.051865925565 -0.051865925565
-0.051329460401 -0.051329460401 -0.051329460401
-0.050844459148 -0.050844459148 -0.050844459148
-0.050398454698 -0.050398454698 -0.050398454698
-0.049983324048 -0.049983324048 -0.049983324048
-0.049593424946 -0.049593424946 -0.049593424946
-0.049224649307 -0.049224649307 -0.049224649307
-0.048873895860 -0.048873895860 -0.048873895860
-0.048538755228 -0.048538755228 -0.048538755228
-0.048217311363 -0.048217311363 -0.048217311363
-0.047908010739 -0.047908010739 -0.047908010739
-0.047609573029 -0.047609573029 -0.047609573029
-0.047320928231 -0.047320928231 -0.047320928231
-0.047041171256 -0.047041171256 -0.047041171256
-0.046769528395 -0.046769528395 -0.046769528395
-0.046505332080 -0.046505332080 -0.046505332080
-0.046248001548 -0.046248001548 -0.046248001548
-0.045997027817 -0.045997027817 -0.045997027817
-0.045751961849 -0.045751961849 -0.045751961849
-0.045512405106 -0.045512405106 -0.045512405106
-0.045278001941 -0.045278001941 -0.045278001941
-0.045048433399 -0.045048433399 -0.045048433399
-0.044823412131 -0.044823412131 -0.044823412131
-0.044602678169 -0.044602678169 -0.044602678169
-0.044385995412 -0.044385995412 -0.044385995412
-0.044173148666 -0.044173148666 -0.044173148666
-0.043963941137 -0.043963941137 -0.043963941137
-0.043758192305 -0.043758192305 -0.043758192305
-0.043555736097 -0.043555736097 -0.043555736097
-0.043356419321 -0.043356419321 -0.043356419321
-0.043160100308 -0.043160100308 -0.043160100308
-0.042966647732 -0.042966647732 -0.042966647732
-0.042775939585 -0.042775939585 -0.042775939585
-0.042587862278 -0.042587862278 -0.042587862278
-0.042402309846 -0.042402309846 -0.042402309846
-0.042219183252 -0.042219183252 -0.042219183252
-0.042038389771 -0.042038389771 -0.042038389771
-0.041859842436 -0.041859842436 -0.041859842436
-0.041683459554 -0.041683459554 -0.041683459554
-0.041509164267 -0.041509164267 -0.041509164267
-0.041336884160 -0.041336884160 -0.041336884160
-0.041166550911 -0.041166550911 -0.041166550911
-0.040998099973 -0.040998099973 -0.040998099973
-0.040831470289 -0.040831470289 -0.040831470289
-0.040666604034 -0.040666604034 -0.040666604034
-0.040503446377 -0.040503446377 -0.040503446377
-0.040341945274 -0.040341945274 -0.040341945274
-0.040182051268 -0.040182051268 -0.040182051268
-0.040023717318 -0.040023717318 -0.040023717318
-0.039866898632 -0.039866898632 -0.039866898632
-0.039711552521 -0.039711552521 -0.039711552521
-0.039557638265 -0.039557638265 -0.039557638265
-0.039405116985 -0.039405116985 -0.039405116985
-0.039253951532 -0.039253951532 -0.039253951532
-0.039104106378 -0.039104106378 -0.039104106378
-0.038955547522 -0.038955547522 -0.038955547522
-0.038808242395 -0.038808242395 -0.038808242395
-0.038662159782 -0.038662159782 -0.038662159782
-0.038517269741 -0.038517269741 -0.038517269741
-0.038373543534 -0.038373543534 -0.038373543534
-0.038230953556 -0.038230953556 -0.038230953556
-0.038089473280 -0.038089473280 -0.038089473280
-0.037949077192 -0.037949077192 -0.037949077192
-0.037809740744 -0.037809740744 -0.037809740744
-0.037671440299 -0.037671440299 -0.037671440299
-0.037534153086 -0.037534153086 -0.037534153086
-0.037397857156 -0.037397857156 -0.037397857156
-0.037262531341 -0.037262531341 -0.037262531341
-0.037128155217 -0.037128155217 -0.037128155217
-0.036994709066 -0.036994709066 -0.036994709066
-0.036862173843 -0.036862173843 -0.036862173843
-0.036730531145 -0.036730531145 -0.036730531145
-0.036599763178 -0.036599763178 -0.036599763178
-0.036469852734 -0.036469852734 -0.036469852734
-0.036340783162 -0.036340783162 -0.036340783162
-0.036212538342 -0.036212538342 -0.036212538342
-0.036085102662 -0.036085102662 -0.036085102662
-0.035958460998 -0.035958460998 -0.035958460998
-0.035832598689 -0.035832598689 -0.035832598689
-0.035707501523 -0.035707501523 -0.035707501523
-0.035583155713 -0.035583155713 -0.035583155713
-0.035459547879 -0.035459547879 -0.035459547879
-0.035336665038 -0.035336665038 -0.035336665038
-0.035214494579 -0.035214494579 -0.035214494579
-0.035093024255 -0.035093024255 -0.035093024255
-0.034972242166 -0.034972242166 -0.034972242166
-0.034852136743 -0.034852136743 -0.034852136743
-0.034732696740 -0.034732696740 -0.034732696740
-0.034613911218 -0.034613911218 -0.034613911218
-0.034495769535 -0.034495769535 -0.034495769535
-0.034378261333 -0.034378261333 -0.034378261333
-0.034261376531 -0.034261376531 -0.034261376531
-0.034145105310 -0.034145105310 -0.034145105310
-0.034029438108 -0.034029438108 -0.034029438108
-0.033914365608 -0.033914365608 -0.033914365608
-0.033799878731 -0.033799878731 -0.033799878731
-0.033685968625 -0.033685968625 -0.033685968625
-0.033572626660 -0.033572626660 -0.033572626660
-0.033459844419 -0.033459844419 -0.033459844419
-0.033347613691 -0.033347613691 -0.033347613691
-0.033235926463 -0.033235926463 -0.033235926463
-0.033124774915 -0.033124774915 -0.033124774915
-0.033014151412 -0.033014151412 -0.033014151412
-0.032904048499 -0.032904048499 -0.032904048499
-0.032794458895 -0.032794458895 -0.032794458895
-0.032685375487 -0.032685375487 -0.032685375487
-0.032576791325 -0.032576791325 -0.032576791325
-0.032468699615 -0.032468699615 -0.032468699615
-0.032361093719 -0.032361093719 -0.032361093719
-0.032253967144 -0.032253967144 -0.032253967144
-0.032147313541 -0.032147313541 -0.032147313541
-0.032041126700 -0.032041126700 -0.032041126700
-0.031935400546 -0.031935400546 -0.031935400546
-0.031830129136 -0.031830129136 -0.031830129136
-0.031725306650 -0.031725306650 -0.031725306650
-0.031620927394 -0.031620927394 -0.031620927394
-0.031516985793 -0.031516985793 -0.031516985793
-0.031413476388 -0.031413476388 -0.031413476388
-0.031310393831 -0.031310393831 -0.031310393831
-0.031207732885 -0.031207732885 -0.031207732885
-0.031105488419 -0.031105488419 -0.031105488419
-0.031003655405 -0.031003655405 -0.031003655405
-0.030902228915 -0.030902228915 -0.030902228915
-0.030801204119 -0.030801204119 -0.030801204119
-0.030700576282 -0.030700576282 -0.030700576282
-0.030600340760 -0.030600340760 -0.030600340760
-0.030500493002 -0.030500493002 -0.030500493002
-0.030401028540 -0.030401028540 -0.030401028540
-0.030301942995 -0.030301942995 -0.030301942995
-0.030203232069 -0.030203232069 -0.030203232069
-0.030104891545 -0.030104891545 -0.030104891545
-0.030006917283 -0.030006917283 -0.030006917283
-0.029909305222 -0.029909305222 -0.029909305222
-0.029812051374 -0.029812051374 -0.029812051374
-0.029715151825 -0.029715151825 -0.029715151825
-0.029618602730 -0.029618602730 -0.029618602730
-0.029522400313 -0.029522400313 -0.029522400313
-0.029426540867 -0.029426540867 -0.029426540867
-0.029331020751 -0.029331020751 -0.029331020751
-0.029235836385 -0.029235836385 -0.029235836385
-0.029140984253 -0.029140984253 -0.029140984253
-0.029046460902 -0.029046460902 -0.029046460902
-0.028952262935 -0.028952262935 -0.028952262935
-0.028858387016 -0.028858387016 -0.028858387016
-0.028764829863 -0.028764829863 -0.028764829863
-0.028671588252 -0.028671588252 -0.028671588252
-0.028578659010 -0.028578659010 -0.028578659010
-0.028486039020 -0.028486039020 -0.028486039020
-0.028393725215 -0.028393725215 -0.028393725215
-0.028301714577 -0.028301714577 -0.028301714577
-0.028210004139 -0.028210004139 -0.028210004139
-0.028118590983 -0.028118590983 -0.028118590983
-0.028027472235 -0.028027472235 -0.028027472235
-0.027936645069 -0.027936645069 -0.027936645069
-0.027846106705 -0.027846106705 -0.027846106705
-0.027755854404 -0.027755854404 -0.027755854404
-0.027665885472 -0.027665885472 -0.027665885472
-0.027576197256 -0.027576197256 -0.027576197256
-0.027486787145 -0.027486787145 -0.027486787145
-0.027397652569 -0.027397652569 -0.027397652569
-0.027308790994 -0.027308790994 -0.027308790994
-0.027220199929 -0.027220199929 -0.027220199929
-0.027131876917 -0.027131876917 -0.027131876917
-0.027043819541 -0.027043819541 -0.027043819541
-0.026956025417 -0.026956025417 -0.026956025417
-0.026868492198 -0.026868492198 -0.026868492198
-0.026781217573 -0.026781217573 -0.026781217573
-0.026694199263 -0.026694199263 -0.026694199263
-0.026607435022 -0.026607435022 -0.026607435022
-0.026520922639 -0.026520922639 -0.026520922639
-0.026434659932 -0.026434659932 -0.026434659932
-0.026348644753 -0.026348644753 -0.026348644753
-0.026262874982 -0.026262874982 -0.026262874982
-0.026177348531 -0.026177348531 -0.026177348531
-0.026092063342 -0.026092063342 -0.026092063342
-0.026007017383 -0.026007017383 -0.026007017383
-0.025922208652 -0.025922208652 -0.025922208652
-0.025837635176 -0.025837635176 -0.025837635176
-0.025753295008 -0.025753295008 -0.025753295008
-0.025669186227 -0.025669186227 -0.025669186227
-0.025585306939 -0.025585306939 -0.025585306939
-0.025501655276 -0.025501655276 -0.025501655276
-0.025418229395 -0.025418229395 -0.025418229395
-0.025335027478 -0.025335027478 -0.025335027478
-0.025252047729 -0.025252047729 -0.025252047729
-0.025169288380 -0.025169288380 -0.025169288380
-0.025086747682 -0.025086747682 -0.025086747682
-0.025004423913 -0.025004423913 -0.025004423913
-0.024922315370 -0.024922315370 -0.024922315370
-0.024840420375 -0.024840420375 -0.024840420375
-0.024758737270 -0.024758737270 -0.024758737270
-0.024677264418 -0.024677264418 -0.024677264418
-0.024596000205 -0.024596000205 -0.024596000205
-0.024514943036 -0.024514943036 -0.024514943036
-0.024434091335 -0.024434091335 -0.024434091335
-0.024353443549 -0.024353443549 -0.024353443549
-0.024272998143 -0.024272998143 -0.024272998143
-0.024192753600 -0.024192753600 -0.024192753600
-0.024112708423 -0.024112708423 -0.024112708423
-0.024032861134 -0.024032861134 -0.024032861134
-0.023953210272 -0.023953210272 -0.023953210272
-0.023873754395 -0.023873754395 -0.023873754395
-0.023794492077 -0.023794492077 -0.023794492077
-0.023715421912 -0.023715421912 -0.023715421912
-0.023636542507 -0.023636542507 -0.023636542507
-0.023557852490 -0.023557852490 -0.023557852490
-0.023479350503 -0.023479350503 -0.023479350503
-0.023401035203 -0.023401035203 -0.023401035203
-0.023322905267 -0.023322905267 -0.023322905267
-0.023244959382 -0.023244959382 -0.023244959382
-0.023167196256 -0.023167196256 -0.023167196256
-0.023089614607 -0.023089614607 -0.023089614607
-0.023012213173 -0.023012213173 -0.023012213173
-0.022934990702 -0.022934990702 -0.022934990702
-0.022857945959 -0.022857945959 -0.022857945959
-0.022781077723 -0.022781077723 -0.022781077723
-0.022704384785 -0.022704384785 -0.022704384785
-0.022627865952 -0.022627865952 -0.022627865952
-0.022551520044 -0.022551520044 -0.022551520044
-0.022475345894 -0.022475345894 -0.022475345894
-0.022399342347 -0.022399342347 -0.022399342347
-0.022323508262 -0.022323508262 -0.022323508262
-0.022247842511 -0.022247842511 -0.022247842511
-0.022172343978 -0.022172343978 -0.022172343978
-0.022097011559 -0.022097011559 -0.022097011559
-0.022021844163 -0.022021844163 -0.022021844163
-0.021946840709 -0.021946840709 -0.021946840709
-0.021872000129 -0.021872000129 -0.021872000129
-0.021797321368 -0.021797321368 -0.021797321368
-0.021722803379 -0.021722803379 -0.021722803379
-0.021648445130 -0.021648445130 -0.021648445130
-0.021574245597 -0.021574245597 -0.021574245597
-0.021500203768 -0.021500203768 -0.021500203768
-0.021426318641 -0.021426318641 -0.021426318641
-0.021352589227 -0.021352589227 -0.021352589227
-0.021279014545 -0.021279014545 -0.021279014545
-0.021205593624 -0.021205593624 -0.021205593624
-0.021132325505 -0.021132325505 -0.021132325505
-0.021059209238 -0.021059209238 -0.021059209238
-0.020986243881 -0.020986243881 -0.020986243881
-0.020913428506 -0.020913428506 -0.020913428506
-0.020840762190 -0.020840762190 -0.020840762190
-0.020768244022 -0.020768244022 -0.020768244022
-0.020695873099 -0.020695873099 -0.020695873099
-0.020623648529 -0.020623648529 -0.020623648529
-0.020551569426 -0.020551569426 -0.020551569426
-0.020479634916 -0.020479634916 -0.020479634916
-0.020407844132 -0.020407844132 -0.020407844132
-0.020336196216 -0.020336196216 -0.020336196216
-0.020264690317 -0.020264690317 -0.020264690317
-0.020193325596 -0.020193325596 -0.020193325596
-0.020122101218 -0.020122101218 -0.020122101218
-0.020051016360 -0.020051016360 -0.020051016360
-0.019980070205 -0.019980070205 -0.019980070205
-0.019909261943 -0.019909261943 -0.019909261943
-0.019838590774 -0.019838590774 -0.019838590774
-0.019768055905 -0.019768055905 -0.019768055905
-0.019697656550 -0.019697656550 -0.019697656550
-0.019627391931 -0.019627391931 -0.019627391931
-0.019557261277 -0.019557261277 -0.019557261277
-0.019487263825 -0.019487263825 -0.019487263825
-0.019417398820 -0.019417398820 -0.019417398820
-0.019347665511 -0.019347665511 -0.019347665511
-0.019278063157 -0.019278063157 -0.019278063157
-0.019208591023 -0.019208591023 -0.019208591023
-0.019139248380 -0.019139248380 -0.019139248380
-0.019070034509 -0.019070034509 -0.019070034509
-0.019000948692 -0.019000948692 -0.019000948692
-0.018931990223 -0.018931990223 -0.018931990223
-0.018863158401 -0.018863158401 -0.018863158401
-0.018794452528 -0.018794452528 -0.018794452528
-0.018725871918 -0.018725871918 -0.018725871918
-0.018657415886 -0.018657415886 -0.018657415886
-0.018589083757 -0.018589083757 -0.018589083757
-0.018520874861 -0.018520874861 -0.018520874861
-0.018452788532 -0.018452788532 -0.018452788532
-0.018384824113 -0.018384824113 -0.018384824113
-0.018316980951 -0.018316980951 -0.018316980951
-0.018249258400 -0.018249258400 -0.018249258400
-0.018181655818 -0.018181655818 -0.018181655818
-0.018114172570 -0.018114172570 -0.018114172570
-0.018046808026 -0.018046808026 -0.018046808026
-0.017979561562 -0.017979561562 -0.017979561562
-0.017912432560 -0.017912432560 -0.017912432560
-0.017845420406 -0.017845420406 -0.017845420406
-0.017778524492 -0.017778524492 -0.017778524492
-0.017711744214 -0.017711744214 -0.017711744214
-0.017645078977 -0.017645078977 -0.017645078977
-0.017578528186 -0.017578528186 -0.017578528186
-0.017512091255 -0.017512091255 -0.017512091255
-0.017445767601 -0.017445767601 -0.017445767601
-0.017379556647 -0.017379556647 -0.017379556647
-0.017313457821 -0.017313457821 -0.017313457821
-0.017247470553 -0.017247470553 -0.017247470553
-0.017181594282 -0.017181594282 -0.017181594282
-0.017115828450 -0.017115828450 -0.017115828450
-0.017050172502 -0.017050172502 -0.017050172502
-0.016984625890 -0.016984625890 -0.016984625890
-0.016919188069 -0.016919188069 -0.016919188069
-0.016853858499 -0.016853858499 -0.016853858499
-0.016788636646 -0.016788636646 -0.016788636646
-0.016723521977 -0.016723521977 -0.016723521977
-0.016658513967 -0.016658513967 -0.016658513967
-0.016593612092 -0.016593612092 -0.016593612092
-0.016528815835 -0.016528815835 -0.016528815835
-0.016464124681 -0.016464124681 -0.016464124681
-0.016399538122 -0.016399538122 -0.016399538122
-0.016335055650 -0.016335055650 -0.016335055650
-0.016270676765 -0.016270676765 -0.016270676765
-0.016206400969 -0.016206400969 -0.016206400969
-0.016142227768 -0.016142227768 -0.016142227768
-0.016078156673 -0.016078156673 -0.016078156673
-0.016014187198 -0.016014187198 -0.016014187198
-0.015950318860 -0.015950318860 -0.015950318860
-0.015886551181 -0.015886551181 -0.015886551181
-0.015822883688 -0.015822883688 -0.015822883688
-0.015759315909 -0.015759315909 -0.015759315909
-0.015695847378 -0.015695847378 -0.015695847378
-0.015632477630 -0.015632477630 -0.015632477630
-0.015569206207 -0.015569206207 -0.015569206207
-0.015506032651 -0.015506032651 -0.015506032651
-0.015442956510 -0.015442956510 -0.015442956510
-0.015379977336 -0.015379977336 -0.015379977336
-0.015317094681 -0.015317094681 -0.015317094681
-0.015254308104 -0.015254308104 -0.015254308104
-0.015191617165 -0.015191617165 -0.015191617165
-0.015129021429 -0.015129021429 -0.015129021429
-0.015066520463 -0.015066520463 -0.015066520463
-0.015004113839 -0.015004113839 -0.015004113839
-0.014941801130 -0.014941801130 -0.014941801130
-0.014879581914 -0.014879581914 -0.014879581914
-0.014817455771 -0.014817455771 -0.014817455771
-0.014755422284 -0.014755422284 -0.014755422284
-0.014693481041 -0.014693481041 -0.014693481041
-0.014631631631 -0.014631631631 -0.014631631631
-0.014569873646 -0.014569873646 -0.014569873646
-0.014508206683 -0.014508206683 -0.014508206683
-0.014446630340 -0.014446630340 -0.014446630340
-0.014385144219 -0.014385144219 -0.014385144219
-0.014323747925 -0.014323747925 -0.014323747925
-0.014262441064 -0.014262441064 -0.014262441064
-0.014201223248 -0.014201223248 -0.014201223248
-0.014140094089 -0.014140094089 -0.014140094089
-0.014079053204 -0.014079053204 -0.014079053204
-0.014018100210 -0.014018100210 -0.014018100210
-0.013957234730 -0.013957234730 -0.013957234730
-0.013896456388 -0.013896456388 -0.013896456388
-0.013835764809 -0.013835764809 -0.013835764809
-0.013775159625 -0.013775159625 -0.013775159625
-0.013714640467 -0.013714640467 -0.013714640467
-0.013654206969 -0.013654206969 -0.013654206969
-0.013593858769 -0.013593858769 -0.013593858769
-0.013533595507 -0.013533595507 -0.013533595507
-0.013473416825 -0.013473416825 -0.013473416825
-0.013413322369 -0.013413322369 -0.013413322369
-0.013353311784 -0.013353311784 -0.013353311784
-0.013293384722 -0.013293384722 -0.013293384722
-0.013233540834 -0.013233540834 -0.013233540834
-0.013173779775 -0.013173779775 -0.013173779775
-0.013114101203 -0.013114101203 -0.013114101203
-0.013054504775 -0.013054504775 -0.013054504775
-0.012994990155 -0.012994990155 -0.012994990155
-0.012935557006 -0.012935557006 -0.012935557006
-0.012876204995 -0.012876204995 -0.012876204995
-0.012816933790 -0.012816933790 -0.012816933790
-0.012757743061 -0.012757743061 -0.012757743061
-0.012698632483 -0.012698632483 -0.012698632483
-0.012639601730 -0.012639601730 -0.012639601730
-0.012580650480 -0.012580650480 -0.012580650480
-0.012521778413 -0.012521778413 -0.012521778413
-0.012462985209 -0.012462985209 -0.012462985209
-0.012404270554 -0.012404270554 -0.012404270554
-0.012345634133 -0.012345634133 -0.012345634133
-0.012287075634 -0.012287075634 -0.012287075634
-0.012228594748 -0.012228594748 -0.012228594748
-0.012170191166 -0.012170191166 -0.012170191166
-0.012111864584 -0.012111864584 -0.012111864584
-0.012053614696 -0.012053614696 -0.012053614696
-0.011995441202 -0.011995441202 -0.011995441202
-0.011937343801 -0.011937343801 -0.011937343801
-0.011879322197 -0.011879322197 -0.011879322197
-0.011821376092 -0.011821376092 -0.011821376092
-0.011763505193 -0.011763505193 -0.011763505193
-0.011705709208 -0.011705709208 -0.011705709208
-0.011647987847 -0.011647987847 -0.011647987847
-0.011590340821 -0.011590340821 -0.011590340821
-0.011532767844 -0.011532767844 -0.011532767844
-0.011475268631 -0.011475268631 -0.011475268631
-0.011417842900 -0.011417842900 -0.011417842900
-0.011360490369 -0.011360490369 -0.011360490369
-0.011303210760 -0.011303210760 -0.011303210760
-0.011246003795 -0.011246003795 -0.011246003795
-0.011188869198 -0.011188869198 -0.011188869198
-0.011131806695 -0.011131806695 -0.011131806695
-0.011074816014 -0.011074816014 -0.011074816014
-0.011017896884 -0.011017896884 -0.011017896884
-0.010961049037 -0.010961049037 -0.010961049037
-0.010904272206 -0.010904272206 -0.010904272206
-0.010847566125 -0.010847566125 -0.010847566125
-0.010790930530 -0.010790930530 -0.010790930530
-0.010734365159 -0.010734365159 -0.010734365159
-0.010677869751 -0.010677869751 -0.010677869751
-0.010621444048 -0.010621444048 -0.010621444048
-0.010565087792 -0.010565087792 -0.010565087792
-0.010508800727 -0.010508800727 -0.010508800727
-0.010452582600 -0.010452582600 -0.010452582600
-0.010396433156 -0.010396433156 -0.010396433156
-0.010340352146 -0.010340352146 -0.010340352146
-0.010284339320 -0.010284339320 -0.010284339320
-0.010228394430 -0.010228394430 -0.010228394430
-0.010172517228 -0.010172517228 -0.010172517228
-0.010116707470 -0.010116707470 -0.010116707470
-0.010060964913 -0.010060964913 -0.010060964913
-0.010005289313 -0.010005289313 -0.010005289313
-0.009949680432 -0.009949680432 -0.009949680432
-0.009894138028 -0.009894138028 -0.009894138028
-0.009838661864 -0.009838661864 -0.009838661864
-0.009783251704 -0.009783251704 -0.009783251704
-0.009727907314 -0.009727907314 -0.009727907314
-0.009672628458 -0.009672628458 -0.009672628458
-0.009617414905 -0.009617414905 -0.009617414905
-0.009562266424 -0.009562266424 -0.009562266424
-0.009507182786 -0.009507182786 -0.009507182786
-0.009452163762 -0.009452163762 -0.009452163762
-0.009397209126 -0.009397209126 -0.009397209126
-0.009342318651 -0.009342318651 -0.009342318651
-0.009287492114 -0.009287492114 -0.009287492114
-0.009232729292 -0.009232729292 -0.009232729292
-0.009178029963 -0.009178029963 -0.009178029963
-0.009123393908 -0.009123393908 -0.009123393908
-0.009068820905 -0.009068820905 -0.009068820905
-0.009014310739 -0.009014310739 -0.009014310739
-0.008959863193 -0.008959863193 -0.008959863193
-0.008905478050 -0.008905478050 -0.008905478050
-0.008851155098 -0.008851155098 -0.008851155098
-0.008796894122 -0.008796894122 -0.008796894122
-0.008742694912 -0.008742694912 -0.008742694912
-0.008688557258 -0.008688557258 -0.008688557258
-0.008634480949 -0.008634480949 -0.008634480949
-0.008580465778 -0.008580465778 -0.008580465778
-0.008526511538 -0.008526511538 -0.008526511538
-0.008472618023 -0.008472618023 -0.008472618023
-0.008418785029 -0.008418785029 -0.008418785029
-0.008365012351 -0.008365012351 -0.008365012351
-0.008311299789 -0.008311299789 -0.008311299789
-0.008257647140 -0.008257647140 -0.008257647140
-0.008204054205 -0.008204054205 -0.008204054205
-0.008150520785 -0.008150520785 -0.008150520785
-0.008097046681 -0.008097046681 -0.008097046681
-0.008043631698 -0.008043631698 -0.008043631698
-0.007990275639 -0.007990275639 -0.007990275639
-0.007936978310 -0.007936978310 -0.007936978310
-0.007883739517 -0.007883739517 -0.007883739517
-0.007830559069 -0.007830559069 -0.007830559069
-0.007777436773 -0.007777436773 -0.007777436773
-0.007724372439 -0.007724372439 -0.007724372439
-0.007671365878 -0.007671365878 -0.007671365878
-0.007618416901 -0.007618416901 -0.007618416901
-0.007565525322 -0.007565525322 -0.007565525322
-0.007512690954 -0.007512690954 -0.007512690954
-0.007459913612 -0.007459913612 -0.007459913612
-0.007407193111 -0.007407193111 -0.007407193111
-0.007354529269 -0.007354529269 -0.007354529269
-0.007301921902 -0.007301921902 -0.007301921902
-0.007249370831 -0.007249370831 -0.007249370831
-0.007196875874 -0.007196875874 -0.007196875874
-0.007144436851 -0.007144436851 -0.007144436851
-0.007092053586 -0.007092053586 -0.007092053586
-0.007039725899 -0.007039725899 -0.007039725899
-0.006987453615 -0.006987453615 -0.006987453615
-0.006935236558 -0.006935236558 -0.006935236558
-0.006883074554 -0.006883074554 -0.006883074554
-0.006830967428 -0.006830967428 -0.006830967428
-0.006778915007 -0.006778915007 -0.006778915007
-0.006726917121 -0.006726917121 -0.006726917121
-0.006674973597 -0.006674973597 -0.006674973597
-0.006623084265 -0.006623084265 -0.006623084265
-0.006571248957 -0.006571248957 -0.006571248957
-0.006519467504 -0.006519467504 -0.006519467504
-0.006467739738 -0.006467739738 -0.006467739738
-0.006416065493 -0.006416065493 -0.006416065493
-0.006364444603 -0.006364444603 -0.006364444603
-0.006312876903 -0.006312876903 -0.006312876903
-0.006261362229 -0.006261362229 -0.006261362229
-0.006209900418 -0.006209900418 -0.006209900418
-0.006158491307 -0.006158491307 -0.006158491307
-0.006107134735 -0.006107134735 -0.006107134735
-0.006055830540 -0.006055830540 -0.006055830540
-0.006004578564 -0.006004578564 -0.006004578564
-0.005953378647 -0.005953378647 -0.005953378647
-0.005902230630 -0.005902230630 -0.005902230630
-0.005851134357 -0.005851134357 -0.005851134357
-0.005800089670 -0.005800089670 -0.005800089670
-0.005749096413 -0.005749096413 -0.005749096413
