luts/Apple_Log_EOTF.spi1d
Version 1
From 0.0000000 1.0000000
Length 12288
Components 1
{
 -0.0564109
 -0.0550990
 -0.0545556
 -0.0541386
 -0.0537871
 -0.0534773
 -0.0531974
 -0.0529399
 -0.0527002
 -0.0524751
 -0.0522622
 -0.0520598
 -0.0518663
 -0.0516807
 -0.0515021
 -0.0513299
 -0.0511632
 -0.0510017
 -0.0508449
 -0.0506924
 -0.0505438
 -0.0503989
 -0.0502575
 -0.0501192
 -0.0499838
 -0.0498513
 -0.0497214
 -0.0495940
 -0.0494689
 -0.0493460
 -0.0492252
 -0.0491064
 -0.0489896
 -0.0488745
 -0.0487612
 -0.0486495
 -0.0485394
 -0.0484308
 -0.0483237
 -0.0482180
 -0.0481136
 -0.0480105
 -0.0479087
 -0.0478081
 -0.0477086
 -0.0476103
 -0.0475130
 -0.0474168
 -0.0473217
 -0.0472275
 -0.0471342
 -0.0470419
 -0.0469505
 -0.0468600
 -0.0467703
 -0.0466815
 -0.0465934
 -0.0465061
 -0.0464196
 -0.0463339
 -0.0462488
 -0.0461645
 -0.0460809
 -0.0459979
 -0.0459156
 -0.0458339
 -0.0457528
 -0.0456724
 -0.0455926
 -0.0455133
 -0.0454346
 -0.0453565
 -0.0452789
 -0.0452019
 -0.0451254
 -0.0450494
 -0.0449739
 -0.0448989
 -0.0448244
 -0.0447503
 -0.0446768
 -0.0446036
 -0.0445310
 -0.0444588
 -0.0443870
 -0.0443156
 -0.0442447
 -0.0441742
 -0.0441040
 -0.0440343
 -0.0439650
 -0.0438960
 -0.0438274
 -0.0437592
 -0.0436914
 -0.0436239
 -0.0435568
 -0.0434900
 -0.0434236
 -0.0433575
 -0.0432917
 -0.0432263
 -0.0431612
 -0.0430964
 -0.0430319
 -0.0429678
 -0.0429039
 -0.0428403
 -0.0427771
 -0.0427141
 -0.0426514
 -0.0425890
 -0.0425269
 -0.0424650
 -0.0424035
 -0.0423422
 -0.0422811
 -0.0422204
 -0.0421598
 -0.0420996
 -0.0420396
 -0.0419798
 -0.0419203
 -0.0418610
 -0.0418020
 -0.0417432
 -0.0416847
 -0.0416263
 -0.0415683
 -0.0415104
 -0.0414527
 -0.0413953
 -0.0413381
 -0.0412811
 -0.0412244
 -0.0411678
 -0.0411115
 -0.0410553
 -0.0409994
 -0.0409436
 -0.0408881
 -0.0408328
 -0.0407776
 -0.0407227
 -0.0406679
 -0.0406133
 -0.0405590
 -0.0405048
 -0.0404507
 -0.0403969
 -0.0403433
 -0.0402898
 -0.0402365
 -0.0401834
 -0.0401304
 -0.0400777
 -0.0400251
 -0.0399726
 -0.0399204
 -0.0398683
 -0.0398163
 -0.0397645
 -0.0397129
 -0.0396615
 -0.0396102
 -0.0395590
 -0.0395080
 -0.0394572
 -0.0394065
 -0.0393560
 -0.0393056
 -0.0392554
 -0.0392053
 -0.0391553
 -0.0391055
 -0.0390559
 -0.0390064
 -0.0389570
 -0.0389078
 -0.0388587
 -0.0388097
 -0.0387609
 -0.0387122
 -0.0386636
 -0.0386152
 -0.0385669
 -0.0385187
 -0.0384707
 -0.0384228
 -0.0383750
 -0.0383274
 -0.0382799
 -0.0382325
 -0.0381852
 -0.0381380
 -0.0380910
 -0.0380441
 -0.0379973
 -0.0379506
 -0.0379040
 -0.0378576
 -0.0378113
 -0.0377651
 -0.0377190
 -0.0376730
 -0.0376271
 -0.0375814
 -0.0375357
 -0.0374902
 -0.0374447
 -0.0373994
 -0.0373542
 -0.0373091
 -0.0372641
 -0.0372192
 -0.0371744
 -0.0371297
 -0.0370852
 -0.0370407
 -0.0369963
 -0.0369520
 -0.0369079
 -0.0368638
 -0.0368198
 -0.0367759
 -0.0367322
 -0.0366885
 -0.0366449
 -0.0366014
 -0.0365580
 -0.0365147
 -0.0364715
 -0.0364284
 -0.0363854
 -0.0363424
 -0.0362996
 -0.0362569
 -0.0362142
 -0.0361716
 -0.0361292
 -0.0360868
 -0.0360445
 -0.0360023
 -0.0359602
 -0.0359181
 -0.0358762
 -0.0358343
 -0.0357925
 -0.0357508
 -0.0357092
 -0.0356677
 -0.0356262
 -0.0355849
 -0.0355436
 -0.0355024
 -0.0354613
 -0.0354202
 -0.0353793
 -0.0353384
 -0.0352976
 -0.0352569
 -0.0352162
 -0.0351757
 -0.0351352
 -0.0350948
 -0.0350545
 -0.0350142
 -0.0349740
 -0.0349339
 -0.0348939
 -0.0348539
 -0.0348140
 -0.0347742
 -0.0347345
 -0.0346948
 -0.0346552
 -0.0346157
 -0.0345763
 -0.0345369
 -0.0344976
 -0.0344583
 -0.0344192
 -0.0343801
 -0.0343411
 -0.0343021
 -0.0342632
 -0.0342244
 -0.0341856
 -0.0341469
 -0.0341083
 -0.0340698
 -0.0340313
 -0.0339929
 -0.0339545
 -0.0339162
 -0.0338780
 -0.0338398
 -0.0338017
 -0.0337637
 -0.0337258
 -0.0336878
 -0.0336500
 -0.0336122
 -0.0335745
 -0.0335369
 -0.0334993
 -0.0334617
 -0.0334243
 -0.0333869
 -0.0333495
 -0.0333122
 -0.0332750
 -0.0332378
 -0.0332007
 -0.0331637
 -0.0331267
 -0.0330898
 -0.0330529
 -0.0330161
 -0.0329793
 -0.0329426
 -0.0329060
 -0.0328694
 -0.0328329
 -0.0327964
 -0.0327600
 -0.0327236
 -0.0326873
 -0.0326511
 -0.0326149
 -0.0325788
 -0.0325427
 -0.0325067
 -0.0324707
 -0.0324348
 -0.0323989
 -0.0323631
 -0.0323273
 -0.0322916
 -0.0322560
 -0.0322204
 -0.0321848
 -0.0321493
 -0.0321139
 -0.0320785
 -0.0320431
 -0.0320079
 -0.0319726
 -0.0319374
 -0.0319023
 -0.0318672
 -0.0318322
 -0.0317972
 -0.0317622
 -0.0317273
 -0.0316925
 -0.0316577
 -0.0316230
 -0.0315883
 -0.0315536
 -0.0315190
 -0.0314845
 -0.0314500
 -0.0314155
 -0.0313811
 -0.0313468
 -0.0313125
 -0.0312782
 -0.0312440
 -0.0312098
 -0.0311757
 -0.0311416
 -0.0311076
 -0.0310736
 -0.0310397
 -0.0310058
 -0.0309719
 -0.0309381
 -0.0309043
 -0.0308706
 -0.0308370
 -0.0308033
 -0.0307697
 -0.0307362
 -0.0307027
 -0.0306693
 -0.0306358
 -0.0306025
 -0.0305692
 -0.0305359
 -0.0305026
 -0.0304694
 -0.0304363
 -0.0304032
 -0.0303701
 -0.0303371
 -0.0303041
 -0.0302712
 -0.0302383
 -0.0302054
 -0.0301726
 -0.0301398
 -0.0301071
 -0.0300744
 -0.0300417
 -0.0300091
 -0.0299765
 -0.0299440
 -0.0299115
 -0.0298790
 -0.0298466
 -0.0298143
 -0.0297819
 -0.0297496
 -0.0297174
 -0.0296851
 -0.0296530
 -0.0296208
 -0.0295887
 -0.0295567
 -0.0295246
 -0.0294926
 -0.0294607
 -0.0294288
 -0.0293969
 -0.0293651
 -0.0293333
 -0.0293015
 -0.0292698
 -0.0292381
 -0.0292064
 -0.0291748
 -0.0291432
 -0.0291117
 -0.0290802
 -0.0290487
 -0.0290173
 -0.0289859
 -0.0289545
 -0.0289232
 -0.0288919
 -0.0288607
 -0.0288294
 -0.0287983
 -0.0287671
 -0.0287360
 -0.0287049
 -0.0286739
 -0.0286429
 -0.0286119
 -0.0285810
 -0.0285501
 -0.0285192
 -0.0284883
 -0.0284575
 -0.0284268
 -0.0283960
 -0.0283653
 -0.0283347
 -0.0283040
 -0.0282734
 -0.0282429
 -0.0282123
 -0.0281818
 -0.0281514
 -0.0281209
 -0.0280905
 -0.0280602
 -0.0280298
 -0.0279995
 -0.0279692
 -0.0279390
 -0.0279088
 -0.0278786
 -0.0278485
 -0.0278184
 -0.0277883
 -0.0277582
 -0.0277282
 -0.0276982
 -0.0276683
 -0.0276383
 -0.0276084
 -0.0275786
 -0.0275488
 -0.0275190
 -0.0274892
 -0.0274594
 -0.0274297
 -0.0274001
 -0.0273704
 -0.0273408
 -0.0273112
 -0.0272816
 -0.0272521
 -0.0272226
 -0.0271931
 -0.0271637
 -0.0271343
 -0.0271049
 -0.0270756
 -0.0270462
 -0.0270170
 -0.0269877
 -0.0269585
 -0.0269293
 -0.0269001
 -0.0268709
 -0.0268418
 -0.0268127
 -0.0267837
 -0.0267546
 -0.0267256
 -0.0266967
 -0.0266677
 -0.0266388
 -0.0266099
 -0.0265810
 -0.0265522
 -0.0265234
 -0.0264946
 -0.0264659
 -0.0264371
 -0.0264084
 -0.0263798
 -0.0263511
 -0.0263225
 -0.0262939
 -0.0262654
 -0.0262368
 -0.0262083
 -0.0261799
 -0.0261514
 -0.0261230
 -0.0260946
 -0.0260662
 -0.0260379
 -0.0260095
 -0.0259812
 -0.0259530
 -0.0259247
 -0.0258965
 -0.0258683
 -0.0258402
 -0.0258120
 -0.0257839
 -0.0257558
 -0.0257278
 -0.0256997
 -0.0256717
 -0.0256437
 -0.0256158
 -0.0255879
 -0.0255600
 -0.0255321
 -0.0255042
 -0.0254764
 -0.0254486
 -0.0254208
 -0.0253930
 -0.0253653
 -0.0253376
 -0.0253099
 -0.0252823
 -0.0252546
 -0.0252270
 -0.0251994
 -0.0251719
 -0.0251443
 -0.0251168
 -0.0250893
 -0.0250619
 -0.0250344
 -0.0250070
 -0.0249796
 -0.0249523
 -0.0249249
 -0.0248976
 -0.0248703
 -0.0248430
 -0.0248158
 -0.0247886
 -0.0247614
 -0.0247342
 -0.0247070
 -0.0246799
 -0.0246528
 -0.0246257
 -0.0245986
 -0.0245716
 -0.0245446
 -0.0245176
 -0.0244906
 -0.0244637
 -0.0244367
 -0.0244098
 -0.0243830
 -0.0243561
 -0.0243293
 -0.0243024
 -0.0242757
 -0.0242489
 -0.0242221
 -0.0241954
 -0.0241687
 -0.0241420
 -0.0241154
 -0.0240887
 -0.0240621
 -0.0240355
 -0.0240090
 -0.0239824
 -0.0239559
 -0.0239294
 -0.0239029
 -0.0238764
 -0.0238500
 -0.0238236
 -0.0237972
 -0.0237708
 -0.0237445
 -0.0237181
 -0.0236918
 -0.0236655
 -0.0236393
 -0.0236130
 -0.0235868
 -0.0235606
 -0.0235344
 -0.0235082
 -0.0234821
 -0.0234560
 -0.0234299
 -0.0234038
 -0.0233777
 -0.0233517
 -0.0233256
 -0.0232996
 -0.0232737
 -0.0232477
 -0.0232218
 -0.0231958
 -0.0231699
 -0.0231441
 -0.0231182
 -0.0230924
 -0.0230666
 -0.0230408
 -0.0230150
 -0.0229892
 -0.0229635
 -0.0229378
 -0.0229121
 -0.0228864
 -0.0228607
 -0.0228351
 -0.0228095
 -0.0227839
 -0.0227583
 -0.0227327
 -0.0227072
 -0.0226817
 -0.0226561
 -0.0226307
 -0.0226052
 -0.0225798
 -0.0225543
 -0.0225289
 -0.0225035
 -0.0224782
 -0.0224528
 -0.0224275
 -0.0224022
 -0.0223769
 -0.0223516
 -0.0223263
 -0.0223011
 -0.0222759
 -0.0222507
 -0.0222255
 -0.0222003
 -0.0221752
 -0.0221501
 -0.0221249
 -0.0220999
 -0.0220748
 -0.0220497
 -0.0220247
 -0.0219997
 -0.0219747
 -0.0219497
 -0.0219247
 -0.0218998
 -0.0218749
 -0.0218500
 -0.0218251
 -0.0218002
 -0.0217753
 -0.0217505
 -0.0217257
 -0.0217009
 -0.0216761
 -0.0216513
 -0.0216266
 -0.0216018
 -0.0215771
 -0.0215524
 -0.0215278
 -0.0215031
 -0.0214785
 -0.0214538
 -0.0214292
 -0.0214046
 -0.0213800
 -0.0213555
 -0.0213310
 -0.0213064
 -0.0212819
 -0.0212574
 -0.0212330
 -0.0212085
 -0.0211841
 -0.0211597
 -0.0211352
 -0.0211109
 -0.0210865
 -0.0210621
 -0.0210378
 -0.0210135
 -0.0209892
 -0.0209649
 -0.0209406
 -0.0209164
 -0.0208921
 -0.0208679
 -0.0208437
 -0.0208195
 -0.0207953
 -0.0207712
 -0.0207471
 -0.0207229
 -0.0206988
 -0.0206747
 -0.0206507
 -0.0206266
 -0.0206026
 -0.0205785
 -0.0205545
 -0.0205305
 -0.0205066
 -0.0204826
 -0.0204587
 -0.0204347
 -0.0204108
 -0.0203869
 -0.0203630
 -0.0203392
 -0.0203153
 -0.0202915
 -0.0202677
 -0.0202439
 -0.0202201
 -0.0201963
 -0.0201726
 -0.0201488
 -0.0201251
 -0.0201014
 -0.0200777
 -0.0200540
 -0.0200304
 -0.0200067
 -0.0199831
 -0.0199595
 -0.0199359
 -0.0199123
 -0.0198887
 -0.0198652
 -0.0198416
 -0.0198181
 -0.0197946
 -0.0197711
 -0.0197476
 -0.0197241
 -0.0197007
 -0.0196773
 -0.0196538
 -0.0196304
 -0.0196070
 -0.0195837
 -0.0195603
 -0.0195370
 -0.0195136
 -0.0194903
 -0.0194670
 -0.0194437
 -0.0194205
 -0.0193972
 -0.0193740
 -0.0193507
 -0.0193275
 -0.0193043
 -0.0192811
 -0.0192580
 -0.0192348
 -0.0192117
 -0.0191885
 -0.0191654
 -0.0191423
 -0.0191193
 -0.0190962
 -0.0190731
 -0.0190501
 -0.0190271
 -0.0190040
 -0.0189810
 -0.0189581
 -0.0189351
 -0.0189121
 -0.0188892
 -0.0188663
 -0.0188434
 -0.0188205
 -0.0187976
 -0.0187747
 -0.0187518
 -0.0187290
 -0.0187062
 -0.0186833
 -0.0186605
 -0.0186378
 -0.0186150
 -0.0185922
 -0.0185695
 -0.0185467
 -0.0185240
 -0.0185013
 -0.0184786
 -0.0184559
 -0.0184333
 -0.0184106
 -0.0183880
 -0.0183653
 -0.0183427
 -0.0183201
 -0.0182975
 -0.0182750
 -0.0182524
 -0.0182299
 -0.0182073
 -0.0181848
 -0.0181623
 -0.0181398
 -0.0181173
 -0.0180949
 -0.0180724
 -0.0180500
 -0.0180276
 -0.0180051
 -0.0179827
 -0.0179604
 -0.0179380
 -0.0179156
 -0.0178933
 -0.0178709
 -0.0178486
 -0.0178263
 -0.0178040
 -0.0177817
 -0.0177595
 -0.0177372
 -0.0177149
 -0.0176927
 -0.0176705
 -0.0176483
 -0.0176261
 -0.0176039
 -0.0175817
 -0.0175596
 -0.0175374
 -0.0175153
 -0.0174932
 -0.0174711
 -0.0174490
 -0.0174269
 -0.0174048
 -0.0173828
 -0.0173607
 -0.0173387
 -0.0173167
 -0.0172947
 -0.0172727
 -0.0172507
 -0.0172287
 -0.0172068
 -0.0171848
 -0.0171629
 -0.0171410
 -0.0171191
 -0.0170972
 -0.0170753
 -0.0170534
 -0.0170316
 -0.0170097
 -0.0169879
 -0.0169661
 -0.0169443
 -0.0169225
 -0.0169007
 -0.0168789
 -0.0168571
 -0.0168354
 -0.0168136
 -0.0167919
 -0.0167702
 -0.0167485
 -0.0167268
 -0.0167051
 -0.0166835
 -0.0166618
 -0.0166402
 -0.0166185
 -0.0165969
 -0.0165753
 -0.0165537
 -0.0165321
 -0.0165105
 -0.0164890
 -0.0164674
 -0.0164459
 -0.0164244
 -0.0164029
 -0.0163813
 -0.0163599
 -0.0163384
 -0.0163169
 -0.0162954
 -0.0162740
 -0.0162526
 -0.0162311
 -0.0162097
 -0.0161883
 -0.0161669
 -0.0161456
 -0.0161242
 -0.0161028
 -0.0160815
 -0.0160602
 -0.0160388
 -0.0160175
 -0.0159962
 -0.0159749
 -0.0159537
 -0.0159324
 -0.0159112
 -0.0158899
 -0.0158687
 -0.0158475
 -0.0158262
 -0.0158050
 -0.0157839
 -0.0157627
 -0.0157415
 -0.0157204
 -0.0156992
 -0.0156781
 -0.0156570
 -0.0156359
 -0.0156148
 -0.0155937
 -0.0155726
 -0.0155515
 -0.0155305
 -0.0155094
 -0.0154884
 -0.0154674
 -0.0154463
 -0.0154253
 -0.0154044
 -0.0153834
 -0.0153624
 -0.0153414
 -0.0153205
 -0.0152996
 -0.0152786
 -0.0152577
 -0.0152368
 -0.0152159
 -0.0151950
 -0.0151742
 -0.0151533
 -0.0151324
 -0.0151116
 -0.0150908
 -0.0150699
 -0.0150491
 -0.0150283
 -0.0150075
 -0.0149868
 -0.0149660
 -0.0149452
 -0.0149245
 -0.0149037
 -0.0148830
 -0.0148623
 -0.0148416
 -0.0148209
 -0.0148002
 -0.0147795
 -0.0147589
 -0.0147382
 -0.0147176
 -0.0146969
 -0.0146763
 -0.0146557
 -0.0146351
 -0.0146145
 -0.0145939
 -0.0145733
 -0.0145528
 -0.0145322
 -0.0145117
 -0.0144911
 -0.0144706
 -0.0144501
 -0.0144296
 -0.0144091
 -0.0143886
 -0.0143682
 -0.0143477
 -0.0143272
 -0.0143068
 -0.0142864
 -0.0142659
 -0.0142455
 -0.0142251
 -0.0142047
 -0.0141843
 -0.0141640
 -0.0141436
 -0.0141232
 -0.0141029
 -0.0140826
 -0.0140622
 -0.0140419
 -0.0140216
 -0.0140013
 -0.0139810
 -0.0139608
 -0.0139405
 -0.0139202
 -0.0139000
 -0.0138797
 -0.0138595
 -0.0138393
 -0.0138191
 -0.0137989
 -0.0137787
 -0.0137585
 -0.0137383
 -0.0137182
 -0.0136980
 -0.0136779
 -0.0136577
 -0.0136376
 -0.0136175
 -0.0135974
 -0.0135773
 -0.0135572
 -0.0135371
 -0.0135171
 -0.0134970
 -0.0134770
 -0.0134569
 -0.0134369
 -0.0134169
 -0.0133969
 -0.0133769
 -0.0133569
 -0.0133369
 -0.0133169
 -0.0132970
 -0.0132770
 -0.0132571
 -0.0132371
 -0.0132172
 -0.0131973
 -0.0131774
 -0.0131575
 -0.0131376
 -0.0131177
 -0.0130978
 -0.0130780
 -0.0130581
 -0.0130383
 -0.0130184
 -0.0129986
 -0.0129788
 -0.0129590
 -0.0129392
 -0.0129194
 -0.0128996
 -0.0128798
 -0.0128600
 -0.0128403
 -0.0128205
 -0.0128008
 -0.0127811
 -0.0127614
 -0.0127416
 -0.0127219
 -0.0127023
 -0.0126826
 -0.0126629
 -0.0126432
 -0.0126236
 -0.0126039
 -0.0125843
 -0.0125646
 -0.0125450
 -0.0125254
 -0.0125058
 -0.0124862
 -0.0124666
 -0.0124470
 -0.0124275
 -0.0124079
 -0.0123884
 -0.0123688
 -0.0123493
 -0.0123298
 -0.0123102
 -0.0122907
 -0.0122712
 -0.0122517
 -0.0122323
 -0.0122128
 -0.0121933
 -0.0121739
 -0.0121544
 -0.0121350
 -0.0121155
 -0.0120961
 -0.0120767
 -0.0120573
 -0.0120379
 -0.0120185
 -0.0119991
 -0.0119797
 -0.0119604
 -0.0119410
 -0.0119217
 -0.0119023
 -0.0118830
 -0.0118637
 -0.0118444
 -0.0118251
 -0.0118058
 -0.0117865
 -0.0117672
 -0.0117479
 -0.0117287
 -0.0117094
 -0.0116902
 -0.0116709
 -0.0116517
 -0.0116325
 -0.0116133
 -0.0115941
 -0.0115749
 -0.0115557
 -0.0115365
 -0.0115173
 -0.0114981
 -0.0114790
 -0.0114598
 -0.0114407
 -0.0114216
 -0.0114024
 -0.0113833
 -0.0113642
 -0.0113451
 -0.0113260
 -0.0113069
 -0.0112879
 -0.0112688
 -0.0112497
 -0.0112307
 -0.0112117
 -0.0111926
 -0.0111736
 -0.0111546
 -0.0111356
 -0.0111166
 -0.0110976
 -0.0110786
 -0.0110596
 -0.0110406
 -0.0110217
 -0.0110027
 -0.0109838
 -0.0109648
 -0.0109459
 -0.0109270
 -0.0109080
 -0.0108891
 -0.0108702
 -0.0108513
 -0.0108325
 -0.0108136
 -0.0107947
 -0.0107758
 -0.0107570
 -0.0107381
 -0.0107193
 -0.0107005
 -0.0106817
 -0.0106628
 -0.0106440
 -0.0106252
 -0.0106064
 -0.0105877
 -0.0105689
 -0.0105501
 -0.0105314
 -0.0105126
 -0.0104939
 -0.0104751
 -0.0104564
 -0.0104377
 -0.0104190
 -0.0104002
 -0.0103815
 -0.0103629
 -0.0103442
 -0.0103255
 -0.0103068
 -0.0102882
 -0.0102695
 -0.0102509
 -0.0102322
 -0.0102136
 -0.0101950
 -0.0101763
 -0.0101577
 -0.0101391
 -0.0101205
 -0.0101020
 -0.0100834
 -0.0100648
 -0.0100462
 -0.0100277
 -0.0100091
 -0.0099906
 -0.0099721
 -0.0099535
 -0.0099350
 -0.0099165
 -0.0098980
 -0.0098795
 -0.0098610
 -0.0098425
 -0.0098240
 -0.0098056
 -0.0097871
 -0.0097687
 -0.0097502
 -0.0097318
 -0.0097133
 -0.0096949
 -0.0096765
 -0.0096581
 -0.0096397
 -0.0096213
 -0.0096029
 -0.0095845
 -0.0095661
 -0.0095478
 -0.0095294
 -0.0095111
 -0.0094927
 -0.0094744
 -0.0094561
 -0.0094377
 -0.0094194
 -0.0094011
 -0.0093828
 -0.0093645
 -0.0093462
 -0.0093279
 -0.0093097
 -0.0092914
 -0.0092731
 -0.0092549
 -0.0092366
 -0.0092184
 -0.0092002
 -0.0091819
 -0.0091637
 -0.0091455
 -0.0091273
 -0.0091091
 -0.0090909
 -0.0090727
 -0.0090546
 -0.0090364
 -0.0090182
 -0.0090001
 -0.0089819
 -0.0089638
 -0.0089457
 -0.0089275
 -0.0089094
 -0.0088913
 -0.0088732
 -0.0088551
 -0.0088370
 -0.0088189
 -0.0088008
 -0.0087828
 -0.0087647
 -0.0087466
 -0.0087286
 -0.0087105
 -0.0086925
 -0.0086745
 -0.0086565
 -0.0086384
 -0.0086204
 -0.0086024
 -0.0085844
 -0.0085664
 -0.0085485
 -0.0085305
 -0.0085125
 -0.0084945
 -0.0084766
 -0.0084586
 -0.0084407
 -0.0084228
 -0.0084048
 -0.0083869
 -0.0083690
 -0.0083511
 -0.0083332
 -0.0083153
 -0.0082974
 -0.0082795
 -0.0082616
 -0.0082438
 -0.0082259
 -0.0082080
 -0.0081902
 -0.0081724
 -0.0081545
 -0.0081367
 -0.0081189
 -0.0081010
 -0.0080832
 -0.0080654
 -0.0080476
 -0.0080298
 -0.0080121
 -0.0079943
 -0.0079765
 -0.0079588
 -0.0079410
 -0.0079232
 -0.0079055
 -0.0078878
 -0.0078700
 -0.0078523
 -0.0078346
 -0.0078169
 -0.0077992
 -0.0077815
 -0.0077638
 -0.0077461
 -0.0077284
 -0.0077107
 -0.0076931
 -0.0076754
 -0.0076577
 -0.0076401
 -0.0076225
 -0.0076048
 -0.0075872
 -0.0075696
 -0.0075520
 -0.0075343
 -0.0075167
 -0.0074991
 -0.0074816
 -0.0074640
 -0.0074464
 -0.0074288
 -0.0074113
 -0.0073937
 -0.0073761
 -0.0073586
 -0.0073411
 -0.0073235
 -0.0073060
 -0.0072885
 -0.0072710
 -0.0072534
 -0.0072359
 -0.0072184
 -0.0072010
 -0.0071835
 -0.0071660
 -0.0071485
 -0.0071311
 -0.0071136
 -0.0070961
 -0.0070787
 -0.0070613
 -0.0070438
 -0.0070264
 -0.0070090
 -0.0069915
 -0.0069741
 -0.0069567
 -0.0069393
 -0.0069219
 -0.0069046
 -0.0068872
 -0.0068698
 -0.0068524
 -0.0068351
 -0.0068177
 -0.0068004
 -0.0067830
 -0.0067657
 -0.0067484
 -0.0067310
 -0.0067137
 -0.0066964
 -0.0066791
 -0.0066618
 -0.0066445
 -0.0066272
 -0.0066099
 -0.0065926
 -0.0065754
 -0.0065581
 -0.0065409
 -0.0065236
 -0.0065064
 -0.0064891
 -0.0064719
 -0.0064546
 -0.0064374
 -0.0064202
 -0.0064030
 -0.0063858
 -0.0063686
 -0.0063514
 -0.0063342
 -0.0063170
 -0.0062999
 -0.0062827
 -0.0062655
 -0.0062484
 -0.0062312
 -0.0062141
 -0.0061969
 -0.0061798
 -0.0061627
 -0.0061455
 -0.0061284
 -0.0061113
 -0.0060942
 -0.0060771
 -0.0060600
 -0.0060429
 -0.0060258
 -0.0060088
 -0.0059917
 -0.0059746
 -0.0059576
 -0.0059405
 -0.0059235
 -0.0059064
 -0.0058894
 -0.0058723
 -0.0058553
 -0.0058383
 -0.0058213
 -0.0058043
 -0.0057873
 -0.0057703
 -0.0057533
 -0.0057363
 -0.0057193
 -0.0057024
 -0.0056854
 -0.0056684
 -0.0056515
 -0.0056345
 -0.0056176
 -0.0056006
 -0.0055837
 -0.0055668
 -0.0055498
 -0.0055329
 -0.0055160
 -0.0054991
 -0.0054822
 -0.0054653
 -0.0054484
 -0.0054315
 -0.0054147
 -0.0053978
 -0.0053809
 -0.0053641
 -0.0053472
 -0.0053304
 -0.0053135
 -0.0052967
 -0.0052798
 -0.0052630
 -0.0052462
 -0.0052294
 -0.0052126
 -0.0051958
 -0.0051790
 -0.0051622
 -0.0051454
 -0.0051286
 -0.0051118
 -0.0050950
 -0.0050783
 -0.0050615
 -0.0050448
 -0.0050280
 -0.0050113
 -0.0049945
 -0.0049778
 -0.0049611
 -0.0049443
 -0.0049276
 -0.0049109
 -0.0048942
 -0.0048775
 -0.0048608
 -0.0048441
 -0.0048274
 -0.0048107
 -0.0047941
 -0.0047774
 -0.0047607
 -0.0047441
 -0.0047274
 -0.0047108
 -0.0046941
 -0.0046775
 -0.0046609
 -0.0046442
 -0.0046276
 -0.0046110
 -0.0045944
 -0.0045778
 -0.0045612
 -0.0045446
 -0.0045280
 -0.0045114
 -0.0044948
 -0.0044783
 -0.0044617
 -0.0044451
 -0.0044286
 -0.0044120
 -0.0043955
 -0.0043789
 -0.0043624
 -0.0043459
 -0.0043293
 -0.0043128
 -0.0042963
 -0.0042798
 -0.0042633
 -0.0042468
 -0.0042303
 -0.0042138
 -0.0041973
 -0.0041808
 -0.0041644
 -0.0041479
 -0.0041314
 -0.0041150
 -0.0040985
 -0.0040821
 -0.0040656
 -0.0040492
 -0.0040328
 -0.0040163
 -0.0039999
 -0.0039835
 -0.0039671
 -0.0039507
 -0.0039343
 -0.0039179
 -0.0039015
 -0.0038851
 -0.0038687
 -0.0038524
 -0.0038360
 -0.0038196
 -0.0038033
 -0.0037869
 -0.0037705
 -0.0037542
 -0.0037379
 -0.0037215
 -0.0037052
 -0.0036889
 -0.0036726
 -0.0036562
 -0.0036399
 -0.0036236
 -0.0036073
 -0.0035910
 -0.0035747
 -0.0035585
 -0.0035422
 -0.0035259
 -0.0035096
 -0.0034934
 -0.0034771
 -0.0034608
 -0.0034446
 -0.0034284
 -0.0034121
 -0.0033959
 -0.0033797
 -0.0033634
 -0.0033472
 -0.0033310
 -0.0033148
 -0.0032986
 -0.0032824
 -0.0032662
 -0.0032500
 -0.0032338
 -0.0032176
 -0.0032014
 -0.0031853
 -0.0031691
 -0.0031530
 -0.0031368
 -0.0031206
 -0.0031045
 -0.0030884
 -0.0030722
 -0.0030561
 -0.0030400
 -0.0030238
 -0.0030077
 -0.0029916
 -0.0029755
 -0.0029594
 -0.0029433
 -0.0029272
 -0.0029111
 -0.0028950
 -0.0028790
 -0.0028629
 -0.0028468
 -0.0028308
 -0.0028147
 -0.0027986
 -0.0027826
 -0.0027666
 -0.0027505
 -0.0027345
 -0.0027184
 -0.0027024
 -0.0026864
 -0.0026704
 -0.0026544
 -0.0026384
 -0.0026224
 -0.0026064
 -0.0025904
 -0.0025744
 -0.0025584
 -0.0025424
 -0.0025265
 -0.0025105
 -0.0024945
 -0.0024786
 -0.0024626
 -0.0024467
 -0.0024307
 -0.0024148
 -0.0023988
 -0.0023829
 -0.0023670
 -0.0023511
 -0.0023352
 -0.0023192
 -0.0023033
 -0.0022874
 -0.0022715
 -0.0022556
 -0.0022398
 -0.0022239
 -0.0022080
 -0.0021921
 -0.0021762
 -0.0021604
 -0.0021445
 -0.0021287
 -0.0021128
 -0.0020970
 -0.0020811
 -0.0020653
 -0.0020495
 -0.0020336
 -0.0020178
 -0.0020020
 -0.0019862
 -0.0019704
 -0.0019546
 -0.0019388
 -0.0019230
 -0.0019072
 -0.0018914
 -0.0018756
 -0.0018598
 -0.0018440
 -0.0018283
 -0.0018125
 -0.0017968
 -0.0017810
 -0.0017653
 -0.0017495
 -0.0017338
 -0.0017180
 -0.0017023
 -0.0016866
 -0.0016708
 -0.0016551
 -0.0016394
 -0.0016237
 -0.0016080
 -0.0015923
 -0.0015766
 -0.0015609
 -0.0015452
 -0.0015295
 -0.0015139
 -0.0014982
 -0.0014825
 -0.0014669
 -0.0014512
 -0.0014355
 -0.0014199
 -0.0014042
 -0.0013886
 -0.0013730
 -0.0013573
 -0.0013417
 -0.0013261
 -0.0013105
 -0.0012948
 -0.0012792
 -0.0012636
 -0.0012480
 -0.0012324
 -0.0012168
 -0.0012012
 -0.0011857
 -0.0011701
 -0.0011545
 -0.0011389
 -0.0011234
 -0.0011078
 -0.0010922
 -0.0010767
 -0.0010611
 -0.0010456
 -0.0010300
 -0.0010145
 -0.0009990
 -0.0009834
 -0.0009679
 -0.0009524
 -0.0009369
 -0.0009214
 -0.0009059
 -0.0008904
 -0.0008749
 -0.0008594
 -0.0008439
 -0.0008284
 -0.0008129
 -0.0007974
 -0.0007820
 -0.0007665
 -0.0007510
 -0.0007356
 -0.0007201
 -0.0007047
 -0.0006892
 -0.0006738
 -0.0006584
 -0.0006429
 -0.0006275
 -0.0006121
 -0.0005966
 -0.0005812
 -0.0005658
 -0.0005504
 -0.0005350
 -0.0005196
 -0.0005042
 -0.0004888
 -0.0004734
 -0.0004581
 -0.0004427
 -0.0004273
 -0.0004119
 -0.0003966
 -0.0003812
 -0.0003658
 -0.0003505
 -0.0003351
 -0.0003198
 -0.0003045
 -0.0002891
 -0.0002738
 -0.0002585
 -0.0002431
 -0.0002278
 -0.0002125
 -0.0001972
 -0.0001819
 -0.0001666
 -0.0001513
 -0.0001360
 -0.0001207
 -0.0001054
 -0.0000901
 -0.0000749
 -0.0000596
 -0.0000443
 -0.0000291
 -0.0000138
 0.0000015
 0.0000167
 0.0000320
 0.0000472
 0.0000624
 0.0000777
 0.0000929
 0.0001081
 0.0001234
 0.0001386
 0.0001538
 0.0001690
 0.0001842
 0.0001994
 0.0002146
 0.0002298
 0.0002450
 0.0002602
 0.0002754
 0.0002906
 0.0003057
 0.0003209
 0.0003361
 0.0003512
 0.0003664
 0.0003816
 0.0003967
 0.0004118
 0.0004270
 0.0004421
 0.0004573
 0.0004724
 0.0004875
 0.0005026
 0.0005178
 0.0005329
 0.0005480
 0.0005631
 0.0005782
 0.0005933
 0.0006084
 0.0006235
 0.0006386
 0.0006536
 0.0006687
 0.0006838
 0.0006989
 0.0007139
 0.0007290
 0.0007441
 0.0007591
 0.0007742
 0.0007892
 0.0008043
 0.0008193
 0.0008343
 0.0008494
 0.0008644
 0.0008794
 0.0008944
 0.0009094
 0.0009245
 0.0009395
 0.0009545
 0.0009695
 0.0009845
 0.0009995
 0.0010144
 0.0010294
 0.0010444
 0.0010594
 0.0010744
 0.0010893
 0.0011043
 0.0011192
 0.0011342
 0.0011492
 0.0011641
 0.0011790
 0.0011940
 0.0012089
 0.0012239
 0.0012388
 0.0012537
 0.0012686
 0.0012836
 0.0012985
 0.0013134
 0.0013283
 0.0013432
 0.0013581
 0.0013730
 0.0013879
 0.0014028
 0.0014176
 0.0014325
 0.0014474
 0.0014623
 0.0014771
 0.0014920
 0.0015069
 0.0015217
 0.0015366
 0.0015514
 0.0015663
 0.0015811
 0.0015959
 0.0016108
 0.0016256
 0.0016404
 0.0016553
 0.0016701
 0.0016849
 0.0016997
 0.0017145
 0.0017293
 0.0017441
 0.0017589
 0.0017737
 0.0017885
 0.0018033
 0.0018180
 0.0018328
 0.0018476
 0.0018624
 0.0018771
 0.0018919
 0.0019067
 0.0019214
 0.0019362
 0.0019509
 0.0019656
 0.0019804
 0.0019951
 0.0020099
 0.0020246
 0.0020393
 0.0020540
 0.0020687
 0.0020835
 0.0020982
 0.0021129
 0.0021276
 0.0021423
 0.0021570
 0.0021717
 0.0021864
 0.0022010
 0.0022157
 0.0022304
 0.0022451
 0.0022597
 0.0022744
 0.0022891
 0.0023037
 0.0023184
 0.0023330
 0.0023477
 0.0023623
