luts/D_Log_EOTF.spi1d
Version 1
From 0.0000000 1.0000000
Length 40960
Components 1
{
 -0.0154191
 -0.0154150
 -0.0154110
 -0.0154069
 -0.0154029
 -0.0153988
 -0.0153948
 -0.0153907
 -0.0153867
 -0.0153826
 -0.0153786
 -0.0153745
 -0.0153705
 -0.0153664
 -0.0153624
 -0.0153583
 -0.0153543
 -0.0153502
 -0.0153461
 -0.0153421
 -0.0153380
 -0.0153340
 -0.0153299
 -0.0153259
 -0.0153218
 -0.0153178
 -0.0153137
 -0.0153097
 -0.0153056
 -0.0153016
 -0.0152975
 -0.0152935
 -0.0152894
 -0.0152854
 -0.0152813
 -0.0152773
 -0.0152732
 -0.0152692
 -0.0152651
 -0.0152611
 -0.0152570
 -0.0152529
 -0.0152489
 -0.0152448
 -0.0152408
 -0.0152367
 -0.0152327
 -0.0152286
 -0.0152246
 -0.0152205
 -0.0152165
 -0.0152124
 -0.0152084
 -0.0152043
 -0.0152003
 -0.0151962
 -0.0151922
 -0.0151881
 -0.0151841
 -0.0151800
 -0.0151760
 -0.0151719
 -0.0151678
 -0.0151638
 -0.0151597
 -0.0151557
 -0.0151516
 -0.0151476
 -0.0151435
 -0.0151395
 -0.0151354
 -0.0151314
 -0.0151273
 -0.0151233
 -0.0151192
 -0.0151152
 -0.0151111
 -0.0151071
 -0.0151030
 -0.0150990
 -0.0150949
 -0.0150909
 -0.0150868
 -0.0150828
 -0.0150787
 -0.0150746
 -0.0150706
 -0.0150665
 -0.0150625
 -0.0150584
 -0.0150544
 -0.0150503
 -0.0150463
 -0.0150422
 -0.0150382
 -0.0150341
 -0.0150301
 -0.0150260
 -0.0150220
 -0.0150179
 -0.0150139
 -0.0150098
 -0.0150058
 -0.0150017
 -0.0149977
 -0.0149936
 -0.0149896
 -0.0149855
 -0.0149814
 -0.0149774
 -0.0149733
 -0.0149693
 -0.0149652
 -0.0149612
 -0.0149571
 -0.0149531
 -0.0149490
 -0.0149450
 -0.0149409
 -0.0149369
 -0.0149328
 -0.0149288
 -0.0149247
 -0.0149207
 -0.0149166
 -0.0149126
 -0.0149085
 -0.0149045
 -0.0149004
 -0.0148964
 -0.0148923
 -0.0148882
 -0.0148842
 -0.0148801
 -0.0148761
 -0.0148720
 -0.0148680
 -0.0148639
 -0.0148599
 -0.0148558
 -0.0148518
 -0.0148477
 -0.0148437
 -0.0148396
 -0.0148356
 -0.0148315
 -0.0148275
 -0.0148234
 -0.0148194
 -0.0148153
 -0.0148113
 -0.0148072
 -0.0148031
 -0.0147991
 -0.0147950
 -0.0147910
 -0.0147869
 -0.0147829
 -0.0147788
 -0.0147748
 -0.0147707
 -0.0147667
 -0.0147626
 -0.0147586
 -0.0147545
 -0.0147505
 -0.0147464
 -0.0147424
 -0.0147383
 -0.0147343
 -0.0147302
 -0.0147262
 -0.0147221
 -0.0147181
 -0.0147140
 -0.0147099
 -0.0147059
 -0.0147018
 -0.0146978
 -0.0146937
 -0.0146897
 -0.0146856
 -0.0146816
 -0.0146775
 -0.0146735
 -0.0146694
 -0.0146654
 -0.0146613
 -0.0146573
 -0.0146532
 -0.0146492
 -0.0146451
 -0.0146411
 -0.0146370
 -0.0146330
 -0.0146289
 -0.0146249
 -0.0146208
 -0.0146167
 -0.0146127
 -0.0146086
 -0.0146046
 -0.0146005
 -0.0145965
 -0.0145924
 -0.0145884
 -0.0145843
 -0.0145803
 -0.0145762
 -0.0145722
 -0.0145681
 -0.0145641
 -0.0145600
 -0.0145560
 -0.0145519
 -0.0145479
 -0.0145438
 -0.0145398
 -0.0145357
 -0.0145316
 -0.0145276
 -0.0145235
 -0.0145195
 -0.0145154
 -0.0145114
 -0.0145073
 -0.0145033
 -0.0144992
 -0.0144952
 -0.0144911
 -0.0144871
 -0.0144830
 -0.0144790
 -0.0144749
 -0.0144709
 -0.0144668
 -0.0144628
 -0.0144587
 -0.0144547
 -0.0144506
 -0.0144466
 -0.0144425
 -0.0144384
 -0.0144344
 -0.0144303
 -0.0144263
 -0.0144222
 -0.0144182
 -0.0144141
 -0.0144101
 -0.0144060
 -0.0144020
 -0.0143979
 -0.0143939
 -0.0143898
 -0.0143858
 -0.0143817
 -0.0143777
 -0.0143736
 -0.0143696
 -0.0143655
 -0.0143615
 -0.0143574
 -0.0143534
 -0.0143493
 -0.0143452
 -0.0143412
 -0.0143371
 -0.0143331
 -0.0143290
 -0.0143250
 -0.0143209
 -0.0143169
 -0.0143128
 -0.0143088
 -0.0143047
 -0.0143007
 -0.0142966
 -0.0142926
 -0.0142885
 -0.0142845
 -0.0142804
 -0.0142764
 -0.0142723
 -0.0142683
 -0.0142642
 -0.0142602
 -0.0142561
 -0.0142520
 -0.0142480
 -0.0142439
 -0.0142399
 -0.0142358
 -0.0142318
 -0.0142277
 -0.0142237
 -0.0142196
 -0.0142156
 -0.0142115
 -0.0142075
 -0.0142034
 -0.0141994
 -0.0141953
 -0.0141913
 -0.0141872
 -0.0141832
 -0.0141791
 -0.0141751
 -0.0141710
 -0.0141669
 -0.0141629
 -0.0141588
 -0.0141548
 -0.0141507
 -0.0141467
 -0.0141426
 -0.0141386
 -0.0141345
 -0.0141305
 -0.0141264
 -0.0141224
 -0.0141183
 -0.0141143
 -0.0141102
 -0.0141062
 -0.0141021
 -0.0140981
 -0.0140940
 -0.0140900
 -0.0140859
 -0.0140819
 -0.0140778
 -0.0140737
 -0.0140697
 -0.0140656
 -0.0140616
 -0.0140575
 -0.0140535
 -0.0140494
 -0.0140454
 -0.0140413
 -0.0140373
 -0.0140332
 -0.0140292
 -0.0140251
 -0.0140211
 -0.0140170
 -0.0140130
 -0.0140089
 -0.0140049
 -0.0140008
 -0.0139968
 -0.0139927
 -0.0139887
 -0.0139846
 -0.0139805
 -0.0139765
 -0.0139724
 -0.0139684
 -0.0139643
 -0.0139603
 -0.0139562
 -0.0139522
 -0.0139481
 -0.0139441
 -0.0139400
 -0.0139360
 -0.0139319
 -0.0139279
 -0.0139238
 -0.0139198
 -0.0139157
 -0.0139117
 -0.0139076
 -0.0139036
 -0.0138995
 -0.0138955
 -0.0138914
 -0.0138873
 -0.0138833
 -0.0138792
 -0.0138752
 -0.0138711
 -0.0138671
 -0.0138630
 -0.0138590
 -0.0138549
 -0.0138509
 -0.0138468
 -0.0138428
 -0.0138387
 -0.0138347
 -0.0138306
 -0.0138266
 -0.0138225
 -0.0138185
 -0.0138144
 -0.0138104
 -0.0138063
 -0.0138022
 -0.0137982
 -0.0137941
 -0.0137901
 -0.0137860
 -0.0137820
 -0.0137779
 -0.0137739
 -0.0137698
 -0.0137658
 -0.0137617
 -0.0137577
 -0.0137536
 -0.0137496
 -0.0137455
 -0.0137415
 -0.0137374
 -0.0137334
 -0.0137293
 -0.0137253
 -0.0137212
 -0.0137172
 -0.0137131
 -0.0137090
 -0.0137050
 -0.0137009
 -0.0136969
 -0.0136928
 -0.0136888
 -0.0136847
 -0.0136807
 -0.0136766
 -0.0136726
 -0.0136685
 -0.0136645
 -0.0136604
 -0.0136564
 -0.0136523
 -0.0136483
 -0.0136442
 -0.0136402
 -0.0136361
 -0.0136321
 -0.0136280
 -0.0136240
 -0.0136199
 -0.0136158
 -0.0136118
 -0.0136077
 -0.0136037
 -0.0135996
 -0.0135956
 -0.0135915
 -0.0135875
 -0.0135834
 -0.0135794
 -0.0135753
 -0.0135713
 -0.0135672
 -0.0135632
 -0.0135591
 -0.0135551
 -0.0135510
 -0.0135470
 -0.0135429
 -0.0135389
 -0.0135348
 -0.0135308
 -0.0135267
 -0.0135226
 -0.0135186
 -0.0135145
 -0.0135105
 -0.0135064
 -0.0135024
 -0.0134983
 -0.0134943
 -0.0134902
 -0.0134862
 -0.0134821
 -0.0134781
 -0.0134740
 -0.0134700
 -0.0134659
 -0.0134619
 -0.0134578
 -0.0134538
 -0.0134497
 -0.0134457
 -0.0134416
 -0.0134375
 -0.0134335
 -0.0134294
 -0.0134254
 -0.0134213
 -0.0134173
 -0.0134132
 -0.0134092
 -0.0134051
 -0.0134011
 -0.0133970
 -0.0133930
 -0.0133889
 -0.0133849
 -0.0133808
 -0.0133768
 -0.0133727
 -0.0133687
 -0.0133646
 -0.0133606
 -0.0133565
 -0.0133525
 -0.0133484
 -0.0133443
 -0.0133403
 -0.0133362
 -0.0133322
 -0.0133281
 -0.0133241
 -0.0133200
 -0.0133160
 -0.0133119
 -0.0133079
 -0.0133038
 -0.0132998
 -0.0132957
 -0.0132917
 -0.0132876
 -0.0132836
 -0.0132795
 -0.0132755
 -0.0132714
 -0.0132674
 -0.0132633
 -0.0132593
 -0.0132552
 -0.0132511
 -0.0132471
 -0.0132430
 -0.0132390
 -0.0132349
 -0.0132309
 -0.0132268
 -0.0132228
 -0.0132187
 -0.0132147
 -0.0132106
 -0.0132066
 -0.0132025
 -0.0131985
 -0.0131944
 -0.0131904
 -0.0131863
 -0.0131823
 -0.0131782
 -0.0131742
 -0.0131701
 -0.0131660
 -0.0131620
 -0.0131579
 -0.0131539
 -0.0131498
 -0.0131458
 -0.0131417
 -0.0131377
 -0.0131336
 -0.0131296
 -0.0131255
 -0.0131215
 -0.0131174
 -0.0131134
 -0.0131093
 -0.0131053
 -0.0131012
 -0.0130972
 -0.0130931
 -0.0130891
 -0.0130850
 -0.0130810
 -0.0130769
 -0.0130728
 -0.0130688
 -0.0130647
 -0.0130607
 -0.0130566
 -0.0130526
 -0.0130485
 -0.0130445
 -0.0130404
 -0.0130364
 -0.0130323
 -0.0130283
 -0.0130242
 -0.0130202
 -0.0130161
 -0.0130121
 -0.0130080
 -0.0130040
 -0.0129999
 -0.0129959
 -0.0129918
 -0.0129878
 -0.0129837
 -0.0129796
 -0.0129756
 -0.0129715
 -0.0129675
 -0.0129634
 -0.0129594
 -0.0129553
 -0.0129513
 -0.0129472
 -0.0129432
 -0.0129391
 -0.0129351
 -0.0129310
 -0.0129270
 -0.0129229
 -0.0129189
 -0.0129148
 -0.0129108
 -0.0129067
 -0.0129027
 -0.0128986
 -0.0128946
 -0.0128905
 -0.0128864
 -0.0128824
 -0.0128783
 -0.0128743
 -0.0128702
 -0.0128662
 -0.0128621
 -0.0128581
 -0.0128540
 -0.0128500
 -0.0128459
 -0.0128419
 -0.0128378
 -0.0128338
 -0.0128297
 -0.0128257
 -0.0128216
 -0.0128176
 -0.0128135
 -0.0128095
 -0.0128054
 -0.0128013
 -0.0127973
 -0.0127932
 -0.0127892
 -0.0127851
 -0.0127811
 -0.0127770
 -0.0127730
 -0.0127689
 -0.0127649
 -0.0127608
 -0.0127568
 -0.0127527
 -0.0127487
 -0.0127446
 -0.0127406
 -0.0127365
 -0.0127325
 -0.0127284
 -0.0127244
 -0.0127203
 -0.0127163
 -0.0127122
 -0.0127081
 -0.0127041
 -0.0127000
 -0.0126960
 -0.0126919
 -0.0126879
 -0.0126838
 -0.0126798
 -0.0126757
 -0.0126717
 -0.0126676
 -0.0126636
 -0.0126595
 -0.0126555
 -0.0126514
 -0.0126474
 -0.0126433
 -0.0126393
 -0.0126352
 -0.0126312
 -0.0126271
 -0.0126231
 -0.0126190
 -0.0126149
 -0.0126109
 -0.0126068
 -0.0126028
 -0.0125987
 -0.0125947
 -0.0125906
 -0.0125866
 -0.0125825
 -0.0125785
 -0.0125744
 -0.0125704
 -0.0125663
 -0.0125623
 -0.0125582
 -0.0125542
 -0.0125501
 -0.0125461
 -0.0125420
 -0.0125380
 -0.0125339
 -0.0125299
 -0.0125258
 -0.0125217
 -0.0125177
 -0.0125136
 -0.0125096
 -0.0125055
 -0.0125015
 -0.0124974
 -0.0124934
 -0.0124893
 -0.0124853
 -0.0124812
 -0.0124772
 -0.0124731
 -0.0124691
 -0.0124650
 -0.0124610
 -0.0124569
 -0.0124529
 -0.0124488
 -0.0124448
 -0.0124407
 -0.0124366
 -0.0124326
 -0.0124285
 -0.0124245
 -0.0124204
 -0.0124164
 -0.0124123
 -0.0124083
 -0.0124042
 -0.0124002
 -0.0123961
 -0.0123921
 -0.0123880
 -0.0123840
 -0.0123799
 -0.0123759
 -0.0123718
 -0.0123678
 -0.0123637
 -0.0123597
 -0.0123556
 -0.0123516
 -0.0123475
 -0.0123434
 -0.0123394
 -0.0123353
 -0.0123313
 -0.0123272
 -0.0123232
 -0.0123191
 -0.0123151
 -0.0123110
 -0.0123070
 -0.0123029
 -0.0122989
 -0.0122948
 -0.0122908
 -0.0122867
 -0.0122827
 -0.0122786
 -0.0122746
 -0.0122705
 -0.0122665
 -0.0122624
 -0.0122584
 -0.0122543
 -0.0122502
 -0.0122462
 -0.0122421
 -0.0122381
 -0.0122340
 -0.0122300
 -0.0122259
 -0.0122219
 -0.0122178
 -0.0122138
 -0.0122097
 -0.0122057
 -0.0122016
 -0.0121976
 -0.0121935
 -0.0121895
 -0.0121854
 -0.0121814
 -0.0121773
 -0.0121733
 -0.0121692
 -0.0121652
 -0.0121611
 -0.0121570
 -0.0121530
 -0.0121489
 -0.0121449
 -0.0121408
 -0.0121368
 -0.0121327
 -0.0121287
 -0.0121246
 -0.0121206
 -0.0121165
 -0.0121125
 -0.0121084
 -0.0121044
 -0.0121003
 -0.0120963
 -0.0120922
 -0.0120882
 -0.0120841
 -0.0120801
 -0.0120760
 -0.0120719
 -0.0120679
 -0.0120638
 -0.0120598
 -0.0120557
 -0.0120517
 -0.0120476
 -0.0120436
 -0.0120395
 -0.0120355
 -0.0120314
 -0.0120274
 -0.0120233
 -0.0120193
 -0.0120152
 -0.0120112
 -0.0120071
 -0.0120031
 -0.0119990
 -0.0119950
 -0.0119909
 -0.0119869
 -0.0119828
 -0.0119787
 -0.0119747
 -0.0119706
 -0.0119666
 -0.0119625
 -0.0119585
 -0.0119544
 -0.0119504
 -0.0119463
 -0.0119423
 -0.0119382
 -0.0119342
 -0.0119301
 -0.0119261
 -0.0119220
 -0.0119180
 -0.0119139
 -0.0119099
 -0.0119058
 -0.0119018
 -0.0118977
 -0.0118937
 -0.0118896
 -0.0118855
 -0.0118815
 -0.0118774
 -0.0118734
 -0.0118693
 -0.0118653
 -0.0118612
 -0.0118572
 -0.0118531
 -0.0118491
 -0.0118450
 -0.0118410
 -0.0118369
 -0.0118329
 -0.0118288
 -0.0118248
 -0.0118207
 -0.0118167
 -0.0118126
 -0.0118086
 -0.0118045
 -0.0118004
 -0.0117964
 -0.0117923
 -0.0117883
 -0.0117842
 -0.0117802
 -0.0117761
 -0.0117721
 -0.0117680
 -0.0117640
 -0.0117599
 -0.0117559
 -0.0117518
 -0.0117478
 -0.0117437
 -0.0117397
 -0.0117356
 -0.0117316
 -0.0117275
 -0.0117235
 -0.0117194
 -0.0117154
 -0.0117113
 -0.0117072
 -0.0117032
 -0.0116991
 -0.0116951
 -0.0116910
 -0.0116870
 -0.0116829
 -0.0116789
 -0.0116748
 -0.0116708
 -0.0116667
 -0.0116627
 -0.0116586
 -0.0116546
 -0.0116505
 -0.0116465
 -0.0116424
 -0.0116384
 -0.0116343
 -0.0116303
 -0.0116262
 -0.0116222
 -0.0116181
 -0.0116140
 -0.0116100
 -0.0116059
 -0.0116019
 -0.0115978
 -0.0115938
 -0.0115897
 -0.0115857
 -0.0115816
 -0.0115776
 -0.0115735
 -0.0115695
 -0.0115654
 -0.0115614
 -0.0115573
 -0.0115533
 -0.0115492
 -0.0115452
 -0.0115411
 -0.0115371
 -0.0115330
 -0.0115290
 -0.0115249
 -0.0115208
 -0.0115168
 -0.0115127
 -0.0115087
 -0.0115046
 -0.0115006
 -0.0114965
 -0.0114925
 -0.0114884
 -0.0114844
 -0.0114803
 -0.0114763
 -0.0114722
 -0.0114682
 -0.0114641
 -0.0114601
 -0.0114560
 -0.0114520
 -0.0114479
 -0.0114439
 -0.0114398
 -0.0114357
 -0.0114317
 -0.0114276
 -0.0114236
 -0.0114195
 -0.0114155
 -0.0114114
 -0.0114074
 -0.0114033
 -0.0113993
 -0.0113952
 -0.0113912
 -0.0113871
 -0.0113831
 -0.0113790
 -0.0113750
 -0.0113709
 -0.0113669
 -0.0113628
 -0.0113588
 -0.0113547
 -0.0113507
 -0.0113466
 -0.0113425
 -0.0113385
 -0.0113344
 -0.0113304
 -0.0113263
 -0.0113223
 -0.0113182
 -0.0113142
 -0.0113101
 -0.0113061
 -0.0113020
 -0.0112980
 -0.0112939
 -0.0112899
 -0.0112858
 -0.0112818
 -0.0112777
 -0.0112737
 -0.0112696
 -0.0112656
 -0.0112615
 -0.0112575
 -0.0112534
 -0.0112493
 -0.0112453
 -0.0112412
 -0.0112372
 -0.0112331
 -0.0112291
 -0.0112250
 -0.0112210
 -0.0112169
 -0.0112129
 -0.0112088
 -0.0112048
 -0.0112007
 -0.0111967
 -0.0111926
 -0.0111886
 -0.0111845
 -0.0111805
 -0.0111764
 -0.0111724
 -0.0111683
 -0.0111643
 -0.0111602
 -0.0111561
 -0.0111521
 -0.0111480
 -0.0111440
 -0.0111399
 -0.0111359
 -0.0111318
 -0.0111278
 -0.0111237
 -0.0111197
 -0.0111156
 -0.0111116
 -0.0111075
 -0.0111035
 -0.0110994
 -0.0110954
 -0.0110913
 -0.0110873
 -0.0110832
 -0.0110792
 -0.0110751
 -0.0110710
 -0.0110670
 -0.0110629
 -0.0110589
 -0.0110548
 -0.0110508
 -0.0110467
 -0.0110427
 -0.0110386
 -0.0110346
 -0.0110305
 -0.0110265
 -0.0110224
 -0.0110184
 -0.0110143
 -0.0110103
 -0.0110062
 -0.0110022
 -0.0109981
 -0.0109941
 -0.0109900
 -0.0109860
 -0.0109819
 -0.0109778
 -0.0109738
 -0.0109697
 -0.0109657
 -0.0109616
 -0.0109576
 -0.0109535
 -0.0109495
 -0.0109454
 -0.0109414
 -0.0109373
 -0.0109333
 -0.0109292
 -0.0109252
 -0.0109211
 -0.0109171
 -0.0109130
 -0.0109090
 -0.0109049
 -0.0109009
 -0.0108968
 -0.0108928
 -0.0108887
 -0.0108846
 -0.0108806
 -0.0108765
 -0.0108725
 -0.0108684
 -0.0108644
 -0.0108603
 -0.0108563
 -0.0108522
 -0.0108482
 -0.0108441
 -0.0108401
 -0.0108360
 -0.0108320
 -0.0108279
 -0.0108239
 -0.0108198
 -0.0108158
 -0.0108117
 -0.0108077
 -0.0108036
 -0.0107996
 -0.0107955
 -0.0107914
 -0.0107874
 -0.0107833
 -0.0107793
 -0.0107752
 -0.0107712
 -0.0107671
 -0.0107631
 -0.0107590
 -0.0107550
 -0.0107509
 -0.0107469
 -0.0107428
 -0.0107388
 -0.0107347
 -0.0107307
 -0.0107266
 -0.0107226
 -0.0107185
 -0.0107145
 -0.0107104
 -0.0107063
 -0.0107023
 -0.0106982
 -0.0106942
 -0.0106901
 -0.0106861
 -0.0106820
 -0.0106780
 -0.0106739
 -0.0106699
 -0.0106658
 -0.0106618
 -0.0106577
 -0.0106537
 -0.0106496
 -0.0106456
 -0.0106415
 -0.0106375
 -0.0106334
 -0.0106294
 -0.0106253
 -0.0106213
 -0.0106172
 -0.0106131
 -0.0106091
 -0.0106050
 -0.0106010
 -0.0105969
 -0.0105929
 -0.0105888
 -0.0105848
 -0.0105807
 -0.0105767
 -0.0105726
 -0.0105686
 -0.0105645
 -0.0105605
 -0.0105564
 -0.0105524
 -0.0105483
 -0.0105443
 -0.0105402
 -0.0105362
 -0.0105321
 -0.0105281
 -0.0105240
 -0.0105199
 -0.0105159
 -0.0105118
 -0.0105078
 -0.0105037
 -0.0104997
 -0.0104956
 -0.0104916
 -0.0104875
 -0.0104835
 -0.0104794
 -0.0104754
 -0.0104713
 -0.0104673
 -0.0104632
 -0.0104592
 -0.0104551
 -0.0104511
 -0.0104470
 -0.0104430
 -0.0104389
 -0.0104348
 -0.0104308
 -0.0104267
 -0.0104227
 -0.0104186
 -0.0104146
 -0.0104105
 -0.0104065
 -0.0104024
 -0.0103984
 -0.0103943
 -0.0103903
 -0.0103862
 -0.0103822
 -0.0103781
 -0.0103741
 -0.0103700
 -0.0103660
 -0.0103619
 -0.0103579
 -0.0103538
 -0.0103498
 -0.0103457
 -0.0103416
 -0.0103376
 -0.0103335
 -0.0103295
 -0.0103254
 -0.0103214
 -0.0103173
 -0.0103133
 -0.0103092
 -0.0103052
 -0.0103011
 -0.0102971
 -0.0102930
 -0.0102890
 -0.0102849
 -0.0102809
 -0.0102768
 -0.0102728
 -0.0102687
 -0.0102647
 -0.0102606
 -0.0102566
 -0.0102525
 -0.0102484
 -0.0102444
 -0.0102403
 -0.0102363
 -0.0102322
 -0.0102282
 -0.0102241
 -0.0102201
 -0.0102160
 -0.0102120
 -0.0102079
 -0.0102039
 -0.0101998
 -0.0101958
 -0.0101917
 -0.0101877
 -0.0101836
 -0.0101796
 -0.0101755
 -0.0101715
 -0.0101674
 -0.0101634
 -0.0101593
 -0.0101552
 -0.0101512
 -0.0101471
 -0.0101431
 -0.0101390
 -0.0101350
 -0.0101309
 -0.0101269
 -0.0101228
 -0.0101188
 -0.0101147
 -0.0101107
 -0.0101066
 -0.0101026
 -0.0100985
 -0.0100945
 -0.0100904
 -0.0100864
 -0.0100823
 -0.0100783
 -0.0100742
 -0.0100701
 -0.0100661
 -0.0100620
 -0.0100580
 -0.0100539
 -0.0100499
 -0.0100458
 -0.0100418
 -0.0100377
 -0.0100337
 -0.0100296
 -0.0100256
 -0.0100215
 -0.0100175
 -0.0100134
 -0.0100094
 -0.0100053
 -0.0100013
 -0.0099972
 -0.0099932
 -0.0099891
 -0.0099851
 -0.0099810
 -0.0099769
 -0.0099729
 -0.0099688
 -0.0099648
 -0.0099607
 -0.0099567
 -0.0099526
 -0.0099486
 -0.0099445
 -0.0099405
 -0.0099364
 -0.0099324
 -0.0099283
 -0.0099243
 -0.0099202
 -0.0099162
 -0.0099121
 -0.0099081
 -0.0099040
 -0.0099000
 -0.0098959
 -0.0098919
 -0.0098878
 -0.0098837
 -0.0098797
 -0.0098756
 -0.0098716
 -0.0098675
 -0.0098635
 -0.0098594
 -0.0098554
 -0.0098513
 -0.0098473
 -0.0098432
 -0.0098392
 -0.0098351
 -0.0098311
 -0.0098270
 -0.0098230
 -0.0098189
 -0.0098149
 -0.0098108
 -0.0098068
 -0.0098027
 -0.0097987
 -0.0097946
 -0.0097905
 -0.0097865
 -0.0097824
 -0.0097784
 -0.0097743
 -0.0097703
 -0.0097662
 -0.0097622
 -0.0097581
 -0.0097541
 -0.0097500
 -0.0097460
 -0.0097419
 -0.0097379
 -0.0097338
 -0.0097298
 -0.0097257
 -0.0097217
 -0.0097176
 -0.0097136
 -0.0097095
 -0.0097054
 -0.0097014
 -0.0096973
 -0.0096933
 -0.0096892
 -0.0096852
 -0.0096811
 -0.0096771
 -0.0096730
 -0.0096690
 -0.0096649
 -0.0096609
 -0.0096568
 -0.0096528
 -0.0096487
 -0.0096447
 -0.0096406
 -0.0096366
 -0.0096325
 -0.0096285
 -0.0096244
 -0.0096204
 -0.0096163
 -0.0096122
 -0.0096082
 -0.0096041
 -0.0096001
 -0.0095960
 -0.0095920
 -0.0095879
 -0.0095839
 -0.0095798
 -0.0095758
 -0.0095717
 -0.0095677
 -0.0095636
 -0.0095596
 -0.0095555
 -0.0095515
 -0.0095474
 -0.0095434
 -0.0095393
 -0.0095353
 -0.0095312
 -0.0095272
 -0.0095231
 -0.0095190
 -0.0095150
 -0.0095109
 -0.0095069
 -0.0095028
 -0.0094988
 -0.0094947
 -0.0094907
 -0.0094866
 -0.0094826
 -0.0094785
 -0.0094745
 -0.0094704
 -0.0094664
 -0.0094623
 -0.0094583
 -0.0094542
 -0.0094502
 -0.0094461
 -0.0094421
 -0.0094380
 -0.0094340
 -0.0094299
 -0.0094258
 -0.0094218
 -0.0094177
 -0.0094137
 -0.0094096
 -0.0094056
 -0.0094015
 -0.0093975
 -0.0093934
 -0.0093894
 -0.0093853
 -0.0093813
 -0.0093772
 -0.0093732
 -0.0093691
 -0.0093651
 -0.0093610
 -0.0093570
 -0.0093529
 -0.0093489
 -0.0093448
 -0.0093407
 -0.0093367
 -0.0093326
 -0.0093286
 -0.0093245
 -0.0093205
 -0.0093164
 -0.0093124
 -0.0093083
 -0.0093043
 -0.0093002
 -0.0092962
 -0.0092921
 -0.0092881
 -0.0092840
 -0.0092800
 -0.0092759
 -0.0092719
 -0.0092678
 -0.0092638
 -0.0092597
 -0.0092557
 -0.0092516
 -0.0092475
 -0.0092435
 -0.0092394
 -0.0092354
 -0.0092313
 -0.0092273
 -0.0092232
 -0.0092192
 -0.0092151
 -0.0092111
 -0.0092070
 -0.0092030
 -0.0091989
 -0.0091949
 -0.0091908
 -0.0091868
 -0.0091827
 -0.0091787
 -0.0091746
 -0.0091706
 -0.0091665
 -0.0091625
 -0.0091584
 -0.0091543
 -0.0091503
 -0.0091462
 -0.0091422
 -0.0091381
 -0.0091341
 -0.0091300
 -0.0091260
 -0.0091219
 -0.0091179
 -0.0091138
 -0.0091098
 -0.0091057
 -0.0091017
 -0.0090976
 -0.0090936
 -0.0090895
 -0.0090855
 -0.0090814
 -0.0090774
 -0.0090733
 -0.0090692
 -0.0090652
 -0.0090611
 -0.0090571
 -0.0090530
 -0.0090490
 -0.0090449
 -0.0090409
 -0.0090368
 -0.0090328
 -0.0090287
 -0.0090247
 -0.0090206
 -0.0090166
 -0.0090125
 -0.0090085
 -0.0090044
 -0.0090004
 -0.0089963
 -0.0089923
 -0.0089882
 -0.0089842
 -0.0089801
 -0.0089760
 -0.0089720
 -0.0089679
 -0.0089639
 -0.0089598
 -0.0089558
 -0.0089517
 -0.0089477
 -0.0089436
 -0.0089396
 -0.0089355
 -0.0089315
 -0.0089274
 -0.0089234
 -0.0089193
 -0.0089153
 -0.0089112
 -0.0089072
 -0.0089031
 -0.0088991
 -0.0088950
 -0.0088910
 -0.0088869
 -0.0088828
 -0.0088788
 -0.0088747
 -0.0088707
 -0.0088666
 -0.0088626
 -0.0088585
 -0.0088545
 -0.0088504
 -0.0088464
 -0.0088423
 -0.0088383
 -0.0088342
 -0.0088302
 -0.0088261
 -0.0088221
 -0.0088180
 -0.0088140
 -0.0088099
 -0.0088059
 -0.0088018
 -0.0087978
 -0.0087937
 -0.0087896
 -0.0087856
 -0.0087815
 -0.0087775
 -0.0087734
 -0.0087694
 -0.0087653
 -0.0087613
 -0.0087572
 -0.0087532
 -0.0087491
 -0.0087451
 -0.0087410
 -0.0087370
 -0.0087329
 -0.0087289
 -0.0087248
 -0.0087208
 -0.0087167
 -0.0087127
 -0.0087086
 -0.0087045
 -0.0087005
 -0.0086964
 -0.0086924
 -0.0086883
 -0.0086843
 -0.0086802
 -0.0086762
 -0.0086721
 -0.0086681
 -0.0086640
 -0.0086600
 -0.0086559
 -0.0086519
 -0.0086478
 -0.0086438
 -0.0086397
 -0.0086357
 -0.0086316
 -0.0086276
 -0.0086235
 -0.0086195
 -0.0086154
 -0.0086113
 -0.0086073
 -0.0086032
 -0.0085992
 -0.0085951
 -0.0085911
 -0.0085870
 -0.0085830
 -0.0085789
 -0.0085749
 -0.0085708
 -0.0085668
 -0.0085627
 -0.0085587
 -0.0085546
 -0.0085506
 -0.0085465
 -0.0085425
 -0.0085384
 -0.0085344
 -0.0085303
 -0.0085263
 -0.0085222
 -0.0085181
 -0.0085141
 -0.0085100
 -0.0085060
 -0.0085019
 -0.0084979
 -0.0084938
 -0.0084898
 -0.0084857
 -0.0084817
 -0.0084776
 -0.0084736
 -0.0084695
 -0.0084655
 -0.0084614
 -0.0084574
 -0.0084533
 -0.0084493
 -0.0084452
 -0.0084412
 -0.0084371
 -0.0084331
 -0.0084290
 -0.0084249
 -0.0084209
 -0.0084168
 -0.0084128
 -0.0084087
 -0.0084047
 -0.0084006
 -0.0083966
 -0.0083925
 -0.0083885
 -0.0083844
 -0.0083804
 -0.0083763
 -0.0083723
 -0.0083682
 -0.0083642
 -0.0083601
 -0.0083561
 -0.0083520
 -0.0083480
 -0.0083439
 -0.0083398
 -0.0083358
 -0.0083317
 -0.0083277
 -0.0083236
 -0.0083196
 -0.0083155
 -0.0083115
 -0.0083074
 -0.0083034
 -0.0082993
 -0.0082953
 -0.0082912
 -0.0082872
 -0.0082831
 -0.0082791
 -0.0082750
 -0.0082710
 -0.0082669
 -0.0082629
 -0.0082588
 -0.0082548
 -0.0082507
 -0.0082466
 -0.0082426
 -0.0082385
 -0.0082345
 -0.0082304
 -0.0082264
 -0.0082223
 -0.0082183
 -0.0082142
 -0.0082102
 -0.0082061
 -0.0082021
 -0.0081980
 -0.0081940
 -0.0081899
 -0.0081859
 -0.0081818
 -0.0081778
 -0.0081737
 -0.0081697
 -0.0081656
 -0.0081616
 -0.0081575
 -0.0081534
 -0.0081494
 -0.0081453
 -0.0081413
 -0.0081372
 -0.0081332
 -0.0081291
 -0.0081251
 -0.0081210
 -0.0081170
 -0.0081129
 -0.0081089
 -0.0081048
 -0.0081008
 -0.0080967
 -0.0080927
 -0.0080886
 -0.0080846
 -0.0080805
 -0.0080765
 -0.0080724
 -0.0080684
 -0.0080643
 -0.0080602
 -0.0080562
 -0.0080521
 -0.0080481
 -0.0080440
 -0.0080400
 -0.0080359
 -0.0080319
 -0.0080278
 -0.0080238
 -0.0080197
 -0.0080157
 -0.0080116
 -0.0080076
 -0.0080035
 -0.0079995
 -0.0079954
 -0.0079914
 -0.0079873
 -0.0079833
 -0.0079792
 -0.0079751
 -0.0079711
 -0.0079670
 -0.0079630
 -0.0079589
 -0.0079549
 -0.0079508
 -0.0079468
 -0.0079427
 -0.0079387
 -0.0079346
 -0.0079306
 -0.0079265
 -0.0079225
 -0.0079184
 -0.0079144
 -0.0079103
 -0.0079063
 -0.0079022
 -0.0078982
 -0.0078941
 -0.0078901
 -0.0078860
 -0.0078819
 -0.0078779
 -0.0078738
 -0.0078698
 -0.0078657
 -0.0078617
 -0.0078576
 -0.0078536
 -0.0078495
 -0.0078455
 -0.0078414
 -0.0078374
 -0.0078333
 -0.0078293
 -0.0078252
 -0.0078212
 -0.0078171
 -0.0078131
 -0.0078090
 -0.0078050
 -0.0078009
 -0.0077969
 -0.0077928
 -0.0077887
 -0.0077847
 -0.0077806
 -0.0077766
 -0.0077725
 -0.0077685
 -0.0077644
 -0.0077604
 -0.0077563
 -0.0077523
 -0.0077482
 -0.0077442
 -0.0077401
 -0.0077361
 -0.0077320
 -0.0077280
 -0.0077239
 -0.0077199
 -0.0077158
 -0.0077118
 -0.0077077
 -0.0077036
 -0.0076996
 -0.0076955
 -0.0076915
 -0.0076874
 -0.0076834
 -0.0076793
 -0.0076753
 -0.0076712
 -0.0076672
 -0.0076631
 -0.0076591
 -0.0076550
 -0.0076510
 -0.0076469
 -0.0076429
 -0.0076388
 -0.0076348
 -0.0076307
 -0.0076267
 -0.0076226
 -0.0076186
 -0.0076145
 -0.0076104
 -0.0076064
 -0.0076023
 -0.0075983
 -0.0075942
 -0.0075902
 -0.0075861
 -0.0075821
 -0.0075780
 -0.0075740
 -0.0075699
 -0.0075659
 -0.0075618
 -0.0075578
 -0.0075537
 -0.0075497
 -0.0075456
 -0.0075416
 -0.0075375
 -0.0075335
 -0.0075294
 -0.0075254
 -0.0075213
 -0.0075172
 -0.0075132
 -0.0075091
 -0.0075051
 -0.0075010
 -0.0074970
 -0.0074929
 -0.0074889
 -0.0074848
 -0.0074808
 -0.0074767
 -0.0074727
 -0.0074686
 -0.0074646
 -0.0074605
 -0.0074565
 -0.0074524
 -0.0074484
 -0.0074443
 -0.0074403
 -0.0074362
 -0.0074322
 -0.0074281
 -0.0074240
 -0.0074200
 -0.0074159
 -0.0074119
 -0.0074078
 -0.0074038
 -0.0073997
 -0.0073957
 -0.0073916
 -0.0073876
 -0.0073835
 -0.0073795
 -0.0073754
 -0.0073714
 -0.0073673
 -0.0073633
 -0.0073592
 -0.0073552
 -0.0073511
 -0.0073471
 -0.0073430
