luts/Dlog_x5_x7_to_Linear.spi1d
Version 1
From 0 1
Length 4096
Components 1
{
	0.000000000000
	0.000000000000
	0.000000000000
	0.000000000000
	0.000000000000
	0.000000000000
	0.000000000000
	0.000000000000
	0.000000000000
	0.000000000000
	0.000000000000
	0.000000000000
	0.000000000000
	0.000000000000
	0.000000000000
	0.000000000000
	0.000000000000
	0.000000000000
	0.000000000000
	0.000000000000
	0.000000000000
	0.000000000000
	0.000000000000
	0.000000000000
	0.000000000000
	0.000000000000
	0.000000000000
	0.000000000000
	0.000000000000
	0.000000000000
	0.000000000000
	0.000000000000
	0.000000000000
	0.000000000000
	0.000000000000
	0.000000000000
	0.000000000000
	0.000000000000
	0.000000000000
	0.000000000000
	0.000000000000
	0.000000000000
	0.000000000000
	0.000000000000
	0.000000000000
	0.000000000000
	0.000000000000
	0.000000000000
	0.000000000000
	0.000000000000
	0.000000000000
	0.000000000000
	0.000000000000
	0.000000000000
	0.000000000000
	0.000000000000
	0.000000000000
	0.000000000000
	0.000000000000
	0.000000000000
	0.000000000000
	0.000000000000
	0.000000000000
	0.000000000000
	0.000000000000
	0.000000000000
	0.000000000000
	0.000000000000
	0.000000000000
	0.000000000000
	0.000000000000
	0.000000000000
	0.000000000000
	0.000000000000
	0.000000000000
	0.000000000000
	0.000000000000
	0.000000000000
	0.000000000000
	0.000000000000
	0.000000000000
	0.000000000000
	0.000000000000
	0.000000000000
	0.000000000000
	0.000000000000
	0.000000000000
	0.000000000000
	0.000000000000
	0.000000000000
	0.000000000000
	0.000000000000
	0.000000000000
	0.000000000000
	0.000000000000
	0.000000000000
	0.000000000000
	0.000000000000
	0.000000000000
	0.000000000000
	0.000000000000
	0.000000000000
	0.000000000000
	0.000000000000
	0.000000000000
	0.000000000000
	0.000000000000
	0.000000000000
	0.000000000000
	0.000000000000
	0.000000000000
	0.000000000000
	0.000000000000
	0.000000000000
	0.000000000000
	0.000000000000
	0.000000000000
	0.000000000000
	0.000000000000
	0.000000000000
	0.000000000000
	0.000000000000
	0.000000000000
	0.000000000000
	0.000000000000
	0.000000000000
	0.000000000000
	0.000000000000
	0.000000000000
	0.000000000000
	0.000000000000
	0.000000000000
	0.000000000000
	0.000000000000
	0.000000000000
	0.000000000000
	0.000000000000
	0.000000000000
	0.000000000000
	0.000000000000
	0.000000000000
	0.000000000000
	0.000000000000
	0.000000000000
	0.000000000000
	0.000000000000
	0.000031724191
	0.000066431226
	0.000101138261
	0.000135845297
	0.000170552332
	0.000205259367
	0.000239966402
	0.000274673437
	0.000309380472
	0.000344087507
	0.000378794542
	0.000413501577
	0.000448208613
	0.000482915648
	0.000517622683
	0.000552329718
	0.000587036753
	0.000621743788
	0.000656450823
	0.000691157858
	0.000725864893
	0.000760571929
	0.000795278964
	0.000829985999
	0.000864693034
	0.000899400069
	0.000934107104
	0.000968814139
	0.001003521174
	0.001038228209
	0.001072935245
	0.001107642280
	0.001142349315
	0.001177056350
	0.001211763385
	0.001246470420
	0.001281177455
	0.001315884490
	0.001350591525
	0.001385298561
	0.001420005596
	0.001454712631
	0.001489419666
	0.001524126701
	0.001558833736
	0.001593540771
	0.001628247806
	0.001662954841
	0.001697661876
	0.001732368912
	0.001767075947
	0.001801782982
	0.001836490017
	0.001871197052
	0.001905904087
	0.001940611122
	0.001975318157
	0.002010025192
	0.002044732228
	0.002079439263
	0.002114146298
	0.002148853333
	0.002183560368
	0.002218267403
	0.002252974438
	0.002287681473
	0.002322388508
	0.002357095544
	0.002391802579
	0.002426509614
	0.002461216649
	0.002495923684
	0.002530630719
	0.002565337754
	0.002600044789
	0.002634751824
	0.002669458860
	0.002704165895
	0.002738872930
	0.002773579965
	0.002808287000
	0.002842994035
	0.002877701070
	0.002912408105
	0.002947115140
	0.002981822176
	0.003016529211
	0.003051236246
	0.003085943281
	0.003120650316
	0.003155357351
	0.003190064386
	0.003224771421
	0.003259478456
	0.003294185491
	0.003328892527
	0.003363599562
	0.003398306597
	0.003433013632
	0.003467720667
	0.003502427702
	0.003537134737
	0.003571841772
	0.003606548807
	0.003641255843
	0.003675962878
	0.003710669913
	0.003745376948
	0.003780083983
	0.003814791018
	0.003849498053
	0.003884205088
	0.003918912123
	0.003953619159
	0.003988326194
	0.004023033229
	0.004057740264
	0.004092447299
	0.004127154334
	0.004161861369
	0.004196568404
	0.004231275439
	0.004265982475
	0.004300689510
	0.004335396545
	0.004370103580
	0.004404810615
	0.004439517650
	0.004474224685
	0.004508931720
	0.004543638755
	0.004578345790
	0.004613052826
	0.004647759861
	0.004682466896
	0.004717173931
	0.004751880966
	0.004786588001
	0.004821295036
	0.004856002071
	0.004890709106
	0.004925416142
	0.004960123177
	0.004994830212
	0.005029537247
	0.005064244282
	0.005098951317
	0.005133658352
	0.005168365387
	0.005203072422
	0.005237779458
	0.005272486493
	0.005307193528
	0.005341900563
	0.005376607598
	0.005411314633
	0.005446021668
	0.005480728703
	0.005515435738
	0.005550142774
	0.005584849809
	0.005619556844
	0.005654263879
	0.005688970914
	0.005723677949
	0.005758384984
	0.005793092019
	0.005827799054
	0.005862506090
	0.005897213125
	0.005931920160
	0.005966627195
	0.006001334230
	0.006036041265
	0.006070748300
	0.006105455335
	0.006140162370
	0.006174869405
	0.006209576441
	0.006244283476
	0.006278990511
	0.006313697546
	0.006348404581
	0.006383111616
	0.006417818651
	0.006452525686
	0.006487232721
	0.006521939757
	0.006556646792
	0.006591353827
	0.006626060862
	0.006660767897
	0.006695474932
	0.006730181967
	0.006764889002
	0.006799596037
	0.006834303073
	0.006869010108
	0.006903717143
	0.006938424178
	0.006973131213
	0.007007838248
	0.007042545283
	0.007077252318
	0.007111959353
	0.007146666389
	0.007181373424
	0.007216080459
	0.007250787494
	0.007285494529
	0.007320201564
	0.007354908599
	0.007389615634
	0.007424322669
	0.007459029705
	0.007493736740
	0.007528443775
	0.007563150810
	0.007597857845
	0.007632564880
	0.007667271915
	0.007701978950
	0.007736685985
	0.007771393020
	0.007806100056
	0.007840992429
	0.007876216693
	0.007911507098
	0.007946863769
	0.007982286831
	0.008017776408
	0.008053332625
	0.008088955607
	0.008124645480
	0.008160402369
	0.008196226399
	0.008232117698
	0.008268076391
	0.008304102606
	0.008340196467
	0.008376358104
	0.008412587642
	0.008448885210
	0.008485250936
	0.008521684946
	0.008558187370
	0.008594758336
	0.008631397972
	0.008668106408
	0.008704883773
	0.008741730196
	0.008778645806
	0.008815630735
	0.008852685111
	0.008889809066
	0.008927002729
	0.008964266233
	0.009001599707
	0.009039003284
	0.009076477095
	0.009114021272
	0.009151635947
	0.009189321252
	0.009227077320
	0.009264904285
	0.009302802278
	0.009340771433
	0.009378811885
	0.009416923767
	0.009455107212
	0.009493362356
	0.009531689333
	0.009570088278
	0.009608559326
	0.009647102613
	0.009685718273
	0.009724406444
	0.009763167261
	0.009802000860
	0.009840907379
	0.009879886953
	0.009918939721
	0.009958065820
	0.009997265387
	0.010036538561
	0.010075885479
	0.010115306281
	0.010154801104
	0.010194370088
	0.010234013372
	0.010273731096
	0.010313523399
	0.010353390422
	0.010393332304
	0.010433349186
	0.010473441210
	0.010513608516
	0.010553851246
	0.010594169540
	0.010634563542
	0.010675033393
	0.010715579236
	0.010756201213
	0.010796899467
	0.010837674142
	0.010878525381
	0.010919453328
	0.010960458127
	0.011001539922
	0.011042698857
	0.011083935078
	0.011125248730
	0.011166639958
	0.011208108908
	0.011249655726
	0.011291280557
	0.011332983549
	0.011374764848
	0.011416624601
	0.011458562956
	0.011500580060
	0.011542676061
	0.011584851107
	0.011627105347
	0.011669438929
	0.011711852002
	0.011754344716
	0.011796917220
	0.011839569664
	0.011882302197
	0.011925114972
	0.011968008137
	0.012010981844
	0.012054036245
	0.012097171490
	0.012140387732
	0.012183685122
	0.012227063814
	0.012270523959
	0.012314065711
	0.012357689223
	0.012401394648
	0.012445182141
	0.012489051855
	0.012533003944
	0.012577038564
	0.012621155870
	0.012665356016
	0.012709639158
	0.012754005452
	0.012798455054
	0.012842988121
	0.012887604809
	0.012932305276
	0.012977089678
	0.013021958174
	0.013066910920
	0.013111948076
	0.013157069800
	0.013202276251
	0.013247567587
	0.013292943969
	0.013338405555
	0.013383952506
	0.013429584982
	0.013475303144
	0.013521107153
	0.013566997169
	0.013612973355
	0.013659035872
	0.013705184882
	0.013751420548
	0.013797743032
	0.013844152497
	0.013890649107
	0.013937233026
	0.013983904416
	0.014030663444
	0.014077510272
	0.014124445066
	0.014171467992
	0.014218579214
	0.014265778898
	0.014313067211
	0.014360444319
	0.014407910389
	0.014455465587
	0.014503110082
	0.014550844040
	0.014598667630
	0.014646581020
	0.014694584378
	0.014742677875
	0.014790861678
	0.014839135957
	0.014887500883
	0.014935956626
	0.014984503355
	0.015033141242
	0.015081870459
	0.015130691176
	0.015179603565
	0.015228607799
	0.015277704050
	0.015326892491
	0.015376173295
	0.015425546635
	0.015475012685
	0.015524571619
	0.015574223612
	0.015623968838
	0.015673807472
	0.015723739690
	0.015773765668
	0.015823885581
	0.015874099607
	0.015924407920
	0.015974810700
	0.016025308123
	0.016075900366
	0.016126587608
	0.016177370028
	0.016228247804
	0.016279221114
	0.016330290139
	0.016381455058
	0.016432716051
	0.016484073299
	0.016535526982
	0.016587077282
	0.016638724379
	0.016690468456
	0.016742309694
	0.016794248277
	0.016846284387
	0.016898418207
	0.016950649920
	0.017002979710
	0.017055407763
	0.017107934261
	0.017160559390
	0.017213283335
	0.017266106281
	0.017319028416
	0.017372049924
	0.017425170992
	0.017478391808
	0.017531712558
	0.017585133430
	0.017638654613
	0.017692276295
	0.017745998663
	0.017799821908
	0.017853746219
	0.017907771786
	0.017961898798
	0.018016127447
	0.018070457922
	0.018124890416
	0.018179425120
	0.018234062225
	0.018288801925
	0.018343644411
	0.018398589877
	0.018453638515
	0.018508790521
	0.018564046088
	0.018619405409
	0.018674868681
	0.018730436099
	0.018786107857
	0.018841884152
	0.018897765180
	0.018953751138
	0.019009842223
	0.019066038632
	0.019122340563
	0.019178748215
	0.019235261784
	0.019291881472
	0.019348607476
	0.019405439997
	0.019462379234
	0.019519425388
	0.019576578659
	0.019633839249
	0.019691207360
	0.019748683192
	0.019806266949
	0.019863958833
	0.019921759047
	0.019979667795
	0.020037685280
	0.020095811706
	0.020154047279
	0.020212392202
	0.020270846682
	0.020329410924
	0.020388085134
	0.020446869519
	0.020505764285
	0.020564769640
	0.020623885792
	0.020683112948
	0.020742451316
	0.020801901107
	0.020861462529
	0.020921135791
	0.020980921104
	0.021040818678
	0.021100828723
	0.021160951452
	0.021221187075
	0.021281535805
	0.021341997854
	0.021402573434
	0.021463262760
	0.021524066043
	0.021584983500
	0.021646015343
	0.021707161788
	0.021768423050
	0.021829799344
	0.021891290887
	0.021952897894
	0.022014620583
	0.022076459171
	0.022138413876
	0.022200484915
	0.022262672507
	0.022324976871
	0.022387398226
	0.022449936792
	0.022512592789
	0.022575366437
	0.022638257957
	0.022701267571
	0.022764395501
	0.022827641968
	0.022891007195
	0.022954491405
	0.023018094822
	0.023081817669
	0.023145660171
	0.023209622552
	0.023273705038
	0.023337907854
	0.023402231225
	0.023466675379
	0.023531240542
	0.023595926941
	0.023660734804
	0.023725664359
	0.023790715835
	0.023855889460
	0.023921185464
	0.023986604077
	0.024052145528
	0.024117810049
	0.024183597870
	0.024249509224
	0.024315544342
	0.024381703456
	0.024447986800
	0.024514394606
	0.024580927108
	0.024647584541
	0.024714367139
	0.024781275137
	0.024848308771
	0.024915468275
	0.024982753888
	0.025050165845
	0.025117704385
	0.025185369743
	0.025253162160
	0.025321081872
	0.025389129120
	0.025457304142
	0.025525607179
	0.025594038472
	0.025662598260
	0.025731286785
	0.025800104289
	0.025869051014
	0.025938127203
	0.026007333099
	0.026076668945
	0.026146134985
	0.026215731464
	0.026285458627
	0.026355316720
	0.026425305987
	0.026495426675
	0.026565679032
	0.026636063304
	0.026706579739
	0.026777228585
	0.026848010092
	0.026918924507
	0.026989972080
	0.027061153062
	0.027132467704
	0.027203916255
	0.027275498968
	0.027347216094
	0.027419067886
	0.027491054596
	0.027563176479
	0.027635433787
	0.027707826776
	0.027780355699
	0.027853020812
	0.027925822372
	0.027998760633
	0.028071835853
	0.028145048290
	0.028218398199
	0.028291885841
	0.028365511473
	0.028439275354
	0.028513177744
	0.028587218904
	0.028661399093
	0.028735718573
	0.028810177605
	0.028884776452
	0.028959515375
	0.029034394639
	0.029109414506
	0.029184575240
	0.029259877106
	0.029335320370
	0.029410905296
	0.029486632150
	0.029562501199
	0.029638512711
	0.029714666952
	0.029790964190
	0.029867404695
	0.029943988734
	0.030020716578
	0.030097588497
	0.030174604760
	0.030251765640
	0.030329071408
	0.030406522336
	0.030484118695
	0.030561860761
	0.030639748805
	0.030717783102
	0.030795963928
	0.030874291556
	0.030952766262
	0.031031388324
	0.031110158017
	0.031189075618
	0.031268141406
	0.031347355659
	0.031426718654
	0.031506230673
	0.031585891994
	0.031665702898
	0.031745663666
	0.031825774579
	0.031906035919
	0.031986447969
	0.032067011011
	0.032147725330
	0.032228591208
	0.032309608931
	0.032390778784
	0.032472101053
	0.032553576023
	0.032635203982
	0.032716985216
	0.032798920014
	0.032881008664
	0.032963251455
	0.033045648676
	0.033128200617
	0.033210907568
	0.033293769822
	0.033376787669
	0.033459961401
	0.033543291312
	0.033626777694
	0.033710420842
	0.033794221049
	0.033878178611
	0.033962293823
	0.034046566981
	0.034130998382
	0.034215588323
	0.034300337101
	0.034385245015
	0.034470312363
	0.034555539446
	0.034640926563
	0.034726474013
	0.034812182100
	0.034898051123
	0.034984081386
	0.035070273191
	0.035156626841
	0.035243142641
	0.035329820894
	0.035416661907
	0.035503665983
	0.035590833431
	0.035678164556
	0.035765659665
	0.035853319067
	0.035941143071
	0.036029131984
	0.036117286118
	0.036205605781
	0.036294091286
	0.036382742943
	0.036471561064
	0.036560545963
	0.036649697951
	0.036739017343
	0.036828504454
	0.036918159597
	0.037007983090
	0.037097975247
	0.037188136385
	0.037278466822
	0.037368966876
	0.037459636865
	0.037550477108
	0.037641487926
	0.037732669637
	0.037824022564
	0.037915547027
	0.038007243349
	0.038099111852
	0.038191152861
	0.038283366697
	0.038375753687
	0.038468314156
	0.038561048428
	0.038653956831
	0.038747039691
	0.038840297337
	0.038933730095
	0.039027338296
	0.039121122268
	0.039215082341
	0.039309218847
	0.039403532116
	0.039498022480
	0.039592690272
	0.039687535826
	0.039782559474
	0.039877761551
	0.039973142393
	0.040068702335
	0.040164441713
	0.040260360865
	0.040356460127
	0.040452739838
	0.040549200337
	0.040645841963
	0.040742665057
	0.040839669959
	0.040936857010
	0.041034226553
	0.041131778930
	0.041229514485
	0.041327433561
	0.041425536504
	0.041523823658
	0.041622295369
	0.041720951984
	0.041819793850
	0.041918821314
	0.042018034727
	0.042117434435
	0.042217020790
	0.042316794142
	0.042416754842
	0.042516903242
	0.042617239694
	0.042717764551
	0.042818478167
	0.042919380897
	0.043020473096
	0.043121755118
	0.043223227322
	0.043324890064
	0.043426743701
	0.043528788593
	0.043631025098
	0.043733453576
	0.043836074387
	0.043938887894
	0.044041894457
	0.044145094439
	0.044248488203
	0.044352076113
	0.044455858534
	0.044559835831
	0.044664008370
	0.044768376518
	0.044872940641
	0.044977701108
	0.045082658287
	0.045187812548
	0.045293164261
	0.045398713797
	0.045504461527
	0.045610407823
	0.045716553058
	0.045822897606
	0.045929441841
	0.046036186138
	0.046143130872
	0.046250276420
	0.046357623159
	0.046465171467
	0.046572921723
	0.046680874304
	0.046789029592
	0.046897387968
	0.047005949811
	0.047114715505
	0.047223685432
	0.047332859976
	0.047442239521
	0.047551824451
	0.047661615153
	0.047771612013
	0.047881815418
	0.047992225756
	0.048102843416
	0.048213668786
	0.048324702256
	0.048435944219
	0.048547395064
	0.048659055184
	0.048770924973
	0.048883004823
	0.048995295130
	0.049107796288
	0.049220508694
	0.049333432744
	0.049446568835
	0.049559917366
	0.049673478735
	0.049787253343
	0.049901241589
	0.050015443875
	0.050129860603
	0.050244492175
	0.050359338995
	0.050474401467
	0.050589679996
	0.050705174987
	0.050820886847
	0.050936815984
	0.051052962805
	0.051169327719
	0.051285911135
	0.051402713464
	0.051519735117
	0.051636976506
	0.051754438043
	0.051872120142
	0.051990023217
	0.052108147682
	0.052226493954
	0.052345062449
	0.052463853584
	0.052582867778
	0.052702105449
	0.052821567016
	0.052941252901
	0.053061163524
	0.053181299308
	0.053301660675
	0.053422248048
	0.053543061853
	0.053664102514
	0.053785370458
	0.053906866111
	0.054028589900
	0.054150542255
	0.054272723603
	0.054395134376
	0.054517775004
	0.054640645919
	0.054763747553
	0.054887080339
	0.055010644712
	0.055134441105
	0.055258469956
	0.055382731700
	0.055507226774
	0.055631955618
	0.055756918669
	0.055882116368
	0.056007549155
	0.056133217471
	0.056259121759
	0.056385262463
	0.056511640025
	0.056638254891
	0.056765107506
	0.056892198317
	0.057019527770
	0.057147096315
	0.057274904400
	0.057402952474
	0.057531240989
	0.057659770396
	0.057788541147
	0.057917553695
	0.058046808495
	0.058176306001
	0.058306046669
	0.058436030956
	0.058566259319
	0.058696732216
	0.058827450107
	0.058958413452
	0.059089622711
	0.059221078347
	0.059352780821
	0.059484730598
	0.059616928141
	0.059749373917
	0.059882068390
	0.060015012029
	0.060148205301
	0.060281648675
	0.060415342619
	0.060549287606
	0.060683484106
	0.060817932592
	0.060952633536
	0.061087587413
	0.061222794698
	0.061358255866
	0.061493971394
	0.061629941760
	0.061766167443
	0.061902648922
	0.062039386676
	0.062176381188
	0.062313632939
	0.062451142413
	0.062588910094
	0.062726936465
	0.062865222014
	0.063003767226
	0.063142572589
	0.063281638593
	0.063420965725
	0.063560554477
	0.063700405340
	0.063840518805
	0.063980895367
	0.064121535519
	0.064262439755
	0.064403608573
	0.064545042468
	0.064686741939
	0.064828707484
	0.064970939602
	0.065113438795
	0.065256205564
	0.065399240411
	0.065542543839
	0.065686116354
	0.065829958459
	0.065974070663
	0.066118453470
	0.066263107391
	0.066408032933
	0.066553230607
	0.066698700924
	0.066844444395
	0.066990461535
	0.067136752856
	0.067283318873
	0.067430160103
	0.067577277061
	0.067724670266
	0.067872340237
	0.068020287493
	0.068168512554
	0.068317015944
	0.068465798183
	0.068614859796
	0.068764201307
	0.068913823242
	0.069063726127
	0.069213910491
	0.069364376861
	0.069515125767
	0.069666157739
	0.069817473310
	0.069969073011
	0.070120957376
	0.070273126940
	0.070425582239
	0.070578323808
	0.070731352185
	0.070884667909
	0.071038271519
	0.071192163557
	0.071346344563
	0.071500815080
	0.071655575652
	0.071810626823
	0.071965969139
	0.072121603147
	0.072277529395
	0.072433748431
	0.072590260805
	0.072747067067
	0.072904167771
	0.073061563468
	0.073219254712
	0.073377242059
	0.073535526065
	0.073694107286
	0.073852986280
	0.074012163607
	0.074171639827
	0.074331415502
	0.074491491192
	0.074651867463
	0.074812544877
	0.074973524002
	0.075134805403
	0.075296389647
	0.075458277304
	0.075620468943
	0.075782965135
	0.075945766452
	0.076108873467
	0.076272286754
	0.076436006887
	0.076600034444
	0.076764370001
	0.076929014136
	0.077093967430
	0.077259230463
	0.077424803816
	0.077590688071
	0.077756883814
	0.077923391628
	0.078090212100
	0.078257345816
	0.078424793366
	0.078592555337
	0.078760632322
	0.078929024910
	0.079097733695
	0.079266759271
	0.079436102231
	0.079605763174
	0.079775742694
	0.079946041391
	0.080116659864
	0.080287598714
	0.080458858541
	0.080630439949
	0.080802343541
	0.080974569923
	0.081147119701
	0.081319993481
	0.081493191873
	0.081666715485
	0.081840564929
	0.082014740816
	0.082189243760
	0.082364074373
	0.082539233273
	0.082714721074
	0.082890538395
	0.083066685855
	0.083243164073
	0.083419973670
	0.083597115269
	0.083774589493
	0.083952396967
	0.084130538316
	0.084309014167
	0.084487825149
	0.084666971891
	0.084846455023
	0.085026275176
	0.085206432984
	0.085386929082
	0.085567764102
	0.085748938684
	0.085930453463
	0.086112309079
	0.086294506172
	0.086477045382
	0.086659927353
	0.086843152728
	0.087026722152
	0.087210636271
	0.087394895731
	0.087579501183
	0.087764453274
	0.087949752657
	0.088135399982
	0.088321395905
	0.088507741078
	0.088694436158
	0.088881481803
	0.089068878669
	0.089256627418
	0.089444728709
	0.089633183204
	0.089821991567
	0.090011154462
	0.090200672555
	0.090390546513
	0.090580777004
	0.090771364698
	0.090962310265
	0.091153614377
	0.091345277707
	0.091537300931
	0.091729684723
	0.091922429762
	0.092115536724
	0.092309006291
	0.092502839142
	0.092697035959
	0.092891597428
	0.093086524231
	0.093281817055
	0.093477476587
	0.093673503516
	0.093869898532
	0.094066662326
	0.094263795590
	0.094461299018
	0.094659173306
	0.094857419149
	0.095056037245
	0.095255028293
	0.095454392994
	0.095654132050
	0.095854246162
	0.096054736036
	0.096255602377
	0.096456845891
	0.096658467288
	0.096860467276
	0.097062846567
	0.097265605873
	0.097468745906
	0.097672267384
	0.097876171020
	0.098080457534
	0.098285127644
	0.098490182070
	0.098695621534
	0.098901446760
	0.099107658470
	0.099314257392
	0.099521244251
	0.099728619777
	0.099936384700
	0.100144539750
	0.100353085660
	0.100562023165
	0.100771352998
	0.100981075898
	0.101191192602
	0.101401703850
	0.101612610382
	0.101823912940
	0.102035612269
	0.102247709113
	0.102460204219
	0.102673098335
	0.102886392210
	0.103100086594
	0.103314182239
	0.103528679900
	0.103743580330
	0.103958884286
	0.104174592527
	0.104390705810
	0.104607224897
	0.104824150550
	0.105041483531
	0.105259224607
	0.105477374542
	0.105695934106
	0.105914904066
	0.106134285195
	0.106354078262
	0.106574284044
	0.106794903313
	0.107015936847
	0.107237385423
	0.107459249822
	0.107681530823
	0.107904229209
	0.108127345763
	0.108350881272
	0.108574836521
	0.108799212299
	0.109024009395
	0.109249228600
	0.109474870708
	0.109700936512
	0.109927426808
	0.110154342392
	0.110381684064
	0.110609452624
	0.110837648872
	0.111066273613
	0.111295327651
	0.111524811791
	0.111754726842
	0.111985073613
	0.112215852914
	0.112447065557
	0.112678712357
	0.112910794128
	0.113143311687
	0.113376265853
	0.113609657445
	0.113843487285
	0.114077756195
	0.114312465000
	0.114547614527
	0.114783205602
	0.115019239054
	0.115255715715
	0.115492636417
	0.115730001993
	0.115967813279
	0.116206071112
	0.116444776330
	0.116683929773
	0.116923532283
	0.117163584703
	0.117404087878
	0.117645042654
	0.117886449880
	0.118128310404
	0.118370625079
	0.118613394757
	0.118856620292
	0.119100302540
	0.119344442359
	0.119589040607
	0.119834098147
	0.120079615840
	0.120325594550
	0.120572035143
	0.120818938487
	0.121066305449
	0.121314136902
	0.121562433716
	0.121811196766
	0.122060426927
	0.122310125077
	0.122560292093
	0.122810928857
	0.123062036251
	0.123313615158
	0.123565666463
	0.123818191054
	0.124071189820
	0.124324663650
	0.124578613437
	0.124833040075
	0.125087944459
	0.125343327485
	0.125599190054
	0.125855533064
	0.126112357419
	0.126369664023
	0.126627453779
	0.126885727597
	0.127144486385
	0.127403731054
	0.127663462515
	0.127923681683
	0.128184389474
	0.128445586805
	0.128707274596
	0.128969453768
	0.129232125242
	0.129495289944
	0.129758948800
	0.130023102737
	0.130287752685
	0.130552899576
	0.130818544343
	0.131084687921
	0.131351331245
	0.131618475256
	0.131886120892
	0.132154269095
	0.132422920811
	0.132692076983
	0.132961738559
	0.133231906488
	0.133502581721
	0.133773765211
	0.134045457911
	0.134317660779
	0.134590374771
	0.134863600849
	0.135137339972
	0.135411593106
	0.135686361214
	0.135961645264
	0.136237446224
	0.136513765066
	0.136790602761
	0.137067960285
	0.137345838612
	0.137624238722
	0.137903161593
	0.138182608208
	0.138462579549
	0.138743076603
	0.139024100356
	0.139305651797
	0.139587731917
	0.139870341710
	0.140153482168
	0.140437154290
	0.140721359072
	0.141006097516
	0.141291370624
	0.141577179399
	0.141863524847
	0.142150407977
	0.142437829797
	0.142725791319
	0.143014293556
	0.143303337525
	0.143592924242
	0.143883054726
