luts/F-Log2_to_Linear.spi1d
Version 1
From 0 1
Length 4096
Components 1
{
0.0
0.0
0.0
0.0
-0.010442366756691008
-0.010414615029147669
-0.01038686330160433
-0.01035911157406099
-0.01033135984651765
-0.010303608118974308
-0.010275856391430969
-0.01024810466388763
-0.010220352936344289
-0.01019260120880095
-0.01016484948125761
-0.010137097753714271
-0.010109346026170932
-0.01008159429862759
-0.010053842571084251
-0.010026090843540912
-0.009998339115997573
-0.009970587388454232
-0.009942835660910893
-0.009915083933367553
-0.009887332205824212
-0.009859580478280873
-0.009831828750737532
-0.009804077023194193
-0.009776325295650853
-0.009748573568107514
-0.009720821840564173
-0.009693070113020834
-0.009665318385477495
-0.009637566657934155
-0.009609814930390816
-0.009582063202847475
-0.009554311475304136
-0.009526559747760796
-0.009498808020217457
-0.009471056292674116
-0.009443304565130777
-0.009415552837587438
-0.009387801110044097
-0.009360049382500757
-0.009332297654957416
-0.009304545927414077
-0.009276794199870738
-0.009249042472327398
-0.009221290744784057
-0.009193539017240718
-0.009165787289697379
-0.00913803556215404
-0.009110283834610699
-0.00908253210706736
-0.00905478037952402
-0.009027028651980679
-0.00899927692443734
-0.008971525196893999
-0.00894377346935066
-0.00891602174180732
-0.00888827001426398
-0.008860518286720642
-0.0088327665591773
-0.008805014831633961
-0.008777263104090622
-0.008749511376547283
-0.008721759649003942
-0.008694007921460602
-0.008666256193917263
-0.008638504466373924
-0.008610752738830583
-0.008583001011287244
-0.008555249283743904
-0.008527497556200565
-0.008499745828657226
-0.008471994101113883
-0.008444242373570544
-0.008416490646027204
-0.008388738918483865
-0.008360987190940524
-0.008333235463397185
-0.008305483735853846
-0.008277732008310506
-0.008249980280767167
-0.008222228553223826
-0.008194476825680487
-0.008166725098137146
-0.008138973370593806
-0.008111221643050465
-0.008083469915507126
-0.008055718187963787
-0.008027966460420448
-0.008000214732877108
-0.007972463005333767
-0.007944711277790428
-0.007916959550247089
-0.00788920782270375
-0.007861456095160408
-0.007833704367617069
-0.00780595264007373
-0.00777820091253039
-0.00775044918498705
-0.007722697457443711
-0.007694945729900371
-0.007667194002357032
-0.0076394422748136915
-0.007611690547270352
-0.00758393881972701
-0.007556187092183671
-0.007528435364640332
-0.007500683637096992
-0.007472931909553652
-0.007445180182010312
-0.007417428454466973
-0.007389676726923633
-0.0073619249993802935
-0.007334173271836953
-0.007306421544293614
-0.007278669816750273
-0.007250918089206933
-0.007223166361663594
-0.0071954146341202535
-0.007167662906576914
-0.007139911179033574
-0.007112159451490235
-0.007084407723946895
-0.007056655996403555
-0.007028904268860215
-0.007001152541316876
-0.006973400813773537
-0.0069456490862301965
-0.006917897358686857
-0.006890145631143517
-0.006862393903600177
-0.006834642176056837
-0.0068068904485134975
-0.006779138720970157
-0.006751386993426818
-0.006723635265883478
-0.006695883538340139
-0.0066681318107967985
-0.006640380083253458
-0.006612628355710119
-0.006584876628166779
-0.00655712490062344
-0.0065293731730800995
-0.00650162144553676
-0.00647386971799342
-0.006446117990450081
-0.006418366262906741
-0.0063906145353634005
-0.006362862807820061
-0.006335111080276721
-0.006307359352733382
-0.006279607625190042
-0.006251855897646702
-0.006224104170103362
-0.006196352442560022
-0.006168600715016683
-0.006140848987473343
-0.006113097259930003
-0.006085345532386663
-0.006057593804843324
-0.006029842077299984
-0.0060020903497566445
-0.0059743386222133035
-0.005946586894669964
-0.005918835167126625
-0.005891083439583285
-0.0058633317120399455
-0.005835579984496605
-0.005807828256953266
-0.005780076529409925
-0.005752324801866586
-0.005724573074323246
-0.005696821346779906
-0.005669069619236567
-0.005641317891693227
-0.005613566164149888
-0.0055858144366065475
-0.005558062709063208
-0.005530310981519867
-0.005502559253976528
-0.005474807526433188
-0.0054470557988898485
-0.005419304071346508
-0.005391552343803169
-0.00536380061625983
-0.005336048888716489
-0.0053082971611731495
-0.005280545433629809
-0.00525279370608647
-0.00522504197854313
-0.005197290250999791
-0.0051695385234564505
-0.005141786795913111
-0.005114035068369772
-0.005086283340826431
-0.005058531613283092
-0.0050307798857397515
-0.005003028158196412
-0.004975276430653072
-0.004947524703109733
-0.004919772975566393
-0.0048920212480230525
-0.004864269520479713
-0.004836517792936373
-0.004808766065393034
-0.004781014337849694
-0.004753262610306354
-0.004725510882763014
-0.004697759155219675
-0.004670007427676335
-0.004642255700132995
-0.004614503972589655
-0.004586752245046315
-0.004559000517502976
-0.004531248789959636
-0.0045034970624162965
-0.004475745334872956
-0.004447993607329616
-0.004420241879786276
-0.004392490152242937
-0.004364738424699597
-0.004336986697156257
-0.004309234969612918
-0.004281483242069578
-0.004253731514526239
-0.0042259797869828985
-0.004198228059439558
-0.004170476331896218
-0.004142724604352879
-0.004114972876809539
-0.0040872211492661995
-0.00405946942172286
-0.00403171769417952
-0.00400396596663618
-0.00397621423909284
-0.0039484625115495005
-0.00392071078400616
-0.003892959056462821
-0.0038652073289194813
-0.0038374556013761416
-0.003809703873832802
-0.003781952146289462
-0.0037542004187461216
-0.003726448691202782
-0.003698696963659442
-0.003670945236116103
-0.003643193508572763
-0.0036154417810294235
-0.0035876900534860838
-0.003559938325942743
-0.0035321865983994035
-0.0035044348708560638
-0.003476683143312724
-0.0034489314157693843
-0.0034211796882260446
-0.0033934279606827053
-0.0033656762331393656
-0.003337924505596026
-0.003310172778052686
-0.0032824210505093465
-0.0032546693229660068
-0.003226917595422667
-0.0031991658678793256
-0.0031714141403359863
-0.0031436624127926466
-0.003115910685249307
-0.003088158957705967
-0.0030604072301626275
-0.0030326555026192878
-0.003004903775075948
-0.0029771520475326083
-0.0029494003199892686
-0.002921648592445929
-0.002893896864902589
-0.0028661451373592495
-0.00283839340981591
-0.0028106416822725705
-0.002782889954729229
-0.0027551382271858893
-0.0027273864996425496
-0.00269963477209921
-0.00267188304455587
-0.0026441313170125305
-0.002616379589469191
-0.0025886278619258515
-0.0025608761343825118
-0.002533124406839172
-0.0025053726792958323
-0.0024776209517524926
-0.002449869224209153
-0.002422117496665813
-0.0023943657691224735
-0.0023666140415791338
-0.002338862314035794
-0.002311110586492453
-0.0022833588589491133
-0.0022556071314057736
-0.002227855403862434
-0.002200103676319094
-0.0021723519487757545
-0.0021446002212324147
-0.002116848493689075
-0.0020890967661457358
-0.002061345038602396
-0.0020335933110590563
-0.0020058415835157166
-0.001978089855972377
-0.0019503381284290372
-0.0019225864008856975
-0.0018948346733423562
-0.0018670829457990165
-0.0018393312182556768
-0.001811579490712337
-0.0017838277631689976
-0.0017560760356256579
-0.0017283243080823182
-0.0017005725805389785
-0.0016728208529956387
-0.001645069125452299
-0.0016173173979089595
-0.0015895656703656198
-0.00156181394282228
-0.0015340622152789404
-0.0015063104877356007
-0.001478558760192261
-0.0014508070326489215
-0.00142305530510558
-0.0013953035775622405
-0.0013675518500189008
-0.001339800122475561
-0.0013120483949322214
-0.0012842966673888817
-0.001256544939845542
-0.0012287932123022025
-0.0012010414847588627
-0.001173289757215523
-0.0011455380296721833
-0.0011177863021288436
-0.0010900345745855039
-0.0010622828470421644
-0.0010345311194988247
-0.0010067793919554834
-0.0009790276644121437
-0.000951275936868804
-0.0009235242093254643
-0.0008957724817821246
-0.000868020754238785
-0.0008402690266954453
-0.0008125172991521056
-0.000784765571608766
-0.0007570138440654262
-0.0007292621165220865
-0.0007015103889787469
-0.0006737586614354072
-0.0006460069338920675
-0.0006182552063487279
-0.0005905034788053882
-0.0005627517512620485
-0.0005350000237187072
-0.0005072482961753676
-0.0004794965686320279
-0.0004517448410886882
-0.00042399311354534853
-0.00039624138600200887
-0.00036848965845866916
-0.0003407379309153295
-0.00031298620337198984
-0.0002852344758286501
-0.00025748274828531046
-0.00022973102074197078
-0.00020197929319863112
-0.00017422756565529143
-0.00014647583811195174
-0.0001187241105686105
-9.097238302527081e-05
-6.322065548193114e-05
-3.546892793859146e-05
-7.717200395251778e-06
2.00345271480879e-05
4.7786254691427575e-05
7.553798223476725e-05
0.00010328970977810693
0.00013104143732144661
0.0001587931648647863
0.00018654489240812596
0.00021429661995146565
0.00024204834749480533
0.000269800075038145
0.0002975518025814847
0.00032530353012482434
0.0003530552576681656
0.0003808069852115053
0.00040855871275484495
0.00043631044029818466
0.0004640621678415243
0.000491813895384864
0.0005195656229282036
0.0005473173504715434
0.0005750690780148831
0.0006028208055582227
0.0006305725331015624
0.0006583242606449021
0.0006860759881882417
0.0007138277157315814
0.0007415794432749211
0.0007693311708182624
0.0007970828983616021
0.0008248346259049417
0.0008525863534482814
0.0008803380809916211
0.0009088231050857262
0.0009376905810566695
0.000966624309879812
0.0009956244436100242
0.0010246911346511612
0.001053824535756847
0.001083024800031293
0.0011122920809300899
0.0011416265322610232
0.0011710283081848728
0.0012004975632162376
0.001230034452224327
0.0012596391304338025
0.0012893117534255472
0.0013190524771375441
0.001348861457865648
0.0013787388522644283
0.0014086848173479882
0.0014386995104907884
0.0014687830894284642
0.0014989357122586911
0.0015291575374419674
0.0015594487238024726
0.0015898094305289035
0.0016202398171753039
0.001650740043661907
0.0016813102702759684
0.0017119506576726215
0.0017426613668757081
0.0017734425592786356
0.0018042943966452164
0.0018352170411105248
0.001866210655181744
0.0018972754017390278
0.0019284114440363438
0.001959618945702341
0.001990898070741213
0.0020222489835335453
0.0020536718488371967
0.00208516683178815
0.0021167340979013835
0.002148373813071763
0.0021800861435748754
0.0022118712560679297
0.002243729317590617
0.0022756604955660037
0.0023076649578014
0.0023397428724892515
0.002371894408208005
0.002404119733923021
0.0024364190189874353
0.002468792433143069
0.0025012401465213073
0.0025337623296439998
0.0025663591534243572
0.002599030789167846
0.002631777408573092
0.002664599183732779
0.0026974962871345615
0.002730468891661961
0.002763517170595269
0.0027966412976124753
0.002829841446790186
0.00286311779260451
0.002896470509931989
0.0029298997740505265
0.002963405760640298
0.002996988645784673
0.0030306486059711504
0.003064385818092279
0.0030982004594465856
0.0031320927077395123
0.0031660627410843457
0.003200110738003156
0.003234236877427731
0.003268441338700523
0.003302724301575584
0.0033370859462195195
0.003371526453212424
0.003406046003548836
0.003440644778638695
0.0034753229603082837
0.0035100807308011787
0.003544918272779248
0.003579835769323556
0.0036148334039353552
0.0036499113605370503
0.003685069823473155
0.0037203089775112753
0.0037556290078430594
0.003791030100085198
0.00382651244028037
0.0038620762148982458
0.0038977216108364524
0.003933448815421561
0.003969258016410069
0.0040051494019893875
0.004041123160778834
0.0040771794818306156
0.004113318554630827
0.00414954056910046
0.004185845715596362
0.0042222341849122835
0.004258706168279865
0.004295261857369616
0.004331901444291955
0.00436862512159821
0.004405433082281614
0.004442325519778351
0.0044793026279685375
0.004516364601177271
0.0045535116341756336
0.004590743922181716
0.004628061660861658
0.004665465046330657
0.004702954275154011
0.004740529544348159
0.0047781910513816864
0.0048159389941764014
0.004853773571108349
0.004891694981008854
0.004929703423165588
0.004967799097323587
0.005005982203686319
0.005044252942916749
0.005082611516138353
0.005121058124936217
0.00515959297135807
0.0051982162579153526
0.005236928187584292
0.0052757289638069495
0.005314618790492312
0.005353597872017344
0.005392666413228065
0.005431824619440638
0.005471072696442444
0.005510410850493147
0.005549839288325803
0.005589358217147929
0.005628967844642599
0.005668668378969536
0.005708460028766205
0.005748343003148892
0.005788317511713848
0.00582838376453834
0.005868541972181783
0.005908792345686845
0.005949135096580542
0.005989570436875367
0.006030098579070392
0.006070719736152393
0.006111434121596966
0.0061522419493696395
0.006193143433927019
0.006234138790217893
0.00627522823368438
0.0063164119802630505
0.006357690246386058
0.006399063248982295
0.00644053120547851
0.006482094333800462
0.0065237528523740766
0.006565506980126567
0.00660735693648761
0.006649302941390484
0.0066913452152732224
0.006733483979079793
0.0067757194542612375
0.006818051862776847
0.006860481427095317
0.006903008370195926
0.006945632915569719
0.0069883552872206465
0.007031175709666786
0.0070740944079414805
0.007117111607594552
0.0071602275346934665
0.007203442415824534
0.007246756478094097
0.0072901699491297305
0.007333683057081415
0.007377296030622751
0.007421009098952177
0.007464822491794152
0.007508736439400357
0.007552751172550927
0.007596866922555649
0.007641083921255188
0.007685402401022294
0.007729822594763033
0.007774344735917997
0.007818969058463543
0.007863695796913034
0.007908525186318046
0.007953457462269607
0.00799849286089946
0.008043631618881273
0.008088873973431903
0.008134220162312635
0.008179670423830427
0.008225224996839175
0.008270884120740967
0.008316648035487309
0.008362516981580451
0.00840849120007458
0.00845457093257714
0.008500756421250059
0.008547047908811068
0.008593445638534933
0.008639949854254763
0.008686560800363277
0.008733278721814093
0.008780103864123005
0.008827036473369304
0.008874076796197032
0.008921225079816303
0.008968481572004592
0.009015846521108045
0.009063320176042779
0.00911090278629618
0.009158594601928244
0.009206395873572854
0.009254306852439125
0.009302327790312708
0.009350458939557138
0.00939870055311511
0.009447052884509867
0.009495516187846493
0.00954409071781326
0.009592776729682973
0.009641574479314305
0.009690484223153132
0.009739506218233914
0.009788640722180988
0.009837887993209999
0.009887248290129177
0.00993672187234076
0.009986308999842314
0.010036009933228134
0.010085824933690585
0.010135754263021489
0.010185798183613504
0.010235956958461483
0.010286230851163885
0.010336620125924156
0.010387125047552072
0.010437745881465193
0.010488482893690221
0.010539336350864415
0.010590306520236977
0.010641393669670469
0.010692598067642214
0.01074391998324571
0.010795359686192036
0.010846917446811292
0.010898593536053996
0.01095038822549251
0.011002301787322482
0.011054334494364269
0.011106486620064358
0.011158758438496825
0.011211150224364764
0.011263662253001723
0.011316294800373177
0.011369048143077933
0.011421922558349647
0.01147491832405822
0.011528035718711289
0.011581275021455688
0.011634636512078906
0.011688120471010572
0.011741727179323922
0.011795456918737257
0.011849309971615473
0.011903286620971473
0.01195738715046772
0.012011611844417703
0.01206596098778742
0.012120434866196883
0.012175033765921639
0.012229757973894242
0.012284607777705776
0.012339583465607368
0.012394685326511718
0.012449913649994574
0.012505268726296285
0.012560750846323352
0.012616360301649887
0.01267209738451921
0.012727962387845347
0.012783955605214592
0.012840077330887023
0.012896327859798084
0.012952707487560102
0.013009216510463875
0.013065855225480176
0.013122623930261373
0.013179522923142973
0.013236552503145147
0.01329371296997438
0.013351004624024975
0.013408427766380673
0.01346598269881622
0.013523669723798952
0.013581489144490403
0.013639441264747863
0.013697526389126002
0.01375574482287849
0.013814096871959539
0.013872582843025562
0.01393120304343677
0.013989957781258779
0.014048847365264254
0.014107872104934497
0.014167032310461099
0.014226328292747567
0.01428576036341095
0.01434532883478346
0.014405034019914173
0.014464876232570598
0.014524855787240375
0.014584972999132926
0.014645228184181078
0.014705621659042762
0.014766153741102654
0.014826824748473856
0.014887634999999561
0.014948584815254714
0.015009674514547726
0.015070904418922138
0.015132274850158287
0.015193786130775036
0.015255438584031453
0.015317232533928487
0.015379168305210725
0.015441246223368033
0.015503466614637315
0.015565829806004202
0.015628336125204804
0.01569098590072738
0.015753779461814103
0.01581671713846277
0.015879799261428566
0.015943026162225767
0.016006398173129495
0.016069915627177488
0.016133578858171786
0.016197388200680583
0.01626134399003988
0.01632544656235533
0.01638969625450397
0.016454093404135957
0.01651863834967643
0.016583331430327197
0.016648172986068584
0.01671316335766118
0.01677830288664764
0.0168435919153545
0.016909030786893937
0.016974619845165614
0.017040359434858474
0.017106249901452514
0.017172291591220648
0.017238484851230515
0.01730483002934629
0.01737132747423053
0.01743797753534599
0.01750478056295747
0.017571736908133635
0.017638846922748898
0.017706110959485245
0.017773529371834088
0.01784110251409813
0.017908830741393204
0.01797671440965018
0.018044753875616805
0.0181129494968596
0.0181813016317657
0.018249810639544783
0.01831847688023093
0.018387300714684536
0.018456282504594183
0.01852542261247856
0.018594721401688358
0.01866417923640818
0.018733796481658474
0.018803573503297415
0.01887351066802285
0.01894360834337424
0.019013866897734558
0.019084286700332236
0.019154868121243146
0.019225611531392475
0.019296517302556715
0.01936758580736561
0.01943881741930413
0.01951021251271441
0.019581771462797715
0.019653494645616443
0.019725382438096066
0.019797435218027112
0.019869653364067222
0.01994203725574302
0.020014587273452206
0.02008730379846549
0.020160187212928643
0.020233237899864497
0.020306456243174932
0.020379842627642905
0.02045339743893449
0.02052712106360089
0.02060101388908045
0.02067507630370076
0.02074930869668059
0.020823711458132034
0.0208982849790625
0.020973029651376804
0.021047945867879177
0.02112303402227541
0.021198294509174834
0.021273727724092466
0.02134933406345102
0.02142511392458308
0.021501067705733082
0.021577195806059518
0.02165349862563691
0.021729976565458033
0.021806630027435943
0.021883459414406115
0.021960465130128566
0.02203764757928997
0.022115007167505772
0.022192544301322358
0.022270259388219138
0.022348152836610742
0.022426225055849118
0.022504476456225712
0.022582907448973615
0.022661518446269735
0.02274030986123695
0.022819282107946273
0.02289843560141907
0.02297777075762915
0.023057287993505086
0.023136987726932283
0.023216870376755225
0.023296936362779685
0.023377186105774918
0.023457620027475867
0.023538238550585386
0.02361904209877646
0.023700031096694454
0.02378120596995928
0.023862567145167726
0.02394411504989563
0.02402585011270013
0.024107772763121947
0.024189883431687625
0.024272182549911807
0.024354670550299468
0.024437347866348234
0.024520214932550626
0.02460327218439636
0.02468652005837462
0.0247699589919764
0.024853589423696712
0.024937411793036983
0.02502142654050732
0.025105634107628817
0.02519003493693589
0.025274629471978623
0.025359418157325057
0.02544440143856356
0.025529579762305146
0.025614953576185852
0.025700523328869046
0.025786289470047817
0.025872252450447338
0.025958412721827223
0.026044770736983906
0.026131326949753016
0.026218081815011778
0.026305035788681375
0.02639218932772936
0.026479542890172084
0.026567096935077056
0.02665485192256538
0.02674280831381417
0.026830966571058976
0.0269193271575962
0.027007890537785566
0.027096657177052508
0.027185627541890647
0.027274802099864263
0.0273641813196107
0.02745376567084288
0.02754355562435174
0.027633551652008696
0.027723754226768177
0.027814163822670053
0.027904780914842144
0.02799560597950273
0.02808663949396304
0.028177881936629783
0.028269333787007613
0.028360995525701697
0.028452867634420252
0.028544950595977003
0.028637244894293784
0.02872975101440306
0.02882246944245049
0.028915400665697456
0.029008545172523666
0.02910190345242964
0.029195475996039395
0.02928926329510291
0.029383265842498826
0.029477484132236928
0.029571918659460787
0.029666569920450393
0.029761438412624706
0.02985652463454431
0.02995182908591401
0.030047352267585474
0.030143094681559873
0.03023905683099047
0.030335239220185342
0.03043164235460996
0.030528266740889883
0.030625112886813403
0.03072218130133423
0.030819472494574167
0.030916986977825738
0.031014725263554976
0.03111268786540402
0.031210875298193864
0.03130928807792706
0.03140792672179042
0.03150679174815772
0.03160588367659247
0.03170520302785057
0.03180475032388313
0.031904526087839155
0.03200453084406832
0.032104765118123706
0.0322052294367646
0.0323059243279592
0.03240685032088748
0.03250800794594387
0.032609397734740114
0.03271102022010804
0.03281287593610236
0.032914965418003476
0.0330172892023203
0.03311984782679307
0.033222641830396166
0.03332567175334096
0.03342893813707863
0.03353244152430306
0.03363618245895363
0.03374016148621809
0.033844379152535436
0.033948836005598795
0.03405353259435827
0.03415846946902386
0.0342636471810683
0.03436906628323005
0.03447472732951607
0.03458063087520489
0.03468677747684937
0.034793167692279726
0.034899802080606446
0.03500668120222319
0.03511380561880976
0.03522117589333507
0.03532879259006009
0.03543665627454078
0.035544767513631136
0.035653126875486045
0.035761734929564436
0.035870592246632145
0.03597969939876494
0.036089056959351586
0.03619866550309677
0.03630852560602418
0.03641863784547954
0.03652900280013359
0.03663962104998517
0.03675049317636427
0.03686161976193508
0.03697300139069901
0.037084638647997825
0.037196532120516664
0.03730868239628718
0.03742109006469056
0.037533755716460705
0.03764667994368725
0.03775986333981874
0.03787330649966573
0.03798701001940388
0.03810097449657716
0.03821520053010089
0.03832968872026499
0.038444439668737056
0.038559453978565555
0.03867473225418301
0.03879027510140914
0.038906083127454076
0.03902215694092153
0.039138497151812
0.03925510437152599
0.0393719792128672
0.03948912229004573
0.03960653421868141
0.039724215615806885
0.03984216709987096
0.039960389290741825
0.040078882809710316
0.04019764827949316
0.04031668632423626
0.040435997569518004
0.04055558264235249
0.040675442171192906
0.040795576785934706
0.040915987117919085
0.04103667379993613
0.041157637466228296
0.04127887875249361
0.0414003982958891
0.04152219673503413
0.04164427471001368
0.041766632862381844
0.04188927183516507
0.04201219227286563
0.04213539482146494
0.04225888012842701
0.04238264884270185
0.04250670161472879
0.042631039096440025
0.04275566194126395
0.04288057080412861
0.0430057663414652
0.043131249211211434
0.043257020072815046
0.04338307958723727
0.043509428416956236
0.04363606722597056
0.04376299667980275
0.04389021744550277
0.04401773019165147
0.04414553558836416
0.04427363430729411
0.044402027021636085
0.04453071440612987
0.04465969713706382
0.04478897589227842
0.044918551351169865
0.045048424194693584
0.04517859510536786
0.045309064767277404
0.04543983386607696
0.04557090308899486
0.0457022731248367
0.045833944663988935
0.04596591839842249
0.04609819502169643
0.04623077522896156
0.04636365971696413
0.046496849184049456
0.046630344330165586
0.04676414585686707
0.046898254467318476
0.04703267086629825
0.04716739576020234
0.04730242985704789
0.047437773866477045
0.04757342849976059
0.047709394469801734
0.04784567249113986
0.04798226327995423
0.04811916755406786
0.04825638603295113
0.04839391943772574
0.048531768491168345
0.04866993391771445
0.048808416443462205
0.04894721679617619
0.04908633570529124
0.04922577390191633
0.04936553211883834
0.04950561109052596
0.04964601155313357
0.04978673424450503
0.049927779904177634
0.05006914927338593
0.05021084309506568
0.050352862113857734
0.05049520707611194
0.050637878729891055
0.05078087782497471
0.05092420511286331
0.05106786134678206
0.0512118472816848
0.05135616367425808
0.05150081128292509
0.05164579086784964
0.051791103190940206
0.0519367490158539
0.052082729108000374
0.05222904423454606
0.05237569516441807
0.05252268266830822
0.05267000751867717
0.05281767048975838
0.052965672357562256
