luts/F-Log_to_Linear.spi1d
Version 1
From 0 1
Length 4096
Components 1
{
	0.000000000000
	0.000000000000
	0.000000000000
	0.000000000000
	0.000000000000
	0.000000000000
	0.000000000000
	0.000000000000
	0.000000000000
	0.000000000000
	0.000000000000
	0.000000000000
	0.000000000000
	0.000000000000
	0.000000000000
	0.000000000000
	0.000000000000
	0.000000000000
	0.000000000000
	0.000000000000
	0.000000000000
	0.000000000000
	0.000000000000
	0.000000000000
	0.000000000000
	0.000000000000
	0.000000000000
	0.000000000000
	0.000000000000
	0.000000000000
	0.000000000000
	0.000000000000
	0.000000000000
	0.000000000000
	0.000000000000
	0.000000000000
	0.000000000000
	0.000000000000
	0.000000000000
	0.000000000000
	0.000000000000
	0.000000000000
	0.000000000000
	0.000000000000
	0.000000000000
	0.000000000000
	0.000000000000
	0.000000000000
	0.000000000000
	0.000000000000
	0.000000000000
	0.000000000000
	0.000000000000
	0.000000000000
	0.000000000000
	0.000000000000
	0.000000000000
	0.000000000000
	0.000000000000
	0.000000000000
	0.000000000000
	0.000000000000
	0.000000000000
	0.000000000000
	0.000000000000
	0.000000000000
	0.000000000000
	0.000000000000
	0.000000000000
	0.000000000000
	0.000000000000
	0.000000000000
	0.000000000000
	0.000000000000
	0.000000000000
	0.000000000000
	0.000000000000
	0.000000000000
	0.000000000000
	0.000000000000
	0.000000000000
	0.000000000000
	0.000000000000
	0.000000000000
	0.000000000000
	0.000000000000
	0.000000000000
	0.000000000000
	0.000000000000
	0.000000000000
	0.000000000000
	0.000000000000
	0.000000000000
	0.000000000000
	0.000000000000
	0.000000000000
	0.000000000000
	0.000000000000
	0.000000000000
	0.000000000000
	0.000000000000
	0.000000000000
	0.000000000000
	0.000000000000
	0.000000000000
	0.000000000000
	0.000000000000
	0.000000000000
	0.000000000000
	0.000000000000
	0.000000000000
	0.000000000000
	0.000000000000
	0.000000000000
	0.000000000000
	0.000000000000
	0.000000000000
	0.000000000000
	0.000000000000
	0.000000000000
	0.000000000000
	0.000000000000
	0.000000000000
	0.000000000000
	0.000000000000
	0.000000000000
	0.000000000000
	0.000000000000
	0.000000000000
	0.000000000000
	0.000000000000
	0.000000000000
	0.000000000000
	0.000000000000
	0.000000000000
	0.000000000000
	0.000000000000
	0.000000000000
	0.000000000000
	0.000000000000
	0.000000000000
	0.000000000000
	0.000000000000
	0.000000000000
	0.000000000000
	0.000000000000
	0.000000000000
	0.000000000000
	0.000000000000
	0.000000000000
	0.000000000000
	0.000000000000
	0.000000000000
	0.000000000000
	0.000000000000
	0.000000000000
	0.000000000000
	0.000000000000
	0.000000000000
	0.000000000000
	0.000000000000
	0.000000000000
	0.000000000000
	0.000000000000
	0.000000000000
	0.000000000000
	0.000000000000
	0.000000000000
	0.000000000000
	0.000000000000
	0.000000000000
	0.000000000000
	0.000000000000
	0.000000000000
	0.000000000000
	0.000000000000
	0.000000000000
	0.000000000000
	0.000000000000
	0.000000000000
	0.000000000000
	0.000000000000
	0.000000000000
	0.000000000000
	0.000000000000
	0.000000000000
	0.000000000000
	0.000000000000
	0.000000000000
	0.000000000000
	0.000000000000
	0.000000000000
	0.000000000000
	0.000000000000
	0.000000000000
	0.000000000000
	0.000000000000
	0.000000000000
	0.000000000000
	0.000000000000
	0.000000000000
	0.000000000000
	0.000000000000
	0.000000000000
	0.000000000000
	0.000000000000
	0.000000000000
	0.000000000000
	0.000000000000
	0.000000000000
	0.000000000000
	0.000000000000
	0.000000000000
	0.000000000000
	0.000000000000
	0.000000000000
	0.000000000000
	0.000000000000
	0.000000000000
	0.000000000000
	0.000000000000
	0.000000000000
	0.000000000000
	0.000000000000
	0.000000000000
	0.000000000000
	0.000000000000
	0.000000000000
	0.000000000000
	0.000000000000
	0.000000000000
	0.000000000000
	0.000000000000
	0.000000000000
	0.000000000000
	0.000000000000
	0.000000000000
	0.000000000000
	0.000000000000
	0.000000000000
	0.000000000000
	0.000000000000
	0.000000000000
	0.000000000000
	0.000000000000
	0.000000000000
	0.000000000000
	0.000000000000
	0.000000000000
	0.000000000000
	0.000000000000
	0.000000000000
	0.000000000000
	0.000000000000
	0.000000000000
	0.000000000000
	0.000000000000
	0.000000000000
	0.000000000000
	0.000000000000
	0.000000000000
	0.000000000000
	0.000000000000
	0.000000000000
	0.000000000000
	0.000000000000
	0.000000000000
	0.000000000000
	0.000000000000
	0.000000000000
	0.000000000000
	0.000000000000
	0.000000000000
	0.000000000000
	0.000000000000
	0.000000000000
	0.000000000000
	0.000000000000
	0.000000000000
	0.000000000000
	0.000000000000
	0.000000000000
	0.000000000000
	0.000000000000
	0.000000000000
	0.000000000000
	0.000000000000
	0.000000000000
	0.000000000000
	0.000000000000
	0.000000000000
	0.000000000000
	0.000000000000
	0.000000000000
	0.000000000000
	0.000000000000
	0.000000000000
	0.000000000000
	0.000000000000
	0.000000000000
	0.000000000000
	0.000000000000
	0.000000000000
	0.000000000000
	0.000000000000
	0.000000000000
	0.000000000000
	0.000000000000
	0.000000000000
	0.000000000000
	0.000000000000
	0.000000000000
	0.000000000000
	0.000000000000
	0.000000000000
	0.000000000000
	0.000000000000
	0.000000000000
	0.000000000000
	0.000000000000
	0.000000000000
	0.000000000000
	0.000000000000
	0.000000000000
	0.000000000000
	0.000000000000
	0.000000000000
	0.000000000000
	0.000000000000
	0.000000000000
	0.000000000000
	0.000000000000
	0.000000000000
	0.000000000000
	0.000000000000
	0.000000000000
	0.000000000000
	0.000000000000
	0.000000000000
	0.000000000000
	0.000000000000
	0.000000000000
	0.000000000000
	0.000000000000
	0.000000000000
	0.000000000000
	0.000000000000
	0.000000000000
	0.000000000000
	0.000000000000
	0.000000000000
	0.000000000000
	0.000000000000
	0.000000000000
	0.000000000000
	0.000000000000
	0.000000000000
	0.000000000000
	0.000000000000
	0.000000000000
	0.000000000000
	0.000000000000
	0.000000000000
	0.000000000000
	0.000000000000
	0.000000000000
	0.000000000000
	0.000000000000
	0.000000000000
	0.000000000000
	0.000000000000
	0.000000000000
	0.000000000000
	0.000000000000
	0.000000000000
	0.000000000000
	0.000000000000
	0.000000000000
	0.000000000000
	0.000000000000
	0.000000000000
	0.000018162534
	0.000043321589
	0.000068480644
	0.000093639699
	0.000118798754
	0.000143957809
	0.000169116864
	0.000194275919
	0.000219434974
	0.000244594029
	0.000269753084
	0.000294912138
	0.000320071193
	0.000345230248
	0.000370389303
	0.000395548358
	0.000420707413
	0.000445866468
	0.000471025523
	0.000496184578
	0.000521343633
	0.000546502688
	0.000571661743
	0.000596820798
	0.000621979853
	0.000647138908
	0.000672297963
	0.000697457018
	0.000722616073
	0.000747775127
	0.000772934182
	0.000898714335
	0.000928006679
	0.000957346848
	0.000986734920
	0.001016170974
	0.001045655088
	0.001075187341
	0.001104767811
	0.001134396577
	0.001164073718
	0.001193799312
	0.001223573439
	0.001253396178
	0.001283267609
	0.001313187810
	0.001343156862
	0.001373174845
	0.001403241837
	0.001433357920
	0.001463523173
	0.001493737677
	0.001524001512
	0.001554314759
	0.001584677498
	0.001615089810
	0.001645551775
	0.001676063477
	0.001706624994
	0.001737236409
	0.001767897803
	0.001798609258
	0.001829370855
	0.001860182676
	0.001891044804
	0.001921957320
	0.001952920307
	0.001983933848
	0.002014998023
	0.002046112917
	0.002077278612
	0.002108495192
	0.002139762738
	0.002171081335
	0.002202451065
	0.002233872013
	0.002265344261
	0.002296867895
	0.002328442996
	0.002360069650
	0.002391747941
	0.002423477953
	0.002455259770
	0.002487093477
	0.002518979159
	0.002550916900
	0.002582906786
	0.002614948902
	0.002647043333
	0.002679190164
	0.002711389481
	0.002743641370
	0.002775945916
	0.002808303206
	0.002840713325
	0.002873176361
	0.002905692398
	0.002938261524
	0.002970883826
	0.003003559390
	0.003036288303
	0.003069070652
	0.003101906525
	0.003134796009
	0.003167739192
	0.003200736160
	0.003233787003
	0.003266891808
	0.003300050662
	0.003333263655
	0.003366530875
	0.003399852410
	0.003433228348
	0.003466658780
	0.003500143793
	0.003533683477
	0.003567277921
	0.003600927214
	0.003634631447
	0.003668390708
	0.003702205088
	0.003736074676
	0.003769999564
	0.003803979840
	0.003838015595
	0.003872106921
	0.003906253907
	0.003940456645
	0.003974715225
	0.004009029739
	0.004043400279
	0.004077826935
	0.004112309799
	0.004146848963
	0.004181444520
	0.004216096560
	0.004250805176
	0.004285570461
	0.004320392507
	0.004355271407
	0.004390207253
	0.004425200139
	0.004460250158
	0.004495357403
	0.004530521967
	0.004565743944
	0.004601023428
	0.004636360512
	0.004671755292
	0.004707207860
	0.004742718311
	0.004778286740
	0.004813913241
	0.004849597910
	0.004885340841
	0.004921142129
	0.004957001869
	0.004992920158
	0.005028897090
	0.005064932762
	0.005101027269
	0.005137180707
	0.005173393173
	0.005209664763
	0.005245995573
	0.005282385700
	0.005318835241
	0.005355344293
	0.005391912954
	0.005428541319
	0.005465229488
	0.005501977557
	0.005538785625
	0.005575653789
	0.005612582148
	0.005649570799
	0.005686619841
	0.005723729374
	0.005760899494
	0.005798130303
	0.005835421897
	0.005872774378
	0.005910187844
	0.005947662394
	0.005985198129
	0.006022795149
	0.006060453553
	0.006098173441
	0.006135954915
	0.006173798074
	0.006211703020
	0.006249669853
	0.006287698674
	0.006325789584
	0.006363942686
	0.006402158079
	0.006440435867
	0.006478776151
	0.006517179033
	0.006555644615
	0.006594172999
	0.006632764289
	0.006671418586
	0.006710135994
	0.006748916616
	0.006787760555
	0.006826667914
	0.006865638797
	0.006904673307
	0.006943771549
	0.006982933626
	0.007022159644
	0.007061449705
	0.007100803915
	0.007140222378
	0.007179705200
	0.007219252485
	0.007258864338
	0.007298540866
	0.007338282173
	0.007378088366
	0.007417959551
	0.007457895832
	0.007497897318
	0.007537964113
	0.007578096326
	0.007618294062
	0.007658557429
	0.007698886534
	0.007739281483
	0.007779742386
	0.007820269348
	0.007860862479
	0.007901521886
	0.007942247678
	0.007983039962
	0.008023898848
	0.008064824443
	0.008105816858
	0.008146876201
	0.008188002581
	0.008229196108
	0.008270456892
	0.008311785041
	0.008353180667
	0.008394643880
	0.008436174789
	0.008477773505
	0.008519440140
	0.008561174803
	0.008602977607
	0.008644848661
	0.008686788079
	0.008728795970
	0.008770872448
	0.008813017624
	0.008855231609
	0.008897514518
	0.008939866461
	0.008982287553
	0.009024777905
	0.009067337631
	0.009109966843
	0.009152665657
	0.009195434184
	0.009238272540
	0.009281180837
	0.009324159191
	0.009367207715
	0.009410326524
	0.009453515733
	0.009496775457
	0.009540105811
	0.009583506910
	0.009626978870
	0.009670521806
	0.009714135834
	0.009757821071
	0.009801577633
	0.009845405636
	0.009889305196
	0.009933276431
	0.009977319458
	0.010021434394
	0.010065621355
	0.010109880461
	0.010154211828
	0.010198615575
	0.010243091820
	0.010287640680
	0.010332262276
	0.010376956725
	0.010421724146
	0.010466564659
	0.010511478382
	0.010556465436
	0.010601525941
	0.010646660015
	0.010691867779
	0.010737149354
	0.010782504860
	0.010827934418
	0.010873438148
	0.010919016172
	0.010964668611
	0.011010395586
	0.011056197220
	0.011102073634
	0.011148024950
	0.011194051290
	0.011240152777
	0.011286329534
	0.011332581684
	0.011378909349
	0.011425312653
	0.011471791720
	0.011518346673
	0.011564977636
	0.011611684732
	0.011658468088
	0.011705327826
	0.011752264072
	0.011799276951
	0.011846366587
	0.011893533106
	0.011940776634
	0.011988097296
	0.012035495218
	0.012082970527
	0.012130523348
	0.012178153808
	0.012225862035
	0.012273648154
	0.012321512294
	0.012369454581
	0.012417475144
	0.012465574109
	0.012513751605
	0.012562007760
	0.012610342703
	0.012658756562
	0.012707249467
	0.012755821545
	0.012804472927
	0.012853203741
	0.012902014118
	0.012950904188
	0.012999874080
	0.013048923925
	0.013098053853
	0.013147263996
	0.013196554484
	0.013245925448
	0.013295377020
	0.013344909331
	0.013394522513
	0.013444216699
	0.013493992020
	0.013543848608
	0.013593786598
	0.013643806121
	0.013693907310
	0.013744090300
	0.013794355223
	0.013844702213
	0.013895131405
	0.013945642932
	0.013996236929
	0.014046913530
	0.014097672871
	0.014148515087
	0.014199440312
	0.014250448683
	0.014301540335
	0.014352715403
	0.014403974025
	0.014455316337
	0.014506742475
	0.014558252577
	0.014609846778
	0.014661525218
	0.014713288032
	0.014765135359
	0.014817067337
	0.014869084104
	0.014921185799
	0.014973372560
	0.015025644526
	0.015078001836
	0.015130444629
	0.015182973046
	0.015235587226
	0.015288287308
	0.015341073434
	0.015393945743
	0.015446904376
	0.015499949475
	0.015553081180
	0.015606299634
	0.015659604976
	0.015712997350
	0.015766476898
	0.015820043761
	0.015873698083
	0.015927440006
	0.015981269673
	0.016035187227
	0.016089192812
	0.016143286572
	0.016197468651
	0.016251739192
	0.016306098340
	0.016360546241
	0.016415083038
	0.016469708877
	0.016524423904
	0.016579228263
	0.016634122102
	0.016689105565
	0.016744178799
	0.016799341951
	0.016854595168
	0.016909938597
	0.016965372384
	0.017020896678
	0.017076511626
	0.017132217376
	0.017188014077
	0.017243901877
	0.017299880924
	0.017355951368
	0.017412113358
	0.017468367044
	0.017524712575
	0.017581150100
	0.017637679771
	0.017694301738
	0.017751016151
	0.017807823161
	0.017864722920
	0.017921715579
	0.017978801289
	0.018035980203
	0.018093252473
	0.018150618251
	0.018208077690
	0.018265630942
	0.018323278161
	0.018381019501
	0.018438855115
	0.018496785156
	0.018554809780
	0.018612929140
	0.018671143391
	0.018729452689
	0.018787857187
	0.018846357043
	0.018904952411
	0.018963643447
	0.019022430308
	0.019081313149
	0.019140292129
	0.019199367403
	0.019258539129
	0.019317807464
	0.019377172567
	0.019436634595
	0.019496193706
	0.019555850059
	0.019615603812
	0.019675455125
	0.019735404157
	0.019795451068
	0.019855596016
	0.019915839164
	0.019976180669
	0.020036620695
	0.020097159400
	0.020157796946
	0.020218533495
	0.020279369209
	0.020340304248
	0.020401338776
	0.020462472955
	0.020523706947
	0.020585040915
	0.020646475023
	0.020708009434
	0.020769644313
	0.020831379822
	0.020893216126
	0.020955153390
	0.021017191779
	0.021079331458
	0.021141572592
	0.021203915346
	0.021266359887
	0.021328906381
	0.021391554995
	0.021454305894
	0.021517159247
	0.021580115220
	0.021643173981
	0.021706335697
	0.021769600538
	0.021832968670
	0.021896440264
	0.021960015487
	0.022023694509
	0.022087477499
	0.022151364628
	0.022215356065
	0.022279451980
	0.022343652545
	0.022407957929
	0.022472368304
	0.022536883842
	0.022601504714
	0.022666231092
	0.022731063149
	0.022796001057
	0.022861044988
	0.022926195117
	0.022991451615
	0.023056814658
	0.023122284418
	0.023187861071
	0.023253544790
	0.023319335751
	0.023385234128
	0.023451240097
	0.023517353834
	0.023583575515
	0.023649905315
	0.023716343411
	0.023782889981
	0.023849545201
	0.023916309249
	0.023983182302
	0.024050164538
	0.024117256135
	0.024184457273
	0.024251768130
	0.024319188885
	0.024386719717
	0.024454360807
	0.024522112334
	0.024589974478
	0.024657947421
	0.024726031343
	0.024794226425
	0.024862532849
	0.024930950796
	0.024999480449
	0.025068121990
	0.025136875602
	0.025205741467
	0.025274719769
	0.025343810692
	0.025413014419
	0.025482331135
	0.025551761024
	0.025621304270
	0.025690961060
	0.025760731578
	0.025830616010
	0.025900614541
	0.025970727359
	0.026040954650
	0.026111296601
	0.026181753398
	0.026252325230
	0.026323012284
	0.026393814749
	0.026464732812
	0.026535766663
	0.026606916491
	0.026678182485
	0.026749564834
	0.026821063729
	0.026892679359
	0.026964411916
	0.027036261591
	0.027108228574
	0.027180313057
	0.027252515233
	0.027324835292
	0.027397273428
	0.027469829833
	0.027542504701
	0.027615298225
	0.027688210598
	0.027761242015
	0.027834392670
	0.027907662757
	0.027981052473
	0.028054562011
	0.028128191568
	0.028201941340
	0.028275811522
	0.028349802312
	0.028423913907
	0.028498146502
	0.028572500298
	0.028646975490
	0.028721572277
	0.028796290859
	0.028871131432
	0.028946094198
	0.029021179355
	0.029096387103
	0.029171717643
	0.029247171174
	0.029322747898
	0.029398448016
	0.029474271729
	0.029550219238
	0.029626290747
	0.029702486458
	0.029778806573
	0.029855251295
	0.029931820828
	0.030008515376
	0.030085335143
	0.030162280333
	0.030239351151
	0.030316547802
	0.030393870491
	0.030471319425
	0.030548894810
	0.030626596851
	0.030704425756
	0.030782381732
	0.030860464987
	0.030938675727
	0.031017014162
	0.031095480499
	0.031174074948
	0.031252797718
	0.031331649018
	0.031410629059
	0.031489738049
	0.031568976200
	0.031648343724
	0.031727840830
	0.031807467730
	0.031887224637
	0.031967111763
	0.032047129320
	0.032127277521
	0.032207556580
	0.032287966710
	0.032368508125
	0.032449181040
	0.032529985669
	0.032610922227
	0.032691990930
	0.032773191994
	0.032854525634
	0.032935992067
	0.033017591510
	0.033099324180
	0.033181190294
	0.033263190071
	0.033345323728
	0.033427591485
	0.033509993560
	0.033592530172
	0.033675201541
	0.033758007888
	0.033840949432
	0.033924026394
	0.034007238995
	0.034090587457
	0.034174072002
	0.034257692852
	0.034341450229
	0.034425344356
	0.034509375457
	0.034593543755
	0.034677849474
	0.034762292839
	0.034846874074
	0.034931593404
	0.035016451055
	0.035101447252
	0.035186582223
	0.035271856193
	0.035357269389
	0.035442822039
	0.035528514371
	0.035614346611
	0.035700318990
	0.035786431735
	0.035872685077
	0.035959079243
	0.036045614465
	0.036132290972
	0.036219108996
	0.036306068767
	0.036393170517
	0.036480414478
	0.036567800881
	0.036655329960
	0.036743001946
	0.036830817075
	0.036918775579
	0.037006877692
	0.037095123649
	0.037183513685
	0.037272048034
	0.037360726934
	0.037449550619
	0.037538519325
	0.037627633291
	0.037716892753
	0.037806297948
	0.037895849114
	0.037985546490
	0.038075390315
	0.038165380827
	0.038255518266
	0.038345802872
	0.038436234886
	0.038526814547
	0.038617542097
	0.038708417778
	0.038799441830
	0.038890614498
	0.038981936022
	0.039073406647
	0.039165026615
	0.039256796171
	0.039348715558
	0.039440785022
	0.039533004807
	0.039625375159
	0.039717896324
	0.039810568547
	0.039903392076
	0.039996367157
	0.040089494038
	0.040182772967
	0.040276204192
	0.040369787962
	0.040463524525
	0.040557414132
	0.040651457032
	0.040745653475
	0.040840003712
	0.040934507994
	0.041029166573
	0.041123979701
	0.041218947629
	0.041314070611
	0.041409348900
	0.041504782750
	0.041600372413
	0.041696118146
	0.041792020202
	0.041888078836
	0.041984294305
	0.042080666865
	0.042177196772
	0.042273884282
	0.042370729654
	0.042467733145
	0.042564895013
	0.042662215516
	0.042759694914
	0.042857333467
	0.042955131433
	0.043053089074
	0.043151206649
	0.043249484421
	0.043347922650
	0.043446521598
	0.043545281529
	0.043644202705
	0.043743285388
	0.043842529844
	0.043941936335
	0.044041505127
	0.044141236484
	0.044241130672
	0.044341187957
	0.044441408605
	0.044541792883
	0.044642341057
	0.044743053396
	0.044843930168
	0.044944971641
	0.045046178083
	0.045147549765
	0.045249086955
	0.045350789925
	0.045452658945
	0.045554694286
	0.045656896220
	0.045759265018
	0.045861800953
	0.045964504298
	0.046067375326
	0.046170414311
	0.046273621528
	0.046376997250
	0.046480541753
	0.046584255313
	0.046688138206
	0.046792190707
	0.046896413095
	0.047000805646
	0.047105368638
	0.047210102349
	0.047315007059
	0.047420083046
	0.047525330591
	0.047630749972
	0.047736341471
	0.047842105369
	0.047948041946
	0.048054151486
	0.048160434271
	0.048266890583
	0.048373520705
	0.048480324922
	0.048587303518
	0.048694456777
	0.048801784985
	0.048909288426
	0.049016967389
	0.049124822158
	0.049232853021
	0.049341060265
	0.049449444179
	0.049558005051
	0.049666743169
	0.049775658824
	0.049884752305
	0.049994023902
	0.050103473906
	0.050213102609
	0.050322910302
	0.050432897277
	0.050543063828
	0.050653410247
	0.050763936828
	0.050874643865
	0.050985531653
	0.051096600487
	0.051207850662
	0.051319282475
	0.051430896222
	0.051542692200
	0.051654670708
	0.051766832041
	0.051879176500
	0.051991704384
	0.052104415991
	0.052217311621
	0.052330391576
	0.052443656156
	0.052557105662
	0.052670740397
	0.052784560662
	0.052898566762
	0.053012758998
	0.053127137676
	0.053241703099
	0.053356455572
	0.053471395402
	0.053586522893
	0.053701838352
	0.053817342086
	0.053933034402
	0.054048915608
	0.054164986014
	0.054281245926
	0.054397695656
	0.054514335513
	0.054631165807
	0.054748186849
	0.054865398951
	0.054982802424
	0.055100397581
	0.055218184736
	0.055336164201
	0.055454336290
	0.055572701319
	0.055691259601
	0.055810011453
	0.055928957190
	0.056048097130
	0.056167431588
	0.056286960884
	0.056406685334
	0.056526605258
	0.056646720974
	0.056767032803
	0.056887541064
	0.057008246079
	0.057129148168
	0.057250247653
	0.057371544856
	0.057493040101
	0.057614733711
	0.057736626009
	0.057858717320
	0.057981007969
	0.058103498282
	0.058226188583
	0.058349079201
	0.058472170461
	0.058595462692
	0.058718956221
	0.058842651378
	0.058966548491
	0.059090647890
	0.059214949906
	0.059339454869
	0.059464163111
	0.059589074963
	0.059714190758
	0.059839510829
	0.059965035509
	0.060090765133
	0.060216700035
	0.060342840550
	0.060469187015
	0.060595739764
	0.060722499136
	0.060849465467
	0.060976639095
	0.061104020359
	0.061231609597
	0.061359407150
	0.061487413358
	0.061615628560
	0.061744053099
	0.061872687316
	0.062001531553
	0.062130586154
	0.062259851461
	0.062389327819
	0.062519015573
	0.062648915067
	0.062779026647
	0.062909350660
	0.063039887452
	0.063170637371
	0.063301600765
	0.063432777982
	0.063564169371
	0.063695775283
	0.063827596066
	0.063959632073
	0.064091883654
	0.064224351162
	0.064357034949
	0.064489935368
	0.064623052773
	0.064756387517
	0.064889939957
	0.065023710448
	0.065157699344
	0.065291907004
	0.065426333784
	0.065560980041
	0.065695846135
	0.065830932424
	0.065966239268
	0.066101767027
	0.066237516061
	0.066373486732
	0.066509679401
	0.066646094432
	0.066782732186
	0.066919593029
	0.067056677323
	0.067193985434
	0.067331517728
	0.067469274570
	0.067607256326
	0.067745463365
	0.067883896054
	0.068022554761
	0.068161439855
	0.068300551707
	0.068439890685
	0.068579457162
	0.068719251508
	0.068859274096
	0.068999525297
	0.069140005487
	0.069280715037
	0.069421654323
	0.069562823720
	0.069704223604
	0.069845854351
	0.069987716337
	0.070129809941
	0.070272135540
	0.070414693513
	0.070557484240
	0.070700508101
	0.070843765476
	0.070987256747
	0.071130982295
	0.071274942503
	0.071419137754
	0.071563568432
	0.071708234922
	0.071853137607
	0.071998276875
	0.072143653110
	0.072289266701
	0.072435118034
	0.072581207498
	0.072727535481
	0.072874102374
	0.073020908565
	0.073167954446
	0.073315240408
	0.073462766844
	0.073610534144
	0.073758542704
	0.073906792917
	0.074055285177
	0.074204019879
	0.074352997420
	0.074502218196
	0.074651682604
	0.074801391041
	0.074951343907
	0.075101541600
	0.075251984520
	0.075402673067
	0.075553607643
	0.075704788649
	0.075856216487
	0.076007891561
	0.076159814274
	0.076311985031
	0.076464404235
	0.076617072294
	0.076769989614
	0.076923156600
	0.077076573662
	0.077230241206
	0.077384159643
	0.077538329382
	0.077692750833
	0.077847424407
	0.078002350516
	0.078157529572
	0.078312961988
	0.078468648178
	0.078624588555
	0.078780783536
	0.078937233536
	0.079093938970
	0.079250900257
	0.079408117814
	0.079565592059
	0.079723323411
	0.079881312290
	0.080039559118
	0.080198064314
	0.080356828300
	0.080515851500
	0.080675134336
	0.080834677232
	0.080994480614
	0.081154544905
	0.081314870533
	0.081475457923
	0.081636307504
	0.081797419703
	0.081958794948
	0.082120433671
	0.082282336300
	0.082444503267
	0.082606935003
	0.082769631940
	0.082932594512
	0.083095823152
	0.083259318295
	0.083423080375
	0.083587109829
	0.083751407093
	0.083915972604
	0.084080806801
	0.084245910121
	0.084411283005
	0.084576925892
	0.084742839223
	0.084909023441
	0.085075478986
	0.085242206303
	0.085409205834
	0.085576478025
	0.085744023320
	0.085911842166
	0.086079935008
	0.086248302295
	0.086416944474
	0.086585861994
	0.086755055306
	0.086924524858
	0.087094271102
	0.087264294490
	0.087434595475
	0.087605174509
	0.087776032046
	0.087947168542
	0.088118584452
