luts/N-Log_to_Linear.spi1d
Version 1
From 0 1
Length 4096
Components 1
{
	0.000000000000
	0.000000000000
	0.000000000000
	0.000000000000
	0.000000000000
	0.000000000000
	0.000000000000
	0.000000000000
	0.000000000000
	0.000000000000
	0.000000000000
	0.000000000000
	0.000000000000
	0.000000000000
	0.000000000000
	0.000000000000
	0.000000000000
	0.000000000000
	0.000000000000
	0.000000000000
	0.000000000000
	0.000000000000
	0.000000000000
	0.000000000000
	0.000000000000
	0.000000000000
	0.000000000000
	0.000000000000
	0.000000000000
	0.000000000000
	0.000000000000
	0.000000000000
	0.000000000000
	0.000000000000
	0.000000000000
	0.000000000000
	0.000000000000
	0.000000000000
	0.000000000000
	0.000000000000
	0.000000000000
	0.000000000000
	0.000000000000
	0.000000000000
	0.000000000000
	0.000000000000
	0.000000000000
	0.000000000000
	0.000000000000
	0.000000000000
	0.000000000000
	0.000000000000
	0.000000000000
	0.000000000000
	0.000000000000
	0.000000000000
	0.000000000000
	0.000000000000
	0.000000000000
	0.000000000000
	0.000000000000
	0.000000000000
	0.000000000000
	0.000000000000
	0.000000000000
	0.000000000000
	0.000000000000
	0.000000000000
	0.000000000000
	0.000000000000
	0.000000000000
	0.000000000000
	0.000000000000
	0.000000000000
	0.000000000000
	0.000000000000
	0.000000000000
	0.000000000000
	0.000000000000
	0.000000000000
	0.000000000000
	0.000000000000
	0.000000000000
	0.000000000000
	0.000000000000
	0.000000000000
	0.000000000000
	0.000000000000
	0.000000000000
	0.000000000000
	0.000000000000
	0.000000000000
	0.000000000000
	0.000000000000
	0.000000000000
	0.000000000000
	0.000000000000
	0.000000000000
	0.000000000000
	0.000000000000
	0.000000000000
	0.000000000000
	0.000000000000
	0.000000000000
	0.000000000000
	0.000000000000
	0.000000000000
	0.000000000000
	0.000000000000
	0.000000000000
	0.000000000000
	0.000000000000
	0.000000000000
	0.000000000000
	0.000000000000
	0.000000000000
	0.000000000000
	0.000000000000
	0.000000000000
	0.000000000000
	0.000000000000
	0.000000000000
	0.000000000000
	0.000000000000
	0.000000000000
	0.000000000000
	0.000000000000
	0.000000000000
	0.000000000000
	0.000000000000
	0.000000000000
	0.000000000000
	0.000000000000
	0.000000000000
	0.000000000000
	0.000000000000
	0.000000000000
	0.000000000000
	0.000000000000
	0.000000000000
	0.000000000000
	0.000000000000
	0.000000000000
	0.000000000000
	0.000000000000
	0.000000000000
	0.000000000000
	0.000000000000
	0.000000000000
	0.000000000000
	0.000000000000
	0.000000000000
	0.000000000000
	0.000000000000
	0.000000000000
	0.000000000000
	0.000000000000
	0.000000000000
	0.000000000000
	0.000000000000
	0.000000000000
	0.000000000000
	0.000000000000
	0.000000000000
	0.000000000000
	0.000000000000
	0.000000000000
	0.000000000000
	0.000000000000
	0.000000000000
	0.000000000000
	0.000000000000
	0.000000000000
	0.000000000000
	0.000000000000
	0.000000000000
	0.000000000000
	0.000000000000
	0.000000000000
	0.000000000000
	0.000000000000
	0.000000000000
	0.000000000000
	0.000000000000
	0.000000000000
	0.000000000000
	0.000000000000
	0.000000000000
	0.000000000000
	0.000000000000
	0.000000000000
	0.000000000000
	0.000000000000
	0.000000000000
	0.000000000000
	0.000000000000
	0.000000000000
	0.000000000000
	0.000000000000
	0.000000000000
	0.000000000000
	0.000000000000
	0.000000000000
	0.000000000000
	0.000000000000
	0.000000000000
	0.000000000000
	0.000000000000
	0.000000000000
	0.000000000000
	0.000000000000
	0.000000000000
	0.000000000000
	0.000000000000
	0.000000000000
	0.000000000000
	0.000000000000
	0.000000000000
	0.000000000000
	0.000000000000
	0.000000000000
	0.000000000000
	0.000000000000
	0.000000000000
	0.000000000000
	0.000000000000
	0.000000000000
	0.000000000000
	0.000000000000
	0.000000000000
	0.000000000000
	0.000000000000
	0.000000000000
	0.000000000000
	0.000000000000
	0.000000000000
	0.000000000000
	0.000000000000
	0.000000000000
	0.000000000000
	0.000000000000
	0.000000000000
	0.000000000000
	0.000000000000
	0.000000000000
	0.000000000000
	0.000000000000
	0.000000000000
	0.000000000000
	0.000000000000
	0.000000000000
	0.000000000000
	0.000000000000
	0.000000000000
	0.000000000000
	0.000000000000
	0.000000000000
	0.000000000000
	0.000000000000
	0.000000000000
	0.000000000000
	0.000000000000
	0.000000000000
	0.000000000000
	0.000000000000
	0.000000000000
	0.000000000000
	0.000000000000
	0.000000000000
	0.000000000000
	0.000000000000
	0.000000000000
	0.000000000000
	0.000000000000
	0.000000000000
	0.000000000000
	0.000000000000
	0.000000000000
	0.000000000000
	0.000000000000
	0.000000000000
	0.000000000000
	0.000000000000
	0.000000000000
	0.000000000000
	0.000000000000
	0.000000000000
	0.000000000000
	0.000000000000
	0.000000000000
	0.000000000000
	0.000000000000
	0.000000000000
	0.000000000000
	0.000000000000
	0.000000000000
	0.000000000000
	0.000000000000
	0.000000000000
	0.000000000000
	0.000000000000
	0.000000000000
	0.000000000000
	0.000000000000
	0.000000000000
	0.000000000000
	0.000000000000
	0.000000000000
	0.000000000000
	0.000000000000
	0.000000000000
	0.000000000000
	0.000000000000
	0.000000000000
	0.000000000000
	0.000000000000
	0.000000000000
	0.000000000000
	0.000000000000
	0.000000000000
	0.000000000000
	0.000000000000
	0.000000000000
	0.000000000000
	0.000000000000
	0.000000000000
	0.000000000000
	0.000000000000
	0.000000000000
	0.000000000000
	0.000000000000
	0.000000000000
	0.000000000000
	0.000000000000
	0.000000000000
	0.000000000000
	0.000000000000
	0.000000000000
	0.000000000000
	0.000000000000
	0.000000000000
	0.000000000000
	0.000000000000
	0.000000000000
	0.000000000000
	0.000000000000
	0.000000000000
	0.000000000000
	0.000000000000
	0.000000000000
	0.000000000000
	0.000000000000
	0.000000000000
	0.000000000000
	0.000000000000
	0.000000000000
	0.000000000000
	0.000000000000
	0.000000000000
	0.000000000000
	0.000000000000
	0.000000000000
	0.000000000000
	0.000000000000
	0.000000000000
	0.000000000000
	0.000000000000
	0.000000000000
	0.000000000000
	0.000000000000
	0.000000000000
	0.000000000000
	0.000000000000
	0.000000000000
	0.000000000000
	0.000000000000
	0.000000000000
	0.000000000000
	0.000000000000
	0.000000000000
	0.000000000000
	0.000000000000
	0.000000000000
	0.000000000000
	0.000000000000
	0.000000000000
	0.000000000000
	0.000000000000
	0.000000000000
	0.000000000000
	0.000000000000
	0.000000000000
	0.000000000000
	0.000000000000
	0.000000000000
	0.000000000000
	0.000000000000
	0.000000000000
	0.000000000000
	0.000000000000
	0.000000000000
	0.000000000000
	0.000000000000
	0.000000000000
	0.000000000000
	0.000000000000
	0.000000000000
	0.000000000000
	0.000000000000
	0.000000000000
	0.000000000000
	0.000000000000
	0.000000000000
	0.000000000000
	0.000000000000
	0.000000000000
	0.000000000000
	0.000000000000
	0.000000000000
	0.000000000000
	0.000000000000
	0.000000000000
	0.000000000000
	0.000000000000
	0.000000000000
	0.000000000000
	0.000000000000
	0.000000000000
	0.000000000000
	0.000000000000
	0.000000000000
	0.000000000000
	0.000000000000
	0.000000000000
	0.000000000000
	0.000000000000
	0.000000000000
	0.000000000000
	0.000000000000
	0.000000000000
	0.000000000000
	0.000000000000
	0.000000000000
	0.000000000000
	0.000000000000
	0.000000000000
	0.000000000000
	0.000000000000
	0.000000000000
	0.000000000000
	0.000000000000
	0.000000000000
	0.000000000000
	0.000000000000
	0.000000000000
	0.000000000000
	0.000000000000
	0.000000000000
	0.000000000000
	0.000000000000
	0.000000000000
	0.000000000000
	0.000000000000
	0.000000000000
	0.000000000000
	0.000000000000
	0.000000000000
	0.000000000000
	0.000000000000
	0.000000000000
	0.000000000000
	0.000000000000
	0.000000000000
	0.000000000000
	0.000000000000
	0.000000000000
	0.000000000000
	0.000000000000
	0.000000000000
	0.000000000000
	0.000000000000
	0.000000000000
	0.000000000000
	0.000000000000
	0.000000000000
	0.000000000000
	0.000000000000
	0.000000000000
	0.000000000000
	0.000000000000
	0.000000000000
	0.000000000000
	0.000000000000
	0.000000000000
	0.000000000000
	0.000000000000
	0.000000000000
	0.000000000000
	0.000000000000
	0.000000000000
	0.000000000000
	0.000000000000
	0.000000000000
	0.000000000000
	0.000000000000
	0.000000000000
	0.000000000000
	0.000000000000
	0.000000000000
	0.000000000000
	0.000024228916
	0.000068575927
	0.000113096848
	0.000157792019
	0.000202661780
	0.000247706472
	0.000292926435
	0.000338322009
	0.000383893535
	0.000429641353
	0.000475565803
	0.000521667226
	0.000567945961
	0.000614402350
	0.000661036733
	0.000707849449
	0.000754840840
	0.000802011245
	0.000849361006
	0.000896890461
	0.000944599952
	0.000992489819
	0.001040560403
	0.001088812042
	0.001137245079
	0.001185859853
	0.001234656705
	0.001283635975
	0.001332798003
	0.001382143129
	0.001431671695
	0.001481384039
	0.001531280503
	0.001581361428
	0.001631627152
	0.001682078017
	0.001732714363
	0.001783536530
	0.001834544859
	0.001885739689
	0.001937121362
	0.001988690218
	0.002040446596
	0.002092390838
	0.002144523283
	0.002196844272
	0.002249354145
	0.002302053243
	0.002354941906
	0.002408020474
	0.002461289287
	0.002514748687
	0.002568399012
	0.002622240604
	0.002676273803
	0.002730498950
	0.002784916384
	0.002839526445
	0.002894329475
	0.002949325814
	0.003004515801
	0.003059899778
	0.003115478084
	0.003171251060
	0.003227219046
	0.003283382383
	0.003339741411
	0.003396296469
	0.003453047900
	0.003509996042
	0.003567141236
	0.003624483823
	0.003682024143
	0.003739762536
	0.003797699343
	0.003855834903
	0.003914169558
	0.003972703647
	0.004031437511
	0.004090371490
	0.004149505925
	0.004208841155
	0.004268377522
	0.004328115365
	0.004388055025
	0.004448196843
	0.004508541157
	0.004569088310
	0.004629838641
	0.004690792490
	0.004751950198
	0.004813312106
	0.004874878552
	0.004936649879
	0.004998626426
	0.005060808533
	0.005123196541
	0.005185790790
	0.005248591621
	0.005311599374
	0.005374814389
	0.005438237006
	0.005501867566
	0.005565706409
	0.005629753876
	0.005694010306
	0.005758476041
	0.005823151420
	0.005888036784
	0.005953132473
	0.006018438828
	0.006083956188
	0.006149684895
	0.006215625288
	0.006281777708
	0.006348142495
	0.006414719989
	0.006481510531
	0.006548514462
	0.006615732121
	0.006683163848
	0.006750809985
	0.006818670871
	0.006886746847
	0.006955038253
	0.007023545430
	0.007092268717
	0.007161208456
	0.007230364986
	0.007299738647
	0.007369329781
	0.007439138728
	0.007509165827
	0.007579411419
	0.007649875845
	0.007720559444
	0.007791462557
	0.007862585525
	0.007933928688
	0.008005492386
	0.008077276959
	0.008149282748
	0.008221510093
	0.008293959335
	0.008366630813
	0.008439524869
	0.008512641842
	0.008585982072
	0.008659545901
	0.008733333668
	0.008807345714
	0.008881582379
	0.008956044003
	0.009030730927
	0.009105643492
	0.009180782036
	0.009256146902
	0.009331738428
	0.009407556956
	0.009483602826
	0.009559876377
	0.009636377951
	0.009713107888
	0.009790066528
	0.009867254211
	0.009944671278
	0.010022318069
	0.010100194925
	0.010178302185
	0.010256640191
	0.010335209281
	0.010414009798
	0.010493042080
	0.010572306469
	0.010651803305
	0.010731532927
	0.010811495677
	0.010891691895
	0.010972121921
	0.011052786095
	0.011133684758
	0.011214818250
	0.011296186911
	0.011377791082
	0.011459631103
	0.011541707315
	0.011624020057
	0.011706569670
	0.011789356494
	0.011872380871
	0.011955643139
	0.012039143640
	0.012122882713
	0.012206860699
	0.012291077939
	0.012375534772
	0.012460231540
	0.012545168582
	0.012630346238
	0.012715764850
	0.012801424757
	0.012887326299
	0.012973469818
	0.013059855653
	0.013146484144
	0.013233355633
	0.013320470459
	0.013407828962
	0.013495431484
	0.013583278364
	0.013671369943
	0.013759706560
	0.013848288557
	0.013937116274
	0.014026190051
	0.014115510228
	0.014205077145
	0.014294891144
	0.014384952564
	0.014475261745
	0.014565819029
	0.014656624755
	0.014747679264
	0.014838982895
	0.014930535990
	0.015022338889
	0.015114391931
	0.015206695458
	0.015299249810
	0.015392055326
	0.015485112348
	0.015578421215
	0.015671982269
	0.015765795848
	0.015859862295
	0.015954181948
	0.016048755149
	0.016143582237
	0.016238663553
	0.016333999438
	0.016429590231
	0.016525436273
	0.016621537905
	0.016717895466
	0.016814509297
	0.016911379738
	0.017008507130
	0.017105891813
	0.017203534127
	0.017301434413
	0.017399593010
	0.017498010260
	0.017596686503
	0.017695622079
	0.017794817327
	0.017894272590
	0.017993988206
	0.018093964517
	0.018194201862
	0.018294700582
	0.018395461018
	0.018496483509
	0.018597768396
	0.018699316019
	0.018801126719
	0.018903200836
	0.019005538710
	0.019108140682
	0.019211007091
	0.019314138279
	0.019417534586
	0.019521196351
	0.019625123916
	0.019729317620
	0.019833777804
	0.019938504808
	0.020043498973
	0.020148760639
	0.020254290146
	0.020360087835
	0.020466154045
	0.020572489118
	0.020679093394
	0.020785967212
	0.020893110913
	0.021000524839
	0.021108209328
	0.021216164721
	0.021324391359
	0.021432889581
	0.021541659729
	0.021650702143
	0.021760017162
	0.021869605128
	0.021979466380
	0.022089601259
	0.022200010105
	0.022310693259
	0.022421651061
	0.022532883851
	0.022644391969
	0.022756175756
	0.022868235553
	0.022980571699
	0.023093184535
	0.023206074401
	0.023319241638
	0.023432686585
	0.023546409584
	0.023660410975
	0.023774691097
	0.023889250291
	0.024004088898
	0.024119207258
	0.024234605711
	0.024350284597
	0.024466244258
	0.024582485032
	0.024699007261
	0.024815811285
	0.024932897444
	0.025050266079
	0.025167917530
	0.025285852136
	0.025404070239
	0.025522572180
	0.025641358297
	0.025760428931
	0.025879784424
	0.025999425115
	0.026119351344
	0.026239563452
	0.026360061779
	0.026480846666
	0.026601918453
	0.026723277479
	0.026844924087
	0.026966858615
	0.027089081404
	0.027211592795
	0.027334393127
	0.027457482742
	0.027580861979
	0.027704531179
	0.027828490682
	0.027952740829
	0.028077281960
	0.028202114414
	0.028327238533
	0.028452654657
	0.028578363126
	0.028704364281
	0.028830658461
	0.028957246008
	0.029084127261
	0.029211302561
	0.029338772247
	0.029466536662
	0.029594596144
	0.029722951034
	0.029851601673
	0.029980548401
	0.030109791557
	0.030239331484
	0.030369168520
	0.030499303006
	0.030629735282
	0.030760465690
	0.030891494568
	0.031022822258
	0.031154449100
	0.031286375433
	0.031418601600
	0.031551127939
	0.031683954791
	0.031817082496
	0.031950511396
	0.032084241829
	0.032218274137
	0.032352608660
	0.032487245738
	0.032622185711
	0.032757428920
	0.032892975705
	0.033028826406
	0.033164981365
	0.033301440920
	0.033438205413
	0.033575275183
	0.033712650572
	0.033850331919
	0.033988319565
	0.034126613850
	0.034265215114
	0.034404123698
	0.034543339942
	0.034682864187
	0.034822696772
	0.034962838039
	0.035103288327
	0.035244047976
	0.035385117328
	0.035526496722
	0.035668186499
	0.035810186998
	0.035952498562
	0.036095121529
	0.036238056240
	0.036381303035
	0.036524862255
	0.036668734241
	0.036812919331
	0.036957417868
	0.037102230190
	0.037247356639
	0.037392797554
	0.037538553277
	0.037684624147
	0.037831010505
	0.037977712690
	0.038124731045
	0.038272065907
	0.038419717619
	0.038567686520
	0.038715972951
	0.038864577252
	0.039013499764
	0.039162740826
	0.039312300779
	0.039462179964
	0.039612378720
	0.039762897388
	0.039913736309
	0.040064895822
	0.040216376268
	0.040368177988
	0.040520301321
	0.040672746609
	0.040825514190
	0.040978604407
	0.041132017598
	0.041285754105
	0.041439814268
	0.041594198426
	0.041748906921
	0.041903940093
	0.042059298281
	0.042214981827
	0.042370991071
	0.042527326352
	0.042683988012
	0.042840976391
	0.042998291828
	0.043155934665
	0.043313905242
	0.043472203898
	0.043630830975
	0.043789786813
	0.043949071752
	0.044108686131
	0.044268630293
	0.044428904577
	0.044589509322
	0.044750444871
	0.044911711563
	0.045073309737
	0.045235239736
	0.045397501898
	0.045560096565
	0.045723024077
	0.045886284773
	0.046049878995
	0.046213807082
	0.046378069376
	0.046542666215
	0.046707597942
	0.046872864895
	0.047038467415
	0.047204405844
	0.047370680520
	0.047537291784
	0.047704239977
	0.047871525440
	0.048039148511
	0.048207109532
	0.048375408843
	0.048544046784
	0.048713023696
	0.048882339919
	0.049051995793
	0.049221991659
	0.049392327856
	0.049563004726
	0.049734022609
	0.049905381844
	0.050077082773
	0.050249125735
	0.050421511072
	0.050594239122
	0.050767310228
	0.050940724728
	0.051114482963
	0.051288585274
	0.051463032001
	0.051637823484
	0.051812960064
	0.051988442081
	0.052164269875
	0.052340443787
	0.052516964156
	0.052693831324
	0.052871045630
	0.053048607416
	0.053226517020
	0.053404774784
	0.053583381048
	0.053762336153
	0.053941640438
	0.054121294243
	0.054301297910
	0.054481651779
	0.054662356190
	0.054843411482
	0.055024817998
	0.055206576076
	0.055388686057
	0.055571148283
	0.055753963091
	0.055937130825
	0.056120651822
	0.056304526425
	0.056488754973
	0.056673337806
	0.056858275266
	0.057043567691
	0.057229215423
	0.057415218802
	0.057601578169
	0.057788293862
	0.057975366224
	0.058162795594
	0.058350582312
	0.058538726719
	0.058727229156
	0.058916089962
	0.059105309478
	0.059294888044
	0.059484826001
	0.059675123688
	0.059865781447
	0.060056799617
	0.060248178539
	0.060439918554
	0.060632020001
	0.060824483220
	0.061017308553
	0.061210496340
	0.061404046920
	0.061597960635
	0.061792237824
	0.061986878827
	0.062181883986
	0.062377253641
	0.062572988131
	0.062769087798
	0.062965552981
	0.063162384021
	0.063359581258
	0.063557145033
	0.063755075686
	0.063953373556
	0.064152038985
	0.064351072313
	0.064550473881
	0.064750244027
	0.064950383094
	0.065150891421
	0.065351769348
	0.065553017216
	0.065754635365
	0.065956624136
	0.066158983868
	0.066361714903
	0.066564817580
	0.066768292240
	0.066972139223
	0.067176358870
	0.067380951520
	0.067585917515
	0.067791257194
	0.067996970898
	0.068203058967
	0.068409521741
	0.068616359561
	0.068823572768
	0.069031161701
	0.069239126700
	0.069447468107
	0.069656186262
	0.069865281504
	0.070074754174
	0.070284604613
	0.070494833160
	0.070705440157
	0.070916425943
	0.071127790859
	0.071339535245
	0.071551659441
	0.071764163789
	0.071977048627
	0.072190314297
	0.072403961139
	0.072617989492
	0.072832399698
	0.073047192097
	0.073262367030
	0.073477924835
	0.073693865854
	0.073910190428
	0.074126898896
	0.074343991598
	0.074561468876
	0.074779331069
	0.074997578518
	0.075216211563
	0.075435230544
	0.075654635803
	0.075874427678
	0.076094606511
	0.076315172641
	0.076536126410
	0.076757468157
	0.076979198223
	0.077201316947
	0.077423824672
	0.077646721736
	0.077870008480
	0.078093685244
	0.078317752370
	0.078542210196
	0.078767059064
	0.078992299313
	0.079217931285
	0.079443955319
	0.079670371756
	0.079897180935
	0.080124383198
	0.080351978885
	0.080579968336
	0.080808351892
	0.081037129892
	0.081266302677
	0.081495870588
	0.081725833964
	0.081956193146
	0.082186948475
	0.082418100291
	0.082649648933
	0.082881594743
	0.083113938061
	0.083346679226
	0.083579818580
	0.083813356463
	0.084047293215
	0.084281629176
	0.084516364687
	0.084751500088
	0.084987035719
	0.085222971921
	0.085459309034
	0.085696047399
	0.085933187355
	0.086170729243
	0.086408673404
	0.086647020177
	0.086885769903
	0.087124922923
	0.087364479576
	0.087604440203
	0.087844805145
	0.088085574741
	0.088326749333
	0.088568329260
	0.088810314862
	0.089052706480
	0.089295504455
	0.089538709127
	0.089782320835
	0.090026339921
	0.090270766725
	0.090515601586
	0.090760844846
	0.091006496844
	0.091252557922
	0.091499028419
	0.091745908675
	0.091993199032
	0.092240899829
	0.092489011406
	0.092737534105
	0.092986468265
	0.093235814226
	0.093485572330
	0.093735742916
	0.093986326324
	0.094237322895
	0.094488732970
	0.094740556889
	0.094992794991
	0.095245447618
	0.095498515109
	0.095751997806
	0.096005896047
	0.096260210175
	0.096514940528
	0.096770087448
	0.097025651274
	0.097281632347
	0.097538031007
	0.097794847596
	0.098052082452
	0.098309735916
	0.098567808329
	0.098826300031
	0.099085211362
	0.099344542663
	0.099604294274
	0.099864466535
	0.100125059787
	0.100386074370
	0.100647510624
	0.100909368890
	0.101171649507
	0.101434352817
	0.101697479160
	0.101961028875
	0.102225002304
	0.102489399786
	0.102754221662
	0.103019468273
	0.103285139958
	0.103551237058
	0.103817759914
	0.104084708865
	0.104352084251
	0.104619886415
	0.104888115694
	0.105156772431
	0.105425856965
	0.105695369637
	0.105965310786
	0.106235680754
	0.106506479880
	0.106777708505
	0.107049366970
	0.107321455614
	0.107593974778
	0.107866924802
	0.108140306027
	0.108414118793
	0.108688363440
	0.108963040308
	0.109238149739
	0.109513692071
	0.109789667647
	0.110066076805
	0.110342919886
	0.110620197231
	0.110897909180
	0.111176056073
	0.111454638251
	0.111733656053
	0.112013109821
	0.112292999895
	0.112573326614
	0.112854090319
	0.113135291351
	0.113416930050
	0.113699006756
	0.113981521810
	0.114264475552
	0.114547868321
	0.114831700460
	0.115115972307
	0.115400684203
	0.115685836489
	0.115971429505
	0.116257463591
	0.116543939088
	0.116830856335
	0.117118215674
	0.117406017444
	0.117694261986
	0.117982949640
	0.118272080747
	0.118561655647
	0.118851674680
	0.119142138186
	0.119433046506
	0.119724399981
	0.120016198950
	0.120308443754
	0.120601134733
	0.120894272227
	0.121187856577
	0.121481888124
	0.121776367207
	0.122071294167
	0.122366669344
	0.122662493079
	0.122958765711
	0.123255487582
	0.123552659031
	0.123850280399
	0.124148352026
	0.124446874252
	0.124745847419
	0.125045271865
	0.125345147933
	0.125645475961
	0.125946256290
	0.126247489260
	0.126549175213
	0.126851314487
	0.127153907424
	0.127456954364
	0.127760455647
	0.128064411614
	0.128368822604
	0.128673688959
	0.128979011018
	0.129284789121
	0.129591023610
	0.129897714825
	0.130204863105
	0.130512468791
	0.130820532224
	0.131129053744
	0.131438033691
	0.131747472405
	0.132057370227
	0.132367727497
	0.132678544556
	0.132989821743
	0.133301559400
	0.133613757866
	0.133926417482
	0.134239538588
	0.134553121524
	0.134867166631
	0.135181674250
	0.135496644719
	0.135812078381
	0.136127975575
	0.136444336641
	0.136761161920
	0.137078451752
	0.137396206477
	0.137714426436
	0.138033111970
	0.138352263417
	0.138671881120
	0.138991965417
	0.139312516651
	0.139633535159
	0.139955021284
	0.140276975366
	0.140599397744
	0.140922288759
	0.141245648752
	0.141569478062
	0.141893777031
	0.142218545998
	0.142543785303
	0.142869495288
	0.143195676292
	0.143522328656
	0.143849452720
	0.144177048825
	0.144505117310
	0.144833658516
	0.145162672784
	0.145492160453
	0.145822121865
	0.146152557359
	0.146483467275
	0.146814851955
	0.147146711738
	0.147479046965
	0.147811857976
	0.148145145111
	0.148478908711
	0.148813149116
	0.149147866667
	0.149483061703
	0.149818734565
	0.150154885594
	0.150491515129
	0.150828623512
	0.151166211082
	0.151504278179
	0.151842825145
	0.152181852319
	0.152521360041
	0.152861348653
	0.153201818494
	0.153542769905
	0.153884203226
	0.154226118797
	0.154568516959
	0.154911398052
	0.155254762416
	0.155598610393
	0.155942942321
	0.156287758541
	0.156633059394
	0.156978845220
	0.157325116360
	0.157671873153
	0.158019115940
	0.158366845062
	0.158715060858
	0.159063763670
	0.159412953836
	0.159762631699
	0.160112797597
	0.160463451872
	0.160814594863
	0.161166226911
	0.161518348357
	0.161870959541
	0.162224060802
	0.162577652482
	0.162931734920
	0.163286308458
	0.163641373435
	0.163996930191
	0.164352979067
	0.164709520404
	0.165066554542
	0.165424081820
	0.165782102580
	0.166140617161
	0.166499625905
	0.166859129151
	0.167219127239
	0.167579620510
	0.167940609305
	0.168302093963
	0.168664074826
	0.169026552232
	0.169389526524
	0.169752998040
	0.170116967122
	0.170481434109
	0.170846399342
	0.171211863162
	0.171577825908
	0.171944287921
	0.172311249541
	0.172678711109
	0.173046672965
	0.173415135450
	0.173784098903
	0.174153563665
	0.174523530076
	0.174893998477
	0.175264969207
	0.175636442608
	0.176008419020
	0.176380898783
	0.176753882237
	0.177127369722
	0.177501361580
	0.177875858150
	0.178250859772
	0.178626366787
	0.179002379536
	0.179378898358
	0.179755923595
	0.180133455585
	0.180511494670
	0.180890041190
	0.181269095485
	0.181648657896
	0.182028728763
	0.182409308426
