luts/N_Log_Curve_EOTF.spi1d
Version 1
From 0.0000000 1.0000000
Length 4096
Components 1
{
 -0.0075000
 -0.0075000
 -0.0075000
 -0.0075000
 -0.0075000
 -0.0075000
 -0.0075000
 -0.0075000
 -0.0075000
 -0.0075000
 -0.0074999
 -0.0074999
 -0.0074999
 -0.0074999
 -0.0074998
 -0.0074998
 -0.0074998
 -0.0074997
 -0.0074997
 -0.0074996
 -0.0074995
 -0.0074995
 -0.0074994
 -0.0074993
 -0.0074992
 -0.0074991
 -0.0074990
 -0.0074989
 -0.0074988
 -0.0074986
 -0.0074985
 -0.0074983
 -0.0074981
 -0.0074980
 -0.0074978
 -0.0074976
 -0.0074974
 -0.0074971
 -0.0074969
 -0.0074966
 -0.0074964
 -0.0074961
 -0.0074958
 -0.0074955
 -0.0074952
 -0.0074948
 -0.0074945
 -0.0074941
 -0.0074937
 -0.0074933
 -0.0074929
 -0.0074925
 -0.0074920
 -0.0074915
 -0.0074911
 -0.0074906
 -0.0074900
 -0.0074895
 -0.0074889
 -0.0074883
 -0.0074877
 -0.0074871
 -0.0074865
 -0.0074858
 -0.0074851
 -0.0074844
 -0.0074837
 -0.0074829
 -0.0074821
 -0.0074814
 -0.0074805
 -0.0074797
 -0.0074788
 -0.0074779
 -0.0074770
 -0.0074760
 -0.0074751
 -0.0074741
 -0.0074731
 -0.0074720
 -0.0074709
 -0.0074698
 -0.0074687
 -0.0074675
 -0.0074664
 -0.0074651
 -0.0074639
 -0.0074626
 -0.0074613
 -0.0074600
 -0.0074586
 -0.0074572
 -0.0074558
 -0.0074543
 -0.0074528
 -0.0074513
 -0.0074498
 -0.0074482
 -0.0074466
 -0.0074449
 -0.0074432
 -0.0074415
 -0.0074398
 -0.0074380
 -0.0074361
 -0.0074343
 -0.0074324
 -0.0074305
 -0.0074285
 -0.0074265
 -0.0074244
 -0.0074224
 -0.0074202
 -0.0074181
 -0.0074159
 -0.0074137
 -0.0074114
 -0.0074091
 -0.0074067
 -0.0074043
 -0.0074019
 -0.0073994
 -0.0073969
 -0.0073944
 -0.0073918
 -0.0073891
 -0.0073864
 -0.0073837
 -0.0073809
 -0.0073781
 -0.0073753
 -0.0073724
 -0.0073694
 -0.0073664
 -0.0073634
 -0.0073603
 -0.0073572
 -0.0073540
 -0.0073508
 -0.0073475
 -0.0073442
 -0.0073409
 -0.0073374
 -0.0073340
 -0.0073305
 -0.0073269
 -0.0073233
 -0.0073197
 -0.0073160
 -0.0073122
 -0.0073084
 -0.0073045
 -0.0073006
 -0.0072967
 -0.0072927
 -0.0072886
 -0.0072845
 -0.0072803
 -0.0072761
 -0.0072718
 -0.0072675
 -0.0072631
 -0.0072586
 -0.0072541
 -0.0072496
 -0.0072450
 -0.0072403
 -0.0072356
 -0.0072308
 -0.0072260
 -0.0072211
 -0.0072161
 -0.0072111
 -0.0072061
 -0.0072009
 -0.0071957
 -0.0071905
 -0.0071852
 -0.0071798
 -0.0071744
 -0.0071689
 -0.0071634
 -0.0071578
 -0.0071521
 -0.0071463
 -0.0071405
 -0.0071347
 -0.0071288
 -0.0071228
 -0.0071167
 -0.0071106
 -0.0071044
 -0.0070982
 -0.0070919
 -0.0070855
 -0.0070791
 -0.0070725
 -0.0070660
 -0.0070593
 -0.0070526
 -0.0070458
 -0.0070390
 -0.0070321
 -0.0070251
 -0.0070180
 -0.0070109
 -0.0070037
 -0.0069965
 -0.0069891
 -0.0069817
 -0.0069742
 -0.0069667
 -0.0069591
 -0.0069514
 -0.0069436
 -0.0069358
 -0.0069279
 -0.0069199
 -0.0069118
 -0.0069037
 -0.0068955
 -0.0068872
 -0.0068789
 -0.0068704
 -0.0068619
 -0.0068533
 -0.0068447
 -0.0068359
 -0.0068271
 -0.0068182
 -0.0068093
 -0.0068002
 -0.0067911
 -0.0067819
 -0.0067726
 -0.0067632
 -0.0067538
 -0.0067443
 -0.0067347
 -0.0067250
 -0.0067152
 -0.0067053
 -0.0066954
 -0.0066854
 -0.0066753
 -0.0066651
 -0.0066549
 -0.0066445
 -0.0066341
 -0.0066236
 -0.0066130
 -0.0066023
 -0.0065915
 -0.0065806
 -0.0065697
 -0.0065587
 -0.0065475
 -0.0065363
 -0.0065250
 -0.0065137
 -0.0065022
 -0.0064906
 -0.0064790
 -0.0064673
 -0.0064554
 -0.0064435
 -0.0064315
 -0.0064194
 -0.0064072
 -0.0063949
 -0.0063826
 -0.0063701
 -0.0063576
 -0.0063449
 -0.0063322
 -0.0063193
 -0.0063064
 -0.0062934
 -0.0062803
 -0.0062671
 -0.0062538
 -0.0062404
 -0.0062269
 -0.0062133
 -0.0061996
 -0.0061858
 -0.0061719
 -0.0061579
 -0.0061439
 -0.0061297
 -0.0061154
 -0.0061010
 -0.0060866
 -0.0060720
 -0.0060573
 -0.0060426
 -0.0060277
 -0.0060127
 -0.0059976
 -0.0059825
 -0.0059672
 -0.0059518
 -0.0059363
 -0.0059207
 -0.0059051
 -0.0058893
 -0.0058734
 -0.0058574
 -0.0058413
 -0.0058251
 -0.0058087
 -0.0057923
 -0.0057758
 -0.0057592
 -0.0057424
 -0.0057256
 -0.0057086
 -0.0056916
 -0.0056744
 -0.0056571
 -0.0056397
 -0.0056222
 -0.0056046
 -0.0055869
 -0.0055691
 -0.0055512
 -0.0055331
 -0.0055150
 -0.0054967
 -0.0054783
 -0.0054598
 -0.0054412
 -0.0054225
 -0.0054037
 -0.0053847
 -0.0053657
 -0.0053465
 -0.0053272
 -0.0053078
 -0.0052883
 -0.0052687
 -0.0052489
 -0.0052291
 -0.0052091
 -0.0051890
 -0.0051688
 -0.0051485
 -0.0051280
 -0.0051074
 -0.0050868
 -0.0050660
 -0.0050450
 -0.0050240
 -0.0050028
 -0.0049815
 -0.0049601
 -0.0049386
 -0.0049170
 -0.0048952
 -0.0048733
 -0.0048513
 -0.0048292
 -0.0048069
 -0.0047845
 -0.0047620
 -0.0047394
 -0.0047166
 -0.0046938
 -0.0046708
 -0.0046476
 -0.0046244
 -0.0046010
 -0.0045775
 -0.0045539
 -0.0045301
 -0.0045062
 -0.0044822
 -0.0044581
 -0.0044338
 -0.0044094
 -0.0043849
 -0.0043602
 -0.0043354
 -0.0043105
 -0.0042855
 -0.0042603
 -0.0042350
 -0.0042095
 -0.0041840
 -0.0041583
 -0.0041324
 -0.0041064
 -0.0040803
 -0.0040541
 -0.0040277
 -0.0040012
 -0.0039746
 -0.0039478
 -0.0039209
 -0.0038938
 -0.0038667
 -0.0038393
 -0.0038119
 -0.0037843
 -0.0037566
 -0.0037287
 -0.0037007
 -0.0036726
 -0.0036443
 -0.0036159
 -0.0035873
 -0.0035586
 -0.0035298
 -0.0035008
 -0.0034717
 -0.0034424
 -0.0034130
 -0.0033835
 -0.0033538
 -0.0033239
 -0.0032940
 -0.0032638
 -0.0032336
 -0.0032032
 -0.0031726
 -0.0031420
 -0.0031111
 -0.0030801
 -0.0030490
 -0.0030177
 -0.0029863
 -0.0029548
 -0.0029230
 -0.0028912
 -0.0028592
 -0.0028270
 -0.0027947
 -0.0027623
 -0.0027297
 -0.0026969
 -0.0026640
 -0.0026310
 -0.0025978
 -0.0025644
 -0.0025309
 -0.0024973
 -0.0024635
 -0.0024295
 -0.0023954
 -0.0023612
 -0.0023268
 -0.0022922
 -0.0022575
 -0.0022226
 -0.0021876
 -0.0021524
 -0.0021171
 -0.0020816
 -0.0020459
 -0.0020101
 -0.0019742
 -0.0019380
 -0.0019018
 -0.0018653
 -0.0018287
 -0.0017920
 -0.0017551
 -0.0017180
 -0.0016808
 -0.0016434
 -0.0016059
 -0.0015682
 -0.0015303
 -0.0014923
 -0.0014541
 -0.0014158
 -0.0013773
 -0.0013386
 -0.0012998
 -0.0012608
 -0.0012216
 -0.0011823
 -0.0011428
 -0.0011031
 -0.0010633
 -0.0010234
 -0.0009832
 -0.0009429
 -0.0009024
 -0.0008618
 -0.0008210
 -0.0007800
 -0.0007389
 -0.0006975
 -0.0006561
 -0.0006144
 -0.0005726
 -0.0005306
 -0.0004885
 -0.0004461
 -0.0004036
 -0.0003610
 -0.0003182
 -0.0002751
 -0.0002320
 -0.0001886
 -0.0001451
 -0.0001014
 -0.0000575
 -0.0000135
 0.0000307
 0.0000751
 0.0001196
 0.0001644
 0.0002093
 0.0002544
 0.0002996
 0.0003451
 0.0003907
 0.0004365
 0.0004824
 0.0005286
 0.0005749
 0.0006214
 0.0006681
 0.0007149
 0.0007619
 0.0008092
 0.0008565
 0.0009041
 0.0009519
 0.0009998
 0.0010479
 0.0010962
 0.0011447
 0.0011933
 0.0012422
 0.0012912
 0.0013404
 0.0013898
 0.0014394
 0.0014891
 0.0015391
 0.0015892
 0.0016395
 0.0016900
 0.0017407
 0.0017915
 0.0018426
 0.0018938
 0.0019452
 0.0019969
 0.0020487
 0.0021006
 0.0021528
 0.0022052
 0.0022577
 0.0023105
 0.0023634
 0.0024165
 0.0024699
 0.0025234
 0.0025771
 0.0026310
 0.0026850
 0.0027393
 0.0027938
 0.0028484
 0.0029033
 0.0029583
 0.0030136
 0.0030690
 0.0031246
 0.0031804
 0.0032365
 0.0032927
 0.0033491
 0.0034057
 0.0034625
 0.0035195
 0.0035767
 0.0036341
 0.0036916
 0.0037494
 0.0038074
 0.0038656
 0.0039240
 0.0039826
 0.0040414
 0.0041003
 0.0041595
 0.0042189
 0.0042785
 0.0043383
 0.0043983
 0.0044585
 0.0045189
 0.0045795
 0.0046403
 0.0047013
 0.0047625
 0.0048239
 0.0048855
 0.0049474
 0.0050094
 0.0050716
 0.0051341
 0.0051967
 0.0052596
 0.0053226
 0.0053859
 0.0054494
 0.0055131
 0.0055770
 0.0056411
 0.0057054
 0.0057699
 0.0058346
 0.0058996
 0.0059647
 0.0060301
 0.0060956
 0.0061614
 0.0062274
 0.0062936
 0.0063601
 0.0064267
 0.0064935
 0.0065606
 0.0066279
 0.0066954
 0.0067631
 0.0068310
 0.0068991
 0.0069675
 0.0070360
 0.0071048
 0.0071738
 0.0072430
 0.0073125
 0.0073821
 0.0074520
 0.0075221
 0.0075924
 0.0076629
 0.0077337
 0.0078046
 0.0078758
 0.0079472
 0.0080188
 0.0080907
 0.0081628
 0.0082350
 0.0083076
 0.0083803
 0.0084532
 0.0085264
 0.0085998
 0.0086735
 0.0087473
 0.0088214
 0.0088957
 0.0089702
 0.0090450
 0.0091199
 0.0091951
 0.0092706
 0.0093462
 0.0094221
 0.0094982
 0.0095746
 0.0096511
 0.0097279
 0.0098049
 0.0098822
 0.0099597
 0.0100374
 0.0101153
 0.0101935
 0.0102719
 0.0103506
 0.0104294
 0.0105085
 0.0105879
 0.0106674
 0.0107472
 0.0108273
 0.0109075
 0.0109880
 0.0110688
 0.0111497
 0.0112309
 0.0113124
 0.0113940
 0.0114759
 0.0115581
 0.0116405
 0.0117231
 0.0118060
 0.0118891
 0.0119724
 0.0120560
 0.0121398
 0.0122238
 0.0123081
 0.0123926
 0.0124774
 0.0125624
 0.0126477
 0.0127332
 0.0128189
 0.0129049
 0.0129911
 0.0130776
 0.0131643
 0.0132512
 0.0133384
 0.0134258
 0.0135135
 0.0136014
 0.0136896
 0.0137780
 0.0138667
 0.0139556
 0.0140447
 0.0141341
 0.0142238
 0.0143137
 0.0144038
 0.0144942
 0.0145848
 0.0146757
 0.0147668
 0.0148582
 0.0149498
 0.0150417
 0.0151339
 0.0152262
 0.0153189
 0.0154118
 0.0155049
 0.0155983
 0.0156919
 0.0157858
 0.0158800
 0.0159744
 0.0160690
 0.0161639
 0.0162591
 0.0163545
 0.0164502
 0.0165461
 0.0166423
 0.0167387
 0.0168354
 0.0169324
 0.0170296
 0.0171271
 0.0172248
 0.0173228
 0.0174210
 0.0175195
 0.0176183
 0.0177173
 0.0178166
 0.0179161
 0.0180159
 0.0181160
 0.0182163
 0.0183169
 0.0184177
 0.0185189
 0.0186202
 0.0187219
 0.0188238
 0.0189259
 0.0190284
 0.0191310
 0.0192340
 0.0193372
 0.0194407
 0.0195445
 0.0196485
 0.0197528
 0.0198573
 0.0199621
 0.0200672
 0.0201726
 0.0202782
 0.0203841
 0.0204902
 0.0205967
 0.0207033
 0.0208103
 0.0209175
 0.0210251
 0.0211328
 0.0212409
 0.0213492
 0.0214578
 0.0215667
 0.0216758
 0.0217852
 0.0218949
 0.0220048
 0.0221151
 0.0222256
 0.0223364
 0.0224474
 0.0225587
 0.0226703
 0.0227822
 0.0228944
 0.0230068
 0.0231195
 0.0232325
 0.0233458
 0.0234593
 0.0235731
 0.0236872
 0.0238016
 0.0239163
 0.0240312
 0.0241464
 0.0242619
 0.0243777
 0.0244938
 0.0246101
 0.0247267
 0.0248436
 0.0249608
 0.0250783
 0.0251960
 0.0253141
 0.0254324
 0.0255510
 0.0256699
 0.0257891
 0.0259085
 0.0260283
 0.0261483
 0.0262686
 0.0263892
 0.0265101
 0.0266313
 0.0267527
 0.0268745
 0.0269965
 0.0271189
 0.0272415
 0.0273644
 0.0274876
 0.0276111
 0.0277348
 0.0278589
 0.0279833
 0.0281079
 0.0282328
 0.0283581
 0.0284836
 0.0286094
 0.0287355
 0.0288619
 0.0289886
 0.0291156
 0.0292429
 0.0293705
 0.0294984
 0.0296265
 0.0297550
 0.0298838
 0.0300128
 0.0301422
 0.0302718
 0.0304018
 0.0305320
 0.0306626
 0.0307934
 0.0309245
 0.0310560
 0.0311877
 0.0313198
 0.0314521
 0.0315847
 0.0317177
 0.0318509
 0.0319845
 0.0321183
 0.0322525
 0.0323869
 0.0325217
 0.0326567
 0.0327921
 0.0329277
 0.0330637
 0.0332000
 0.0333366
 0.0334734
 0.0336106
 0.0337481
 0.0338859
 0.0340240
 0.0341624
 0.0343012
 0.0344402
 0.0345795
 0.0347192
 0.0348591
 0.0349994
 0.0351400
 0.0352808
 0.0354220
 0.0355635
 0.0357053
 0.0358475
 0.0359899
 0.0361326
 0.0362757
 0.0364191
 0.0365628
 0.0367068
 0.0368511
 0.0369957
 0.0371406
 0.0372859
 0.0374314
 0.0375773
 0.0377235
 0.0378700
 0.0380169
 0.0381640
 0.0383115
 0.0384592
 0.0386073
 0.0387558
 0.0389045
 0.0390535
 0.0392029
 0.0393526
 0.0395026
 0.0396529
 0.0398036
 0.0399545
 0.0401058
 0.0402574
 0.0404094
 0.0405616
 0.0407142
 0.0408671
 0.0410203
 0.0411739
 0.0413277
 0.0414819
 0.0416365
 0.0417913
 0.0419465
 0.0421020
 0.0422578
 0.0424139
 0.0425704
 0.0427272
 0.0428843
 0.0430418
 0.0431995
 0.0433576
 0.0435161
 0.0436748
 0.0438339
 0.0439934
 0.0441531
 0.0443132
 0.0444736
 0.0446343
 0.0447954
 0.0449568
 0.0451186
 0.0452806
 0.0454430
 0.0456058
 0.0457688
 0.0459322
 0.0460960
 0.0462600
 0.0464244
 0.0465892
 0.0467543
 0.0469197
 0.0470854
 0.0472515
 0.0474179
 0.0475847
 0.0477518
 0.0479192
 0.0480870
 0.0482551
 0.0484235
 0.0485923
 0.0487614
 0.0489309
 0.0491007
 0.0492708
 0.0494413
 0.0496121
 0.0497833
 0.0499548
 0.0501266
 0.0502988
 0.0504714
 0.0506442
 0.0508175
 0.0509910
 0.0511649
 0.0513392
 0.0515138
 0.0516887
 0.0518640
 0.0520396
 0.0522156
 0.0523919
 0.0525686
 0.0527456
 0.0529230
 0.0531007
 0.0532788
 0.0534572
 0.0536360
 0.0538151
 0.0539945
 0.0541743
 0.0543545
 0.0545350
 0.0547159
 0.0548971
 0.0550786
 0.0552605
 0.0554428
 0.0556254
 0.0558084
 0.0559917
 0.0561754
 0.0563594
 0.0565438
 0.0567286
 0.0569137
 0.0570991
 0.0572849
 0.0574711
 0.0576576
 0.0578445
 0.0580317
 0.0582193
 0.0584073
 0.0585956
 0.0587842
 0.0589733
 0.0591626
 0.0593524
 0.0595425
 0.0597329
 0.0599238
 0.0601149
 0.0603065
 0.0604984
 0.0606907
 0.0608833
 0.0610763
 0.0612696
 0.0614634
 0.0616574
 0.0618519
 0.0620467
 0.0622419
 0.0624374
 0.0626333
 0.0628296
 0.0630262
 0.0632232
 0.0634206
 0.0636183
 0.0638164
 0.0640149
 0.0642137
 0.0644129
 0.0646125
 0.0648124
 0.0650127
 0.0652134
 0.0654145
 0.0656159
 0.0658177
 0.0660198
 0.0662224
 0.0664253
 0.0666286
 0.0668322
 0.0670362
 0.0672406
 0.0674454
 0.0676505
 0.0678561
 0.0680620
 0.0682682
 0.0684749
 0.0686819
 0.0688893
 0.0690970
 0.0693052
 0.0695137
 0.0697226
 0.0699319
 0.0701415
 0.0703516
 0.0705620
 0.0707728
 0.0709839
 0.0711955
 0.0714074
 0.0716197
 0.0718324
 0.0720455
 0.0722589
 0.0724727
 0.0726869
 0.0729015
 0.0731165
 0.0733319
 0.0735476
 0.0737638
 0.0739803
 0.0741972
 0.0744144
 0.0746321
 0.0748501
 0.0750686
 0.0752874
 0.0755066
 0.0757262
 0.0759462
 0.0761666
 0.0763873
 0.0766085
 0.0768300
 0.0770519
 0.0772742
 0.0774969
 0.0777200
 0.0779435
 0.0781674
 0.0783916
 0.0786163
 0.0788413
 0.0790667
 0.0792926
 0.0795188
 0.0797454
 0.0799724
 0.0801998
 0.0804276
 0.0806558
 0.0808844
 0.0811133
 0.0813427
 0.0815725
 0.0818026
 0.0820332
 0.0822641
 0.0824955
 0.0827272
 0.0829594
 0.0831919
 0.0834249
 0.0836582
 0.0838920
 0.0841261
 0.0843606
 0.0845956
 0.0848309
 0.0850666
 0.0853028
 0.0855393
 0.0857763
 0.0860136
 0.0862514
 0.0864895
 0.0867281
 0.0869670
 0.0872064
 0.0874461
 0.0876863
 0.0879269
 0.0881678
 0.0884092
 0.0886510
 0.0888932
 0.0891358
 0.0893788
 0.0896222
 0.0898661
 0.0901103
 0.0903549
 0.0906000
 0.0908454
 0.0910913
 0.0913376
 0.0915842
 0.0918313
 0.0920788
 0.0923267
 0.0925751
 0.0928238
 0.0930730
 0.0933225
 0.0935725
 0.0938229
 0.0940737
 0.0943249
 0.0945765
 0.0948286
 0.0950810
 0.0953339
 0.0955872
 0.0958409
 0.0960950
 0.0963495
 0.0966045
 0.0968598
 0.0971156
 0.0973718
 0.0976284
 0.0978855
 0.0981429
 0.0984008
 0.0986591
 0.0989178
 0.0991770
 0.0994365
 0.0996965
 0.0999569
 0.1002177
 0.1004789
 0.1007406
 0.1010027
 0.1012652
 0.1015281
 0.1017915
 0.1020552
 0.1023194
 0.1025841
 0.1028491
 0.1031146
 0.1033805
 0.1036468
 0.1039136
 0.1041808
 0.1044484
 0.1047164
 0.1049848
 0.1052537
 0.1055231
 0.1057928
 0.1060630
 0.1063336
 0.1066046
 0.1068761
 0.1071480
 0.1074203
 0.1076930
 0.1079662
 0.1082398
 0.1085139
 0.1087884
 0.1090633
 0.1093386
 0.1096144
 0.1098906
 0.1101673
 0.1104443
 0.1107219
 0.1109998
 0.1112782
 0.1115570
 0.1118363
 0.1121160
 0.1123961
 0.1126767
 0.1129577
 0.1132391
 0.1135210
 0.1138033
 0.1140861
 0.1143693
 0.1146529
 0.1149370
 0.1152215
 0.1155065
 0.1157919
 0.1160777
 0.1163640
 0.1166507
 0.1169379
 0.1172255
 0.1175135
 0.1178020
 0.1180910
 0.1183803
 0.1186702
 0.1189604
 0.1192511
 0.1195423
 0.1198339
 0.1201260
 0.1204184
 0.1207114
 0.1210048
 0.1212986
 0.1215929
 0.1218876
 0.1221828
 0.1224784
 0.1227745
 0.1230711
 0.1233680
 0.1236655
 0.1239633
 0.1242617
 0.1245604
 0.1248597
 0.1251594
 0.1254595
 0.1257601
 0.1260611
 0.1263626
 0.1266646
 0.1269670
 0.1272698
 0.1275731
 0.1278769
 0.1281811
 0.1284858
 0.1287909
 0.1290965
 0.1294025
 0.1297090
 0.1300160
 0.1303234
 0.1306313
 0.1309396
 0.1312484
 0.1315576
 0.1318673
 0.1321775
 0.1324881
 0.1327992
 0.1331107
 0.1334227
 0.1337352
 0.1340481
 0.1343615
 0.1346754
 0.1349897
 0.1353045
 0.1356197
 0.1359354
 0.1362516
 0.1365682
 0.1368853
 0.1372029
 0.1375209
 0.1378394
 0.1381584
 0.1384778
 0.1387977
 0.1391181
 0.1394389
 0.1397602
 0.1400819
 0.1404042
 0.1407269
 0.1410500
 0.1413737
 0.1416978
 0.1420224
 0.1423474
 0.1426729
 0.1429989
 0.1433254
 0.1436523
 0.1439797
 0.1443076
 0.1446359
 0.1449648
 0.1452941
 0.1456238
 0.1459541
 0.1462848
 0.1466160
 0.1469477
 0.1472798
 0.1476124
 0.1479455
 0.1482791
 0.1486132
 0.1489477
 0.1492827
 0.1496182
 0.1499541
 0.1502906
 0.1506275
 0.1509649
 0.1513028
 0.1516411
 0.1519800
 0.1523193
 0.1526591
 0.1529994
 0.1533401
 0.1536814
 0.1540231
 0.1543653
 0.1547080
 0.1550512
 0.1553948
 0.1557390
 0.1560836
 0.1564287
 0.1567743
 0.1571204
 0.1574670
 0.1578140
 0.1581616
 0.1585096
 0.1588581
 0.1592071
 0.1595566
 0.1599066
 0.1602571
 0.1606080
 0.1609595
 0.1613114
 0.1616638
 0.1620167
 0.1623701
 0.1627240
 0.1630784
 0.1634333
 0.1637887
 0.1641445
 0.1645009
 0.1648577
 0.1652151
 0.1655729
 0.1659312
 0.1662901
 0.1666494
 0.1670092
 0.1673695
 0.1677303
 0.1680916
 0.1684534
 0.1688157
 0.1691785
 0.1695418
 0.1699056
 0.1702698
 0.1706346
 0.1709999
 0.1713657
 0.1717320
 0.1720987
 0.1724660
 0.1728338
 0.1732021
 0.1735709
 0.1739401
 0.1743099
 0.1746802
 0.1750510
 0.1754223
 0.1757941
 0.1761664
 0.1765392
 0.1769125
 0.1772863
 0.1776606
 0.1780354
 0.1784107
 0.1787866
 0.1791629
 0.1795397
 0.1799171
 0.1802950
 0.1806733
 0.1810522
 0.1814316
 0.1818115
 0.1821919
 0.1825728
 0.1829542
 0.1833361
 0.1837185
 0.1841015
 0.1844850
 0.1848689
 0.1852534
 0.1856384
 0.1860239
 0.1864099
 0.1867965
 0.1871835
 0.1875711
 0.1879591
 0.1883477
 0.1887368
 0.1891264
 0.1895166
 0.1899072
 0.1902984
 0.1906901
 0.1910823
 0.1914750
 0.1918682
 0.1922619
 0.1926562
 0.1930510
 0.1934463
 0.1938421
 0.1942385
 0.1946353
 0.1950327
 0.1954306
 0.1958290
 0.1962280
 0.1966274
 0.1970274
 0.1974279
 0.1978290
 0.1982305
 0.1986326
 0.1990352
 0.1994383
 0.1998420
 0.2002462
 0.2006509
 0.2010561
 0.2014618
 0.2018681
 0.2022749
 0.2026823
 0.2030901
 0.2034985
 0.2039074
 0.2043169
 0.2047268
 0.2051373
 0.2055483
 0.2059599
 0.2063720
 0.2067846
 0.2071977
 0.2076114
 0.2080256
 0.2084404
 0.2088556
 0.2092714
 0.2096878
 0.2101046
 0.2105220
 0.2109400
 0.2113584
 0.2117774
 0.2121970
 0.2126170
 0.2130376
 0.2134588
 0.2138805
 0.2143027
 0.2147254
 0.2151487
 0.2155725
 0.2159969
 0.2164218
 0.2168472
 0.2172732
 0.2176997
 0.2181268
 0.2185544
 0.2189825
 0.2194112
 0.2198404
 0.2202701
 0.2207004
 0.2211313
 0.2215627
 0.2219946
 0.2224270
 0.2228601
 0.2232936
 0.2237277
 0.2241623
 0.2245975
 0.2250332
 0.2254695
 0.2259063
 0.2263437
 0.2267816
 0.2272201
 0.2276591
 0.2280986
 0.2285387
 0.2289794
 0.2294206
 0.2298623
 0.2303046
 0.2307474
 0.2311908
 0.2316348
 0.2320792
 0.2325243
 0.2329699
 0.2334160
 0.2338627
 0.2343099
 0.2347577
 0.2352061
 0.2356550
 0.2361044
 0.2365545
 0.2370050
 0.2374561
 0.2379078
 0.2383600
 0.2388128
 0.2392661
 0.2397200
 0.2401745
 0.2406295
 0.2410851
 0.2415412
 0.2419978
 0.2424551
 0.2429129
 0.2433712
 0.2438301
 0.2442896
 0.2447496
 0.2452102
 0.2456714
 0.2461331
 0.2465954
 0.2470582
 0.2475216
 0.2479855
 0.2484501
 0.2489151
 0.2493808
 0.2498470
 0.2503138
 0.2507811
 0.2512490
 0.2517175
 0.2521865
 0.2526561
 0.2531263
 0.2535970
 0.2540683
 0.2545401
 0.2550126
 0.2554856
 0.2559591
 0.2564333
 0.2569080
 0.2573832
 0.2578591
 0.2583355
 0.2588125
 0.2592900
 0.2597681
 0.2602468
 0.2607261
 0.2612059
 0.2616863
 0.2621673
 0.2626488
 0.2631309
 0.2636136
 0.2640969
 0.2645808
 0.2650652
 0.2655502
 0.2660357
 0.2665219
 0.2670086
 0.2674959
 0.2679838
 0.2684722
 0.2689612
 0.2694508
 0.2699410
 0.2704318
 0.2709231
 0.2714150
 0.2719075
 0.2724006
 0.2728942
 0.2733885
 0.2738833
 0.2743787
 0.2748746
 0.2753712
 0.2758683
 0.2763660
 0.2768643
 0.2773632
 0.2778627
 0.2783627
 0.2788634
 0.2793646
 0.2798664
 0.2803688
 0.2808718
 0.2813753
 0.2818795
 0.2823842
 0.2828895
 0.2833954
 0.2839019
 0.2844090
 0.2849167
 0.2854249
 0.2859338
 0.2864432
 0.2869532
 0.2874638
 0.2879750
 0.2884868
 0.2889992
 0.2895122
 0.2900258
 0.2905399
 0.2910547
 0.2915700
 0.2920859
 0.2926025
 0.2931196
 0.2936373
 0.2941556
 0.2946745
 0.2951940
 0.2957141
 0.2962348
 0.2967561
 0.2972780
 0.2978004
 0.2983235
 0.2988472
 0.2993714
 0.2998963
 0.3004218
 0.3009478
 0.3014745
 0.3020018
 0.3025296
 0.3030581
 0.3035871
 0.3041168
 0.3046471
 0.3051779
 0.3057094
 0.3062414
 0.3067741
 0.3073074
 0.3078413
 0.3083757
 0.3089108
 0.3094465
 0.3099828
 0.3105197
 0.3110572
 0.3115953
 0.3121340
 0.3126733
 0.3132132
 0.3137538
 0.3142949
 0.3148366
 0.3153790
 0.3159219
 0.3164655
 0.3170097
 0.3175545
 0.3180999
 0.3186459
 0.3191925
 0.3197397
 0.3202875
 0.3208360
 0.3213850
 0.3219347
 0.3224850
 0.3230359
 0.3235874
 0.3241395
 0.3246922
 0.3252456
 0.3257995
 0.3263541
 0.3269093
 0.3274651
 0.3280215
 0.3285786
 0.3288314
 0.3293795
 0.3299286
 0.3304785
 0.3310294
 0.3315811
 0.3321338
 0.3326874
 0.3332420
 0.3337974
 0.3343538
 0.3349111
 0.3354694
 0.3360285
 0.3365886
 0.3371497
 0.3377116
 0.3382745
 0.3388384
 0.3394032
 0.3399689
 0.3405356
 0.3411032
 0.3416718
 0.3422413
 0.3428117
 0.3433831
 0.3439555
 0.3445288
 0.3451031
 0.3456783
 0.3462545
 0.3468317
 0.3474098
 0.3479888
 0.3485689
 0.3491499
 0.3497319
 0.3503148
 0.3508987
 0.3514836
 0.3520695
 0.3526563
 0.3532441
 0.3538329
 0.3544227
 0.3550135
 0.3556052
 0.3561980
 0.3567917
 0.3573864
 0.3579821
 0.3585788
 0.3591765
 0.3597752
 0.3603749
 0.3609755
 0.3615772
 0.3621799
 0.3627836
 0.3633883
 0.3639940
 0.3646007
 0.3652085
 0.3658172
 0.3664270
 0.3670377
 0.3676495
 0.3682623
 0.3688762
 0.3694910
 0.3701069
 0.3707238
 0.3713418
 0.3719607
 0.3725807
 0.3732017
 0.3738238
 0.3744469
 0.3750710
 0.3756962
 0.3763225
 0.3769497
 0.3775780
 0.3782074
 0.3788378
 0.3794693
 0.3801018
 0.3807353
 0.3813700
 0.3820056
 0.3826424
 0.3832802
 0.3839190
 0.3845590
 0.3852000
 0.3858420
 0.3864852
 0.3871294
 0.3877747
 0.3884210
 0.3890684
 0.3897170
 0.3903666
 0.3910172
 0.3916690
 0.3923218
 0.3929758
 0.3936308
 0.3942869
 0.3949441
 0.3956024
 0.3962618
 0.3969223
 0.3975839
 0.3982466
 0.3989105
 0.3995754
 0.4002414
 0.4009085
 0.4015768
 0.4022461
 0.4029166
 0.4035882
 0.4042609
 0.4049348
 0.4056097
 0.4062858
 0.4069630
 0.4076414
 0.4083208
 0.4090014
 0.4096832
 0.4103660
 0.4110501
 0.4117352
 0.4124215
 0.4131089
 0.4137975
 0.4144873
 0.4151781
 0.4158702
 0.4165634
 0.4172577
 0.4179532
 0.4186498
 0.4193477
 0.4200467
 0.4207468
 0.4214481
 0.4221506
 0.4228543
 0.4235591
 0.4242651
 0.4249723
 0.4256806
 0.4263902
 0.4271009
 0.4278128
 0.4285259
 0.4292402
 0.4299556
 0.4306723
 0.4313902
 0.4321092
 0.4328295
 0.4335509
 0.4342736
 0.4349974
 0.4357225
 0.4364488
 0.4371763
 0.4379050
 0.4386349
 0.4393660
 0.4400984
 0.4408319
 0.4415667
 0.4423027
 0.4430400
 0.4437785
 0.4445182
 0.4452591
 0.4460013
 0.4467447
 0.4474893
 0.4482352
 0.4489824
 0.4497307
 0.4504804
 0.4512312
 0.4519834
 0.4527368
 0.4534914
 0.4542473
 0.4550044
 0.4557629
 0.4565225
 0.4572835
 0.4580457
 0.4588092
 0.4595739
 0.4603400
 0.4611073
 0.4618759
 0.4626457
 0.4634169
 0.4641893
 0.4649631
 0.4657381
 0.4665144
 0.4672920
 0.4680709
 0.4688511
 0.4696326
 0.4704154
 0.4711995
 0.4719849
 0.4727716
 0.4735596
 0.4743490
 0.4751396
 0.4759316
 0.4767249
 0.4775195
 0.4783155
 0.4791128
 0.4799114
 0.4807113
 0.4815126
 0.4823152
 0.4831191
 0.4839244
 0.4847310
 0.4855390
 0.4863483
 0.4871589
 0.4879710
 0.4887843
 0.4895990
 0.4904151
 0.4912326
 0.4920514
 0.4928715
 0.4936931
 0.4945160
 0.4953403
 0.4961659
 0.4969929
 0.4978213
 0.4986511
 0.4994823
 0.5003148
 0.5011488
 0.5019841
 0.5028208
 0.5036590
 0.5044985
 0.5053394
 0.5061817
 0.5070254
 0.5078705
 0.5087171
 0.5095650
 0.5104144
 0.5112652
 0.5121174
 0.5129710
 0.5138260
 0.5146825
 0.5155404
 0.5163997
 0.5172604
 0.5181226
 0.5189862
 0.5198513
 0.5207178
 0.5215858
 0.5224552
 0.5233260
 0.5241983
 0.5250721
 0.5259473
 0.5268239
 0.5277021
 0.5285816
 0.5294627
 0.5303452
 0.5312292
 0.5321147
 0.5330016
 0.5338901
 0.5347800
 0.5356714
 0.5365642
 0.5374586
 0.5383545
 0.5392518
 0.5401506
 0.5410510
 0.5419528
 0.5428562
 0.5437610
 0.5446674
 0.5455753
 0.5464846
 0.5473955
 0.5483080
 0.5492219
 0.5501374
 0.5510543
 0.5519729
 0.5528929
 0.5538145
 0.5547376
 0.5556623
 0.5565884
 0.5575162
 0.5584455
