luts/No_GR_AgX_Base_Rec2100-HLG.cube
TITLE "No_Guard_Rail_AgX_Formation_Rec2100HLG"
# AgX Base Rec.2020 Formation LUT designed to be used on Inverse
# This LUT expects input (output if inverse) to be Rec.2020 Log2 encoding from -10 stops to +6.5 stops
# But the end image formation will be Rec2100-HLG
#  rotate = [3.0, -1, -2.0], inset = [0.4, 0.22, 0.13], outset = [0.4, 0.22, 0.04]
# The image formed has 40% per-channel shifts
LUT_3D_SIZE 45
0 0 0
0.0010038 0 0
0.0029272 0 0
0.0055493 0 0
0.0088110 0 0
0.0126868 0 0
0.0171662 0 0
0.0222472 0 0
0.0279337 0 0
0.0342351 0 0
0.0411662 0 0
0.0487481 0 0
0.0570096 0 0
0.0659889 0 0
0.0757353 0 0
0.0863116 0 0
0.0977967 0 0
0.1102887 0 0
0.1239102 0 0
0.1388151 0 0
0.1551991 0.0119505 0
0.1733169 0.0204171 0
0.1935096 0.0279097 0
0.2162534 0.0351657 0
0.2422533 0.0422871 0
0.2726506 0.0490767 0
0.3096035 0.0548230 0
0.3590616 0.0566065 0
0.4440299 0.0346025 0
0.5302527 0 0
0.6000781 0 0
0.6568641 0.0288838 0
0.7049881 0.0796550 0
0.7467644 0.1334239 0
0.7834750 0.1984093 0.1075355
0.8153934 0.2893501 0.2087863
0.8431372 0.4020869 0.3400735
0.8688369 0.5091359 0.4556451
0.8927710 0.5970132 0.5602297
0.9151722 0.6652520 0.6386992
0.9362317 0.7219363 0.7015758
0.9561056 0.7708758 0.7547140
0.9749229 0.8141936 0.8010930
0.9927914 0.8532063 0.8424525
1 0.8887933 0.8799061
0 0.0007793 0
0.0009822 0.0009138 0
0.0028779 0.0012987 0
0.0054654 0.0013773 0
0.0086976 0.0005697 0
0.0125510 0 0
0.0170150 0 0
0.0220869 0 0
0.0277698 0 0
0.0340723 0 0
0.0410084 0 0
0.0485984 0 0
0.0568704 0 0
0.0658618 0 0
0.0756210 0 0
0.0862104 0 0
0.0977080 0 0
0.1102119 0 0
0.1238442 0 0
0.1387587 0 0
0.1551513 0.0134013 0
0.1732765 0.0212642 0
0.1934756 0.0285086 0
0.2162248 0.0356219 0
0.2422293 0.0426511 0
0.2726306 0.0493787 0
0.3095870 0.0550861 0
0.3590489 0.0568607 0
0.4440196 0.0350551 0
0.5302435 0 0
0.6000713 0 0
0.6568589 0.0294698 0
0.7049841 0.0798653 0
0.7467613 0.1335469 0
0.7834724 0.1984942 0.1075351
0.8153910 0.2894138 0.2087886
0.8431355 0.4021277 0.3400759
0.8688357 0.5091627 0.4556466
0.8927702 0.5970271 0.5602305
0.9151717 0.6652600 0.6386997
0.9362313 0.7219411 0.7015761
0.9561054 0.7708787 0.7547142
0.9749228 0.8141954 0.8010931
0.9927913 0.8532075 0.8424526
1 0.8887940 0.8799061
0 0.0023059 0
0.0012893 0.0024587 0
0.0028233 0.0026380 0
0.0053836 0.0031928 0
0.0085794 0.0035341 0
0.0124001 0.0035191 0
0.0168391 0.0028983 0
0.0218946 0 0
0.0275691 0 0
0.0338702 0 0
0.0408107 0 0
0.0484097 0 0
0.0566941 0 0
0.0657001 0 0
0.0754753 0 0
0.0860808 0 0
0.0975943 0 0
0.1101131 0 0
0.1237592 0 0
0.1386861 0.0057682 0
0.1550895 0.0150747 0
0.1732242 0.0223140 0
0.1934315 0.0292664 0
0.2161878 0.0362047 0
0.2421982 0.0431183 0
0.2726047 0.0497676 0
0.3095656 0.0554253 0
0.3590324 0.0571887 0
0.4440061 0.0356335 0
0.5302315 0 0
0.6000625 0 0
0.6568523 0.0302128 0
0.7049790 0.0801373 0
0.7467573 0.1337063 0
0.7834691 0.1986043 0.1075346
0.8153879 0.2894963 0.2087916
0.8431333 0.4021806 0.3400791
0.8688342 0.5091975 0.4556485
0.8927691 0.5970451 0.5602316
0.9151709 0.6652702 0.6387003
0.9362308 0.7219473 0.7015764
0.9561050 0.7708826 0.7547144
0.9749225 0.8141979 0.8010933
0.9927911 0.8532090 0.8424527
1 0.8887950 0.8799062
0 0.0044297 0
0.0014971 0.0045851 0
0.0032023 0.0047412 0
0.0052865 0.0049585 0
0.0084490 0.0056073 0
0.0122314 0.0060577 0
0.0166369 0.0062127 0
0.0216677 0.0059604 0
0.0273274 0.0051176 0
0.0336230 0.0031405 0
0.0405661 0 0
0.0481742 0 0
0.0564726 0 0
0.0654958 0 0
0.0752902 0 0
0.0859157 0 0
0.0974490 0 0
0.1099866 0 0
0.1236500 0 0
0.1385925 0.0098598 0
0.1550099 0.0169987 0
0.1731568 0.0236045 0
0.1933746 0.0302200 0
0.2161399 0.0369462 0
0.2421581 0.0437165 0
0.2725711 0.0502671 0
0.3095379 0.0558620 0
0.3590110 0.0576110 0
0.4439887 0.0363697 0
0.5302160 0 0
0.6000510 0 0
0.6568436 0.0311499 0
0.7049724 0.0804886 0
0.7467521 0.1339127 0
0.7834647 0.1987470 0.1075339
0.8153839 0.2896033 0.2087954
0.8431305 0.4022492 0.3400831
0.8688322 0.5092426 0.4556510
0.8927678 0.5970685 0.5602330
0.9151700 0.6652836 0.6387010
0.9362302 0.7219553 0.7015769
0.9561046 0.7708875 0.7547147
0.9749222 0.8142010 0.8010935
0.9927909 0.8532110 0.8424528
1 0.8887963 0.8799063
0 0.0071171 0
0.0014087 0.0072609 0
0.0035599 0.0074183 0
0.0056798 0.0075688 0
0.0083048 0.0078157 0
0.0120466 0.0085161 0
0.0164107 0.0090174 0
0.0214073 0.0092468 0
0.0270435 0.0091358 0
0.0333270 0.0086105 0
0.0402686 0.0075715 0
0.0478843 0.0058229 0
0.0561972 0.0024620 0
0.0652400 0 0
0.0750570 0 0
0.0857066 0 0
0.0972640 0 0
0.1098249 0 0
0.1235101 0.0073976 0
0.1384724 0.0134155 0
0.1549075 0.0192053 0
0.1730699 0.0251775 0
0.1933012 0.0314121 0
0.2160780 0.0378853 0
0.2421062 0.0444796 0
0.2725278 0.0509073 0
0.3095021 0.0564230 0
0.3589833 0.0581540 0
0.4439662 0.0373027 0
0.5301958 0 0
0.6000361 0 0
0.6568324 0.0323247 0
0.7049638 0.0809419 0
0.7467454 0.1341799 0
0.7834590 0.1989319 0.1075330
0.8153788 0.2897421 0.2088004
0.8431268 0.4023382 0.3400884
0.8688297 0.5093011 0.4556543
0.8927660 0.5970988 0.5602348
0.9151687 0.6653009 0.6387020
0.9362293 0.7219656 0.7015775
0.9561040 0.7708940 0.7547151
0.9749218 0.8142051 0.8010937
0.9927907 0.8532136 0.8424530
1 0.8887980 0.8799064
0 0.0103574 0
0.0003430 0.0104837 0
0.0037328 0.0106274 0
0.0060874 0.0107778 0
0.0086794 0.0109191 0
0.0118500 0.0111852 0
0.0161666 0.0119055 0
0.0211186 0.0124223 0
0.0267201 0.0126809 0
0.0329818 0.0126398 0
0.0399147 0.0122723 0
0.0475336 0.0115718 0
0.0558597 0.0105637 0
0.0649231 0.0093347 0
0.0747656 0.0081004 0
0.0854434 0.0073291 0
0.0970299 0.0077237 0
0.1096193 0.0096476 0
0.1233315 0.0128406 0
0.1383186 0.0169419 0
0.1547759 0.0217303 0
0.1729580 0.0270781 0
0.1932065 0.0328915 0
0.2159982 0.0390680 0
0.2420391 0.0454491 0
0.2724717 0.0517250 0
0.3094557 0.0571419 0
0.3589475 0.0588505 0
0.4439370 0.0384786 0
0.5301698 0 0
0.6000168 0 0
0.6568179 0.0337874 0
0.7049527 0.0815260 0
0.7467367 0.1345256 0
0.7834516 0.1991716 0.1075318
0.8153720 0.2899219 0.2088069
0.8431220 0.4024535 0.3400953
0.8688264 0.5093769 0.4556585
0.8927637 0.5971382 0.5602371
0.9151671 0.6653233 0.6387033
0.9362282 0.7219791 0.7015782
0.9561032 0.7709023 0.7547156
0.9749213 0.8142103 0.8010940
0.9927903 0.8532170 0.8424532
1 0.8888001 0.8799066
0 0.0141489 0
0 0.0142560 0
0.0036100 0.0143804 0
0.0063323 0.0145166 0
0.0090892 0.0146555 0
0.0121812 0.0147848 0
0.0159122 0.0150588 0
0.0208102 0.0157731 0
0.0263643 0.0162801 0
0.0325911 0.0165411 0
0.0395044 0.0165360 0
0.0471187 0.0162693 0
0.0554535 0.0157784 0
0.0645362 0.0151487 0
0.0744058 0.0145333 0
0.0851154 0.0141712 0
0.0967359 0.0143737 0
0.1093595 0.0154388 0
0.1231046 0.0175275 0
0.1381224 0.0206250 0
0.1546076 0.0246140 0
0.1728145 0.0293545 0
0.1930847 0.0347124 0
0.2158953 0.0405479 0
0.2419525 0.0466748 0
0.2723992 0.0527656 0
0.3093957 0.0580603 0
0.3589012 0.0597411 0
0.4438992 0.0399516 0
0.5301360 0 0
0.5999919 0 0
0.6567990 0.0355946 0
0.7049382 0.0822774 0
0.7467254 0.1349727 0
0.7834420 0.1994821 0.1075303
0.8153633 0.2901549 0.2088153
0.8431158 0.4026030 0.3401042
0.8688221 0.5094751 0.4556640
0.8927607 0.5971891 0.5602401
0.9151651 0.6653524 0.6387049
0.9362268 0.7219966 0.7015792
0.9561022 0.7709131 0.7547162
0.9749206 0.8142171 0.8010945
0.9927898 0.8532213 0.8424535
1 0.8888030 0.8799068
0 0.0184961 0
0 0.0185842 0
0.0029911 0.0186878 0
0.0063392 0.0188043 0
0.0093412 0.0189286 0
0.0125593 0.0190529 0
0.0161791 0.0191676 0
0.0204921 0.0194383 0
0.0259865 0.0201250 0
0.0321637 0.0206032 0
0.0390426 0.0208494 0
0.0466400 0.0208625 0
0.0549748 0.0206711 0
0.0640722 0.0203405 0
0.0739677 0.0199834 0
0.0847111 0.0197660 0
0.0963699 0.0199045 0
0.1090335 0.0206348 0
0.1228180 0.0221562 0
0.1378732 0.0245770 0
0.1543928 0.0279015 0
0.1726307 0.0320584 0
0.1929284 0.0369345 0
0.2157630 0.0423863 0
0.2418409 0.0482154 0
0.2723057 0.0540834 0
0.3093183 0.0592289 0
0.3588413 0.0608759 0
0.4438503 0.0417837 0
0.5300922 0.0081113 0
0.5999595 0 0
0.6567746 0.0378097 0
0.7049195 0.0832416 0
0.7467107 0.1355504 0
0.7834296 0.1998844 0.1075282
0.8153520 0.2904567 0.2088262
0.8431078 0.4027967 0.3401158
0.8688165 0.5096024 0.4556711
0.8927568 0.5972552 0.5602440
0.9151624 0.6653901 0.6387070
0.9362249 0.7220192 0.7015805
0.9561010 0.7709271 0.7547171
0.9749197 0.8142260 0.8010950
0.9927892 0.8532270 0.8424539
1 0.8888066 0.8799071
0 0.0234081 0
0 0.0234787 0
0.0008505 0.0235622 0
0.0060173 0.0236578 0
0.0093787 0.0237625 0
0.0127797 0.0238716 0
0.0164980 0.0239786 0
0.0206768 0.0240762 0
0.0255988 0.0243332 0
0.0317114 0.0249740 0
0.0385390 0.0254092 0
0.0461032 0.0256297 0
0.0544245 0.0256520 0
0.0635272 0.0255242 0
0.0734438 0.0253319 0
0.0842201 0.0252024 0
0.0959197 0.0253033 0
0.1086282 0.0258296 0
0.1224587 0.0269734 0
0.1375586 0.0288852 0
0.1541202 0.0316427 0
0.1723964 0.0352443 0
0.1927283 0.0396219 0
0.2155931 0.0446515 0
0.2416974 0.0501385 0
0.2721851 0.0557433 0
0.3092184 0.0607090 0
0.3587640 0.0623155 0
0.4437872 0.0440451 0
0.5300356 0.0164934 0
0.5999176 0 0
0.6567429 0.0405019 0
0.7048953 0.0844756 0
0.7466917 0.1362961 0
0.7834135 0.2004054 0.1075254
0.8153373 0.2908477 0.2088404
0.8430974 0.4030479 0.3401307
0.8688093 0.5097674 0.4556803
0.8927518 0.5973408 0.5602490
0.9151589 0.6654390 0.6387098
0.9362225 0.7220486 0.7015822
0.9560993 0.7709453 0.7547182
0.9749186 0.8142375 0.8010958
0.9927885 0.8532343 0.8424544
1 0.8888113 0.8799074
0 0.0288986 0
0 0.0289535 0
0 0.0290189 0
0.0052197 0.0290944 0
0.0091451 0.0291786 0
0.0128005 0.0292687 0
0.0166593 0.0293601 0
0.0209133 0.0294475 0
0.0256853 0.0295251 0
0.0312481 0.0297591 0
0.0380070 0.0303392 0
0.0455190 0.0307212 0
0.0538089 0.0309097 0
0.0629021 0.0309373 0
0.0728297 0.0308688 0
0.0836339 0.0308045 0
0.0953738 0.0308804 0
0.1081303 0.0312610 0
0.1220124 0.0321228 0
0.1371645 0.0336275 0
0.1537762 0.0358926 0
0.1720991 0.0389707 0
0.1924733 0.0428428 0
0.2153757 0.0474184 0
0.2415132 0.0525210 0
0.2720301 0.0578203 0
0.3090896 0.0625734 0
0.3586643 0.0641324 0
0.4437056 0.0468135 0
0.5299624 0.0232239 0
0.5998634 0.0106442 0
0.6567020 0.0437466 0
0.7048638 0.0860496 0
0.7466670 0.1372572 0
0.7833926 0.2010798 0.1075216
0.8153183 0.2913539 0.2088589
0.8430839 0.4033732 0.3401501
0.8687999 0.5099810 0.4556922
0.8927453 0.5974518 0.5602556
0.9151544 0.6655023 0.6387134
0.9362194 0.7220866 0.7015844
0.9560972 0.7709689 0.7547196
0.9749171 0.8142524 0.8010967
0.9927875 0.8532439 0.8424551
1 0.8888175 0.8799079
0 0.0349860 0
0 0.0350274 0
0 0.0350769 0
0.0035650 0.0351345 0
0.0085753 0.0351994 0
0.0125866 0.0352698 0
0.0166346 0.0353427 0
0.0209946 0.0354142 0
0.0258198 0.0354797 0
0.0312222 0.0355350 0
0.0374623 0.0357378 0
0.0449022 0.0362457 0
0.0531395 0.0365674 0
0.0622037 0.0367210 0
0.0721265 0.0367537 0
0.0829479 0.0367441 0
0.0947227 0.0368038 0
0.1075270 0.0370731 0
0.1214646 0.0377113 0
0.1366753 0.0388784 0
0.1533454 0.0407112 0
0.1717240 0.0432995 0
0.1921497 0.0466687 0
0.2150987 0.0507674 0
0.2412776 0.0554480 0
0.2718312 0.0604005 0
0.3089240 0.0649066 0
0.3585359 0.0664113 0
0.4436004 0.0501736 0
0.5298678 0.0297622 0
0.5997932 0.0216402 0
0.6566489 0.0476254 0
0.7048231 0.0880488 0
0.7466350 0.1384941 0
0.7833654 0.2019524 0.1075164
0.8152937 0.2920089 0.2088830
0.8430664 0.4037947 0.3401753
0.8687878 0.5102576 0.4557077
0.8927369 0.5975956 0.5602641
0.9151486 0.6655844 0.6387181
0.9362154 0.7221360 0.7015872
0.9560944 0.7709994 0.7547214
0.9749152 0.8142717 0.8010979
0.9927862 0.8532562 0.8424559
1 0.8888254 0.8799085
0 0.0416942 0
0 0.0417243 0
0 0.0417603 0
0 0.0418023 0
0.0075793 0.0418500 0
0.0121097 0.0419022 0
0.0164061 0.0419568 0
0.0209050 0.0420107 0
0.0258047 0.0420603 0
0.0312382 0.0421018 0
0.0373117 0.0421325 0
0.0442702 0.0422975 0
0.0524326 0.0427245 0
0.0614446 0.0429818 0
0.0713413 0.0431003 0
0.0821629 0.0431400 0
0.0939616 0.0431915 0
0.1068083 0.0433743 0
0.1208014 0.0438303 0
0.1360751 0.0447119 0
0.1528110 0.0461629 0
0.1712544 0.0482968 0
0.1917416 0.0511744 0
0.2147471 0.0547834 0
0.2409772 0.0590117 0
0.2715767 0.0635796 0
0.3087116 0.0678053 0
0.3583710 0.0692499 0
0.4434650 0.0542172 0
0.5297456 0.0365332 0
0.5997024 0.0304698 0
0.6565802 0.0522270 0
0.7047703 0.0905757 0
0.7465936 0.1400824 0
0.7833300 0.2030809 0.1075092
0.8152618 0.2928560 0.2089145
0.8430438 0.4043404 0.3402080
0.8687721 0.5106157 0.4557278
0.8927260 0.5977819 0.5602751
0.9151410 0.6656908 0.6387242
0.9362101 0.7221999 0.7015909
0.9560908 0.7710391 0.7547237
0.9749127 0.8142967 0.8010995
0.9927845 0.8532722 0.8424570
1 0.8888357 0.8799093
0 0.0490528 0
0 0.0490737 0
0 0.0490986 0
0 0.0491278 0
0.0059846 0.0491609 0
0.0113512 0.0491971 0
0.0159707 0.0492348 0
0.0206426 0.0492718 0
0.0256371 0.0493050 0
0.0311143 0.0493310 0
0.0371956 0.0493467 0
0.0439841 0.0493507 0
0.0517075 0.0494727 0
0.0606422 0.0498131 0
0.0704875 0.0500045 0
0.0812865 0.0500898 0
0.0930909 0.0501406 0
0.1059684 0.0502569 0
0.1200116 0.0505637 0
0.1353488 0.0512024 0
0.1521555 0.0523165 0
0.1706719 0.0540325 0
0.1912307 0.0564377 0
0.2143038 0.0595551 0
0.2405961 0.0633104 0
0.2712523 0.0674622 0
0.3084398 0.0713773 0
0.3581598 0.0727582 0
0.4432910 0.0590430 0
0.5295881 0.0437740 0
0.5995852 0.0390469 0
0.6564913 0.0576480 0
0.7047020 0.0937511 0
0.7465399 0.1421166 0
0.7832841 0.2045393 0.1074990
0.8152204 0.2939506 0.2089556
0.8430144 0.4050467 0.3402503
0.8687517 0.5110787 0.4557539
0.8927118 0.5980230 0.5602894
0.9151312 0.6658287 0.6387320
0.9362033 0.7222828 0.7015957
0.9560861 0.7710904 0.7547268
0.9749095 0.8143291 0.8011016
0.9927823 0.8532930 0.8424584
1 0.8888491 0.8799103
0 0.0570988 0
0 0.0571122 0
0 0.0571283 0
0 0.0571471 0
0.0031567 0.0571682 0
0.0103071 0.0571911 0
0.0153456 0.0572145 0
0.0202240 0.0572365 0
0.0253295 0.0572545 0
0.0308596 0.0572654 0
0.0369532 0.0572663 0
0.0437249 0.0572548 0
0.0512767 0.0572305 0
0.0598179 0.0573055 0
0.0695841 0.0575563 0
0.0803329 0.0576828 0
0.0921185 0.0577388 0
0.1050075 0.0578061 0
0.1190887 0.0579923 0
0.1344840 0.0584256 0
0.1513623 0.0592443 0
0.1699576 0.0605804 0
0.1905971 0.0625395 0
0.2137490 0.0651740 0
0.2401157 0.0684469 0
0.2708409 0.0721602 0
0.3080936 0.0757406 0
0.3578900 0.0770578 0
0.4430680 0.0647574 0
0.5293854 0.0516642 0
0.5994340 0.0479288 0
0.6563765 0.0639949 0
0.7046136 0.0977153 0
0.7464702 0.1447138 0
0.7832243 0.2064227 0.1074843
0.8151669 0.2953637 0.2090095
0.8429764 0.4059605 0.3403053
0.8687253 0.5116771 0.4557877
0.8926935 0.5983352 0.5603079
0.9151185 0.6660073 0.6387422
0.9361945 0.7223902 0.7016018
0.9560800 0.7711570 0.7547308
0.9749054 0.8143712 0.8011043
0.9927794 0.8533199 0.8424603
1 0.8888664 0.8799116
0 0.0658770 0
0 0.0658849 0
0 0.0658941 0
0 0.0659048 0
0 0.0659165 0
0.0090027 0.0659287 0
0.0145797 0.0659404 0
0.0196902 0.0659499 0
0.0249151 0.0659550 0
0.0305005 0.0659528 0
0.0366056 0.0659405 0
0.0433571 0.0659151 0
0.0508658 0.0658750 0
0.0592348 0.0658211 0
0.0686543 0.0658468 0
0.0793225 0.0660077 0
0.0910594 0.0660726 0
0.1039337 0.0661054 0
0.1180325 0.0661962 0
0.1334732 0.0664588 0
0.1504178 0.0670221 0
0.1690933 0.0680182 0
0.1898201 0.0695638 0
0.2130609 0.0717344 0
0.2395143 0.0745276 0
0.2703222 0.0777915 0
0.3076547 0.0810217 0
0.3575472 0.0822805 0
0.4427833 0.0714753 0
0.5291249 0.0603656 0
0.5992391 0.0574266 0
0.6562282 0.0713858 0
0.7044992 0.1026283 0
0.7463800 0.1480167 0
0.7831463 0.2088530 0.1074626
0.8150975 0.2971855 0.2090805
0.8429272 0.4071416 0.3403765
0.8686911 0.5124497 0.4558316
0.8926697 0.5987390 0.5603320
0.9151020 0.6662385 0.6387555
0.9361831 0.7225293 0.7016099
0.9560722 0.7712432 0.7547359
0.9749000 0.8144257 0.8011077
0.9927758 0.8533547 0.8424627
1 0.8888889 0.8799133
0 0.0754427 0
0 0.0754464 0
0 0.0754506 0
0 0.0754551 0
0 0.0754598 0
0.0075300 0.0754639 0
0.0137706 0.0754665 0
0.0191164 0.0754662 0
0.0244527 0.0754609 0
0.0300841 0.0754483 0
0.0361915 0.0754252 0
0.0429128 0.0753886 0
0.0503675 0.0753361 0
0.0586657 0.0752667 0
0.0679124 0.0751822 0
0.0782806 0.0751574 0
0.0899354 0.0752313 0
0.1027627 0.0752407 0
0.1168512 0.0752585 0
0.1323158 0.0753823 0
0.1493135 0.0757296 0
0.1680639 0.0764274 0
0.1888798 0.0775977 0
0.2122170 0.0793333 0
0.2387685 0.0816621 0
0.2696731 0.0844785 0
0.3071016 0.0873543 0
0.3571138 0.0885672 0
0.4424213 0.0793215 0
0.5287913 0.0700381 0
0.5989885 0.0677756 0
0.6560369 0.0799532 0
0.7043514 0.1086691 0
0.7462631 0.1521981 0
0.7830443 0.2119880 0.1074294
0.8150077 0.2995303 0.2091742
0.8428635 0.4086670 0.3404689
0.8686468 0.5134460 0.4558886
0.8926389 0.5992609 0.5603633
0.9150806 0.6665377 0.6387727
0.9361684 0.7227094 0.7016203
0.9560620 0.7713550 0.7547426
0.9748930 0.8144964 0.8011122
0.9927710 0.8533999 0.8424658
1 0.8889180 0.8799156
0 0.0858633 0
0 0.0858640 0
0 0.0858646 0
0 0.0858648 0
0 0.0858643 0
0.0061530 0.0858625 0
0.0130873 0.0858585 0
0.0186212 0.0858510 0
0.0240330 0.0858381 0
0.0296830 0.0858176 0
0.0357704 0.0857866 0
0.0424424 0.0857421 0
0.0498247 0.0856808 0
0.0580338 0.0856007 0
0.0671808 0.0855014 0
0.0773748 0.0853860 0
0.0887740 0.0853112 0
0.1015179 0.0853042 0
0.1155612 0.0852674 0
0.1310200 0.0852819 0
0.1480482 0.0854511 0
0.1668597 0.0858940 0
0.1877595 0.0867324 0
0.2111956 0.0880708 0
0.2378538 0.0899628 0
0.2688683 0.0923474 0
0.3064100 0.0948778 0
0.3565700 0.0960669 0
0.4419635 0.0884333 0
0.5283653 0.0808485 0
0.5986669 0.0791880 0
0.6557906 0.0898461 0
0.7041604 0.1160357 0
0.7461116 0.1574637 0
0.7829104 0.2160341 0.1073763
0.8148916 0.3025421 0.2092986
0.8427811 0.4106345 0.3405888
0.8685895 0.5147284 0.4559626
0.8925991 0.5999349 0.5604039
0.9150530 0.6669246 0.6387950
0.9361492 0.7229426 0.7016338
0.9560488 0.7714997 0.7547513
0.9748839 0.8145879 0.8011181
0.9927648 0.8534585 0.8424699
1 0.8889558 0.8799184
0 0.0972213 0
0 0.0972200 0
0 0.0972182 0
0 0.0972155 0
0 0.0972116 0
0.0055206 0.0972058 0
0.0127842 0.0971973 0
0.0183721 0.0971849 0
0.0237818 0.0971669 0
0.0293975 0.0971412 0
0.0354253 0.0971052 0
0.0420157 0.0970557 0
0.0492979 0.0969895 0
0.0573918 0.0969035 0
0.0664137 0.0967958 0
0.0764783 0.0966667 0
0.0877007 0.0965205 0
0.1002289 0.0963978 0
0.1141874 0.0963204 0
0.1296029 0.0962511 0
0.1466299 0.0962785 0
0.1654788 0.0965104 0
0.1864483 0.0970643 0
0.2099782 0.0980512 0
0.2367466 0.0995456 0
0.2678814 0.1015286 0
0.3055532 0.1037372 0
0.3558938 0.1049367 0
0.4413887 0.0989619 0
0.5278238 0.0929756 0
0.5982555 0.0918737 0
0.6554741 0.1012336 0
0.7039140 0.1249449 0
0.7459154 0.1640553 0
0.7827328 0.2212769 0.1072850
0.8147415 0.3064005 0.2094651
0.8426746 0.4131685 0.3407442
0.8685154 0.5163758 0.4560587
0.8925475 0.6008042 0.5604566
0.9150172 0.6674247 0.6388240
0.9361244 0.7232444 0.7016513
0.9560316 0.7716871 0.7547626
0.9748721 0.8147065 0.8011257
0.9927568 0.8535344 0.8424752
1 0.8890047 0.8799222
0 0.1096186 0
0 0.1096162 0
0 0.1096128 0
0 0.1096084 0
0 0.1096023 0
0.0064616 0.1095941 0
0.0131651 0.1095830 0
0.0185745 0.1095677 0
0.0238568 0.1095468 0
0.0293552 0.1095183 0
0.0352624 0.1094798 0
0.0417236 0.1094283 0
0.0488659 0.1093605 0
0.0568097 0.1092729 0
0.0656735 0.1091626 0
0.0755764 0.1090279 0
0.0866393 0.1088698 0
0.0989862 0.1086937 0
0.1127615 0.1085275 0
0.1280907 0.1083958 0
0.1450765 0.1083144 0
0.1639290 0.1083782 0
0.1849433 0.1086975 0
0.2085524 0.1093852 0
0.2354267 0.1105319 0
0.2666870 0.1121575 0
0.3045038 0.1140837 0
0.3550624 0.1153427 0
0.4406731 0.1110754 0
0.5271391 0.1066146 0
0.5977311 0.1060523 0
0.6550682 0.1143075 0
0.7035966 0.1356331 0
0.7456611 0.1722539 0
0.7824868 0.2282779 0.1070832
0.8145477 0.3113277 0.2096903
0.8425370 0.4164257 0.3409459
0.8684196 0.5184862 0.4561836
0.8924808 0.6019236 0.5605252
0.9149708 0.6680703 0.6388617
0.9360923 0.7236345 0.7016741
0.9560095 0.7719296 0.7547773
0.9748569 0.8148600 0.8011355
0.9927464 0.8536328 0.8424820
1 0.8890681 0.8799270
0 0.1231821 0
0 0.1231790 0
0 0.1231749 0
0 0.1231695 0
0 0.1231625 0
0.0089453 0.1231531 0
0.0144679 0.1231407 0
0.0194331 0.1231242 0
0.0244300 0.1231022 0
0.0297021 0.1230729 0
0.0354076 0.1230342 0
0.0416756 0.1229832 0
0.0486253 0.1229167 0
0.0563734 0.1228312 0
0.0650381 0.1227232 0
0.0747405 0.1225898 0
0.0856055 0.1224296 0
0.0977632 0.1222444 0
0.1113499 0.1220403 0
0.1265173 0.1218379 0
0.1434154 0.1216765 0
0.1622287 0.1216131 0
0.1832521 0.1217484 0
0.2069146 0.1221937 0
0.2338801 0.1230517 0
0.2652633 0.1243771 0
0.3032357 0.1260769 0
0.3540545 0.1274629 0
0.4397916 0.1249618 0
0.5262790 0.1219805 0
0.5970657 0.1219607 0
0.6545492 0.1292871 0
0.7031881 0.1483600 0
0.7453314 0.1823852 0
0.7821539 0.2373923 0.1067424
0.8142977 0.3175954 0.2099991
0.8423597 0.4206019 0.3412076
0.8682960 0.5211805 0.4563459
0.8923947 0.6033620 0.5606144
0.9149109 0.6689027 0.6389108
0.9360508 0.7241384 0.7017038
0.9559808 0.7722433 0.7547964
0.9748372 0.8150587 0.8011483
0.9927329 0.8537601 0.8424909
1 0.8891503 0.8799333
