luts/No_GR_AgX_Base_Rec2100-HLG.cube
TITLE "No_Guard_Rail_AgX_Formation_Rec2100HLG"
# AgX Base Rec.2020 Formation LUT designed to be used on Inverse
# This LUT expects input (output if inverse) to be Rec.2020 Log2 encoding from -10 stops to +6.5 stops
# But the end image formation will be Rec2100-HLG
#  rotate = [3.0, -1, -2.0], inset = [0.4, 0.22, 0.13], outset = [0.4, 0.22, 0.04]
# The image formed has 40% per-channel shifts
LUT_3D_SIZE 5
0 0 0
0.0487481 0 0
0.1935096 0.0279097 0
0.7467644 0.1334239 0
1 0.8887933 0.8799061
0 0.0416942 0
0.0442702 0.0422975 0
0.1917416 0.0511744 0
0.7465936 0.1400824 0
1 0.8888357 0.8799093
0.0127085 0.1727178 0
0.0441896 0.1725589 0
0.1773000 0.1708976 0
0.7436097 0.2286979 0
1 0.8895726 0.8799660
0.0979055 0.7024458 0
0.1060999 0.7024478 0
0.2026330 0.7024468 0
0.7104229 0.6966034 0
1 0.9013340 0.8810390
0.8472929 0.9970287 0.8374834
0.8473736 0.9970253 0.8374994
0.8487683 0.9969670 0.8377791
0.8699117 0.9960769 0.8425831
0.9988474 0.9943351 0.9029518
0 0.0099142 0.0534027
0.0483590 0 0.0490848
0.1932172 0.0316121 0.0407638
0.7467781 0.1331897 0
1 0.8888416 0.8800066
0 0.0444054 0.0453201
0.0446170 0.0446170 0.0446170
0.1914934 0.0532341 0.0404536
0.7466071 0.1398667 0
1 0.8888840 0.8800098
0.0147076 0.1730795 0.0351500
0.0448508 0.1729189 0.0352865
0.1773270 0.1712905 0.0371790
0.7436188 0.2286681 0
1 0.8896204 0.8800663
0.0968323 0.7025136 0
0.1051143 0.7025156 0
0.2021610 0.7025133 0
0.7104200 0.6966555 0
1 0.9013738 0.8811358
0.8473808 0.9970224 0.8376572
0.8474614 0.9970191 0.8376732
0.8488545 0.9969608 0.8379519
0.8699764 0.9960718 0.8427414
0.9988470 0.9943365 0.9030083
0.0259199 0.0608095 0.2119812
0.0537957 0.0608127 0.2100295
0.1898812 0.0666845 0.1921662
0.7467589 0.1358202 0.1788792
1 0.8896722 0.8817330
0.0260892 0.0748906 0.2077615
0.0533030 0.0748364 0.2062173
0.1887463 0.0783588 0.1908918
0.7466128 0.1417729 0.1782525
1 0.8897141 0.8817361
0.0346520 0.1793080 0.1823418
0.0543764 0.1791829 0.1820442
0.1779522 0.1779522 0.1779522
0.7436728 0.2296432 0.1738313
1 0.8904416 0.8817890
0.0912847 0.7035190 0.1647372
0.0986284 0.7035381 0.1638627
0.1925990 0.7036874 0.1541317
0.7103117 0.6975866 0.2068304
1 0.9020588 0.8827981
0.8488801 0.9969162 0.8406177
0.8489592 0.9969129 0.8406328
0.8503262 0.9968558 0.8408966
0.8710842 0.9959847 0.8454440
0.9988401 0.9943616 0.9039858
0.1918715 0.2925587 0.7789368
0.1969094 0.2924516 0.7788216
0.2664713 0.2868986 0.7775151
0.7377967 0.3198401 0.7421446
1 0.8982010 0.9025270
0.1918041 0.2956461 0.7785912
0.1968295 0.2955379 0.7784779
0.2662903 0.2900622 0.7771885
0.7376013 0.3238621 0.7419324
1 0.8982641 0.9025529
0.1905446 0.3450046 0.7729857
0.1953767 0.3448964 0.7728981
0.2632634 0.3406859 0.7718373
0.7344404 0.3852480 0.7384838
1 0.8993523 0.9029989
0.1570795 0.7166105 0.7229299
0.1619726 0.7166120 0.7229127
0.2421471 0.7164138 0.7223595
0.7110665 0.7110665 0.7110665
1 0.9117574 0.9058022
0.8589615 0.9964109 0.8695620
0.8590862 0.9964032 0.8696201
0.8612219 0.9962706 0.8706162
0.8857116 0.9948895 0.8800302
0.9987510 0.9947779 0.9186703
0.8398702 0.8721407 1
0.8401253 0.8722507 1
0.8444041 0.8741032 1
0.8902179 0.8947612 1
1 0.9311540 1
0.8398864 0.8722085 1
0.8401414 0.8723184 1
0.8444185 0.8741688 1
0.8902210 0.8948072 1
1 0.9311862 1
0.8401681 0.8733813 1
0.8404213 0.8734891 1
0.8446704 0.8753038 1
0.8902761 0.8956052 1
1 0.9317453 1
0.8449492 0.8912670 1
0.8451752 0.8913452 1
0.8489814 0.8926676 1
0.8913593 0.9081489 1
1 0.9405028 1
0.8939840 1 1
0.8940575 1 1
0.8953232 1 1
0.9135162 1 1
1 1 1
