luts/No_GR_AgX_Base_Rec2100-HLG.cube
TITLE "No_Guard_Rail_AgX_Formation_Rec2100HLG"
# AgX Base Rec.2020 Formation LUT designed to be used on Inverse
# This LUT expects input (output if inverse) to be Rec.2020 Log2 encoding from -10 stops to +6.5 stops
# But the end image formation will be Rec2100-HLG
#  rotate = [3.0, -1, -2.0], inset = [0.4, 0.22, 0.13], outset = [0.4, 0.22, 0.04]
# The image formed has 40% per-channel shifts
LUT_3D_SIZE 8
DOMAIN_MIN 0.000000 0.000000 0.000000
DOMAIN_MAX 0.954545 0.954545 0.954545
0 0 0
0.0171662 0 0
0.0570096 0 0
0.1239102 0 0
0.2422533 0.0422871 0
0.6000781 0 0
0.8431372 0.4020869 0.3400735
0.9749229 0.8141936 0.8010930
0 0.0141489 0
0.0159122 0.0150588 0
0.0554535 0.0157784 0
0.1231046 0.0175275 0
0.2419525 0.0466748 0
0.5999919 0 0
0.8431158 0.4026030 0.3401042
0.9749206 0.8142171 0.8010945
0 0.0490528 0
0.0159707 0.0492348 0
0.0517075 0.0494727 0
0.1200116 0.0505637 0
0.2405961 0.0633104 0
0.5995852 0.0390469 0
0.8430144 0.4050467 0.3402503
0.9749095 0.8143291 0.8011016
0 0.1096186 0
0.0131651 0.1095830 0
0.0488659 0.1093605 0
0.1127615 0.1085275 0
0.2354267 0.1105319 0
0.5977311 0.1060523 0
0.8425370 0.4164257 0.3409459
0.9748569 0.8148600 0.8011355
0.0270869 0.2162230 0
0.0333606 0.2161999 0
0.0539651 0.2160924 0
0.1064563 0.2156525 0
0.2229773 0.2148275 0
0.5902441 0.2380961 0
0.8403746 0.4657635 0.3442705
0.9746099 0.8173433 0.8012996
0 0.5385926 0
0 0.5386153 0
0.0429334 0.5387232 0
0.1037075 0.5392312 0
0.2329397 0.5414553 0
0.5635955 0.5447340 0
0.8320943 0.6112620 0.3605350
0.9735020 0.8283028 0.8021336
0.2731142 0.8121756 0.2136409
0.2739173 0.8121698 0.2136690
0.2777042 0.8121425 0.2138043
0.2950376 0.8120128 0.2144743
0.3662593 0.8113968 0.2183353
0.5799582 0.8085937 0.2627010
0.8131343 0.8028854 0.4351632
0.9693382 0.8674749 0.8067981
0.7605612 0.9592583 0.7457758
0.7606066 0.9592568 0.7457841
0.7608219 0.9592498 0.7458232
0.7618402 0.9592168 0.7460091
0.7665534 0.9590625 0.7468914
0.7864498 0.9583882 0.7510261
0.8486916 0.9561156 0.7688949
0.9601026 0.9544167 0.8298878
0 0.0030655 0.0185168
0.0174646 0 0.0177839
0.0570579 0 0.0141254
0.1238668 0 0
0.2422049 0.0428560 0.0157164
0.6001127 0 0
0.8431164 0.4024585 0.3411483
0.9749195 0.8142178 0.8011473
0 0.0156435 0.0160312
0.0161900 0.0161900 0.0161900
0.0557931 0.0141093 0.0102639
0.1230654 0.0181576 0
0.2419055 0.0471863 0.0156946
0.6000263 0 0
0.8430951 0.4029738 0.3411787
0.9749172 0.8142414 0.8011487
0 0.0496252 0.0143347
0.0129333 0.0499328 0.0104745
0.0518004 0.0499146 0.0053254
0.1199901 0.0508421 0
0.2405552 0.0636733 0.0155958
0.5996193 0.0379909 0
0.8429938 0.4054142 0.3413235
0.9749061 0.8143533 0.8011558
0 0.1098136 0
0.0119820 0.1097851 0
0.0487201 0.1095486 0
0.1127755 0.1086940 0
0.2354053 0.1107103 0.0152195
0.5977636 0.1056937 0
0.8425168 0.4167775 0.3420126
0.9748535 0.8148841 0.8011897
0.0274072 0.2162845 0
0.0336190 0.2162614 0
0.0541183 0.2161544 0
0.1065169 0.2157168 0
0.2229843 0.2148967 0.0116490
0.5902697 0.2379896 0
0.8403563 0.4660558 0.3453077
0.9746066 0.8173667 0.8013535
0 0.5386535 0
0 0.5386762 0
0.0419554 0.5387840 0
0.1033179 0.5392914 0
0.2327982 0.5415124 0
0.5636049 0.5447684 0
0.8320826 0.6113667 0.3614537
0.9734989 0.8283232 0.8021863
0.2733446 0.8121751 0.2147420
0.2741472 0.8121693 0.2147706
0.2779317 0.8121420 0.2149077
0.2952556 0.8120122 0.2155872
0.3664551 0.8113956 0.2195074
0.5800777 0.8085903 0.2639955
0.8131332 0.8028898 0.4357621
0.9693361 0.8674865 0.8068453
0.7606059 0.9592559 0.7458713
0.7606512 0.9592544 0.7458795
0.7608665 0.9592474 0.7459186
0.7618843 0.9592144 0.7461043
0.7665954 0.9590601 0.7469854
0.7864836 0.9583861 0.7511148
0.8487064 0.9561145 0.7689640
0.9601024 0.9544173 0.8299181
0 0.0120617 0.0625730
0.0192760 0.0063801 0.0624556
0.0563688 0 0.0571878
0.1233267 0.0091323 0.0507291
0.2419871 0.0453739 0.0492071
0.6002802 0 0
0.8430183 0.4042113 0.3461969
0.9749033 0.8143329 0.8014049
0 0.0241677 0.0591427
0.0164376 0.0217945 0.0595839
0.0553325 0.0203102 0.0560088
0.1226225 0.0236027 0.0502573
0.2416914 0.0494901 0.0491662
0.6001935 0 0
0.8429970 0.4047232 0.3462260
0.9749009 0.8143565 0.8014064
0 0.0519842 0.0530243
0.0140894 0.0521709 0.0530557
0.0520564 0.0520564 0.0520564
0.1197882 0.0526506 0.0486383
0.2403688 0.0653316 0.0488633
0.5997846 0.0323446 0
0.8428962 0.4071473 0.3463644
0.9748899 0.8144683 0.8014134
0 0.1105783 0.0469420
0.0134995 0.1105635 0.0466410
0.0487359 0.1103611 0.0459133
0.1128359 0.1094849 0.0451270
0.2353088 0.1115371 0.0476763
0.5979205 0.1039259 0
0.8424213 0.4184376 0.3470238
0.9748373 0.8149983 0.8014470
0.0286505 0.2165827 0.0422145
0.0346988 0.2165579 0.0422881
0.0548232 0.2164502 0.0424531
0.1067929 0.2160236 0.0428568
0.2230183 0.2152255 0.0437040
0.5903933 0.2374687 0
0.8402701 0.4674363 0.3501828
0.9745907 0.8174775 0.8016096
0 0.5389446 0
0 0.5389672 0
0.0367847 0.5390743 0
0.1013888 0.5395789 0
0.2321076 0.5417845 0
0.5636500 0.5449317 0
0.8320270 0.6118616 0.3657791
0.9734843 0.8284199 0.8024364
0.2744654 0.8121721 0.2199575
0.2752655 0.8121663 0.2199881
0.2790390 0.8121389 0.2201350
0.2963182 0.8120086 0.2208630
0.3674208 0.8113887 0.2250933
0.5806412 0.8085746 0.2700448
0.8131280 0.8029111 0.4385939
0.9693261 0.8675417 0.8070691
0.7608179 0.9592444 0.7463241
0.7608631 0.9592430 0.7463323
0.7610779 0.9592360 0.7463711
0.7620935 0.9592030 0.7465556
0.7667947 0.9590491 0.7474311
0.7866441 0.9583763 0.7515352
0.8487766 0.9561089 0.7692919
0.9601015 0.9544203 0.8300618
0 0.0341332 0.1363651
0.0214986 0.0330708 0.1360227
0.0562797 0.0324241 0.1325228
0.1214379 0.0352692 0.1229588
0.2411107 0.0550447 0.1118533
0.6009181 0 0
0.8425655 0.4122338 0.3688980
0.9748265 0.8148758 0.8026184
0 0.0407759 0.1343804
0.0212539 0.0399999 0.1340677
0.0556232 0.0391707 0.1311668
0.1209230 0.0412737 0.1223839
0.2408410 0.0584164 0.1117220
0.6008708 0 0
0.8425447 0.4127304 0.3689216
0.9748242 0.8148992 0.8026198
0 0.0624701 0.1279584
0.0205504 0.0621712 0.1277383
0.0536920 0.0614972 0.1261359
0.1188177 0.0618975 0.1200013
0.2396238 0.0721385 0.1111121
0.6006322 0 0
0.8424459 0.4150825 0.3690337
0.9748132 0.8150103 0.8026266
0.0054545 0.1141026 0.1161055
0.0216446 0.1140735 0.1160060
0.0514251 0.1138821 0.1154727
0.1131575 0.1131575 0.1131575
0.2349528 0.1150465 0.1084851
0.5987218 0.0940265 0
0.8419807 0.4260464 0.3695689
0.9747610 0.8155369 0.8026590
0.0330944 0.2180272 0.1035602
0.0384168 0.2180044 0.1035599
0.0572396 0.2179008 0.1035453
0.1077989 0.2175133 0.1031821
0.2231913 0.2167791 0.1011830
0.5910136 0.2346847 0
0.8398715 0.4737887 0.3721587
0.9745157 0.8180004 0.8028156
0 0.5401410 0.0602334
0 0.5401791 0.0593027
0 0.5403605 0.0545554
0.0904035 0.5409717 0.0433897
0.2284448 0.5430938 0.0128739
0.5638626 0.5457054 0
0.8317692 0.6141497 0.3854249
0.9734154 0.8288765 0.8036146
0.2805698 0.8121406 0.2447027
0.2813602 0.8121346 0.2447484
0.2850898 0.8121064 0.2449685
0.3022050 0.8119718 0.2460742
0.3736966 0.8113086 0.2539729
0.5832170 0.8085048 0.2966979
0.8131039 0.8030117 0.4516968
0.9692790 0.8678025 0.8081246
0.7618135 0.9591908 0.7484460
0.7618582 0.9591894 0.7484539
0.7620708 0.9591825 0.7484916
0.7630762 0.9591498 0.7486706
0.7677307 0.9589971 0.7495200
0.7873988 0.9583301 0.7535072
0.8491079 0.9560829 0.7708343
0.9600972 0.9544346 0.8307415
0.0392396 0.0791711 0.2644193
0.0449997 0.0792240 0.2640654
0.0657514 0.0795100 0.2624379
0.1207689 0.0804607 0.2563800
0.2383658 0.0857421 0.2412718
0.6005919 0.0234348 0.2340481
0.8409689 0.4397810 0.4512781
0.9744743 0.8173577 0.8081333
0.0392703 0.0817284 0.2636657
0.0450015 0.0817760 0.2633245
0.0656714 0.0820333 0.2617546
0.1205881 0.0828955 0.2558742
0.2381789 0.0877787 0.2410612
0.6005481 0.0293080 0.2337695
0.8409382 0.4404242 0.4514735
0.9744720 0.8173804 0.8081345
0.0394571 0.0926928 0.2604226
0.0450570 0.0927216 0.2601319
0.0653552 0.0928779 0.2587909
0.1197916 0.0934089 0.2536422
0.2373241 0.0967894 0.2400945
0.6003418 0.0482829 0.2324297
0.8407928 0.4434617 0.4523975
0.9744613 0.8174882 0.8081401
0.0408836 0.1302497 0.2497412
0.0459544 0.1302448 0.2495749
0.0647627 0.1302230 0.2488048
0.1169757 0.1300371 0.2456872
0.2338795 0.1302079 0.2361374
0.5993938 0.0965665 0.2257256
0.8401359 0.4571174 0.4563491
0.9744104 0.8179994 0.8081671
0.0486081 0.2249985 0.2288423
0.0522622 0.2249834 0.2287979
0.0668894 0.2249158 0.2285915
0.1121151 0.2246706 0.2276974
0.2240601 0.2240601 0.2240601
0.5944504 0.2156177 0.1925114
0.8381950 0.5001170 0.4572444
0.9741714 0.8203918 0.8082981
0 0.5449717 0.2241660
0 0.5450080 0.2239719
0.0249694 0.5451811 0.2230273
0.0845956 0.5460098 0.2180628
0.2030833 0.5495104 0.1879957
0.5647897 0.5493486 0.1478485
0.8306671 0.6237883 0.4633071
0.9730989 0.8309688 0.8089760
0.3044929 0.8120344 0.3444447
0.3056061 0.8120204 0.3448253
0.3108226 0.8119542 0.3466145
0.3340686 0.8116491 0.3546973
0.4068233 0.8107871 0.3696662
0.5937116 0.8082588 0.3939718
0.8130026 0.8034794 0.5070226
0.9690619 0.8690053 0.8129494
0.7662764 0.9589498 0.7578743
0.7663192 0.9589484 0.7578812
0.7665222 0.9589418 0.7579140
0.7674827 0.9589103 0.7580699
0.7719330 0.9587635 0.7588105
0.7908032 0.9581223 0.7623066
0.8506240 0.9559657 0.7778006
0.9600775 0.9545019 0.8338894
0.1061577 0.1888595 0.6333320
0.1082017 0.1886832 0.6333142
0.1173222 0.1877747 0.6332505
0.1521023 0.1821616 0.6332983
0.2745973 0.1728778 0.6286721
0.5987432 0.1268319 0.6046421
0.8387821 0.4769415 0.6243097
0.9732821 0.8256943 0.8282026
0.1061222 0.1900250 0.6331342
0.1081639 0.1898497 0.6331168
0.1172749 0.1889471 0.6330547
0.1520277 0.1833790 0.6331067
0.2743524 0.1738470 0.6285840
0.5987068 0.1280499 0.6045987
0.8387553 0.4774968 0.6243550
0.9732781 0.8257280 0.8282159
0.1059554 0.1954529 0.6322098
0.1079862 0.1952825 0.6321941
0.1170531 0.1944070 0.6321392
0.1516783 0.1890426 0.6322105
0.2731784 0.1783739 0.6281714
0.5985336 0.1337068 0.6043920
0.8386281 0.4801221 0.6245694
0.9732590 0.8258881 0.8282792
0.1051992 0.2190742 0.6281438
0.1071829 0.2189234 0.6281349
0.1160562 0.2181565 0.6281086
0.1501194 0.2135806 0.6282559
0.2673805 0.1983402 0.6263357
0.5977045 0.1581965 0.6034031
0.8380350 0.4922684 0.6255682
0.9731687 0.8266443 0.8285783
0.1016962 0.3041820 0.6136493
0.1035276 0.3040920 0.6136560
0.1117687 0.3036444 0.6136948
0.1439475 0.3011371 0.6140034
0.2447112 0.2827072 0.6167313
0.5930708 0.2536083 0.5979659
0.8354561 0.5405143 0.6299099
0.9727667 0.8300213 0.8298550
0.0419973 0.5655307 0.5739542
0.0452778 0.5655553 0.5739675
0.0584100 0.5656719 0.5740307
0.0995243 0.5662222 0.5743295
0.2080805 0.5685344 0.5754583
0.5665153 0.5665153 0.5665153
0.8270935 0.6542547 0.6423986
0.9718036 0.8394547 0.8301401
0.3308086 0.8132538 0.5733162
0.3317950 0.8132410 0.5734331
0.3364304 0.8131805 0.5739841
0.3573157 0.8129001 0.5765038
0.4382357 0.8117063 0.5867518
0.6251191 0.8080865 0.6151142
0.8127433 0.8055302 0.6436975
0.9681634 0.8740119 0.8323187
0.7752213 0.9585942 0.7849690
0.7752885 0.9585910 0.7849994
0.7756071 0.9585757 0.7851441
0.7771053 0.9585035 0.7858251
0.7838593 0.9581738 0.7889159
0.8038310 0.9573436 0.7946819
0.8567487 0.9555289 0.8045526
0.9599995 0.9548116 0.8471999
0.3261369 0.4499917 0.8768476
0.3268796 0.4501264 0.8768153
0.3303854 0.4507628 0.8766627
0.3465350 0.4537185 0.8759491
0.4205493 0.4699776 0.8721923
0.6307971 0.5136968 0.8590280
0.8321246 0.5921269 0.8353919
0.9720854 0.8353272 0.8741135
0.3261206 0.4504899 0.8768044
0.3268632 0.4506243 0.8767722
0.3303686 0.4512593 0.8766198
0.3465171 0.4542089 0.8759070
0.4205511 0.4704494 0.8721525
0.6308390 0.5142191 0.8589819
0.8321088 0.5923737 0.8353745
0.9720819 0.8353562 0.8741194
0.3260436 0.4528497 0.8765999
0.3267858 0.4529827 0.8765679
0.3302893 0.4536112 0.8764164
0.3464325 0.4565321 0.8757079
0.4205620 0.4726861 0.8719633
0.6310370 0.5166749 0.8587637
0.8320339 0.5935412 0.8352923
0.9720655 0.8354939 0.8741476
0.3256917 0.4638590 0.8756431
0.3264320 0.4639858 0.8756121
0.3299268 0.4645847 0.8754651
0.3460463 0.4673766 0.8747759
0.4206708 0.4831573 0.8710736
0.6319595 0.5277537 0.8577528
0.8316827 0.5989457 0.8349063
0.9719879 0.8361452 0.8742807
0.3243269 0.5117221 0.8714268
0.3250595 0.5118207 0.8713995
0.3285219 0.5122875 0.8712702
0.3445673 0.5144810 0.8706578
0.4231128 0.5283493 0.8669983
0.6359729 0.5701605 0.8534663
0.8301182 0.6217547 0.8331807
0.9716278 0.8391557 0.8748999
0.3243657 0.6402384 0.8566443
0.3251012 0.6402710 0.8566254
0.3285953 0.6404280 0.8565344
0.3452281 0.6412238 0.8560804
0.4382849 0.6481150 0.8526302
0.6446305 0.6704265 0.8410811
0.8244446 0.6924314 0.8268192
0.9700955 0.8517871 0.8775643
0.4354455 0.8193894 0.8243443
0.4361034 0.8193811 0.8243333
0.4392111 0.8193418 0.8242810
0.4535234 0.8191589 0.8240365
0.5127060 0.8183643 0.8229635
0.6503421 0.8157653 0.8192465
0.8135917 0.8135917 0.8135917
0.9655795 0.8891763 0.8851651
0.7840766 0.9592635 0.8473724
0.7841367 0.9592606 0.8473865
0.7844222 0.9592469 0.8474534
0.7857657 0.9591823 0.8477691
0.7918496 0.9588869 0.8492142
0.8154408 0.9577014 0.8550627
0.8740626 0.9548506 0.8707244
0.9598668 0.9561213 0.8886843
0.7503786 0.7972540 0.9983931
0.7505157 0.7973068 0.9983758
0.7511645 0.7975567 0.9982938
0.7541766 0.7987213 0.9979105
0.7670368 0.8037718 0.9962279
0.8082600 0.8207689 0.9903316
0.8724587 0.8374131 0.9825421
0.9691457 0.8697922 0.9709742
0.7503867 0.7972903 0.9983874
0.7505238 0.7973430 0.9983701
0.7511725 0.7975928 0.9982881
0.7541841 0.7987569 0.9979048
0.7670425 0.8038049 0.9962227
0.8082619 0.8207950 0.9903276
0.8724653 0.8374449 0.9825363
0.9691439 0.8698089 0.9709721
0.7504253 0.7974624 0.9983600
0.7505623 0.7975151 0.9983428
0.7512105 0.7977643 0.9982608
0.7542200 0.7989256 0.9978781
0.7670701 0.8039625 0.9961979
0.8082710 0.8209194 0.9903087
0.8724970 0.8375957 0.9825088
0.9691350 0.8698882 0.9709622
0.7506086 0.7982771 0.9982305
0.7507451 0.7983291 0.9982134
0.7513912 0.7985756 0.9981319
0.7543904 0.7997242 0.9977514
0.7672010 0.8047079 0.9960807
0.8083147 0.8215085 0.9902191
0.8726465 0.8383083 0.9823788
0.9690932 0.8702641 0.9709152
0.7514776 0.8020552 0.9976255
0.7516119 0.8021046 0.9976088
0.7522474 0.8023386 0.9975296
0.7551986 0.8034293 0.9971595
0.7678243 0.8081712 0.9955322
0.8085265 0.8242557 0.9897987
0.8733388 0.8415868 0.9817776
0.9688979 0.8720194 0.9706956
0.7555274 0.8181311 0.9949700
0.7556519 0.8181702 0.9949553
0.7562409 0.8183555 0.9948854
0.7589813 0.8192209 0.9945586
0.7707853 0.8230140 0.9931131
0.8096104 0.8362216 0.9879259
0.8762700 0.8550959 0.9792568
0.9680418 0.8797050 0.9697293
0.7725308 0.8693999 0.9856573
0.7726221 0.8694154 0.9856482
0.7730547 0.8694893 0.9856051
0.7750783 0.8698362 0.9854024
0.7840023 0.8713941 0.9844895
0.8155855 0.8772858 0.9810114
0.8827055 0.8920800 0.9725729
0.9651384 0.9063131 0.9663893
0.8206243 0.9634998 0.9664413
0.8206627 0.9634982 0.9664391
0.8208451 0.9634904 0.9664291
0.8217062 0.9634536 0.9663816
0.8256606 0.9632842 0.9661622
0.8418278 0.9625855 0.9652451
0.8880514 0.9607141 0.9625970
0.9610158 0.9610158 0.9610158
