luts/Protune_to_Linear.spi1d
Version 1
From 0 1
Length 4096
Components 1
{
	0.000000000000
	0.000019469996
	0.000038962482
	0.000058477484
	0.000078015027
	0.000097575139
	0.000117157844
	0.000136763168
	0.000156391139
	0.000176041782
	0.000195715124
	0.000215411190
	0.000235130007
	0.000254871601
	0.000274635998
	0.000294423225
	0.000314233309
	0.000334066275
	0.000353922149
	0.000373800960
	0.000393702732
	0.000413627493
	0.000433575268
	0.000453546086
	0.000473539971
	0.000493556952
	0.000513597054
	0.000533660304
	0.000553746729
	0.000573856356
	0.000593989211
	0.000614145322
	0.000634324715
	0.000654527417
	0.000674753455
	0.000695002857
	0.000715275648
	0.000735571856
	0.000755891508
	0.000776234632
	0.000796601254
	0.000816991401
	0.000837405100
	0.000857842380
	0.000878303266
	0.000898787787
	0.000919295970
	0.000939827841
	0.000960383428
	0.000980962760
	0.001001565862
	0.001022192763
	0.001042843490
	0.001063518070
	0.001084216532
	0.001104938902
	0.001125685209
	0.001146455480
	0.001167249742
	0.001188068024
	0.001208910352
	0.001229776756
	0.001250667262
	0.001271581899
	0.001292520695
	0.001313483676
	0.001334470872
	0.001355482310
	0.001376518018
	0.001397578025
	0.001418662358
	0.001439771045
	0.001460904115
	0.001482061596
	0.001503243515
	0.001524449902
	0.001545680784
	0.001566936190
	0.001588216148
	0.001609520686
	0.001630849833
	0.001652203617
	0.001673582067
	0.001694985211
	0.001716413078
	0.001737865696
	0.001759343094
	0.001780845300
	0.001802372343
	0.001823924252
	0.001845501056
	0.001867102783
	0.001888729462
	0.001910381122
	0.001932057792
	0.001953759500
	0.001975486276
	0.001997238148
	0.002019015146
	0.002040817298
	0.002062644634
	0.002084497183
	0.002106374973
	0.002128278035
	0.002150206396
	0.002172160087
	0.002194139136
	0.002216143574
	0.002238173428
	0.002260228729
	0.002282309507
	0.002304415789
	0.002326547607
	0.002348704988
	0.002370887964
	0.002393096563
	0.002415330816
	0.002437590751
	0.002459876398
	0.002482187787
	0.002504524949
	0.002526887911
	0.002549276705
	0.002571691361
	0.002594131907
	0.002616598374
	0.002639090793
	0.002661609192
	0.002684153602
	0.002706724053
	0.002729320575
	0.002751943198
	0.002774591953
	0.002797266869
	0.002819967977
	0.002842695306
	0.002865448888
	0.002888228753
	0.002911034930
	0.002933867451
	0.002956726345
	0.002979611644
	0.003002523377
	0.003025461576
	0.003048426270
	0.003071417491
	0.003094435269
	0.003117479635
	0.003140550619
	0.003163648253
	0.003186772566
	0.003209923590
	0.003233101356
	0.003256305894
	0.003279537236
	0.003302795412
	0.003326080454
	0.003349392392
	0.003372731258
	0.003396097082
	0.003419489896
	0.003442909731
	0.003466356618
	0.003489830588
	0.003513331674
	0.003536859905
	0.003560415313
	0.003583997931
	0.003607607788
	0.003631244917
	0.003654909350
	0.003678601117
	0.003702320250
	0.003726066781
	0.003749840742
	0.003773642164
	0.003797471078
	0.003821327518
	0.003845211514
	0.003869123098
	0.003893062302
	0.003917029159
	0.003941023699
	0.003965045956
	0.003989095960
	0.004013173745
	0.004037279342
	0.004061412783
	0.004085574100
	0.004109763326
	0.004133980493
	0.004158225633
	0.004182498779
	0.004206799962
	0.004231129216
	0.004255486572
	0.004279872063
	0.004304285722
	0.004328727581
	0.004353197673
	0.004377696030
	0.004402222685
	0.004426777670
	0.004451361019
	0.004475972764
	0.004500612938
	0.004525281574
	0.004549978704
	0.004574704362
	0.004599458581
	0.004624241392
	0.004649052831
	0.004673892929
	0.004698761720
	0.004723659236
	0.004748585512
	0.004773540580
	0.004798524473
	0.004823537225
	0.004848578869
	0.004873649439
	0.004898748968
	0.004923877489
	0.004949035035
	0.004974221642
	0.004999437341
	0.005024682167
	0.005049956153
	0.005075259332
	0.005100591740
	0.005125953409
	0.005151344372
	0.005176764665
	0.005202214321
	0.005227693374
	0.005253201857
	0.005278739805
	0.005304307252
	0.005329904232
	0.005355530778
	0.005381186926
	0.005406872709
	0.005432588162
	0.005458333318
	0.005484108213
	0.005509912880
	0.005535747354
	0.005561611669
	0.005587505860
	0.005613429961
	0.005639384007
	0.005665368033
	0.005691382072
	0.005717426161
	0.005743500332
	0.005769604622
	0.005795739065
	0.005821903695
	0.005848098549
	0.005874323659
	0.005900579063
	0.005926864794
	0.005953180887
	0.005979527378
	0.006005904302
	0.006032311693
	0.006058749588
	0.006085218021
	0.006111717027
	0.006138246643
	0.006164806902
	0.006191397842
	0.006218019496
	0.006244671901
	0.006271355092
	0.006298069105
	0.006324813974
	0.006351589737
	0.006378396429
	0.006405234084
	0.006432102740
	0.006459002432
	0.006485933195
	0.006512895066
	0.006539888080
	0.006566912275
	0.006593967684
	0.006621054345
	0.006648172294
	0.006675321567
	0.006702502199
	0.006729714228
	0.006756957690
	0.006784232620
	0.006811539055
	0.006838877032
	0.006866246587
	0.006893647757
	0.006921080577
	0.006948545085
	0.006976041317
	0.007003569310
	0.007031129100
	0.007058720724
	0.007086344220
	0.007113999623
	0.007141686971
	0.007169406300
	0.007197157648
	0.007224941052
	0.007252756548
	0.007280604173
	0.007308483965
	0.007336395961
	0.007364340198
	0.007392316713
	0.007420325544
	0.007448366728
	0.007476440302
	0.007504546303
	0.007532684770
	0.007560855740
	0.007589059249
	0.007617295336
	0.007645564039
	0.007673865395
	0.007702199441
	0.007730566216
	0.007758965758
	0.007787398103
	0.007815863291
	0.007844361359
	0.007872892345
	0.007901456286
	0.007930053222
	0.007958683190
	0.007987346229
	0.008016042376
	0.008044771669
	0.008073534148
	0.008102329850
	0.008131158814
	0.008160021079
	0.008188916682
	0.008217845662
	0.008246808058
	0.008275803908
	0.008304833251
	0.008333896126
	0.008362992571
	0.008392122626
	0.008421286328
	0.008450483718
	0.008479714833
	0.008508979713
	0.008538278396
	0.008567610923
	0.008596977331
	0.008626377660
	0.008655811950
	0.008685280239
	0.008714782566
	0.008744318972
	0.008773889495
	0.008803494175
	0.008833133051
	0.008862806163
	0.008892513550
	0.008922255252
	0.008952031308
	0.008981841759
	0.009011686644
	0.009041566002
	0.009071479874
	0.009101428299
	0.009131411318
	0.009161428969
	0.009191481295
	0.009221568333
	0.009251690125
	0.009281846710
	0.009312038129
	0.009342264422
	0.009372525630
	0.009402821792
	0.009433152949
	0.009463519141
	0.009493920409
	0.009524356794
	0.009554828335
	0.009585335074
	0.009615877051
	0.009646454308
	0.009677066883
	0.009707714820
	0.009738398157
	0.009769116937
	0.009799871200
	0.009830660987
	0.009861486339
	0.009892347298
	0.009923243904
	0.009954176198
	0.009985144222
	0.010016148017
	0.010047187625
	0.010078263086
	0.010109374442
	0.010140521735
	0.010171705006
	0.010202924297
	0.010234179649
	0.010265471104
	0.010296798704
	0.010328162490
	0.010359562504
	0.010390998788
	0.010422471384
	0.010453980334
	0.010485525680
	0.010517107463
	0.010548725727
	0.010580380513
	0.010612071863
	0.010643799820
	0.010675564425
	0.010707365722
	0.010739203752
	0.010771078558
	0.010802990183
	0.010834938669
	0.010866924058
	0.010898946393
	0.010931005718
	0.010963102074
	0.010995235504
	0.011027406051
	0.011059613759
	0.011091858669
	0.011124140826
	0.011156460271
	0.011188817048
	0.011221211201
	0.011253642772
	0.011286111805
	0.011318618342
	0.011351162428
	0.011383744105
	0.011416363417
	0.011449020408
	0.011481715120
	0.011514447598
	0.011547217885
	0.011580026025
	0.011612872062
	0.011645756039
	0.011678678000
	0.011711637989
	0.011744636050
	0.011777672227
	0.011810746563
	0.011843859104
	0.011877009893
	0.011910198975
	0.011943426393
	0.011976692191
	0.012009996415
	0.012043339109
	0.012076720317
	0.012110140083
	0.012143598452
	0.012177095468
	0.012210631177
	0.012244205623
	0.012277818851
	0.012311470905
	0.012345161831
	0.012378891672
	0.012412660475
	0.012446468285
	0.012480315145
	0.012514201102
	0.012548126200
	0.012582090485
	0.012616094002
	0.012650136797
	0.012684218914
	0.012718340399
	0.012752501298
	0.012786701655
	0.012820941518
	0.012855220931
	0.012889539940
	0.012923898591
	0.012958296929
	0.012992735000
	0.013027212851
	0.013061730527
	0.013096288074
	0.013130885539
	0.013165522967
	0.013200200405
	0.013234917898
	0.013269675493
	0.013304473237
	0.013339311175
	0.013374189355
	0.013409107822
	0.013444066623
	0.013479065805
	0.013514105415
	0.013549185499
	0.013584306103
	0.013619467275
	0.013654669062
	0.013689911510
	0.013725194667
	0.013760518579
	0.013795883293
	0.013831288857
	0.013866735318
	0.013902222723
	0.013937751120
	0.013973320555
	0.014008931076
	0.014044582731
	0.014080275566
	0.014116009631
	0.014151784972
	0.014187601636
	0.014223459673
	0.014259359128
	0.014295300052
	0.014331282490
	0.014367306491
	0.014403372104
	0.014439479376
	0.014475628355
	0.014511819090
	0.014548051629
	0.014584326019
	0.014620642310
	0.014657000550
	0.014693400787
	0.014729843070
	0.014766327447
	0.014802853968
	0.014839422679
	0.014876033632
	0.014912686873
	0.014949382452
	0.014986120418
	0.015022900821
	0.015059723708
	0.015096589128
	0.015133497133
	0.015170447769
	0.015207441087
	0.015244477135
	0.015281555964
	0.015318677623
	0.015355842160
	0.015393049627
	0.015430300071
	0.015467593543
	0.015504930093
	0.015542309770
	0.015579732624
	0.015617198705
	0.015654708063
	0.015692260748
	0.015729856810
	0.015767496299
	0.015805179265
	0.015842905759
	0.015880675830
	0.015918489529
	0.015956346907
	0.015994248014
	0.016032192900
	0.016070181616
	0.016108214213
	0.016146290741
	0.016184411251
	0.016222575794
	0.016260784420
	0.016299037182
	0.016337334128
	0.016375675312
	0.016414060783
	0.016452490593
	0.016490964793
	0.016529483435
	0.016568046569
	0.016606654248
	0.016645306522
	0.016684003443
	0.016722745063
	0.016761531433
	0.016800362605
	0.016839238631
	0.016878159562
	0.016917125451
	0.016956136349
	0.016995192308
	0.017034293381
	0.017073439619
	0.017112631075
	0.017151867801
	0.017191149849
	0.017230477271
	0.017269850121
	0.017309268449
	0.017348732310
	0.017388241756
	0.017427796838
	0.017467397611
	0.017507044126
	0.017546736436
	0.017586474596
	0.017626258656
	0.017666088671
	0.017705964693
	0.017745886776
	0.017785854973
	0.017825869337
	0.017865929921
	0.017906036780
	0.017946189965
	0.017986389531
	0.018026635532
	0.018066928020
	0.018107267051
	0.018147652676
	0.018188084951
	0.018228563929
	0.018269089664
	0.018309662211
	0.018350281622
	0.018390947953
	0.018431661257
	0.018472421590
	0.018513229004
	0.018554083554
	0.018594985296
	0.018635934283
	0.018676930570
	0.018717974212
	0.018759065263
	0.018800203778
	0.018841389812
	0.018882623420
	0.018923904656
	0.018965233577
	0.019006610236
	0.019048034689
	0.019089506992
	0.019131027199
	0.019172595366
	0.019214211548
	0.019255875800
	0.019297588179
	0.019339348740
	0.019381157538
	0.019423014629
	0.019464920070
	0.019506873915
	0.019548876221
	0.019590927043
	0.019633026438
	0.019675174462
	0.019717371171
	0.019759616622
	0.019801910870
	0.019844253971
	0.019886645983
	0.019929086962
	0.019971576965
	0.020014116047
	0.020056704266
	0.020099341679
	0.020142028342
	0.020184764312
	0.020227549646
	0.020270384401
	0.020313268635
	0.020356202404
	0.020399185766
	0.020442218777
	0.020485301496
	0.020528433979
	0.020571616285
	0.020614848470
	0.020658130593
	0.020701462710
	0.020744844881
	0.020788277162
	0.020831759611
	0.020875292287
	0.020918875247
	0.020962508550
	0.021006192253
	0.021049926415
	0.021093711095
	0.021137546350
	0.021181432238
	0.021225368820
	0.021269356152
	0.021313394294
	0.021357483304
	0.021401623241
	0.021445814164
	0.021490056131
	0.021534349203
	0.021578693437
	0.021623088893
	0.021667535630
	0.021712033707
	0.021756583184
	0.021801184119
	0.021845836573
	0.021890540605
	0.021935296275
	0.021980103641
	0.022024962764
	0.022069873704
	0.022114836520
	0.022159851273
	0.022204918022
	0.022250036827
	0.022295207749
	0.022340430848
	0.022385706184
	0.022431033817
	0.022476413808
	0.022521846217
	0.022567331105
	0.022612868532
	0.022658458559
	0.022704101247
	0.022749796657
	0.022795544850
	0.022841345886
	0.022887199826
	0.022933106733
	0.022979066666
	0.023025079687
	0.023071145858
	0.023117265239
	0.023163437893
	0.023209663881
	0.023255943264
	0.023302276105
	0.023348662464
	0.023395102404
	0.023441595986
	0.023488143273
	0.023534744327
	0.023581399209
	0.023628107982
	0.023674870708
	0.023721687450
	0.023768558270
	0.023815483229
	0.023862462392
	0.023909495820
	0.023956583576
	0.024003725723
	0.024050922324
	0.024098173441
	0.024145479138
	0.024192839478
	0.024240254523
	0.024287724337
	0.024335248984
	0.024382828526
	0.024430463026
	0.024478152550
	0.024525897159
	0.024573696918
	0.024621551890
	0.024669462139
	0.024717427729
	0.024765448724
	0.024813525188
	0.024861657185
	0.024909844779
	0.024958088034
	0.025006387014
	0.025054741785
	0.025103152410
	0.025151618954
	0.025200141482
	0.025248720057
	0.025297354746
	0.025346045612
	0.025394792721
	0.025443596137
	0.025492455927
	0.025541372153
	0.025590344883
	0.025639374181
	0.025688460113
	0.025737602743
	0.025786802138
	0.025836058363
	0.025885371484
	0.025934741566
	0.025984168675
	0.026033652877
	0.026083194238
	0.026132792825
	0.026182448702
	0.026232161937
	0.026281932595
	0.026331760743
	0.026381646447
	0.026431589774
	0.026481590791
	0.026531649563
	0.026581766159
	0.026631940643
	0.026682173084
	0.026732463548
	0.026782812103
	0.026833218815
	0.026883683751
	0.026934206980
	0.026984788567
	0.027035428581
	0.027086127090
	0.027136884159
	0.027187699858
	0.027238574255
	0.027289507416
	0.027340499409
	0.027391550303
	0.027442660166
	0.027493829066
	0.027545057071
	0.027596344249
	0.027647690668
	0.027699096398
	0.027750561506
	0.027802086061
	0.027853670132
	0.027905313788
	0.027957017097
	0.028008780128
	0.028060602951
	0.028112485634
	0.028164428246
	0.028216430857
	0.028268493536
	0.028320616353
	0.028372799376
	0.028425042676
	0.028477346321
	0.028529710383
	0.028582134930
	0.028634620032
	0.028687165760
	0.028739772183
	0.028792439371
	0.028845167395
	0.028897956325
	0.028950806231
	0.029003717184
	0.029056689255
	0.029109722513
	0.029162817029
	0.029215972875
	0.029269190121
	0.029322468838
	0.029375809097
	0.029429210969
	0.029482674525
	0.029536199837
	0.029589786976
	0.029643436013
	0.029697147020
	0.029750920068
	0.029804755229
	0.029858652575
	0.029912612178
	0.029966634109
	0.030020718440
	0.030074865245
	0.030129074593
	0.030183346559
	0.030237681215
	0.030292078632
	0.030346538883
	0.030401062041
	0.030455648178
	0.030510297368
	0.030565009683
	0.030619785196
	0.030674623979
	0.030729526107
	0.030784491652
	0.030839520688
	0.030894613287
	0.030949769523
	0.031004989471
	0.031060273202
	0.031115620792
	0.031171032313
	0.031226507840
	0.031282047447
	0.031337651207
	0.031393319195
	0.031449051484
	0.031504848150
	0.031560709266
	0.031616634908
	0.031672625148
	0.031728680063
	0.031784799727
	0.031840984214
	0.031897233599
	0.031953547959
	0.032009927366
	0.032066371897
	0.032122881627
	0.032179456632
	0.032236096985
	0.032292802764
	0.032349574044
	0.032406410899
	0.032463313407
	0.032520281642
	0.032577315682
	0.032634415601
	0.032691581476
	0.032748813383
	0.032806111398
	0.032863475598
	0.032920906060
	0.032978402859
	0.033035966072
	0.033093595776
	0.033151292048
	0.033209054965
	0.033266884603
	0.033324781041
	0.033382744354
	0.033440774620
	0.033498871917
	0.033557036322
	0.033615267913
	0.033673566766
	0.033731932960
	0.033790366573
	0.033848867682
	0.033907436366
	0.033966072702
	0.034024776768
	0.034083548644
	0.034142388406
	0.034201296135
	0.034260271907
	0.034319315802
	0.034378427898
	0.034437608274
	0.034496857010
	0.034556174183
	0.034615559873
	0.034675014160
	0.034734537122
	0.034794128839
	0.034853789389
	0.034913518854
	0.034973317312
	0.035033184842
	0.035093121526
	0.035153127442
	0.035213202670
	0.035273347292
	0.035333561386
	0.035393845033
	0.035454198313
	0.035514621308
	0.035575114096
	0.035635676760
	0.035696309379
	0.035757012035
	0.035817784808
	0.035878627780
	0.035939541031
	0.036000524643
	0.036061578696
	0.036122703273
	0.036183898455
	0.036245164323
	0.036306500959
	0.036367908444
	0.036429386862
	0.036490936292
	0.036552556818
	0.036614248522
	0.036676011486
	0.036737845791
	0.036799751521
	0.036861728759
	0.036923777586
	0.036985898085
	0.037048090339
	0.037110354432
	0.037172690445
	0.037235098463
	0.037297578568
	0.037360130843
	0.037422755372
	0.037485452238
	0.037548221526
	0.037611063318
	0.037673977698
	0.037736964750
	0.037800024559
	0.037863157207
	0.037926362780
	0.037989641361
	0.038052993035
	0.038116417887
	0.038179916000
	0.038243487460
	0.038307132350
	0.038370850757
	0.038434642765
	0.038498508458
	0.038562447922
	0.038626461243
	0.038690548505
	0.038754709794
	0.038818945196
	0.038883254795
	0.038947638679
	0.039012096932
	0.039076629640
	0.039141236890
	0.039205918767
	0.039270675358
	0.039335506749
	0.039400413027
	0.039465394278
	0.039530450588
	0.039595582044
	0.039660788734
	0.039726070744
	0.039791428160
	0.039856861071
	0.039922369563
	0.039987953723
	0.040053613640
	0.040119349400
	0.040185161091
	0.040251048801
	0.040317012617
	0.040383052628
	0.040449168922
	0.040515361586
	0.040581630709
	0.040647976380
	0.040714398686
	0.040780897716
	0.040847473558
	0.040914126303
	0.040980856037
	0.041047662851
	0.041114546833
	0.041181508073
	0.041248546659
	0.041315662681
	0.041382856229
	0.041450127391
	0.041517476259
	0.041584902920
	0.041652407466
	0.041719989986
	0.041787650571
	0.041855389310
	0.041923206293
	0.041991101612
	0.042059075356
	0.042127127617
	0.042195258484
	0.042263468050
	0.042331756403
	0.042400123636
	0.042468569840
	0.042537095106
	0.042605699526
	0.042674383189
	0.042743146190
	0.042811988617
	0.042880910565
	0.042949912124
	0.043018993386
	0.043088154444
	0.043157395390
	0.043226716315
	0.043296117313
	0.043365598476
	0.043435159896
	0.043504801666
	0.043574523879
	0.043644326628
	0.043714210005
	0.043784174105
	0.043854219020
	0.043924344844
	0.043994551669
	0.044064839590
	0.044135208701
	0.044205659095
	0.044276190865
	0.044346804107
	0.044417498913
	0.044488275379
	0.044559133598
	0.044630073666
	0.044701095676
	0.044772199723
	0.044843385903
	0.044914654309
	0.044986005037
	0.045057438182
	0.045128953839
	0.045200552103
	0.045272233071
	0.045343996836
	0.045415843496
	0.045487773146
	0.045559785881
	0.045631881798
	0.045704060992
	0.045776323560
	0.045848669599
	0.045921099204
	0.045993612473
	0.046066209501
	0.046138890385
	0.046211655223
	0.046284504112
	0.046357437148
	0.046430454428
	0.046503556051
	0.046576742112
	0.046650012711
	0.046723367944
	0.046796807910
	0.046870332706
	0.046943942430
	0.047017637180
	0.047091417055
	0.047165282153
	0.047239232572
	0.047313268410
	0.047387389768
	0.047461596742
	0.047535889433
	0.047610267939
	0.047684732359
	0.047759282792
	0.047833919339
	0.047908642098
	0.047983451169
	0.048058346652
	0.048133328646
	0.048208397251
	0.048283552568
	0.048358794696
	0.048434123737
	0.048509539789
	0.048585042955
	0.048660633333
	0.048736311026
	0.048812076134
	0.048887928758
	0.048963868999
	0.049039896958
	0.049116012737
	0.049192216436
	0.049268508159
	0.049344888005
	0.049421356078
	0.049497912479
	0.049574557309
	0.049651290672
	0.049728112669
	0.049805023403
	0.049882022976
	0.049959111491
	0.050036289051
	0.050113555758
	0.050190911715
	0.050268357026
	0.050345891794
	0.050423516122
	0.050501230114
	0.050579033872
	0.050656927502
	0.050734911106
	0.050812984788
	0.050891148654
	0.050969402806
	0.051047747349
	0.051126182387
	0.051204708025
	0.051283324368
	0.051362031521
	0.051440829588
	0.051519718674
	0.051598698884
	0.051677770325
	0.051756933100
	0.051836187316
	0.051915533078
	0.051994970492
	0.052074499664
	0.052154120700
	0.052233833706
	0.052313638788
	0.052393536052
	0.052473525605
	0.052553607554
	0.052633782006
	0.052714049066
	0.052794408843
	0.052874861443
	0.052955406973
	0.053036045541
	0.053116777255
	0.053197602221
	0.053278520548
	0.053359532343
	0.053440637715
	0.053521836771
	0.053603129620
	0.053684516370
	0.053765997130
	0.053847572007
	0.053929241111
	0.054011004551
	0.054092862436
	0.054174814874
	0.054256861975
	0.054339003849
	0.054421240604
	0.054503572351
	0.054585999198
	0.054668521257
	0.054751138636
	0.054833851447
	0.054916659798
	0.054999563802
	0.055082563567
	0.055165659205
	0.055248850826
	0.055332138542
	0.055415522463
	0.055499002700
	0.055582579365
	0.055666252570
	0.055750022424
	0.055833889041
	0.055917852532
	0.056001913009
	0.056086070584
	0.056170325369
	0.056254677476
	0.056339127018
	0.056423674107
	0.056508318856
	0.056593061378
	0.056677901786
	0.056762840192
	0.056847876711
	0.056933011455
	0.057018244538
	0.057103576073
	0.057189006174
	0.057274534955
	0.057360162530
	0.057445889013
	0.057531714519
	0.057617639161
	0.057703663054
	0.057789786313
	0.057876009053
	0.057962331388
	0.058048753434
	0.058135275306
	0.058221897118
	0.058308618988
	0.058395441029
	0.058482363358
	0.058569386091
	0.058656509343
	0.058743733231
	0.058831057871
	0.058918483379
	0.059006009872
	0.059093637467
	0.059181366280
	0.059269196428
	0.059357128028
	0.059445161198
	0.059533296054
	0.059621532715
	0.059709871297
	0.059798311919
	0.059886854699
	0.059975499754
	0.060064247202
	0.060153097162
	0.060242049753
	0.060331105092
	0.060420263298
	0.060509524491
	0.060598888789
	0.060688356312
	0.060777927178
	0.060867601507
	0.060957379418
	0.061047261032
	0.061137246467
	0.061227335844
	0.061317529283
	0.061407826904
	0.061498228828
	0.061588735174
	0.061679346064
	0.061770061619
	0.061860881958
	0.061951807203
	0.062042837476
	0.062133972898
	0.062225213590
	0.062316559673
	0.062408011270
	0.062499568503
	0.062591231492
	0.062683000362
	0.062774875233
	0.062866856228
	0.062958943471
	0.063051137082
	0.063143437187
	0.063235843907
	0.063328357365
	0.063420977685
	0.063513704991
	0.063606539406
	0.063699481053
	0.063792530057
	0.063885686541
	0.063978950630
	0.064072322448
	0.064165802119
	0.064259389768
	0.064353085520
	0.064446889500
	0.064540801832
	0.064634822642
	0.064728952055
	0.064823190197
	0.064917537192
	0.065011993168
	0.065106558249
	0.065201232561
	0.065296016232
	0.065390909387
	0.065485912153
	0.065581024656
	0.065676247023
	0.065771579381
	0.065867021857
	0.065962574578
	0.066058237672
	0.066154011266
	0.066249895487
	0.066345890464
	0.066441996324
	0.066538213196
	0.066634541208
	0.066730980487
	0.066827531164
	0.066924193365
	0.067020967221
	0.067117852860
	0.067214850410
	0.067311960003
	0.067409181766
	0.067506515830
	0.067603962324
	0.067701521378
	0.067799193122
	0.067896977686
	0.067994875201
	0.068092885797
	0.068191009604
	0.068289246754
	0.068387597377
	0.068486061605
	0.068584639568
	0.068683331398
	0.068782137227
	0.068881057186
	0.068980091407
	0.069079240022
	0.069178503163
	0.069277880962
	0.069377373553
	0.069476981067
	0.069576703637
	0.069676541396
	0.069776494478
	0.069876563015
	0.069976747140
	0.070077046988
	0.070177462692
	0.070277994386
	0.070378642203
	0.070479406278
	0.070580286746
	0.070681283740
	0.070782397395
	0.070883627846
	0.070984975228
	0.071086439676
	0.071188021325
	0.071289720311
	0.071391536769
	0.071493470834
	0.071595522644
	0.071697692332
	0.071799980037
	0.071902385894
	0.072004910039
	0.072107552609
	0.072210313742
	0.072313193573
	0.072416192241
	0.072519309882
	0.072622546633
	0.072725902633
	0.072829378019
	0.072932972930
	0.073036687502
	0.073140521874
	0.073244476185
	0.073348550573
	0.073452745177
	0.073557060136
	0.073661495589
	0.073766051675
	0.073870728532
	0.073975526302
	0.074080445123
	0.074185485136
	0.074290646480
	0.074395929295
	0.074501333722
	0.074606859901
	0.074712507973
	0.074818278079
	0.074924170359
	0.075030184955
	0.075136322008
	0.075242581660
	0.075348964051
	0.075455469325
	0.075562097622
	0.075668849085
	0.075775723856
	0.075882722078
	0.075989843894
	0.076097089445
	0.076204458875
	0.076311952327
	0.076419569944
	0.076527311870
	0.076635178248
	0.076743169222
	0.076851284936
	0.076959525534
	0.077067891161
	0.077176381960
	0.077284998076
	0.077393739655
	0.077502606840
	0.077611599777
	0.077720718612
	0.077829963489
	0.077939334555
