luts/UE_Default_ACEScct2sRGB.cube
TITLE "Generated by Resolve"
LUT_3D_SIZE 33
1 1 0.984314
1 1 0.984314
1 1 0.984314
1 1 0.984314
1 1 0.985077
1 1 0.988235
1 1 0.988235
1 1 0.988235
1 1 0.988235
1 1 0.987472
1 1 0.984314
1 1 0.985077
1 1 0.988235
1 1 0.988235
1 1 0.988235
1 1 0.988235
1 1 0.988235
1 1 0.988235
1 1 0.988235
1 1 0.988235
1 1 0.987472
1 1 0.985077
1 1 0.987472
1 1 0.985077
1 1 0.988235
1 1 0.987472
1 1 0.985077
1 1 0.988235
1 1 0.988235
1 1 0.988998
1 1 0.992157
1 1 0.992157
1 1 0.992157
0.609369 0.609369 0.599817
0.609369 0.609369 0.599817
0.609369 0.609369 0.599817
0.609369 0.609369 0.599817
0.609674 0.609369 0.600275
0.611215 0.609369 0.602213
0.613352 0.609369 0.602213
0.618265 0.609369 0.602213
0.625299 0.609369 0.602213
0.636027 0.609369 0.60174
0.646754 0.609369 0.599817
0.658701 0.609369 0.600275
0.676158 0.609369 0.602213
0.697307 0.609369 0.602213
0.724575 0.609369 0.602213
0.757961 0.609369 0.602213
0.797787 0.609369 0.602518
0.844968 0.609369 0.603738
0.897063 0.609369 0.604654
0.947311 0.609995 0.609857
0.98529 0.624689 0.617685
1 0.681071 0.625711
1 0.715999 0.630549
1 0.744793 0.627237
1 0.782483 0.631617
1 0.835782 0.658122
1 0.88542 0.694636
1 0.922484 0.740993
1 0.947616 0.791241
1 0.967224 0.839796
1 0.978866 0.883696
1 0.987442 0.914336
1 0.99234 0.933944
0 0 0
0 0 0
0 0 0
0 0 0
0.000762951 0 0
0.00468452 0 0
0.0101472 0 0
0.0223697 0 0
0.0394293 0 0
0.068101 0 0
0.095552 0 0
0.125765 0 0
0.169207 0 0
0.22356 0 0
0.294514 0 0
0.379934 0 0
0.482109 0 0.000457771
0.603738 0 0.00270085
0.735851 0 0.00622568
0.864271 0.0015259 0.0198215
0.960906 0.0387884 0.041886
1 0.184314 0.0650492
1 0.272297 0.0737469
1 0.345037 0.0693675
1 0.442802 0.0762188
1 0.579904 0.143877
1 0.704662 0.241047
1 0.800336 0.354376
1 0.866545 0.482109
1 0.914702 0.606226
1 0.945769 0.712902
1 0.967773 0.79234
1 0.980392 0.841917
0 0 0
0 0 0
0 0 0
0 0 0
0.000762951 0 0
0.00468452 0 0
0.0101472 0 0
0.021912 0 0
0.0375067 0 0
0.0677958 0 0
0.0943313 0 0
0.125307 0 0
0.167132 0 0
0.222858 0 0
0.294514 0 0.00030518
0.379934 0 0.00122072
0.482567 0 0.00030518
0.605661 0 0.00230411
0.735851 0 0.0074464
0.864118 0.0015259 0.0202792
0.960204 0.0392462 0.0438087
1 0.186236 0.0650492
1 0.272145 0.0737469
1 0.344335 0.0695201
1 0.442954 0.076936
1 0.580453 0.143877
1 0.703487 0.241047
1 0.798871 0.353918
1 0.868009 0.480171
1 0.912779 0.606073
1 0.946075 0.712505
1 0.968994 0.793408
1 0.980392 0.840894
0 0 0
0 0 0
0 0.00030518 0
0 0.0015259 0
0.000762951 0.0015259 0
0.00468452 0.00122072 0
0.00984207 0 0
0.020676 0 0
0.0372015 0 0
0.0661173 0 0
0.0924086 0 0
0.125612 0 0
0.168811 0 0
0.224781 0 0
0.294514 0 0.000457771
0.38024 0 0.0019379
0.483787 0 0.000762951
0.605982 0 0.00468452
0.737072 0 0.00936904
0.864576 0.00337224 0.0202792
0.962127 0.0472114 0.0435035
1 0.188998 0.0638132
1 0.274144 0.0734417
1 0.347799 0.0678264
1 0.444022 0.0746929
1 0.580209 0.142641
1 0.705425 0.241047
1 0.798871 0.354223
1 0.868315 0.481407
1 0.914 0.606531
1 0.946532 0.714885
1 0.970932 0.795804
1 0.980697 0.84268
0 0.00306706 0
0 0.00306706 0
0 0.00352483 0
0 0.00544747 0
0.000457771 0.00514229 0
0.00315862 0.00376898 0
0.00814832 0.00306706 0
0.0184482 0.00306706 0
0.0352026 0.00306706 0
0.0626535 0.00276188 0
0.0908675 0.0015259 0
0.124849 0.00122072 0
0.170748 0.00030518 0
0.225391 0.00122072 0
0.297276 0 0
0.381918 0 0
0.48603 0 0.000762951
0.60766 0 0.00468452
0.739315 0 0.00936904
0.865812 0.00888075 0.0199741
0.962127 0.0716564 0.041825
1 0.197604 0.0615854
1 0.279286 0.0714427
1 0.35172 0.0646677
1 0.447944 0.0742351
1 0.583368 0.140719
1 0.70573 0.241047
1 0.800092 0.354681
1 0.868788 0.48333
1 0.915938 0.606226
1 0.946227 0.713359
1 0.969696 0.794583
1 0.98085 0.843137
0 0.0109102 0
0 0.0109102 0
0 0.0109102 0
0 0.0109102 0
0.00030518 0.0104524 0
0.00230411 0.0089723 0
0.0074464 0.0109102 0
0.0179904 0.0112154 0
0.0328069 0.0121309 0
0.0602579 0.0104524 0
0.0884871 0.00851453 0
0.123217 0.00775158 0
0.17258 0.00505074 0
0.228763 0.00622568 0
0.3019 0.0024567 0
0.385382 0 0
0.487709 0 0.000762951
0.609583 0 0.00468452
0.739773 0.00030518 0.00936904
0.867735 0.016083 0.0195163
0.962127 0.0986801 0.0398871
1 0.208911 0.0614328
1 0.288197 0.0702831
1 0.358389 0.0624399
1 0.453101 0.0733196
1 0.586831 0.141939
1 0.707408 0.241047
1 0.802029 0.354376
1 0.868467 0.482109
1 0.914702 0.605753
1 0.945769 0.711269
1 0.967773 0.793866
1 0.980392 0.843137
0 0.0187533 0
0 0.0187533 0
0 0.0190585 0
0 0.0202792 0
0.000457771 0.0202792 0
0.0034638 0.0202792 0
0.00936904 0.0202792 0
0.0179904 0.020737 0
0.0328069 0.0222171 0
0.0602579 0.0205844 0
0.0887922 0.0215 0
0.12491 0.0198215 0
0.175433 0.0178988 0
0.232929 0.0168154 0
0.303899 0.0109102 0
0.389303 0.0039826 0.00030518
0.491173 0.00122072 0.00199893
0.611124 0 0.00437934
0.740993 0.00106813 0.00814832
0.867735 0.0238346 0.0195163
0.962127 0.119921 0.0398871
1 0.220371 0.0615854
1 0.298131 0.070985
1 0.366949 0.0619821
1 0.460166 0.0715343
1 0.590753 0.142641
1 0.710567 0.241367
1 0.802029 0.355459
1 0.868315 0.481407
1 0.914 0.606073
1 0.946075 0.712657
1 0.968994 0.794583
1 0.980392 0.843137
0 0.0357824 0
0 0.0357824 0
0 0.035935 0
0 0.0369421 0
0 0.0378729 0
0.00122072 0.0369421 0
0.00814832 0.0381781 0
0.0182956 0.0381781 0
0.0340429 0.0381781 0
0.0605631 0.0386358 0
0.0904707 0.0401007 0
0.127138 0.0384833 0
0.177264 0.0393988 0
0.236149 0.0369421 0
0.3075 0.0303349 0
0.391699 0.0224918 0.000457771
0.493568 0.0151064 0.00239567
0.613504 0.0110323 0.00300603
0.742916 0.0156252 0.0074464
0.867735 0.048127 0.0195163
0.962127 0.144213 0.0398871
1 0.23444 0.0608225
1 0.308278 0.0675212
1 0.374075 0.060441
1 0.467552 0.070161
1 0.595895 0.141939
1 0.713726 0.241825
1 0.802029 0.357534
1 0.868467 0.482109
1 0.914702 0.606531
1 0.946227 0.714427
1 0.969696 0.793866
1 0.980392 0.843137
0 0.067155 0
0 0.067155 0
0 0.066392 0
0 0.0639963 0
0 0.066392 0
0.000457771 0.0636912 0
0.00468452 0.0656291 0
0.0172122 0.0659342 0
0.0347448 0.067155 0
0.0610361 0.0674601 0
0.093019 0.0683757 0
0.130358 0.0679179 0
0.181949 0.0706188 0
0.243534 0.0682231 0
0.31281 0.0650797 0
0.395987 0.0587625 0
0.496635 0.0521401 0
0.616266 0.0466011 0.00122072
0.744152 0.0564889 0.00784314
0.867735 0.098436 0.0179904
0.962127 0.173587 0.0383612
1 0.25481 0.0591287
1 0.325032 0.0648356
1 0.388144 0.0562142
1 0.477852 0.0659342
1 0.602975 0.142641
1 0.717494 0.241825
1 0.804776 0.357382
1 0.869551 0.481712
1 0.914305 0.607446
1 0.94699 0.713664
1 0.967773 0.795499
1 0.980392 0.841917
0 0.100069 0
0 0.100069 0
0 0.0995956 0
0 0.0981308 0
0 0.0995956 0
0 0.097673 0
0.00199893 0.0979782 0
0.0132906 0.0996567 0
0.0315862 0.101595 0
0.0613413 0.102052 0
0.0954604 0.103822 0
0.136522 0.103578 0
0.187869 0.105516 0
0.251377 0.105211 0
0.320806 0.103517 0
0.404532 0.101137 0
0.504173 0.0982834 0
0.622126 0.0957961 0.000457771
0.747311 0.108156 0.00422675
0.867735 0.146899 0.0152895
0.962127 0.206195 0.0344396
1 0.278798 0.0553597
1 0.344335 0.0613107
1 0.405753 0.0506142
1 0.492317 0.0600748
1 0.611276 0.139498
1 0.721569 0.241825
1 0.809094 0.357839
1 0.871931 0.483787
1 0.916396 0.607996
1 0.948013 0.712963
1 0.968994 0.795346
1 0.980392 0.840894
0 0.144549 0
0 0.144549 0
0 0.144244 0
0 0.143008 0
0 0.143328 0
0 0.144549 0
0.00122072 0.145006 0
0.0084535 0.146929 0
0.0241398 0.146929 0
0.0593423 0.14725 0
0.0978561 0.148928 0
0.139681 0.150851 0
0.193866 0.150851 0
0.256764 0.150393 0
0.328801 0.14847 0
0.413504 0.14847 0
0.514305 0.149081 0
0.628794 0.153521 0
0.751995 0.167132 0.00199893
0.868971 0.198566 0.0132906
0.962127 0.249241 0.0302129
1 0.310842 0.0494545
1 0.369604 0.052842
1 0.428183 0.0404669
1 0.509987 0.0540169
1 0.623346 0.137865
1 0.727794 0.243046
1 0.811856 0.358144
1 0.873472 0.484871
1 0.917464 0.607752
1 0.947463 0.714885
1 0.969696 0.795804
1 0.980392 0.84268
0 0.206439 0
0 0.206439 0
0 0.205982 0
0 0.204044 0
0 0.204501 0
0 0.206439 0
0.000457771 0.206439 0
0.00285344 0.206439 0
0.0118257 0.206439 0
0.0493629 0.206897 0
0.0926528 0.209125 0
0.138903 0.210361 0
0.196414 0.210361 0
0.260746 0.210666 0
0.337865 0.211887 0
0.427665 0.211887 0
0.528008 0.213107 0
0.63949 0.22034 0
0.757839 0.23386 0.00122072
0.872114 0.261616 0.00906386
0.962127 0.304906 0.0242924
1 0.355825 0.0413062
1 0.408881 0.0419471
1 0.463325 0.0240177
1 0.536278 0.0430152
1 0.640711 0.137102
1 0.738781 0.244968
1 0.818631 0.358602
1 0.875853 0.487556
1 0.91986 0.61091
1 0.948928 0.714885
1 0.968078 0.795804
1 0.981918 0.843137
0 0.279225 0
0 0.279225 0
0 0.279225 0
0 0.27892 0
0 0.278004 0
0 0.279225 0
0 0.279225 0
0 0.279225 0
0.00459297 0.27953 0
0.0318303 0.280461 0
0.0761883 0.279683 0
0.132998 0.281621 0
0.196109 0.281926 0
0.266148 0.283604 0
0.346166 0.285847 0
0.438514 0.287068 0
0.541299 0.287831 0
0.65156 0.294057 0
0.764218 0.310506 0.000457771
0.874968 0.333028 0.00407416
0.960906 0.369024 0.0146181
1 0.411551 0.0290074
1 0.457481 0.0243534
1 0.504845 0.00793469
1 0.572335 0.0308537
1 0.665019 0.133944
1 0.752239 0.245594
1 0.825559 0.361059
1 0.878614 0.488014
1 0.921386 0.613138
1 0.950454 0.716121
1 0.969757 0.795804
1 0.984009 0.843137
0 0.367712 0
0 0.367712 0
0 0.367712 0
0 0.367254 0
0 0.365774 0
0 0.367712 0
0 0.367712 0
0 0.367712 0
0.00137331 0.36817 0
0.0132906 0.369635 0
0.0506752 0.367712 0
0.115099 0.367712 0
0.19173 0.368475 0
0.267369 0.371633 0
0.352789 0.372396 0
0.447578 0.375555 0
0.555459 0.376318 0
0.665263 0.381918 0
0.774136 0.395621 0
0.876127 0.415534 0.000457771
0.957748 0.444358 0.00453193
1 0.479591 0.0125582
1 0.516976 0.00701915
1 0.556954 0.000457771
1 0.617456 0.0233768
1 0.696849 0.132326
1 0.771084 0.248035
1 0.834623 0.366766
1 0.885695 0.490776
1 0.925002 0.614832
1 0.95285 0.718044
1 0.971389 0.795804
1 0.982315 0.843137
0 0.470344 0
0 0.470344 0
0 0.470649 0
0 0.47187 0
0 0.47187 0
0 0.47187 0
0 0.47187 0
0 0.47187 0
0 0.47187 0
0.00260929 0.47187 0
0.0222171 0.47187 0
0.0793469 0.47187 0
0.18143 0.472328 0
0.266606 0.474571 0
0.356252 0.476249 0
0.455573 0.478187 0
0.564462 0.47895 0
0.675181 0.483635 0
0.78146 0.492409 0
0.87628 0.507012 0
0.953368 0.53048 0.000457771
1 0.557321 0.00239567
1 0.587869 0.0019379
1 0.62092 0
1 0.670527 0.0217594
1 0.733303 0.134615
1 0.794156 0.253193
1 0.848066 0.371145
1 0.892775 0.49633
1 0.928161 0.61706
1 0.953155 0.71957
1 0.972457 0.797024
1 0.981613 0.843137
0 0.586282 0
0 0.586282 0
0 0.58674 0
0 0.588663 0
0 0.588663 0
0 0.588663 0
0 0.588663 0
0 0.588663 0
0 0.588357 0
0.000457771 0.587442 0
0.00514229 0.588663 0
0.0430762 0.588663 0
0.170092 0.588357 0
0.264988 0.5879 0
0.358694 0.591058 0
0.461433 0.591058 0
0.568536 0.591516 0
0.6795 0.594369 0
0.783246 0.600061 0
0.87454 0.610056 0
0.947677 0.623896 0
0.997543 0.643137 0
1 0.664057 0
1 0.689219 0
1 0.726131 0.0234379
1 0.772976 0.143297
1 0.820981 0.262409
1 0.864775 0.379049
1 0.902602 0.501015
1 0.932845 0.618753
1 0.954833 0.721965
1 0.974853 0.798962
1 0.983856 0.843442
0 0.705638 0
0 0.705638 0
0 0.705638 0
0 0.705638 0
0 0.705638 0
0 0.705638 0
0 0.705638 0
0 0.705333 0
0 0.70396 0
0.00030518 0.703395 0
0.00276188 0.704417 0
0.036759 0.705638 0
0.17583 0.704875 0
0.273106 0.702174 0
0.368444 0.704112 0
0.469337 0.704112 0
0.57322 0.703792 0
0.68011 0.702876 0
0.779263 0.705486 0
0.86685 0.712505 0
0.939925 0.719265 0
0.988785 0.72874 0
1 0.741665 0.00030518
1 0.757809 0.0015259
1 0.783581 0.0286412
1 0.816052 0.162493
1 0.851133 0.277394
1 0.882902 0.3935
1 0.916762 0.509926
1 0.94023 0.624659
1 0.959228 0.723491
1 0.975158 0.800488
1 0.98584 0.845136
0 0.806256 0
0 0.806256 0
0 0.806561 0
0 0.807477 0
0 0.806561 0
0 0.807782 0
0 0.807477 0
0 0.805783 0
0 0.804623 0
0.00383001 0.807019 0
0.0272068 0.804318 0
0.0845655 0.806256 0
0.20647 0.805783 0
0.298222 0.803861 0
0.390036 0.803555 0
0.485023 0.802335 0
0.581521 0.801556 0
0.682353 0.798871 0
0.773861 0.800488 0
0.858244 0.799725 0
0.927398 0.802121 0
0.976165 0.805264 0
1 0.812345 0.000457771
1 0.823499 0.00975052
1 0.839124 0.0656596
1 0.858885 0.195773
1 0.884443 0.302052
1 0.906126 0.412711
1 0.931212 0.524147
1 0.949294 0.635203
1 0.965835 0.728649
1 0.976837 0.804105
1 0.988235 0.847364
0.00918593 0.886397 0.0015259
0.00918593 0.886397 0.0015259
0.00918593 0.886854 0.0015259
0.00918593 0.888334 0.0015259
0.00918593 0.886854 0.0015259
0.00949111 0.888792 0.0015259
0.0113375 0.888014 0.0015259
0.0140993 0.885176 0.0015259
0.0205234 0.886854 0.0015259
0.0510109 0.888334 0.0015259
0.104112 0.886091 0.0015259
0.176257 0.884871 0.0015259
0.258976 0.884871 0.0015259
0.336583 0.884565 0.0015259
0.419944 0.882567 0.0015259
0.504936 0.879408 0.0015259
0.594522 0.878645 0.00183108
0.686427 0.875486 0.00428779
0.771115 0.874723 0.0116426
0.849332 0.871565 0.0232853
0.913939 0.87126 0.0327764
0.963851 0.870802 0.0425879
0.996323 0.875181 0.0496376
1 0.881498 0.0729229
1 0.888731 0.152331
1 0.900893 0.246357
1 0.916671 0.339803
1 0.930053 0.440467
1 0.946136 0.544976
1 0.960296 0.64773
1 0.97322 0.73695
1 0.981521 0.807568
1 0.989761 0.849058
0.129229 0.946258 0.0514076
0.129229 0.946258 0.0514076
0.129229 0.946258 0.0514076
0.129229 0.946258 0.0514076
0.129839 0.946258 0.0514076
0.133364 0.946258 0.0517128
0.139284 0.9458 0.0529488
0.14696 0.944335 0.0526284
0.161608 0.946258 0.0517128
0.207446 0.946258 0.0529488
0.249882 0.9458 0.0529488
0.295277 0.943877 0.053254
0.347158 0.943877 0.0544747
0.406622 0.943099 0.0547799
0.474174 0.939498 0.0563058
0.543008 0.937255 0.0584573
0.620401 0.935576 0.0632029
0.698405 0.933028 0.0703441
0.772854 0.929808 0.0872511
0.841794 0.926955 0.114641
0.901473 0.927108 0.138628
0.951782 0.923186 0.163485
0.985626 0.925887 0.184222
1 0.929503 0.209995
1 0.932204 0.25214
1 0.937041 0.314611
1 0.945281 0.389914
1 0.952056 0.47628
1 0.961059 0.571969
1 0.970993 0.66511
1 0.979538 0.747494
1 0.987076 0.813016
1 0.992462 0.853742
0.384497 0.983276 0.188296
0.384497 0.983276 0.188296
0.384497 0.983276 0.188296
0.384192 0.983276 0.188602
0.384192 0.983276 0.189517
0.390509 0.983276 0.188754
0.396811 0.983276 0.190997
0.403586 0.983276 0.191455
0.413046 0.983276 0.188754
0.425361 0.983276 0.190692
0.438453 0.982971 0.190997
0.460533 0.98204 0.192676
0.48777 0.983276 0.194614
0.524178 0.982513 0.195377
0.565805 0.979355 0.199298
0.614282 0.978897 0.204135
0.66891 0.976654 0.21268
0.728374 0.974517 0.220981
0.788693 0.969879 0.232898
0.844144 0.966888 0.252445
0.896849 0.966674 0.274754
0.941085 0.962493 0.298741
0.975158 0.96173 0.322972
0.998779 0.963668 0.341115
1 0.964126 0.365713
1 0.966506 0.404257
1 0.969207 0.458488
1 0.972824 0.527642
1 0.975982 0.607019
1 0.981521 0.687861
1 0.984985 0.759716
1 0.992065 0.820554
1 0.995682 0.859586
0.583703 1 0.344488
0.583703 1 0.344488
0.583703 1 0.344488
0.583246 1 0.344945
0.581765 1 0.34641
0.584466 1 0.344488
0.588083 1 0.344945
0.590784 1 0.34641
0.594858 1 0.344488
0.599786 1 0.344488
0.605859 0.999542 0.344945
0.615015 0.998062 0.346868
0.627634 1 0.347189
0.646876 0.999542 0.348867
0.668727 0.997604 0.351263
0.697429 0.997604 0.353948
0.731746 0.997147 0.358633
0.77145 0.995224 0.366171
0.813443 0.994766 0.373251
0.859068 0.99237 0.385016
0.899992 0.990448 0.403555
0.934768 0.989975 0.424323
0.968688 0.988052 0.446174
0.993164 0.988052 0.466697
1 0.987747 0.485542
1 0.986831 0.509377
1 0.98851 0.543694
1 0.990127 0.592004
1 0.989364 0.652079
1 0.991608 0.715785
1 0.993744 0.775402
1 0.998062 0.828855
1 1 0.863813
0.714336 1 0.488914
0.714336 1 0.488914
0.714641 1 0.488609
0.715877 1 0.487678
0.715557 1 0.488914
0.715099 1 0.488914
0.718257 1 0.488914
0.718715 1 0.488609
0.720958 1 0.487373
0.723095 1 0.487373
0.727428 1 0.487678
0.730114 1 0.488609
0.735256 1 0.487831
0.745647 1 0.490074
0.757046 1 0.4916
0.771206 1 0.493294
0.792126 1 0.496452
0.815747 1 0.502297
0.843748 1 0.506676
0.876371 1 0.514214
0.906462 1 0.527443
0.934524 1 0.543297
0.963851 1 0.560601
0.986145 1 0.580453
1 0.999542 0.597818
1 0.998062 0.6159
1 1 0.635355
1 0.999542 0.66305
1 0.997604 0.702754
1 0.998062 0.749844
1 1 0.796536
1 1 0.842161
1 1 0.87126
0.80557 1 0.616968
0.80557 1 0.616968
0.806043 1 0.616815
0.80766 1 0.616571
0.806287 1 0.618509
0.806043 1 0.618509
0.807965 1 0.618509
0.807965 1 0.617746
0.808423 1 0.614893
0.810361 1 0.616114
0.810361 1 0.616266
0.811124 1 0.616815
0.815198 1 0.616114
0.820127 1 0.616571
0.825742 1 0.618967
0.832959 1 0.62089
0.844663 1 0.621668
0.859281 1 0.625269
0.87628 1 0.62797
0.895521 1 0.632349
0.916762 1 0.639582
0.940383 1 0.650828
0.961151 1 0.66305
0.982391 1 0.677668
0.997543 1 0.694057
1 1 0.709438
1 1 0.723598
1 1 0.738659
1 1 0.759594
1 1 0.789517
1 1 0.823377
1 1 0.859007
1 1 0.88333
0.869368 1 0.721508
0.869368 1 0.721508
0.869368 1 0.721965
0.86891 1 0.723903
0.86743 1 0.724208
0.869368 1 0.725429
0.869673 1 0.725124
0.870893 1 0.72343
0.870588 1 0.721965
0.869673 1 0.723903
0.870588 1 0.72343
0.87013 1 0.721965
0.873289 1 0.723903
0.87451 1 0.723903
0.880354 1 0.724208
0.88397 1 0.725124
0.887892 1 0.724666
0.897826 1 0.727825
0.906828 1 0.728283
0.91783 1 0.730968
0.932448 1 0.73489
0.948531 1 0.739742
0.963149 1 0.748745
0.979232 1 0.758663
0.992462 1 0.76875
1 1 0.783368
1 1 0.793896
1 1 0.805356
1 1 0.816205
1 1 0.831373
1 1 0.853529
1 1 0.876692
1 1 0.896788
0.911833 1 0.802518
0.911833 1 0.802518
0.912139 1 0.802823
0.913054 1 0.803738
0.912139 1 0.802976
0.913054 1 0.804898
0.912291 1 0.80444
0.914519 1 0.802823
0.914977 1 0.803738
0.912596 1 0.802518
0.914977 1 0.802518
0.912596 1 0.802823
0.915755 1 0.804044
0.916518 1 0.803738
0.920134 1 0.802976
0.922057 1 0.804746
0.923278 1 0.804501
0.929137 1 0.806439
0.933516 1 0.806439
0.940291 1 0.806897
0.949294 1 0.809583
0.959533 1 0.813504
0.970062 1 0.817578
0.981521 1 0.822217
0.99176 1 0.827817
1 1 0.839521
1 1 0.847822
1 1 0.857298
1 1 0.863447
1 1 0.870741
1 1 0.885298
1 1 0.898985
1 1 0.913237
0.942519 1 0.86305
0.942519 1 0.86305
0.943297 1 0.863508
0.945983 1 0.864988
0.944518 1 0.86305
0.945983 1 0.86305
0.94406 1 0.86305
0.944518 1 0.863508
0.945983 1 0.864988
