luts/UE_Default_ACEScct2sRGB.cube
TITLE "Generated by Resolve"
LUT_3D_SIZE 5
1 1 0.984314
1 1 0.988235
1 1 0.988235
1 1 0.988235
1 1 0.992157
0 0.0357824 0
0.0340429 0.0381781 0
0.493568 0.0151064 0.00239567
1 0.467552 0.070161
1 0.980392 0.843137
0 0.586282 0
0 0.588357 0
0.568536 0.591516 0
1 0.726131 0.0234379
1 0.983856 0.843442
0.80557 1 0.616968
0.808423 1 0.614893
0.844663 1 0.621668
0.997543 1 0.694057
1 1 0.88333
1 1 0.984314
1 1 0.985534
1 1 0.986313
1 1 0.986313
1 1 0.994858
1 1 0.988235
1 1 0.987716
1 1 0.984833
1 1 0.987243
1 1 0.99556
0 0.0371252 0.0364233
0.0328069 0.0395361 0.0367437
0.492958 0.0166018 0.0564126
1 0.468544 0.149493
1 0.980774 0.84361
0 0.588663 0.0253452
0 0.58819 0.0271305
0.570672 0.592355 0.0519875
1 0.726787 0.11957
1 0.983993 0.845228
0.80618 1 0.628443
0.806989 1 0.626703
0.84535 1 0.633021
0.995621 1 0.702556
1 1 0.885817
1 1 0.98555
1 1 0.985626
1 1 0.984665
1 1 0.986633
1 1 0.993286
1 1 0.988235
1 1 0.988235
1 1 0.988235
1 1 0.988479
1 1 0.994568
0 0 0.558038
0.00148013 0 0.558587
0.550622 0 0.566522
1 0.468986 0.643595
1 0.978561 0.880156
0 0.59028 0.582971
0 0.591363 0.582361
0.575113 0.595346 0.588205
1 0.715373 0.641093
1 0.981796 0.879377
0.804044 1 0.775174
0.806332 1 0.774273
0.843595 1 0.777356
0.991852 0.999527 0.805112
1 1 0.905074
1 1 0.988235
1 1 0.987762
1 1 0.987243
1 1 0.988235
1 1 0.993149
1 1 1
1 1 1
1 1 1
1 1 1
1 1 1
0.58436 0.760922 0.997314
0.59707 0.760235 0.997314
0.734112 0.759823 0.997314
1 0.793347 0.997314
1 0.972549 0.991455
0.554437 0.835615 0.995682
0.565255 0.833158 0.994644
0.711696 0.829267 0.995956
1 0.841733 0.994965
1 0.973632 0.991424
0.872679 0.991302 0.988037
0.873991 0.991424 0.987564
0.892668 0.991043 0.988037
0.985382 0.98735 0.987503
1 0.997589 0.991348
1 1 1
1 1 1
1 1 1
1 1 1
1 1 1
1 1 1
1 1 1
1 1 1
1 1 1
1 1 1
0.96788 1 1
0.966171 1 1
0.969146 1 1
0.99382 0.999802 1
1 1 1
0.966232 1 1
0.968246 1 1
0.968917 1 1
0.993362 1 1
1 1 1
0.974075 1 1
0.97406 1 1
0.974548 1 1
0.993851 1 1
1 1 1
1 1 1
1 1 1
1 1 1
1 1 1
1 1 1
