luts/UE_Default_ACEScct2sRGB.cube
TITLE "Generated by Resolve"
LUT_3D_SIZE 9
1 1 0.984314
1 1 0.985077
1 1 0.988235
1 1 0.988235
1 1 0.988235
1 1 0.987472
1 1 0.988235
1 1 0.988235
1 1 0.992157
0 0 0
0.000762951 0.0015259 0
0.0372015 0 0
0.168811 0 0
0.483787 0 0.000762951
0.962127 0.0472114 0.0435035
1 0.444022 0.0746929
1 0.868315 0.481407
1 0.980697 0.84268
0 0.0357824 0
0 0.0378729 0
0.0340429 0.0381781 0
0.177264 0.0393988 0
0.493568 0.0151064 0.00239567
0.962127 0.144213 0.0398871
1 0.467552 0.070161
1 0.868467 0.482109
1 0.980392 0.843137
0 0.206439 0
0 0.204501 0
0.0118257 0.206439 0
0.196414 0.210361 0
0.528008 0.213107 0
0.962127 0.304906 0.0242924
1 0.536278 0.0430152
1 0.875853 0.487556
1 0.981918 0.843137
0 0.586282 0
0 0.588663 0
0 0.588357 0
0.170092 0.588357 0
0.568536 0.591516 0
0.947677 0.623896 0
1 0.726131 0.0234379
1 0.902602 0.501015
1 0.983856 0.843442
0.129229 0.946258 0.0514076
0.129839 0.946258 0.0514076
0.161608 0.946258 0.0517128
0.347158 0.943877 0.0544747
0.620401 0.935576 0.0632029
0.901473 0.927108 0.138628
1 0.932204 0.25214
1 0.961059 0.571969
1 0.992462 0.853742
0.80557 1 0.616968
0.806287 1 0.618509
0.808423 1 0.614893
0.815198 1 0.616114
0.844663 1 0.621668
0.916762 1 0.639582
0.997543 1 0.694057
1 1 0.759594
1 1 0.88333
0.964523 1 0.907912
0.968139 1 0.907912
0.966918 1 0.907912
0.967224 1 0.907912
0.97084 1 0.907912
0.975921 1 0.90837
0.994919 1 0.914977
1 1 0.931533
1 1 0.948531
1 1 0.984314
1 1 0.987472
1 1 0.985534
1 1 0.988235
1 1 0.986313
1 1 0.987015
1 1 0.986313
1 1 0.988998
1 1 0.994858
1 1 0.988235
1 1 0.986053
1 1 0.986496
1 1 0.987991
1 1 0.986053
1 1 0.987015
1 1 0.986053
1 1 0.988479
1 1 0.992676
0 0.00105287 0.00047303
0.000442512 0.00122072 9.15541e-05
0.0374456 9.15541e-05 0.000534066
0.168521 0 0.00122072
0.485191 0 0.0031281
0.962127 0.0490578 0.0460517
1 0.446097 0.0802472
1 0.867643 0.483436
1 0.980743 0.843137
0 0.0366369 0.00122072
0.00015259 0.0380713 0.00122072
0.0334783 0.0387579 0.000381476
0.177035 0.0366369 0.000244144
0.494179 0.0141451 0.00218204
0.962127 0.144457 0.0435645
1 0.467323 0.0742351
1 0.869657 0.483314
1 0.981247 0.842298
0 0.206439 0
0 0.206027 0
0.0115969 0.207065 0
0.197696 0.210101 0
0.527962 0.212726 0.000747692
0.962127 0.304677 0.0302434
1 0.538109 0.0469673
1 0.876936 0.486397
1 0.982727 0.842817
0 0.587915 0
0 0.58819 0
0 0.588937 0
0.169467 0.588937 0
0.569467 0.59205 0
0.946273 0.623301 0
1 0.725948 0.0240635
1 0.904509 0.50251
1 0.984558 0.84329
0.128069 0.944625 0.053315
0.128481 0.945022 0.0528878
0.16231 0.945495 0.0536355
0.346502 0.942077 0.0554818
0.621851 0.936767 0.0659648
0.902037 0.924681 0.142916
1 0.930632 0.255009
1 0.962188 0.573419
1 0.992035 0.854429
0.807218 1 0.615808
0.803769 1 0.616617
0.807843 1 0.61619
0.8168 1 0.617578
0.844816 1 0.621286
0.918898 1 0.63978
0.995621 1 0.693538
1 1 0.758556
1 1 0.88397
0.967971 1 0.907912
0.965805 1 0.907774
0.965606 1 0.908614
0.967941 1 0.907774
0.970779 1 0.907774
0.97673 1 0.908095
0.994766 1 0.914565
1 1 0.932021
1 1 0.947127
1 1 0.985061
1 1 0.985885
1 1 0.985611
1 1 0.986038
1 1 0.985107
1 1 0.985794
1 1 0.988235
1 1 0.988235
1 1 0.994492
1 1 0.988235
1 1 0.987243
1 1 0.987716
1 1 0.98555
1 1 0.984833
1 1 0.986481
1 1 0.987243
1 1 0.988235
1 1 0.99556
0 0.00103761 0.0314641
0.000198367 0.00103761 0.0339666
0.0285039 0 0.0352789
0.168902 0 0.0390631
0.485817 0 0.0535897
0.962127 0.0550088 0.107317
1 0.446036 0.150423
1 0.86656 0.50193
1 0.981231 0.843427
0 0.0371252 0.0364233
0 0.0386816 0.0369726
0.0328069 0.0395361 0.0367437
0.177264 0.0405127 0.0416724
0.492958 0.0166018 0.0564126
0.962127 0.147219 0.108705
1 0.468544 0.149493
1 0.868818 0.504753
1 0.980774 0.84361
0 0.20618 0.0423438
0 0.206271 0.0433204
0.0135805 0.209125 0.0436103
0.198291 0.212543 0.0490578
0.524834 0.216068 0.0607462
0.960433 0.306783 0.105867
1 0.537179 0.137148
1 0.875029 0.506264
1 0.983169 0.845869
0 0.588663 0.0253452
0 0.58735 0.0268864
0 0.58819 0.0271305
0.17232 0.588342 0.0316625
0.570672 0.592355 0.0519875
0.946181 0.623178 0.0834821
1 0.726787 0.11957
1 0.901152 0.521981
1 0.983993 0.845228
0.130755 0.944625 0.146883
0.13022 0.943847 0.14583
0.171511 0.944427 0.147524
0.349172 0.941695 0.150729
0.62089 0.934844 0.163333
0.901427 0.925582 0.211765
1 0.929458 0.296574
1 0.961013 0.588129
1 0.991196 0.854582
0.80618 1 0.628443
0.80415 1 0.628534
0.806989 1 0.626703
0.815045 1 0.630243
0.84535 1 0.633021
0.917891 1 0.650233
0.995621 1 0.702556
1 1 0.763424
1 1 0.885817
0.966659 1 0.908949
0.965606 1 0.908965
0.965621 1 0.910491
0.966857 1 0.908385
0.968002 1 0.909667
0.976959 1 0.910552
0.994766 1 0.916182
1 1 0.931594
1 1 0.947829
1 1 0.98555
1 1 0.986099
1 1 0.985626
1 1 0.986893
1 1 0.984665
1 1 0.986465
1 1 0.986633
1 1 0.988998
1 1 0.993286
1 1 0.98555
1 1 0.984833
1 1 0.985824
1 1 0.987991
1 1 0.987716
1 1 0.987472
1 1 0.988235
1 1 0.990402
1 1 0.994842
0 0 0.190768
0 0 0.192554
0.0238041 0 0.193835
0.175875 0 0.197177
0.503792 0 0.205173
0.961196 0.0641489 0.251652
1 0.447318 0.306783
1 0.863188 0.566415
1 0.980392 0.851835
0 0.0242161 0.196811
0 0.0260319 0.196384
0.0292515 0.0260929 0.196704
0.184482 0.0257115 0.198093
0.505867 0.0135348 0.207736
0.960815 0.153704 0.254963
1 0.468452 0.307805
1 0.864866 0.569314
1 0.980392 0.851835
0 0.209598 0.205692
0 0.208164 0.205676
0.00923171 0.208011 0.205356
0.197848 0.210575 0.203906
0.522011 0.22063 0.216754
0.959915 0.309682 0.259251
1 0.53843 0.304723
1 0.871977 0.569802
1 0.981903 0.852216
0 0.588663 0.23238
0 0.589273 0.232776
0 0.589364 0.233967
0.180728 0.5906 0.235477
0.570855 0.594385 0.246952
0.943877 0.625269 0.270436
1 0.724544 0.306203
1 0.899901 0.5832
1 0.982055 0.85359
0.137194 0.939956 0.32134
0.136187 0.939681 0.322362
0.194675 0.940414 0.321645
0.357198 0.938521 0.322972
0.622919 0.931151 0.331502
0.899657 0.922087 0.361975
1 0.927047 0.414054
1 0.958404 0.635233
1 0.990463 0.861585
0.806729 1 0.669703
0.804761 1 0.666941
0.80679 1 0.667826
0.815061 1 0.668254
0.843976 1 0.672175
0.91696 1 0.686763
0.99501 1 0.727886
1 1 0.781552
1 1 0.890303
0.965011 1 0.911833
0.966705 1 0.912779
0.966232 1 0.910842
0.967437 1 0.912779
0.970626 1 0.911162
0.976928 1 0.914092
0.996231 1 0.918166
1 1 0.934646
1 1 0.949523
1 1 0.986999
1 1 0.984894
1 1 0.987915
1 1 0.987472
1 1 0.984924
1 1 0.986572
1 1 0.987915
1 1 0.988907
1 1 0.992767
1 1 0.988235
1 1 0.987716
1 1 0.988235
1 1 0.988235
1 1 0.988235
1 1 0.988235
1 1 0.988479
1 1 0.991638
1 1 0.994568
0 0 0.554864
0 0 0.5552
0.000717174 0 0.555917
0.175494 0 0.557549
0.544839 0 0.56553
0.967895 0.0417487 0.594507
1 0.447959 0.643305
1 0.852613 0.734768
1 0.977783 0.880491
0 0 0.558038
0 0 0.557321
0.00148013 0 0.558587
0.183185 0 0.558999
0.550622 0 0.566522
0.967666 0.134279 0.596338
1 0.468986 0.643595
1 0.855772 0.736187
1 0.978561 0.880156
0 0.188769 0.564645
0 0.189456 0.564218
0.000320439 0.190021 0.56527
0.195178 0.196078 0.565667
0.560998 0.204608 0.571298
0.961898 0.310704 0.599268
1 0.536034 0.641352
1 0.864042 0.737102
1 0.979721 0.880308
0 0.59028 0.582971
0 0.589837 0.584222
0 0.591363 0.582361
0.207996 0.591073 0.583001
0.575113 0.595346 0.588205
0.92845 0.625605 0.6103
1 0.715373 0.641093
1 0.889204 0.738811
1 0.981796 0.879377
0.251987 0.925414 0.640177
0.251728 0.924636 0.640604
0.299611 0.926085 0.642252
0.409216 0.92221 0.643091
0.638178 0.916915 0.645609
0.893095 0.908614 0.657969
1 0.913008 0.673121
1 0.947143 0.758541
1 0.989654 0.886763
0.804044 1 0.775174
0.804623 1 0.774914
0.806332 1 0.774273
0.814496 1 0.775601
0.843595 1 0.777356
0.913756 1 0.784848
0.991852 0.999527 0.805112
1 0.999237 0.832395
1 1 0.905074
0.966155 1 0.92491
0.966705 1 0.924163
0.967437 1 0.923598
0.966857 1 0.923751
0.970581 1 0.925109
0.976211 1 0.924376
0.994919 1 0.928145
1 1 0.942123
1 1 0.95407
1 1 0.988235
1 1 0.988235
1 1 0.987762
1 1 0.987915
1 1 0.987243
1 1 0.988235
1 1 0.988235
1 1 0.988235
1 1 0.993149
1 1 0.993393
1 1 0.991882
1 1 0.992157
1 1 0.99025
1 1 0.993393
1 1 0.992157
1 1 0.992157
1 1 0.993393
1 1 0.998489
0.085771 0.186633 0.899931
0.0892805 0.187594 0.899596
0.167895 0.189715 0.900023
0.309285 0.19443 0.897566
0.609949 0.215671 0.899931
0.970443 0.32459 0.904143
1 0.54316 0.91313
1 0.849653 0.912886
1 0.972549 0.938537
0.0852827 0.241871 0.899931
0.0885939 0.242634 0.899809
0.168673 0.243854 0.900313
0.309285 0.248844 0.898604
0.610178 0.263966 0.900084
0.969223 0.356435 0.904265
1 0.557656 0.913542
1 0.852476 0.912413
1 0.974624 0.938293
0.0759899 0.372366 0.897536
0.0790265 0.372808 0.899077
0.164996 0.373007 0.898283
0.311437 0.376959 0.896956
0.611978 0.386084 0.899718
0.961685 0.446448 0.903044
1 0.604898 0.912093
1 0.858564 0.912413
1 0.97406 0.938445
0.0695964 0.651591 0.895994
0.0710918 0.652964 0.895903
0.142687 0.652628 0.895994
0.311971 0.651545 0.895613
0.603967 0.651255 0.898299
0.931121 0.665736 0.900572
1 0.733516 0.906432
1 0.882353 0.912566
1 0.976089 0.938903
0.460227 0.907012 0.895506
0.460121 0.907683 0.896849
0.478859 0.906737 0.896376
0.539864 0.905806 0.894957
0.695598 0.899123 0.894438
0.886992 0.894072 0.8925
1 0.901778 0.901656
1 0.936934 0.91223
1 0.983749 0.938766
0.823041 0.999252 0.913222
0.822751 0.998306 0.911955
0.824765 0.996826 0.911559
0.830961 0.996826 0.911559
0.853407 0.997436 0.913207
0.915969 0.994095 0.914015
0.986709 0.992691 0.918257
1 0.994202 0.925048
1 1 0.946654
0.96527 1 0.9561
0.965911 1 0.953735
0.966705 1 0.954818
0.966949 1 0.954498
0.967468 1 0.954299
0.975494 1 0.955886
0.99292 1 0.958267
1 1 0.963516
1 1 0.969223
1 1 0.990524
1 1 0.992767
1 1 0.990997
1 1 0.991958
1 1 0.991836
1 1 0.990799
1 1 0.992309
1 1 0.994095
1 1 0.996704
1 1 1
1 1 1
1 1 1
1 1 1
1 1 1
1 1 1
1 1 1
1 1 1
1 1 1
0.587045 0.755474 0.997314
0.587488 0.75671 0.997314
0.597299 0.754772 0.997314
0.628855 0.756466 0.997314
0.734691 0.756313 0.997314
0.924346 0.761349 0.999481
1 0.787503 0.997314
1 0.889128 0.994125
1 0.971237 0.992035
0.58436 0.760922 0.997314
0.586755 0.761135 0.997513
0.59707 0.760235 0.997314
0.629175 0.760433 0.997314
0.734112 0.759823 0.997314
0.923293 0.76495 0.997314
1 0.793347 0.997314
1 0.890578 0.994125
1 0.972549 0.991455
0.581094 0.779095 0.997314
0.580987 0.778759 0.997314
0.590021 0.778927 0.996994
0.62298 0.776989 0.997116
0.727718 0.776104 0.997314
0.919997 0.777584 0.997314
1 0.802838 0.996994
1 0.894087 0.992798
1 0.973541 0.992187
0.554437 0.835615 0.995682
0.552682 0.833494 0.994965
0.565255 0.833158 0.994644
0.59852 0.832639 0.995956
0.711696 0.829267 0.995956
0.907698 0.82649 0.994965
1 0.841733 0.994965
1 0.906111 0.993469
1 0.973632 0.991424
0.571771 0.932952 0.993591
0.572625 0.932723 0.993271
0.583398 0.931777 0.993271
0.614404 0.930831 0.993591
0.715953 0.927535 0.993591
0.886198 0.920073 0.993118
0.999619 0.918791 0.991257
1 0.943053 0.98967
1 0.981903 0.990723
0.872679 0.991302 0.988037
0.872831 0.992172 0.987533
0.873991 0.991424 0.987564
0.878157 0.991272 0.987274
0.892668 0.991043 0.988037
0.933181 0.988769 0.987503
0.985382 0.98735 0.987503
1 0.990005 0.987701
1 0.997589 0.991348
0.970535 1 0.99176
0.971542 1 0.991852
0.969726 1 0.991562
0.971542 1 0.991852
0.973175 1 0.991974
0.979049 1 0.99176
0.991989 1 0.993072
1 1 0.993545
1 1 0.994339
1 1 1
1 1 1
1 1 1
1 1 1
1 1 1
1 1 1
1 1 1
1 1 1
1 1 1
1 1 1
1 1 1
1 1 1
1 1 1
1 1 1
1 1 1
1 1 1
1 1 1
1 1 1
0.834302 0.957015 1
0.834302 0.955856 1
0.836225 0.957244 1
0.84152 0.955428 1
0.866438 0.95523 1
0.924636 0.9523 1
0.997162 0.951461 1
1 0.960311 1
1 0.984237 1
0.834302 0.958389 1
0.835706 0.956466 1
0.837598 0.955428 1
0.843732 0.956283 1
0.865217 0.95523 1
0.924636 0.951843 1
0.994858 0.950545 1
1 0.960891 1
1 0.984237 1
0.83534 0.958648 1
0.836973 0.957626 1
0.837278 0.958663 1
0.84329 0.957214 1
0.865827 0.956741 1
0.924178 0.95259 1
0.99585 0.952255 1
1 0.961379 1
1 0.983536 1
0.839261 0.960937 1
0.839582 0.963149 1
0.841093 0.961639 1
0.848112 0.961883 1
0.866758 0.960189 1
0.924254 0.956359 1
0.995468 0.95697 1
1 0.962875 1
1 0.985931 1
0.856672 0.974929 1
0.855024 0.975845 1
0.857084 0.976379 1
0.861952 0.976226 1
0.878614 0.974914 1
0.926055 0.971496 1
0.991852 0.969619 1
1 0.97319 1
1 0.989853 1
0.907195 0.998367 1
0.905425 0.998215 1
0.906828 0.99704 1
0.908522 0.997742 1
0.915846 0.997742 1
0.940627 0.997269 1
0.985092 0.994446 1
1 0.994873 1
1 0.998215 1
0.982452 1 1
0.983978 1 1
0.982086 1 1
0.981018 1 1
0.982986 1 1
0.986908 1 1
0.997299 1 1
1 1 1
1 1 1
1 1 1
1 1 1
1 1 1
1 1 1
1 1 1
1 1 1
1 1 1
1 1 1
1 1 1
1 1 1
1 1 1
1 1 1
1 1 1
1 1 1
1 1 1
1 1 1
1 1 1
1 1 1
0.964706 1 1
0.965866 1 1
0.96611 1 1
0.9664 1 1
0.969146 1 1
0.975769 1 1
0.993774 1 1
1 0.99968 1
1 1 1
0.96788 1 1
0.967956 1 1
0.966171 1 1
0.968017 1 1
0.969146 1 1
0.976623 1 1
0.99382 0.999802 1
1 0.999161 1
1 1 1
0.967391 1 1
0.967544 1 1
0.966842 1 1
0.968277 1 1
0.968627 1 1
0.975769 1 1
0.993683 0.999847 1
1 0.99939 1
1 1 1
0.966232 1 1
0.965881 1 1
0.968246 1 1
0.966049 1 1
0.968917 1 1
0.974731 1 1
0.993362 1 1
1 1 1
1 1 1
0.968627 1 1
0.967697 1 1
0.968627 1 1
0.968627 1 1
0.969665 1 1
0.977081 1 1
0.993072 1 1
1 1 1
1 1 1
0.974075 1 1
0.97406 1 1
0.97406 1 1
0.97406 1 1
0.974548 1 1
0.979522 1 1
0.993851 1 1
1 1 1
1 1 1
0.989013 1 1
0.987732 1 1
0.989364 1 1
0.989136 1 1
0.988632 1 1
0.992828 1 1
0.997681 1 1
1 1 1
1 1 1
1 1 1
1 1 1
1 1 1
1 1 1
1 1 1
1 1 1
1 1 1
1 1 1
1 1 1
