TCAMv2/CineonLog_2_Linear.spi1d
Version 1
From 0.0 1.0
Length 4096
Components 1
{
-0.007927
-0.007904
-0.007889
-0.007866
-0.007843
-0.007828
-0.007805
-0.007786
-0.007763
-0.007744
-0.007721
-0.007702
-0.007679
-0.00766
-0.007637
-0.007618
-0.007595
-0.007576
-0.007553
-0.007534
-0.007511
-0.007492
-0.007469
-0.00745
-0.007427
-0.007408
-0.007385
-0.007366
-0.007347
-0.007324
-0.007305
-0.007282
-0.007263
-0.00724
-0.007221
-0.007198
-0.007179
-0.007156
-0.007137
-0.007114
-0.007095
-0.007072
-0.007053
-0.00703
-0.007011
-0.006989
-0.006969
-0.006947
-0.006927
-0.006908
-0.006886
-0.006866
-0.006844
-0.006824
-0.006802
-0.006783
-0.00676
-0.006741
-0.006718
-0.006699
-0.006676
-0.006657
-0.006634
-0.006615
-0.006592
-0.006573
-0.00655
-0.006531
-0.006508
-0.006489
-0.006466
-0.006447
-0.006428
-0.006405
-0.006386
-0.006363
-0.006344
-0.006321
-0.006302
-0.006279
-0.00626
-0.006237
-0.006218
-0.006195
-0.006176
-0.006153
-0.006134
-0.006111
-0.006092
-0.006069
-0.00605
-0.006027
-0.006008
-0.005989
-0.005966
-0.005947
-0.005924
-0.005905
-0.005882
-0.005863
-0.00584
-0.005821
-0.005798
-0.005779
-0.005756
-0.005737
-0.005714
-0.005695
-0.005672
-0.005653
-0.00563
-0.005611
-0.005589
-0.005569
-0.005547
-0.005527
-0.005508
-0.005486
-0.005466
-0.005444
-0.005424
-0.005402
-0.005383
-0.00536
-0.005341
-0.005318
-0.005299
-0.005276
-0.005257
-0.005234
-0.005215
-0.005192
-0.005173
-0.00515
-0.005131
-0.005108
-0.005089
-0.00507
-0.005047
-0.005028
-0.005005
-0.004986
-0.004963
-0.004944
-0.004921
-0.004902
-0.004879
-0.00486
-0.004837
-0.004818
-0.004795
-0.004776
-0.004753
-0.004734
-0.004711
-0.004692
-0.004669
-0.00465
-0.004627
-0.004608
-0.004589
-0.004566
-0.004547
-0.004524
-0.004505
-0.004482
-0.004463
-0.00444
-0.004421
-0.004398
-0.004379
-0.004356
-0.004337
-0.004314
-0.004295
-0.004272
-0.004253
-0.00423
-0.004211
-0.004189
-0.004169
-0.004147
-0.004128
-0.004108
-0.004086
-0.004066
-0.004044
-0.004025
-0.004002
-0.003983
-0.00396
-0.003941
-0.003918
-0.003899
-0.003878
-0.003857
-0.003836
-0.003815
-0.003794
-0.003773
-0.003752
-0.003731
-0.00371
-0.003689
-0.00367
-0.003649
-0.003628
-0.003607
-0.003586
-0.003565
-0.003544
-0.003523
-0.003502
-0.003481
-0.00346
-0.003439
-0.003418
-0.003397
-0.003376
-0.003355
-0.003334
-0.003313
-0.003292
-0.003271
-0.00325
-0.003229
-0.00321
-0.003189
-0.003168
-0.003147
-0.003126
-0.003105
-0.003084
-0.003063
-0.003042
-0.003021
-0.003
-0.002979
-0.002958
-0.002937
-0.002916
-0.002895
-0.002874
-0.002853
-0.002832
-0.002811
-0.00279
-0.002769
-0.00275
-0.002729
-0.002708
-0.002687
-0.002666
-0.002645
-0.002625
-0.002604
-0.002583
-0.002562
-0.002541
-0.00252
-0.002499
-0.002478
-0.002457
-0.002436
-0.002415
-0.002394
-0.002373
-0.002352
-0.002331
-0.00231
-0.002291
-0.00227
-0.002249
-0.002228
-0.002207
-0.002186
-0.002165
-0.002144
-0.002123
-0.002102
-0.002081
-0.00206
-0.002039
-0.002018
-0.001997
-0.001976
-0.001955
-0.001935
-0.001914
-0.001893
-0.001872
-0.001851
-0.001831
-0.00181
-0.001789
-0.001768
-0.001747
-0.001726
-0.001705
-0.001684
-0.001663
-0.001642
-0.001621
-0.0016
-0.00158
-0.001559
-0.001538
-0.001517
-0.001496
-0.001475
-0.001454
-0.001433
-0.001412
-0.001391
-0.00137
-0.00135
-0.001329
-0.001308
-0.001287
-0.001266
-0.001245
-0.001225
-0.001204
-0.001183
-0.001162
-0.001141
-0.001121
-0.0011
-0.001079
-0.001058
-0.001037
-0.001016
-0.000995
-0.000974
-0.000953
-0.000932
-0.000911
-0.000891
-0.00087
-0.000849
-0.000828
-0.000807
-0.000786
-0.000765
-0.000744
-0.000723
-0.000702
-0.000681
-0.000661
-0.00064
-0.000619
-0.000598
-0.000577
-0.000556
-0.000535
-0.000515
-0.000494
-0.000473
-0.000452
-0.000431
-0.00041
-0.000389
-0.000368
-0.000347
-0.000327
-0.000306
-0.000285
-0.000264
-0.000243
-0.000222
-0.000201
-0.00018
-0.000159
-0.000139
-0.000118
-0.000097
-0.000076
-0.000055
-0.000034
-0.000013
0.000008
0.000029
0.00005
0.000071
0.000092
0.000113
0.000134
0.000155
0.000176
0.000197
0.000219
0.00024
0.000261
0.000283
0.000304
0.000326
0.000347
0.000369
0.000391
0.000412
0.000434
0.000456
0.000477
0.000499
0.000521
0.000543
0.000565
0.000587
0.000609
0.000631
0.000653
0.000675
0.000698
0.00072
0.000742
0.000764
0.000787
0.000809
0.000832
0.000854
0.000877
0.000899
0.000922
0.000945
0.000968
0.00099
0.001013
0.001036
0.001059
0.001081
0.001104
0.001127
0.00115
0.001174
0.001197
0.00122
0.001244
0.001266
0.00129
0.001313
0.001337
0.00136
0.001384
0.001408
0.001431
0.001454
0.001478
0.001502
0.001526
0.00155
0.001574
0.001597
0.001621
0.001645
0.00167
0.001694
0.001718
0.001742
0.001766
0.001791
0.001815
0.00184
0.001863
0.001888
0.001913
0.001938
0.001961
0.001986
0.00201
0.002035
0.00206
0.002085
0.00211
0.002136
0.002161
0.002186
0.002211
0.002235
0.00226
0.002287
0.002312
0.002337
0.002363
0.002388
0.002413
0.002439
0.002464
0.002489
0.002516
0.002541
0.002567
0.002594
0.002619
0.002645
0.00267
0.002697
0.002724
0.002748
0.002775
0.002802
0.002829
0.002853
0.00288
0.002907
0.002934
0.00296
0.002987
0.003014
0.00304
0.003067
0.003094
0.00312
0.003147
0.003174
0.003201
0.003229
0.003256
0.003283
0.003309
0.003338
0.003365
0.003391
0.00342
0.003447
0.003475
0.003502
0.003529
0.003557
0.003586
0.003613
0.003641
0.003668
0.003696
0.003725
0.003752
0.00378
0.003809
0.003838
0.003866
0.003893
0.003922
0.003948
0.003979
0.004005
0.004036
0.004063
0.004093
0.00412
0.00415
0.004181
0.004208
0.004238
0.004265
0.004295
0.004326
0.004353
0.004383
0.004414
0.00444
0.004471
0.004501
0.004532
0.004559
0.004589
0.00462
0.00465
0.004677
0.004707
0.004738
0.004768
0.004799
0.004829
0.00486
0.00489
0.004921
0.004951
0.004982
0.005013
0.005043
0.005074
0.005104
0.005135
0.005165
0.005196
0.005226
0.005257
0.005287
0.005318
0.005348
0.005383
0.005413
0.005444
0.005474
0.005505
0.005539
0.005569
0.0056
0.005634
0.005665
0.005695
0.00573
0.00576
0.005791
0.005825
0.005856
0.00589
0.00592
0.005951
0.005985
0.006016
0.00605
0.006081
0.006115
0.006149
0.00618
0.006214
0.006245
0.006279
0.006313
0.006344
0.006378
0.006413
0.006443
0.006477
0.006512
0.006546
0.006577
0.006611
0.006645
0.00668
0.006714
0.006744
0.006779
0.006813
0.006847
0.006882
0.006916
0.00695
0.006985
0.007019
0.007053
0.007088
0.007122
0.007156
0.007191
0.007225
0.007259
0.007298
0.007332
0.007366
0.007401
0.007435
0.007469
0.007507
0.007542
0.007576
0.007614
0.007648
0.007683
0.007721
0.007755
0.00779
0.007828
0.007858
0.007896
0.007935
0.007965
0.008003
0.008041
0.00808
0.008118
0.008148
0.008186
0.008224
0.008263
0.008301
0.008331
0.008369
0.008408
0.008446
0.008484
0.008522
0.00856
0.008591
0.008629
0.008667
0.008705
0.008743
0.008781
0.00882
0.008858
0.008896
0.008934
0.008972
0.00901
0.009048
0.009087
0.009125
0.009163
0.009201
0.009239
0.009277
0.009315
0.009354
0.009392
0.009438
0.009476
0.009514
0.009552
0.00959
0.009628
0.009666
0.009712
0.00975
0.009789
0.009827
0.009865
0.009911
0.009949
0.009987
0.010025
0.010071
0.010109
0.010147
0.010185
0.010231
0.010269
0.010307
0.010353
0.010391
0.010429
0.010475
0.010513
0.010559
0.010597
0.010635
0.010681
0.010719
0.010765
0.010803
0.010849
0.010887
0.010925
0.010971
0.011009
0.011055
0.011093
0.011139
0.011185
0.011223
0.011269
0.011307
0.011353
0.011391
0.011436
0.011482
0.01152
0.011566
0.011612
0.01165
0.011696
0.011742
0.01178
0.011826
0.011871
0.011909
0.011955
0.012001
0.012047
0.012085
0.012131
0.012177
0.012222
0.012268
0.012306
0.012352
0.012398
0.012444
0.012489
0.012535
0.012581
0.012627
0.012672
0.012711
0.012756
0.012802
0.012848
0.012894
0.012939
0.012985
0.013031
0.013077
0.013123
0.013168
0.013214
0.01326
0.013313
0.013359
0.013405
0.013451
0.013496
0.013542
0.013588
0.013634
0.013687
0.013733
0.013779
0.013824
0.01387
0.013924
0.013969
0.014015
0.014061
0.014114
0.01416
0.014206
0.014259
0.014305
0.014351
0.014404
0.01445
0.014496
0.014549
0.014595
0.014648
0.014694
0.01474
0.014793
0.014839
0.014893
0.014938
0.014992
0.015038
0.015091
0.015137
0.01519
0.015236
0.015289
0.015343
0.015388
0.015442
0.015488
0.015541
0.015594
0.01564
0.015686
0.015747
0.015793
0.015839
0.0159
0.015945
0.015991
0.016052
0.016098
0.016159
0.016205
0.016251
0.016312
0.016357
0.016418
0.016464
0.016525
0.016571
0.016632
0.016678
0.016724
0.016785
0.01683
0.016891
0.016937
0.016998
0.017044
0.017105
0.017151
0.017212
0.017258
0.017319
0.01738
0.017426
0.017487
0.017532
0.017593
0.017639
0.0177
0.017761
0.017807
0.017868
0.017914
0.017975
0.018036
0.018082
0.018143
0.018204
0.01825
0.018311
0.018372
0.018417
0.018478
0.018539
0.018585
0.018646
0.018707
0.018768
0.018814
0.018875
0.018936
0.018997
0.019043
0.019104
0.019165
0.019226
0.019272
0.019333
0.019394
0.019455
0.019516
0.019562
0.019623
0.019684
0.019745
0.019806
0.019867
0.019928
0.019974
0.020035
0.020096
0.020157
0.020218
0.020279
0.02034
0.020401
0.020462
0.020523
0.020584
0.020645
0.020706
0.020767
0.020813
0.020874
0.020935
0.020996
0.021072
0.021133
0.021194
0.021255
0.021317
0.021378
0.021439
0.0215
0.021561
0.021622
0.021683
0.021744
0.021805
0.021866
0.021927
0.022003
0.022064
0.022125
0.022186
0.022247
0.022308
0.022385
0.022446
0.022507
0.022568
0.022629
0.022705
0.022766
0.022827
0.022888
0.022964
0.023026
0.023087
0.023148
0.023224
0.023285
0.023346
0.023422
0.023483
0.023544
0.023605
0.023682
0.023743
0.023819
0.02388
0.023941
0.024017
0.024078
0.024139
0.024216
0.024277
0.024353
0.024414
0.02449
0.024551
0.024612
0.024689
0.02475
0.024826
0.024887
0.024963
0.025024
0.025101
0.025162
0.025238
0.025314
0.025375
0.025452
0.025513
0.025589
0.02565
0.025726
0.025803
0.025864
0.02594
0.026001
0.026077
0.026154
0.026215
0.026291
0.026367
0.026428
0.026505
0.026581
0.026657
0.026718
0.026794
0.026871
0.026947
0.027008
0.027084
0.027161
0.027237
0.027298
0.027374
0.027451
0.027527
0.027603
0.027679
0.02774
0.027817
0.027893
0.027969
0.028046
0.028122
0.028198
0.028275
0.028351
0.028412
0.028488
0.028564
0.028641
0.028717
0.028793
0.02887
0.028946
0.029022
0.029099
0.029175
0.029251
0.029327
0.029419
0.029495
0.029572
0.029648
0.029724
0.0298
0.029877
0.029953
0.030029
0.030106
0.030197
0.030273
0.03035
0.030426
0.030502
0.030594
0.03067
0.030746
0.030823
0.030914
0.030991
0.031067
0.031143
0.031235
0.031311
0.031372
0.031464
0.031555
0.031616
0.031708
0.031799
0.03186
0.031952
0.032043
0.032104
0.032196
0.032288
0.032379
0.03244
0.032532
0.032623
0.032715
0.032776
0.032867
0.032959
0.033051
0.033112
0.033203
0.033295
0.033386
0.033447
0.033539
0.03363
0.033722
0.033813
0.033875
0.033966
0.034058
0.034149
0.034241
0.034332
0.034393
0.034485
0.034576
0.034668
0.03476
0.034851
0.034943
0.035004
0.035095
0.035187
0.035278
0.03537
0.035461
0.035553
0.035645
0.035736
0.035828
0.035919
0.036011
0.036072
0.036163
0.036255
0.036346
0.036438
0.03653
0.036621
0.036713
0.036804
0.036896
0.036987
0.037079
0.03717
0.037262
0.037354
0.037445
0.037537
0.037628
0.03775
0.037842
0.037933
0.038025
0.038116
0.038208
0.0383
0.038391
0.038483
0.038574
0.038666
0.038788
0.038879
0.038971
0.039062
0.039154
0.039246
0.039337
0.039459
0.039551
0.039642
0.039734
0.039825
0.039917
0.040039
0.040131
0.040222
0.040314
0.040405
0.040527
0.040619
0.04071
0.040802
0.040924
0.041016
0.041107
0.041199
0.041321
0.041412
0.041504
0.041626
0.041718
0.041809
0.041931
0.042023
0.042114
0.042236
0.042328
0.042419
0.042542
0.042633
0.042725
0.042847
0.042938
0.04303
0.043152
0.043243
0.043365
0.043457
0.043549
0.043671
0.043762
0.043884
0.043976
0.044098
0.044189
0.044312
0.044403
0.044525
0.044617
0.044708
0.04483
0.044922
0.045044
0.045166
0.045258
0.04538
0.045471
0.045593
0.045685
0.045807
0.045898
0.046021
0.046112
0.046234
0.046356
0.046448
0.04657
0.046661
0.046783
0.046906
0.046997
0.047119
0.047241
0.047333
0.047455
0.047577
0.047668
0.047791
0.047913
0.048004
0.048126
0.048248
0.04837
0.048462
0.048584
0.048706
0.048798
0.04892
0.049042
0.049164
0.049286
0.049377
0.0495
0.049622
0.049744
0.049866
0.049957
0.050079
0.050201
0.050323
0.050446
0.050568
0.050659
0.050781
0.050903
0.051025
0.051147
0.05127
0.051392
0.051514
0.051636
0.051758
0.05188
0.051971
0.052094
0.052216
0.052338
0.05246
0.052582
0.052704
0.052826
0.052948
0.05307
0.053192
0.053314
0.053436
0.053558
0.053711
0.053833
0.053955
0.054077
0.054199
0.054321
0.054443
0.054565
0.054688
0.05481
0.054932
0.055084
0.055206
0.055328
0.05545
0.055573
0.055695
0.055847
0.055969
0.056091
0.056213
0.056335
0.056488
0.05661
0.056732
0.056854
0.057007
0.057129
0.057251
0.057404
0.057526
0.057648
0.05777
0.057922
0.058044
0.058167
0.058319
0.058441
0.058594
0.058716
0.058838
0.05899
0.059113
0.059235
0.059387
0.059509
0.059662
0.059784
0.059937
0.060059
0.060181
0.060333
0.060455
0.060608
0.06073
0.060883
0.061005
0.061157
0.06131
0.061432
0.061584
0.061707
0.061859
0.061981
0.062134
0.062256
0.062408
0.062561
0.062683
0.062805
0.062988
0.06311
0.063232
0.063416
0.063538
0.06366
0.063843
0.063965
0.064087
0.06427
0.064392
0.064514
0.064697
0.064819
0.064941
0.065125
0.065247
0.06543
0.065552
0.065674
0.065857
0.065979
0.066162
0.066284
0.066467
0.066589
0.066711
0.066895
0.067017
0.0672
0.067322
0.067505
0.067627
0.06781
0.067932
0.068115
0.068237
0.06842
0.068542
0.068726
0.068848
0.069031
0.069153
0.069336
0.069458
0.069641
0.069763
0.069946
0.070068
0.070251
0.070374
0.070557
0.070679
0.070862
0.071045
0.071167
0.07135
0.071472
0.071655
0.071777
0.07196
0.072144
0.072266
0.072449
0.072632
0.072754
0.072937
0.073059
0.073242
0.073425
0.073547
0.07373
0.073914
0.074036
0.074219
0.074402
0.074524
0.074707
0.07489
0.075012
0.075195
0.075378
0.075562
0.075684
0.075867
0.07605
0.076233
0.076355
0.076538
0.076721
0.076843
0.077026
0.077209
0.077393
0.077576
0.077698
0.077881
0.078064
0.078247
0.07843
0.078552
0.078735
0.078918
0.079102
0.079285
0.079407
0.07959
0.079773
0.079956
0.080139
0.080322
0.080505
0.080627
0.080811
0.080994
0.081177
0.08136
0.081543
0.081726
0.081909
0.082092
0.082275
0.082458
0.082581
0.082764
0.082947
0.08313
0.083313
0.083496
0.083679
0.083862
0.084045
0.084229
0.084412
0.084595
0.084778
0.084961
0.085144
0.085327
0.08551
0.085693
0.085876
0.08606
0.086243
0.086426
0.086609
0.086853
0.087036
0.087219
0.087402
0.087585
0.087769
0.087952
0.088135
0.088318
0.088501
0.088745
0.088928
0.089111
0.089294
0.089478
0.089661
0.089844
0.090088
0.090271
0.090454
0.090637
0.09082
0.091064
0.091248
0.091431
0.091614
0.091797
0.092041
0.092224
0.092407
0.09259
0.092834
0.093018
0.093201
0.093384
0.093628
0.093811
0.093994
0.094238
0.094421
0.094604
0.094788
0.095032
0.095215
0.095398
0.095642
0.095825
0.096069
0.096252
0.096436
0.09668
0.096863
0.097046
0.09729
0.097473
0.097717
0.0979
0.098083
0.098328
0.098511
0.098755
0.098938
0.099182
0.099365
0.099609
0.099792
0.100037
0.10022
0.100464
0.100647
0.100891
0.101074
0.101318
0.101501
0.101746
0.101929
0.102173
0.102356
0.1026
0.102783
0.103027
0.103271
0.103455
0.103699
0.103882
0.104126
0.10437
0.104553
0.104797
0.10498
0.105225
0.105469
0.105652
0.105896
0.10614
0.106323
0.106567
0.106812
0.107056
0.107239
0.107483
0.107727
0.10791
0.108154
0.108398
0.108643
0.108826
0.10907
0.109314
0.109558
0.109741
0.109985
0.110229
0.110474
0.110718
0.110962
0.111145
0.111389
0.111633
0.111877
0.112122
0.112366
0.11261
0.112793
0.113037
0.113281
0.113525
0.11377
0.114014
0.114258
0.114502
0.114746
0.11499
0.115234
0.115479
0.115723
0.115967
0.116211
0.116455
0.116699
0.116943
0.117188
0.117432
0.117676
0.11792
0.118164
0.118408
0.118652
0.118896
0.119141
0.119385
0.119629
0.119873
0.120117
0.120422
0.120667
0.120911
0.121155
0.121399
0.121643
0.121887
0.122192
0.122437
0.122681
0.122925
0.123169
0.123474
0.123718
0.123962
0.124207
0.124512
0.124756
0.125
0.125244
0.125488
0.125732
0.125977
0.126343
0.126587
0.126831
0.127075
0.127319
0.127563
0.12793
0.128174
0.128418
0.128662
0.128906
0.12915
0.129517
0.129761
0.130005
0.130249
0.130615
0.130859
0.131104
0.131348
0.131592
0.131958
0.132202
0.132446
0.13269
0.133057
0.133301
0.133545
0.133789
0.134155
0.134399
0.134644
0.13501
0.135254
0.135498
0.135864
0.136108
0.136353
0.136597
0.136963
0.137207
0.137451
0.137817
0.138062
0.138306
0.138672
0.138916
0.139282
0.139526
0.139771
0.140137
0.140381
0.140625
0.140991
0.141235
0.141602
0.141846
0.14209
0.142456
0.1427
0.143066
0.143311
0.143555
0.143921
0.144165
0.144531
0.144775
0.145142
0.145386
0.14563
0.145996
0.14624
0.146606
0.146851
0.147217
0.147461
0.147827
0.148071
0.148438
0.148682
0.149048
0.149292
0.149658
0.149902
0.150269
0.150513
0.150879
0.151245
0.151489
0.151855
0.1521
0.152466
0.15271
0.153076
0.15332
0.153687
0.154053
0.154297
0.154663
0.154907
0.155273
0.15564
0.155884
0.15625
0.156616
0.15686
0.157227
0.157471
0.157837
0.158203
0.158447
0.158813
0.15918
0.159424
0.15979
0.160156
0.1604
0.160767
0.161133
0.161499
0.161743
0.162109
0.162476
0.16272
0.163086
0.163452
0.163818
0.164062
0.164429
0.164795
0.165161
0.165405
0.165771
0.166138
0.166504
0.16687
0.167114
0.16748
0.167847
0.168213
0.168579
0.168823
0.169189
0.169556
0.169922
0.170288
0.170654
0.170898
0.171265
0.171631
0.171997
0.172363
0.172729
0.173096
0.173462
0.173706
0.174072
0.174438
0.174805
0.175171
0.175537
0.175903
0.17627
0.176636
0.177002
0.177368
0.177734
0.178101
0.178467
0.178833
0.179199
0.179565
0.179932
0.180298
0.180664
0.18103
0.181396
0.181763
0.182129
0.182495
0.182861
0.183228
0.183594
0.18396
0.184326
0.184692
0.185059
0.185425
0.185791
0.186157
0.186646
0.187012
0.187378
0.187744
0.18811
0.188477
0.188843
0.189209
0.189697
0.190063
0.19043
0.190796
0.191162
0.191528
0.192017
0.192383
0.192749
0.193115
0.193481
0.19397
0.194336
0.194702
0.195068
0.195435
0.195923
0.196289
0.196655
0.197021
0.19751
0.197876
0.198242
0.19873
0.199097
0.199463
0.199829
0.200317
0.200684
0.20105
0.201538
0.201904
0.202271
0.202759
0.203125
0.203613
0.203979
0.204346
0.204834
0.2052
0.205566
0.206055
0.206421
0.206909
0.207275
0.207764
0.20813
0.208496
0.208984
0.209351
0.209839
0.210205
0.210693
0.21106
0.211548
0.211914
0.212402
0.212769
0.213257
0.213623
0.214111
0.214478
0.214966
0.215332
0.21582
0.216309
0.216675
0.217163
0.217529
0.218018
0.218506
0.218872
0.21936
0.219727
0.220215
0.220703
0.221069
0.221558
0.222046
0.222412
0.2229
0.223389
0.223755
0.224243
0.224731
0.225098
0.225586
0.226074
0.22644
0.226929
0.227417
0.227905
0.228271
0.22876
0.229248
0.229736
0.230225
0.230591
0.231079
0.231567
0.232056
0.232544
0.23291
0.233398
0.233887
0.234375
0.234863
0.235352
0.23584
0.236206
0.236694
0.237183
0.237671
0.238159
0.238647
0.239136
0.239624
0.240112
0.240601
0.241089
0.241577
0.242065
0.242432
0.24292
0.243408
0.243896
0.244385
0.244873
0.245483
0.245972
0.24646
0.246948
0.247437
0.247925
0.248413
0.248901
0.24939
0.249878
0.250244
0.250732
0.251221
0.251953
0.252441
0.25293
0.253418
0.253906
0.254395
0.254883
0.255371
0.255859
0.255859
0.256836
0.256836
0.258057
0.258057
0.259033
0.259033
0.26001
0.26001
0.260986
0.260986
0.262207
0.262207
0.263184
0.263184
0.26416
0.26416
0.265381
0.265381
0.266357
0.266357
0.267334
0.267334
0.268555
0.268555
0.269531
0.269531
0.270508
0.270508
0.271729
0.271729
0.272705
0.272705
0.273926
0.273926
0.274902
0.274902
0.276123
0.276123
0.2771
0.2771
0.27832
0.27832
0.279297
0.279297
0.280518
0.280518
0.281738
0.281738
0.282715
0.282715
0.283936
0.283936
0.284912
0.284912
0.286133
0.286133
0.287354
0.287354
0.28833
0.28833
0.289551
0.289551
0.290771
0.290771
0.291992
0.291992
0.292969
0.292969
0.294189
0.294189
0.29541
0.29541
0.296631
0.296631
0.297852
0.297852
0.298828
0.298828
0.300049
0.300049
0.30127
0.30127
0.30249
0.30249
0.303711
0.303711
0.304932
0.304932
0.306152
0.306152
0.307373
0.307373
0.308594
0.308594
0.309814
0.309814
0.311035
0.311035
0.312256
0.312256
0.313477
0.313477
0.314697
0.314697
0.315918
0.315918
0.317383
0.317383
0.318604
0.318604
0.319824
0.319824
0.321045
0.321045
0.322266
0.322266
0.32373
0.32373
0.324951
0.324951
0.326172
0.326172
0.327637
0.327637
0.328857
0.328857
0.330078
0.330078
0.331543
0.331543
0.332764
0.332764
0.333984
0.333984
0.335449
0.335449
0.33667
0.33667
0.338135
0.338135
0.339355
0.339355
0.34082
0.34082
0.342041
0.342041
0.343506
0.343506
0.344727
0.344727
0.346191
0.346191
0.347656
0.347656
0.348877
0.348877
0.350342
0.350342
0.351807
0.351807
0.353027
0.353027
0.354492
0.354492
0.355957
0.355957
0.357422
0.357422
0.358643
0.358643
0.360107
0.360107
0.361572
0.361572
0.363037
0.363037
0.364502
0.364502
0.365967
0.365967
0.367432
0.367432
0.368896
0.368896
0.370361
0.370361
0.371826
0.371826
0.373291
0.373291
0.374756
0.374756
0.376221
0.376221
0.377686
0.377686
0.37915
0.37915
0.380615
0.380615
0.38208
0.38208
0.383545
0.383545
0.385254
0.385254
0.386719
0.386719
0.388184
0.388184
0.389648
0.389648
0.391357
0.391357
0.392822
0.392822
0.394287
0.394287
0.395996
0.395996
0.397461
0.397461
0.39917
0.39917
0.400635
0.400635
0.4021
0.4021
0.403809
0.403809
0.405273
0.405273
0.406982
0.406982
0.408691
0.408691
0.410156
0.410156
0.411865
0.411865
0.41333
0.41333
0.415039
0.415039
0.416748
0.416748
0.418457
0.418457
0.419922
0.419922
0.421631
0.421631
0.42334
0.42334
0.425049
0.425049
0.426758
0.426758
0.428467
0.428467
0.429932
0.429932
0.431641
0.431641
0.43335
0.43335
0.435059
0.435059
0.436768
0.436768
0.438477
0.438477
0.440186
0.440186
0.442139
0.442139
0.443848
0.443848
0.445557
0.445557
0.447266
0.447266
0.448975
0.448975
0.450684
0.450684
0.452637
0.452637
0.454346
0.454346
0.456055
0.456055
0.458008
0.458008
0.459717
0.459717
0.461426
0.461426
0.463379
0.463379
0.465088
0.465088
0.467041
0.467041
0.46875
0.46875
0.470703
0.470703
0.472656
0.472656
0.474365
0.474365
0.476318
0.476318
0.478027
0.478027
0.47998
0.47998
0.481934
0.481934
0.483887
0.483887
0.485596
0.485596
0.487549
0.487549
0.489502
0.489502
0.491455
0.491455
0.493408
0.493408
0.495361
0.495361
0.497314
0.497314
0.499268
0.499268
0.500977
0.500977
0.50293
0.50293
0.504883
0.504883
0.506836
0.506836
0.508789
0.508789
0.510742
0.510742
0.513184
0.513184
0.515137
0.515137
0.51709
0.51709
0.519043
0.519043
0.520996
0.520996
0.522949
0.522949
0.525391
0.525391
0.527344
0.527344
0.529297
0.529297
0.53125
0.53125
0.533691
0.533691
0.535645
0.535645
0.537598
0.537598
0.539551
0.539551
0.541992
0.541992
0.543945
0.543945
0.545898
0.545898
0.54834
0.54834
0.550293
0.550293
0.552734
0.552734
0.554688
0.554688
0.557129
0.557129
0.559082
0.559082
0.561523
0.561523
0.563477
0.563477
0.565918
0.565918
0.567871
0.567871
0.570312
0.570312
0.572266
0.572266
0.574707
0.574707
0.57666
0.57666
0.579102
0.579102
0.581543
0.581543
0.583496
0.583496
0.585938
0.585938
0.588379
0.588379
0.590332
0.590332
0.592773
0.592773
0.595215
0.595215
0.597656
0.597656
0.599609
0.599609
0.602051
0.602051
0.604492
0.604492
0.606934
0.606934
0.609375
0.609375
0.611816
0.611816
0.614258
0.614258
0.616211
0.616211
0.618652
0.618652
0.621094
0.621094
0.623535
0.623535
0.625977
0.625977
0.628418
0.628418
0.630859
0.630859
0.633301
0.633301
0.63623
0.63623
0.638672
0.638672
0.641113
0.641113
0.643555
0.643555
0.645996
0.645996
0.648438
0.648438
0.650879
0.650879
0.653809
0.653809
0.65625
0.65625
0.658691
0.658691
0.661133
0.661133
0.664062
0.664062
0.666504
0.666504
0.668945
0.668945
0.671875
0.671875
0.674316
0.674316
0.676758
0.676758
0.679688
0.679688
0.682129
0.682129
0.685059
0.685059
0.6875
0.6875
0.69043
0.69043
0.692871
0.692871
0.695801
0.695801
0.698242
0.698242
0.701172
0.701172
0.703613
0.703613
0.706543
0.706543
0.709473
0.709473
0.711914
0.711914
0.714844
0.714844
0.717773
0.717773
0.720703
0.720703
0.723145
0.723145
0.726074
0.726074
0.729004
0.729004
0.731934
0.731934
0.734863
0.734863
0.737305
0.737305
0.740234
0.740234
0.743164
0.743164
0.746094
0.746094
0.749023
0.749023
0.751953
0.751953
0.754883
0.754883
0.757812
0.757812
0.760742
0.760742
0.763672
0.763672
0.766602
0.766602
0.769531
0.769531
0.772949
0.772949
0.775879
0.775879
0.778809
0.778809
0.781738
0.781738
0.784668
0.784668
0.788086
0.788086
0.791016
0.791016
0.793945
0.793945
0.797363
0.797363
0.800293
0.800293
0.803223
0.803223
0.806641
0.806641
0.80957
0.80957
0.812988
0.812988
0.815918
0.815918
0.819336
0.819336
0.822266
0.822266
0.825684
0.825684
0.828613
0.828613
0.832031
0.832031
0.835449
0.835449
