TCAMv2/TLog_2_Linear.spi1d
Version 1
From 0.0 1.0
Length 4096
Components 1
{
-0.004631
-0.004616
-0.004601
-0.004585
-0.00457
-0.004559
-0.004543
-0.004528
-0.004513
-0.004498
-0.004482
-0.004467
-0.004452
-0.004436
-0.004421
-0.004406
-0.004391
-0.004375
-0.00436
-0.004345
-0.00433
-0.004314
-0.004299
-0.004284
-0.004269
-0.004253
-0.004238
-0.004227
-0.004211
-0.004196
-0.004181
-0.004166
-0.00415
-0.004135
-0.00412
-0.004105
-0.004089
-0.004074
-0.004059
-0.004044
-0.004028
-0.004013
-0.003998
-0.003983
-0.003967
-0.003952
-0.003937
-0.003922
-0.003906
-0.003895
-0.00388
-0.003864
-0.003849
-0.003834
-0.003819
-0.003803
-0.003788
-0.003773
-0.003757
-0.003742
-0.003729
-0.003714
-0.003698
-0.003683
-0.003668
-0.003653
-0.003637
-0.003622
-0.003607
-0.003592
-0.003576
-0.003563
-0.003548
-0.003532
-0.003517
-0.003502
-0.003487
-0.003471
-0.003456
-0.003441
-0.003426
-0.00341
-0.003397
-0.003382
-0.003366
-0.003351
-0.003336
-0.003321
-0.003305
-0.00329
-0.003275
-0.00326
-0.003244
-0.003231
-0.003216
-0.003201
-0.003185
-0.00317
-0.003155
-0.003139
-0.003124
-0.003109
-0.003094
-0.003078
-0.003065
-0.00305
-0.003035
-0.003019
-0.003004
-0.002989
-0.002974
-0.002958
-0.002943
-0.002928
-0.002913
-0.002899
-0.002884
-0.002869
-0.002853
-0.002838
-0.002823
-0.002808
-0.002792
-0.002777
-0.002762
-0.002747
-0.002733
-0.002718
-0.002703
-0.002687
-0.002672
-0.002657
-0.002642
-0.002626
-0.002611
-0.002596
-0.002581
-0.002567
-0.002552
-0.002537
-0.002522
-0.002506
-0.002491
-0.002476
-0.00246
-0.002445
-0.00243
-0.002415
-0.002401
-0.002386
-0.002371
-0.002356
-0.00234
-0.002325
-0.00231
-0.002295
-0.002279
-0.002264
-0.002251
-0.002235
-0.00222
-0.002205
-0.00219
-0.002174
-0.002159
-0.002144
-0.002129
-0.002113
-0.002098
-0.002085
-0.002069
-0.002054
-0.002039
-0.002024
-0.002008
-0.001993
-0.001978
-0.001963
-0.001948
-0.001933
-0.001919
-0.001904
-0.001888
-0.001873
-0.001858
-0.001842
-0.001828
-0.001813
-0.001798
-0.001782
-0.001767
-0.001753
-0.001738
-0.001722
-0.001707
-0.001692
-0.001677
-0.001662
-0.001647
-0.001632
-0.001616
-0.001601
-0.001587
-0.001572
-0.001556
-0.001541
-0.001526
-0.001511
-0.001496
-0.001481
-0.001466
-0.001451
-0.001435
-0.001421
-0.001406
-0.00139
-0.001375
-0.00136
-0.001345
-0.00133
-0.001315
-0.0013
-0.001285
-0.001269
-0.001255
-0.00124
-0.001225
-0.001209
-0.001194
-0.001179
-0.001164
-0.001149
-0.001134
-0.001119
-0.001103
-0.001089
-0.001074
-0.001059
-0.001043
-0.001028
-0.001013
-0.000998
-0.000983
-0.000968
-0.000953
-0.000938
-0.000923
-0.000908
-0.000893
-0.000878
-0.000863
-0.000847
-0.000833
-0.000817
-0.000803
-0.000787
-0.000772
-0.000757
-0.000742
-0.000727
-0.000712
-0.000697
-0.000681
-0.000667
-0.000651
-0.000637
-0.000621
-0.000606
-0.000591
-0.000576
-0.000561
-0.000546
-0.000531
-0.000515
-0.000501
-0.000486
-0.000471
-0.000455
-0.00044
-0.000425
-0.00041
-0.000395
-0.00038
-0.000365
-0.00035
-0.000335
-0.00032
-0.000305
-0.000289
-0.000274
-0.000259
-0.000244
-0.000229
-0.000214
-0.000199
-0.000184
-0.000169
-0.000154
-0.000139
-0.000124
-0.000109
-0.000094
-0.000078
-0.000063
-0.000048
-0.000033
-0.000018
-0.000003
0.000012
0.000027
0.000042
0.000058
0.000073
0.000088
0.000103
0.000119
0.000134
0.00015
0.000165
0.000181
0.000196
0.000212
0.000228
0.000243
0.000259
0.000275
0.000291
0.000307
0.000322
0.000338
0.000354
0.000371
0.000386
0.000403
0.000419
0.000435
0.000451
0.000468
0.000484
0.0005
0.000516
0.000533
0.00055
0.000566
0.000583
0.000599
0.000616
0.000633
0.000649
0.000667
0.000683
0.0007
0.000717
0.000734
0.000751
0.000768
0.000785
0.000803
0.00082
0.000837
0.000854
0.000872
0.000889
0.000907
0.000924
0.000942
0.000959
0.000977
0.000995
0.001012
0.00103
0.001048
0.001066
0.001083
0.001101
0.00112
0.001138
0.001156
0.001174
0.001192
0.00121
0.001229
0.001247
0.001266
0.001284
0.001303
0.001321
0.00134
0.001358
0.001377
0.001396
0.001414
0.001433
0.001452
0.001472
0.001491
0.00151
0.001529
0.001548
0.001567
0.001586
0.001605
0.001625
0.001644
0.001663
0.001683
0.001702
0.001722
0.001742
0.001761
0.001781
0.001801
0.001822
0.001842
0.001862
0.001882
0.001902
0.001922
0.001942
0.001961
0.001982
0.002003
0.002022
0.002043
0.002064
0.002085
0.002104
0.002125
0.002146
0.002167
0.002188
0.002209
0.00223
0.002251
0.002272
0.002293
0.002314
0.002335
0.002356
0.002378
0.002399
0.00242
0.002441
0.002464
0.002485
0.002506
0.002529
0.00255
0.002573
0.002594
0.002617
0.002638
0.002661
0.002682
0.002705
0.002728
0.002748
0.002771
0.002794
0.002817
0.00284
0.002861
0.002884
0.002907
0.00293
0.002953
0.002975
0.002998
0.003021
0.003044
0.003069
0.003092
0.003115
0.003138
0.003162
0.003185
0.003208
0.003233
0.003256
0.003279
0.003304
0.003326
0.003351
0.003376
0.003399
0.003424
0.003447
0.003471
0.003496
0.003521
0.003544
0.003569
0.003593
0.003618
0.003643
0.003668
0.003693
0.003717
0.003742
0.003767
0.003792
0.003819
0.003843
0.003868
0.003893
0.003918
0.003944
0.003967
0.003994
0.004021
0.004047
0.00407
0.004097
0.004124
0.00415
0.004177
0.004204
0.004227
0.004253
0.00428
0.004307
0.004333
0.00436
0.004387
0.004414
0.00444
0.004467
0.004494
0.00452
0.004547
0.004578
0.004604
0.004631
0.004658
0.004684
0.004711
0.004742
0.004768
0.004795
0.004822
0.004852
0.004879
0.004906
0.004936
0.004963
0.004993
0.00502
0.005047
0.005077
0.005104
0.005135
0.005161
0.005192
0.005222
0.005249
0.00528
0.005306
0.005337
0.005367
0.005394
0.005424
0.005455
0.005486
0.005512
0.005543
0.005573
0.005604
0.005634
0.005661
0.005692
0.005722
0.005753
0.005783
0.005814
0.005844
0.005875
0.005905
0.005936
0.005966
0.005997
0.006031
0.006062
0.006092
0.006123
0.006153
0.006184
0.006218
0.006248
0.006279
0.006313
0.006344
0.006374
0.006409
0.006439
0.006474
0.006504
0.006535
0.006569
0.006603
0.006634
0.006668
0.006699
0.006733
0.006763
0.006798
0.006832
0.006863
0.006897
0.006931
0.006966
0.007
0.00703
0.007065
0.007099
0.007133
0.007168
0.007202
0.007236
0.007271
0.007305
0.007339
0.007374
0.007408
0.007442
0.007477
0.007511
0.007545
0.007584
0.007618
0.007652
0.007687
0.007725
0.007759
0.007793
0.007828
0.007866
0.007904
0.007935
0.007973
0.008011
0.008041
0.00808
0.008118
0.008156
0.008194
0.008224
0.008263
0.008301
0.008339
0.008377
0.008415
0.008453
0.008492
0.00853
0.00856
0.008598
0.008636
0.008675
0.008713
0.008751
0.008789
0.008827
0.008865
0.008911
0.008949
0.008987
0.009026
0.009064
0.009102
0.00914
0.009178
0.009216
0.009262
0.0093
0.009338
0.009377
0.009422
0.00946
0.009499
0.009537
0.009583
0.009621
0.009659
0.009705
0.009743
0.009781
0.009827
0.009865
0.009903
0.009949
0.009987
0.010033
0.010071
0.010117
0.010155
0.010201
0.010239
0.010284
0.010323
0.010368
0.010406
0.010452
0.010498
0.010536
0.010582
0.010628
0.010666
0.010712
0.010757
0.010796
0.010841
0.010887
0.010933
0.010971
0.011017
0.011063
0.011108
0.011154
0.011192
0.011238
0.011284
0.01133
0.011375
0.011421
0.011467
0.011513
0.011559
0.011604
0.01165
0.011696
0.011742
0.011787
0.011833
0.011879
0.011925
0.011971
0.012016
0.01207
0.012115
0.012161
0.012207
0.012253
0.012306
0.012352
0.012398
0.012444
0.012497
0.012543
0.012589
0.012642
0.012688
0.012733
0.012787
0.012833
0.012886
0.012932
0.012985
0.013031
0.013084
0.01313
0.013184
0.013229
0.013283
0.013329
0.013382
0.013435
0.013481
0.013535
0.013588
0.013634
0.013687
0.013741
0.013794
0.01384
0.013893
0.013947
0.014
0.014053
0.014099
0.014153
0.014206
0.014259
0.014313
0.014366
0.01442
0.014473
0.014526
0.01458
0.014633
0.014687
0.01474
0.014793
0.014847
0.0149
0.014961
0.015015
0.015068
0.015121
0.015175
0.015236
0.015289
0.015343
0.015404
0.015457
0.015511
0.015572
0.015625
0.015671
0.015732
0.015793
0.015854
0.0159
0.015961
0.016022
0.016083
0.016129
0.01619
0.016251
0.016312
0.016373
0.016418
0.016479
0.016541
0.016602
0.016663
0.016724
0.016785
0.016846
0.016891
0.016953
0.017014
0.017075
0.017136
0.017197
0.017258
0.017319
0.01738
0.017441
0.017502
0.017563
0.017624
0.017685
0.017746
0.017807
0.017868
0.017944
0.018005
0.018066
0.018127
0.018188
0.01825
0.018311
0.018387
0.018448
0.018509
0.01857
0.018631
0.018707
0.018768
0.018829
0.01889
0.018967
0.019028
0.019089
0.01915
0.019226
0.019287
0.019348
0.019424
0.019485
0.019562
0.019623
0.019684
0.01976
0.019821
0.019897
0.019958
0.02002
0.020096
0.020157
0.020233
0.020294
0.02037
0.020432
0.020508
0.020584
0.020645
0.020721
0.020782
0.020859
0.02092
0.020996
0.021072
0.021133
0.02121
0.021286
0.021347
0.021423
0.0215
0.021561
0.021637
0.021713
0.02179
0.021866
0.021927
0.022003
0.022079
0.022156
0.022232
0.022293
0.022369
0.022446
0.022522
0.022598
0.022675
0.022751
0.022827
0.022903
0.02298
0.023056
0.023132
0.023209
0.023285
0.023361
0.023438
0.023514
0.02359
0.023666
0.023743
0.023819
0.023895
0.023972
0.024063
0.024139
0.024216
0.024292
0.024368
0.024445
0.024536
0.024612
0.024689
0.024765
0.024857
0.024933
0.025009
0.025101
0.025177
0.025253
0.025345
0.025421
0.025513
0.025589
0.025665
0.025757
0.025833
0.025925
0.026001
0.026093
0.026169
0.02626
0.026337
0.026428
0.02652
0.026596
0.026688
0.026764
0.026855
0.026947
0.027023
0.027115
0.027206
0.027283
0.027374
0.027466
0.027557
0.027634
0.027725
0.027817
0.027908
0.028
0.028091
0.028168
0.028259
0.028351
0.028442
0.028534
0.028625
0.028717
0.028809
0.0289
0.028992
0.029083
0.029175
0.029266
0.029358
0.029449
0.029541
0.029633
0.029724
0.029831
0.029922
0.030014
0.030106
0.030197
0.030304
0.030396
0.030487
0.030579
0.030685
0.030777
0.030869
0.030975
0.031067
0.031158
0.03125
0.031342
0.031464
0.031555
0.031647
0.031738
0.03186
0.031952
0.032043
0.032135
0.032257
0.032349
0.03244
0.032562
0.032654
0.032745
0.032867
0.032959
0.033051
0.033173
0.033264
0.033356
0.033478
0.033569
0.033691
0.033783
0.033875
0.033997
0.034088
0.03421
0.034302
0.034424
0.034515
0.034637
0.034729
0.034851
0.034943
0.035065
0.035156
0.035278
0.03537
0.035492
0.035614
0.035706
0.035828
0.035919
0.036041
0.036163
0.036255
0.036377
0.036469
0.036591
0.036713
0.036804
0.036926
0.037048
0.03717
0.037262
0.037384
0.037506
0.037628
0.03772
0.037842
0.037964
0.038086
0.038177
0.0383
0.038422
0.038544
0.038666
0.038788
0.038879
0.039001
0.039124
0.039246
0.039368
0.03949
0.039612
0.039734
0.039856
0.039978
0.0401
0.040222
0.040344
0.040466
0.040588
0.04071
0.040833
0.040955
0.041077
0.041199
0.041321
0.041443
0.041565
0.041687
0.041809
0.041931
0.042053
0.042206
0.042328
0.04245
0.042572
0.042694
0.042816
0.042969
0.043091
0.043213
0.043335
0.043488
0.04361
0.043732
0.043884
0.044006
0.044128
0.04425
0.044403
0.044525
0.044647
0.0448
0.044922
0.045074
0.045197
0.045319
0.045471
0.045593
0.045746
0.045868
0.046021
0.046143
0.046295
0.046417
0.04657
0.046692
0.046844
0.046967
0.047119
0.047272
0.047394
0.047546
0.047668
0.047821
0.047974
0.048096
0.048248
0.048401
0.048523
0.048676
0.048828
0.048981
0.049103
0.049255
0.049408
0.049561
0.049683
0.049835
0.049988
0.05014
0.050293
0.050446
0.050568
0.05072
0.050873
0.051025
0.051178
0.051331
0.051483
0.051636
0.051788
0.051941
0.052094
0.052246
0.052399
0.052551
0.052704
0.052856
0.053009
0.053162
0.053314
0.053467
0.05365
0.053802
0.053955
0.054108
0.05426
0.054413
0.054596
0.054749
0.054901
0.055054
0.055237
0.055389
0.055542
0.055725
0.055878
0.05603
0.056213
0.056366
0.056519
0.056702
0.056854
0.057037
0.05719
0.057373
0.057526
0.057709
0.057861
0.058044
0.058197
0.05838
0.058533
0.058716
0.058868
0.059052
0.059235
0.059387
0.05957
0.059753
0.059906
0.060089
0.060272
0.060425
0.060608
0.060791
0.060974
0.061127
0.06131
0.061493
0.061676
0.061859
0.062042
0.062195
0.062378
0.062561
0.062744
0.062927
0.06311
0.063293
0.063477
0.06366
0.063843
0.064026
0.064209
0.064392
0.064575
0.064758
0.064941
0.065125
0.065308
0.065491
0.065674
0.065857
0.066101
0.066284
0.066467
0.06665
0.066833
0.067017
0.0672
0.067383
0.067627
0.06781
0.067993
0.068176
0.068359
0.068604
0.068787
0.06897
0.069153
0.069397
0.06958
0.069763
0.069946
0.07019
0.070374
0.070557
0.070801
0.070984
0.071167
0.071411
0.071594
0.071777
0.072021
0.072205
0.072388
0.072632
0.072815
0.073059
0.073242
0.073425
0.073669
0.073853
0.074097
0.07428
0.074524
0.074707
0.074951
0.075134
0.075378
0.075562
0.075806
0.075989
0.076233
0.076416
0.07666
0.076843
0.077087
0.077332
0.077515
0.077759
0.078003
0.078186
0.07843
0.078613
0.078857
0.079102
0.079285
0.079529
0.079773
0.080017
0.0802
0.080444
0.080688
0.080872
0.081116
0.08136
0.081604
0.081848
0.082031
0.082275
0.08252
0.082764
0.083008
0.083252
0.083435
0.083679
0.083923
0.084167
0.084412
0.084656
0.0849
0.085144
0.085388
0.085632
0.085876
0.08606
0.086304
0.086548
0.086792
0.087036
0.087341
0.087585
0.08783
0.088074
0.088318
0.088562
0.088806
0.08905
0.089294
0.089539
0.089783
0.090088
0.090332
0.090576
0.09082
0.091064
0.091309
0.091614
0.091858
0.092102
0.092346
0.092651
0.092896
0.09314
0.093384
0.093689
0.093933
0.094177
0.094482
0.094727
0.094971
0.095276
0.09552
0.095825
0.096069
0.096313
0.096619
0.096863
0.097168
0.097412
0.097717
0.097961
0.098267
0.098511
0.098816
0.09906
0.099365
0.099609
0.099915
0.100159
0.100464
0.100769
0.101013
0.101318
0.101624
0.101868
0.102173
0.102478
0.102722
0.103027
0.103333
0.103577
0.103882
0.104187
0.104492
0.104736
0.105042
0.105347
0.105652
0.105957
0.106201
0.106506
0.106812
0.107117
0.107422
0.107727
0.108032
0.108337
0.108643
0.108948
0.109253
0.109558
0.109863
0.110168
0.110474
0.110779
0.111084
0.111389
0.111694
0.112
0.112305
0.11261
0.112915
0.113281
0.113586
0.113892
0.114197
0.114502
0.114807
0.115173
0.115479
0.115784
0.116089
0.116455
0.11676
0.117065
0.117432
0.117737
0.118042
0.118408
0.118713
0.11908
0.119385
0.11969
0.120056
0.120361
0.120728
0.121033
0.121399
0.121704
0.12207
0.122375
0.122742
0.123047
0.123413
0.123779
0.124084
0.124451
0.124817
0.125122
0.125488
0.125854
0.126099
0.126465
0.126831
0.127197
0.127563
0.12793
0.128296
0.128662
0.129028
0.129272
0.129639
0.130005
0.130371
0.130737
0.131104
0.13147
0.131836
0.132202
0.132568
0.132935
0.133301
0.133667
0.134033
0.134399
0.134766
0.135132
0.135498
0.135864
0.13623
0.136719
0.137085
0.137451
0.137817
0.138184
0.13855
0.138916
0.139282
0.139648
0.140137
0.140503
0.140869
0.141235
0.141602
0.14209
0.142456
0.142822
0.143188
0.143555
0.144043
0.144409
0.144775
0.145142
0.14563
0.145996
0.146362
0.146851
0.147217
0.147583
0.148071
0.148438
0.148804
0.149292
0.149658
0.150024
0.150513
0.150879
0.151245
0.151733
0.1521
0.152588
0.152954
0.153442
0.153809
0.154175
0.154663
0.155029
0.155518
0.155884
0.156372
0.156738
0.157227
0.157715
0.158081
0.158569
0.158936
0.159424
0.15979
0.160278
0.160767
0.161133
0.161621
0.161987
0.162476
0.162964
0.16333
0.163818
0.164307
0.164673
0.165161
0.165649
0.166016
0.166504
0.166992
0.16748
0.167847
0.168335
0.168823
0.169312
0.1698
0.170166
0.170654
0.171143
0.171631
0.172119
0.172607
0.172974
0.173462
0.17395
0.174438
0.174927
0.175415
0.175903
0.176392
0.17688
0.177368
0.177856
0.178345
0.178833
0.179321
0.17981
0.180298
0.180786
0.181274
0.181763
0.182251
0.182739
0.183228
0.183716
0.184204
0.184692
0.185303
0.185791
0.186279
0.186768
0.187256
0.187744
0.188354
0.188843
0.189331
0.189819
0.190308
0.190918
0.191406
0.191895
0.192505
0.192993
0.193481
0.19397
0.19458
0.195068
0.195679
0.196167
0.196655
0.197266
0.197754
0.198242
0.198853
0.199341
0.199951
0.200439
0.20105
0.201538
0.202148
0.202637
0.203247
0.203735
0.204346
0.204834
0.205444
0.206055
0.206543
0.207153
0.207642
0.208252
0.208862
0.209351
0.209961
0.210571
0.21106
0.21167
0.21228
0.212769
0.213379
0.213989
0.2146
0.215088
0.215698
0.216309
0.216919
0.217529
0.21814
0.218628
0.219238
0.219849
0.220459
0.221069
0.22168
0.22229
0.2229
0.223511
0.224121
0.224731
0.225342
0.225952
0.226562
0.227173
0.227783
0.228394
0.229004
0.229614
0.230225
0.230835
0.231445
0.232178
0.232788
0.233398
0.234009
0.234619
0.235352
0.235962
0.236572
0.237183
0.237915
0.238525
0.239136
0.239746
0.240479
0.241089
0.241699
0.242432
0.243042
0.243774
0.244385
0.244995
0.245728
0.246338
0.24707
0.247681
0.248413
0.249023
0.249756
0.250244
0.250977
0.251709
0.252441
0.253174
0.253662
0.254395
0.255127
0.255859
0.256592
0.257324
0.257812
0.258545
0.259277
0.26001
0.260742
0.261475
0.262207
0.262939
0.263428
0.26416
0.264893
0.265625
0.266357
0.26709
0.267822
0.268555
0.269287
0.27002
0.270752
0.271484
0.272217
0.272949
0.273682
0.274414
0.275146
0.275879
0.276611
0.277344
0.278076
0.278809
0.279785
0.280518
0.28125
0.281982
0.282715
0.283447
0.28418
0.284912
0.285889
0.286621
0.287354
0.288086
0.288818
0.289551
0.290527
0.29126
0.291992
0.292725
0.293701
0.294434
0.295166
0.295898
0.296875
0.297607
0.29834
0.299072
0.300049
0.300781
0.301514
0.30249
0.303223
0.303955
0.304932
0.305664
0.306641
0.307373
0.308105
0.309082
0.309814
0.310791
0.311523
0.312256
0.313232
0.313965
0.314941
0.315674
0.31665
0.317383
0.318359
0.319092
0.320068
0.320801
0.321777
0.322754
0.323486
0.324463
0.325195
0.326172
0.326904
0.327881
0.328857
0.32959
0.330566
0.331543
0.332275
0.333252
0.334229
0.334961
0.335938
0.336914
0.337646
0.338623
0.3396
0.340576
0.341309
0.342285
0.343262
0.344238
0.344971
0.345947
0.346924
0.3479
0.348877
0.349854
0.350586
0.351562
0.352539
0.353516
0.354492
0.355469
0.356445
0.357422
0.358398
0.359375
0.360352
0.361328
0.362305
0.363037
0.364258
0.365234
0.366211
0.367188
0.368164
0.369141
0.370117
0.371094
0.37207
0.373047
0.374023
0.375
0.375977
0.376953
0.378174
0.37915
0.380127
0.381104
0.38208
0.383301
0.384277
0.385254
0.38623
0.387451
0.388428
0.389404
0.390381
0.391602
0.392578
0.393555
0.394775
0.395752
0.396729
0.397949
0.398926
0.399902
0.401123
0.4021
0.40332
0.404297
0.405518
0.406494
0.407471
0.408691
0.409668
0.410889
0.412109
0.413086
0.414307
0.415283
0.416504
0.41748
0.418701
0.419678
0.420898
0.422119
0.423096
0.424316
0.425537
0.426514
0.427734
0.428955
0.429932
0.431152
0.432373
0.433594
0.43457
0.435791
0.437012
0.438232
0.439453
0.44043
0.44165
0.442871
0.444092
0.445312
0.446533
0.447754
0.448975
0.450195
0.451172
0.452393
0.453613
0.454834
0.456055
0.457275
0.458496
0.459717
0.461182
0.462402
0.463623
0.464844
0.466064
0.467285
0.468506
0.469727
0.470947
0.472412
0.473633
0.474854
0.476074
0.477295
0.47876
0.47998
0.481201
0.482422
0.483887
0.485107
0.486328
0.487793
0.489014
0.490234
0.491699
0.49292
0.494385
0.495605
0.496826
0.498291
0.499512
0.500977
0.501953
0.503418
0.504883
0.506348
0.507812
0.508789
0.510254
0.511719
0.513184
0.514648
0.515625
0.51709
0.518555
0.52002
0.521484
0.522949
0.523926
0.525391
0.526855
0.52832
0.529785
0.53125
0.532715
0.53418
0.535645
0.537109
0.538574
0.539551
0.541016
0.54248
0.543945
0.54541
0.546875
0.54834
0.549805
0.55127
0.552734
0.554199
0.555664
0.557129
0.559082
0.560547
0.562012
0.563477
0.563477
0.566406
0.566406
0.569336
0.569336
0.572266
0.572266
0.575684
0.575684
0.578613
0.578613
0.581543
0.581543
0.584961
0.584961
0.587891
0.587891
0.591309
0.591309
0.594238
0.594238
0.597656
0.597656
0.600586
0.600586
0.604004
0.604004
0.606934
0.606934
0.610352
0.610352
0.61377
0.61377
0.616699
0.616699
0.620117
0.620117
0.623535
0.623535
0.626953
0.626953
0.630371
0.630371
0.633789
0.633789
0.637207
0.637207
0.640625
0.640625
0.644043
0.644043
0.647461
0.647461
0.650879
0.650879
0.654297
0.654297
0.657715
0.657715
0.661133
0.661133
0.664551
0.664551
0.668457
0.668457
0.671875
0.671875
0.675293
0.675293
0.679199
0.679199
0.682617
0.682617
0.686523
0.686523
0.689941
0.689941
0.693848
0.693848
0.697266
0.697266
0.701172
0.701172
0.705078
0.705078
0.708496
0.708496
0.712402
0.712402
0.716309
0.716309
0.720215
0.720215
0.724121
0.724121
0.728027
0.728027
0.731934
0.731934
0.73584
0.73584
0.739746
0.739746
0.743652
0.743652
0.747559
0.747559
0.751465
0.751465
0.755371
0.755371
0.759766
0.759766
0.763672
0.763672
0.767578
0.767578
0.771973
0.771973
0.775879
0.775879
0.780273
0.780273
0.78418
0.78418
0.788574
0.788574
0.79248
0.79248
0.796875
0.796875
0.80127
0.80127
0.805664
0.805664
0.80957
0.80957
0.813965
0.813965
0.818359
0.818359
0.822754
0.822754
0.827148
0.827148
0.831543
0.831543
0.835938
0.835938
0.840332
0.840332
0.845215
0.845215
0.849609
0.849609
0.854004
0.854004
0.858398
0.858398
0.863281
0.863281
0.867676
0.867676
0.872559
0.872559
0.876953
0.876953
0.881836
0.881836
0.88623
0.88623
0.891113
0.891113
0.895996
0.895996
0.900879
0.900879
0.905762
0.905762
0.910156
0.910156
0.915039
0.915039
0.919922
0.919922
0.924805
0.924805
0.930176
0.930176
0.935059
0.935059
0.939941
0.939941
0.944824
0.944824
0.950195
0.950195
0.955078
0.955078
0.959961
0.959961
0.965332
0.965332
0.970215
0.970215
0.975586
0.975586
0.980957
0.980957
0.98584
0.98584
0.991211
0.991211
0.996582
0.996582
1.001953
1.001953
1.006836
1.006836
1.012695
1.012695
1.017578
1.017578
1.023438
1.023438
1.02832
1.02832
1.03418
1.03418
1.040039
1.040039
1.044922
1.044922
1.050781
1.050781
1.056641
1.056641
1.0625
1.0625
1.067383
1.067383
1.073242
1.073242
1.079102
1.079102
1.084961
1.084961
1.09082
1.09082
1.09668
1.09668
1.102539
1.102539
1.108398
1.108398
1.114258
1.114258
1.120117
1.120117
1.125977
1.125977
1.131836
1.131836
1.137695
1.137695
1.144531
1.144531
1.150391
1.150391
1.15625
1.15625
1.162109
1.162109
1.168945
1.168945
1.174805
1.174805
1.181641
1.181641
1.1875
1.1875
1.193359
1.193359
1.200195
1.200195
1.207031
1.207031
1.212891
1.212891
1.219727
1.219727
1.225586
1.225586
1.232422
1.232422
1.239258
1.239258
1.246094
1.246094
1.251953
1.251953
1.258789
1.258789
1.265625
1.265625
1.272461
1.272461
1.279297
1.279297
1.286133
1.286133
1.292969
1.292969
1.299805
1.299805
1.306641
1.306641
1.313477
1.313477
1.320312
1.320312
1.328125
1.328125
1.334961
1.334961
1.341797
1.341797
1.348633
1.348633
1.356445
1.356445
1.363281
1.363281
1.371094
1.371094
1.37793
1.37793
1.385742
1.385742
1.392578
1.392578
1.400391
1.400391
1.407227
1.407227
1.415039
1.415039
1.422852
1.422852
1.430664
1.430664
1.4375
1.4375
1.445312
1.445312
1.453125
1.453125
1.460938
1.460938
1.46875
1.46875
1.476562
1.476562
1.484375
1.484375
1.492188
1.492188
1.5
1.5
1.507812
1.507812
1.516602
1.516602
1.524414
1.524414
1.532227
1.532227
1.541016
1.541016
1.548828
1.548828
1.556641
1.556641
1.56543
1.56543
1.573242
1.573242
1.582031
1.582031
1.59082
1.59082
1.598633
1.598633
1.607422
1.607422
1.616211
1.616211
1.625
1.625
1.632812
1.632812
1.641602
1.641602
1.650391
1.650391
1.65918
1.65918
1.667969
1.667969
1.676758
1.676758
1.686523
1.686523
1.695312
1.695312
1.704102
1.704102
1.712891
1.712891
1.722656
1.722656
1.731445
1.731445
1.740234
1.740234
1.75
1.75
1.758789
1.758789
1.768555
1.768555
1.77832
1.77832
1.787109
1.787109
1.796875
1.796875
1.806641
1.806641
1.816406
1.816406
1.826172
1.826172
1.835938
1.835938
1.845703
1.845703
1.855469
1.855469
1.865234
1.865234
1.875
1.875
1.884766
1.884766
1.894531
1.894531
1.905273
1.905273
1.915039
1.915039
1.925781
1.925781
1.935547
1.935547
1.946289
1.946289
1.956055
1.956055
1.966797
1.966797
1.977539
1.977539
1.987305
1.987305
1.998047
1.998047
2.007812
2.007812
2.019531
2.019531
2.029297
2.029297
2.041016
2.041016
2.050781
2.050781
2.0625
2.0625
2.074219
2.074219
2.083984
2.083984
2.095703
2.095703
2.107422
2.107422
2.117188
2.117188
2.128906
2.128906
2.140625
2.140625
2.152344
2.152344
2.164062
2.164062
2.173828
2.173828
2.185547
2.185547
2.197266
2.197266
2.208984
2.208984
2.220703
2.220703
2.232422
2.232422
2.244141
2.244141
2.257812
2.257812
2.269531
2.269531
2.28125
2.28125
2.292969
2.292969
2.304688
2.304688
2.318359
2.318359
2.330078
2.330078
2.341797
2.341797
2.355469
2.355469
2.367188
2.367188
2.378906
2.378906
2.392578
2.392578
2.404297
2.404297
2.417969
2.417969
2.431641
2.431641
2.443359
2.443359
2.457031
2.457031
2.470703
2.470703
2.482422
2.482422
2.496094
2.496094
2.509766
2.509766
2.523438
2.523438
2.537109
2.537109
2.548828
2.548828
2.5625
2.5625
2.576172
2.576172
2.589844
2.589844
2.603516
2.603516
2.619141
2.619141
2.632812
2.632812
2.646484
2.646484
2.660156
2.660156
2.673828
2.673828
2.689453
2.689453
2.703125
2.703125
2.716797
2.716797
2.732422
2.732422
2.746094
2.746094
2.761719
2.761719
2.775391
2.775391
2.791016
2.791016
2.804688
2.804688
2.820312
2.820312
2.833984
2.833984
2.849609
2.849609
2.865234
2.865234
