Sony/SL3SG3tos709.cube
# s709 LUT
# S-Log3/S-Gamut3 to Rec.709
LUT_3D_SIZE 33
0.000000 0.000000 0.000000
0.003565 0.000000 0.000000
0.025572 0.000000 0.000000
0.047620 0.000000 0.000000
0.072443 0.000000 0.000000
0.098405 0.000000 0.000000
0.126223 0.000000 0.000000
0.160347 0.000000 0.000000
0.200283 0.000000 0.000000
0.249980 0.000000 0.000000
0.309880 0.000000 0.000000
0.374038 0.000000 0.000000
0.439044 0.000000 0.000000
0.503735 0.000000 0.000000
0.569032 0.000000 0.000000
0.633310 0.000000 0.000000
0.696320 0.000000 0.000000
0.757960 0.000000 0.000000
0.818587 0.000000 0.000000
0.876363 0.000000 0.000000
0.926845 0.000000 0.000000
0.967689 0.000000 0.000000
0.998991 0.000000 0.000000
1.000000 0.000000 0.000000
1.000000 0.000000 0.003671
1.000000 0.065588 0.156839
1.000000 0.229148 0.266092
1.000000 0.340136 0.356916
1.000000 0.433388 0.440113
1.000000 0.517089 0.516637
1.000000 0.595160 0.588289
1.000000 0.667542 0.656192
1.000000 0.735212 0.721378
0.000000 0.001791 0.000000
0.000000 0.000000 0.000000
0.021205 0.000000 0.000000
0.043212 0.000000 0.000000
0.067620 0.000000 0.000000
0.093992 0.000000 0.000000
0.122179 0.000000 0.000000
0.156916 0.000000 0.000000
0.197403 0.000000 0.000000
0.247165 0.000000 0.000000
0.307350 0.000000 0.000000
0.372129 0.000000 0.000000
0.437613 0.000000 0.000000
0.502592 0.000000 0.000000
0.568126 0.000000 0.000000
0.632620 0.000000 0.000000
0.695785 0.000000 0.000000
0.757528 0.000000 0.000000
0.818213 0.000000 0.000000
0.876062 0.000000 0.000000
0.926605 0.000000 0.000000
0.967486 0.000000 0.000000
0.998782 0.000000 0.000000
1.000000 0.000000 0.000000
1.000000 0.000000 0.004567
1.000000 0.095180 0.157376
1.000000 0.241369 0.266386
1.000000 0.347279 0.357112
1.000000 0.438021 0.440248
1.000000 0.520571 0.516733
1.000000 0.597552 0.588356
1.000000 0.669212 0.656242
1.000000 0.736390 0.721414
0.000000 0.021895 0.000000
0.000000 0.019327 0.000000
0.016840 0.016762 0.000000
0.038849 0.014195 0.000000
0.062685 0.011374 0.000000
0.089628 0.008123 0.000000
0.118129 0.004169 0.000000
0.153278 0.000000 0.000000
0.194423 0.000000 0.000000
0.244409 0.000000 0.000000
0.304767 0.000000 0.000000
0.370195 0.000000 0.000000
0.436171 0.000000 0.000000
0.501441 0.000000 0.000000
0.567213 0.000000 0.000000
0.631924 0.000000 0.000000
0.695236 0.000000 0.000000
0.757075 0.000000 0.000000
0.817837 0.000000 0.000000
0.875761 0.000000 0.000000
0.926356 0.000000 0.000000
0.967264 0.000000 0.000000
0.998583 0.000000 0.000000
1.000000 0.000000 0.000000
1.000000 0.000000 0.005469
1.000000 0.120704 0.157914
1.000000 0.252763 0.266677
1.000000 0.354139 0.357306
1.000000 0.442536 0.440383
1.000000 0.523991 0.516829
1.000000 0.599910 0.588423
1.000000 0.670868 0.656292
1.000000 0.737561 0.721449
0.000000 0.042006 0.000000
0.000000 0.039435 0.000000
0.012474 0.036868 0.000000
0.034483 0.034300 0.000000
0.057649 0.031574 0.000000
0.084651 0.028317 0.000000
0.113984 0.024379 0.000000
0.149540 0.018573 0.000000
0.191374 0.010235 0.000000
0.241777 0.000000 0.000000
0.302143 0.000000 0.000000
0.368235 0.000000 0.000000
0.434714 0.000000 0.000000
0.500281 0.000000 0.000000
0.566283 0.000000 0.000000
0.631204 0.000000 0.000000
0.694665 0.000000 0.000000
0.756617 0.000000 0.000000
0.817460 0.000000 0.000000
0.875458 0.000000 0.000000
0.926116 0.000000 0.000000
0.967057 0.000000 0.000000
0.998392 0.000000 0.000000
1.000000 0.000000 0.000000
1.000000 0.000000 0.006399
1.000000 0.142232 0.158444
1.000000 0.263430 0.266965
1.000000 0.360740 0.357499
1.000000 0.447066 0.440518
1.000000 0.527345 0.516925
1.000000 0.602242 0.588490
1.000000 0.672508 0.656342
1.000000 0.738724 0.721484
0.000000 0.062370 0.000000
0.000000 0.059824 0.000000
0.008094 0.057280 0.000000
0.030100 0.054735 0.000000
0.052606 0.052122 0.000000
0.079111 0.048957 0.000000
0.109958 0.044966 0.000000
0.145831 0.039353 0.000000
0.188198 0.031283 0.000000
0.239098 0.019299 0.000000
0.299505 0.001694 0.000000
0.366215 0.000000 0.000000
0.433215 0.000000 0.000000
0.499114 0.000000 0.000000
0.565323 0.000000 0.000000
0.630466 0.000000 0.000000
0.694095 0.000000 0.000000
0.756159 0.000000 0.000000
0.817076 0.000000 0.000000
0.875145 0.000000 0.000000
0.925856 0.000000 0.000000
0.966820 0.000000 0.000000
0.998172 0.000000 0.000000
1.000000 0.000000 0.000000
1.000000 0.000000 0.007315
1.000000 0.160984 0.158969
1.000000 0.273447 0.267251
1.000000 0.367100 0.357690
1.000000 0.451586 0.440653
1.000000 0.530645 0.517020
1.000000 0.604543 0.588556
1.000000 0.674133 0.656391
1.000000 0.739879 0.721520
0.000000 0.085431 0.000000
0.000000 0.082936 0.000000
0.003575 0.080446 0.000000
0.025579 0.077954 0.000000
0.047845 0.075426 0.000000
0.073438 0.072437 0.000000
0.105641 0.068420 0.000000
0.142061 0.062882 0.000000
0.184843 0.055072 0.000000
0.236307 0.043343 0.000000
0.296773 0.026219 0.000000
0.364135 0.002910 0.000000
0.431675 0.000000 0.000000
0.497958 0.000000 0.000000
0.564358 0.000000 0.000000
0.629730 0.000000 0.000000
0.693523 0.000000 0.000000
0.755694 0.000000 0.000000
0.816694 0.000000 0.000000
0.874840 0.000000 0.000000
0.925600 0.000000 0.000000
0.966581 0.000000 0.000000
0.997957 0.000000 0.000000
1.000000 0.000000 0.000000
1.000000 0.030051 0.008218
1.000000 0.177634 0.159478
1.000000 0.282897 0.267534
1.000000 0.373228 0.357881
1.000000 0.456234 0.440790
1.000000 0.533880 0.517114
1.000000 0.606815 0.588622
1.000000 0.675743 0.656441
1.000000 0.741029 0.721555
0.000000 0.112725 0.000000
0.000000 0.110718 0.000000
0.000000 0.108642 0.000000
0.019850 0.106561 0.000000
0.041933 0.104472 0.000000
0.066859 0.102042 0.000000
0.099844 0.098570 0.000000
0.137278 0.093637 0.000000
0.180481 0.086203 0.000000
0.232731 0.074419 0.000000
0.293443 0.057274 0.000000
0.361502 0.033437 0.000000
0.429741 0.005040 0.000000
0.496505 0.000000 0.000000
0.563143 0.000000 0.000000
0.628801 0.000000 0.000000
0.692801 0.000000 0.000000
0.755113 0.000000 0.000000
0.816211 0.000000 0.000000
0.874432 0.000000 0.000000
0.925272 0.000000 0.000000
0.966301 0.000000 0.000000
0.997704 0.000000 0.000000
1.000000 0.000000 0.000000
1.000000 0.066483 0.009330
1.000000 0.196189 0.160098
1.000000 0.294012 0.267886
1.000000 0.380952 0.358121
1.000000 0.461940 0.440961
1.000000 0.537857 0.517232
1.000000 0.609621 0.588705
1.000000 0.677739 0.656503
1.000000 0.742457 0.721599
0.000000 0.145229 0.000000
0.000000 0.143565 0.000000
0.000000 0.141857 0.000000
0.011787 0.140149 0.000000
0.033784 0.138439 0.000000
0.057987 0.136511 0.000000
0.090969 0.133731 0.000000
0.130542 0.129679 0.000000
0.174079 0.123902 0.000000
0.227483 0.114410 0.000000
0.288861 0.099783 0.000000
0.357722 0.076861 0.000000
0.426981 0.048467 0.000000
0.494442 0.017021 0.000000
0.561420 0.000000 0.000000
0.627479 0.000000 0.000000
0.691772 0.000000 0.000000
0.754288 0.000000 0.000000
0.815506 0.000000 0.000000
0.873866 0.000000 0.000000
0.924780 0.000000 0.000000
0.965857 0.000000 0.000000
0.997331 0.000000 0.000000
1.000000 0.000000 0.000000
1.000000 0.112561 0.010873
1.000000 0.219489 0.160960
1.000000 0.309186 0.268377
1.000000 0.391928 0.358459
1.000000 0.469654 0.441200
1.000000 0.543284 0.517396
1.000000 0.613482 0.588821
1.000000 0.680499 0.656590
1.000000 0.744442 0.721660
0.000000 0.182378 0.000000
0.000000 0.180963 0.000000
0.000000 0.179536 0.000000
0.001042 0.178068 0.000000
0.023043 0.176599 0.000000
0.045705 0.175074 0.000000
0.079303 0.172716 0.000000
0.120947 0.169353 0.000000
0.165733 0.164660 0.000000
0.220147 0.157127 0.000000
0.283213 0.145537 0.000000
0.352542 0.128889 0.000000
0.423222 0.106339 0.000000
0.491642 0.077399 0.000000
0.559075 0.044045 0.000000
0.625690 0.008094 0.000000
0.690374 0.000000 0.000000
0.753166 0.000000 0.000000
0.814541 0.000000 0.000000
0.873066 0.000000 0.000000
0.924113 0.000000 0.000000
0.965307 0.000000 0.000000
0.996836 0.000000 0.000000
1.000000 0.057965 0.000000
1.000000 0.162628 0.012953
1.000000 0.249121 0.162123
1.000000 0.329119 0.269030
1.000000 0.405722 0.358902
1.000000 0.479401 0.441512
1.000000 0.550241 0.517613
1.000000 0.618477 0.588973
1.000000 0.684094 0.656705
1.000000 0.747041 0.721742
0.000000 0.225931 0.000000
0.000000 0.224801 0.000000
0.000000 0.223671 0.000000
0.000000 0.222542 0.000000
0.008562 0.221395 0.000000
0.030563 0.220240 0.000000
0.061723 0.218542 0.000000
0.106884 0.215932 0.000000
0.154924 0.212295 0.000000
0.209489 0.206791 0.000000
0.275166 0.197892 0.000000
0.345288 0.185706 0.000000
0.418000 0.169471 0.000000
0.487765 0.150180 0.000000
0.555847 0.126875 0.000000
0.623221 0.097935 0.000000
0.688439 0.062859 0.000000
0.751611 0.028932 0.000000
0.813216 0.003784 0.000000
0.871965 0.000000 0.000000
0.923238 0.000000 0.000000
0.964531 0.006624 0.000000
0.996200 0.060896 0.000000
1.000000 0.136200 0.000000
1.000000 0.210832 0.015635
1.000000 0.281989 0.163630
1.000000 0.352445 0.269878
1.000000 0.422504 0.359480
1.000000 0.491553 0.441922
1.000000 0.559068 0.517897
1.000000 0.624887 0.589173
1.000000 0.688748 0.656855
1.000000 0.750474 0.721849
0.000000 0.282124 0.000820
0.000000 0.281256 0.000000
0.000000 0.280386 0.000000
0.000000 0.279513 0.000000
0.000000 0.278641 0.000000
0.010434 0.277769 0.000000
0.039323 0.276586 0.000000
0.086239 0.274556 0.000000
0.138400 0.271789 0.000000
0.194463 0.267721 0.000000
0.263401 0.260782 0.000000
0.335579 0.251270 0.000000
0.410657 0.238694 0.000000
0.482369 0.224095 0.000000
0.551485 0.207500 0.000000
0.619824 0.188351 0.000000
0.685785 0.167236 0.000000
0.749487 0.145833 0.000000
0.811425 0.127981 0.000000
0.870506 0.112924 0.000000
0.922067 0.107407 0.000000
0.963544 0.127663 0.000000
0.995389 0.160809 0.000000
1.000000 0.208951 0.000000
1.000000 0.260995 0.019122
1.000000 0.317656 0.165575
1.000000 0.379196 0.270975
1.000000 0.442548 0.360249
1.000000 0.506481 0.442457
1.000000 0.570129 0.518269
1.000000 0.633044 0.589437
1.000000 0.694796 0.657054
1.000000 0.754940 0.721992
0.000000 0.346509 0.005925
0.000000 0.345769 0.004315
0.000000 0.345028 0.002705
0.000000 0.344287 0.001095
0.000000 0.343546 0.000000
0.000000 0.342799 0.000000
0.010949 0.341864 0.000000
0.055564 0.340271 0.000000
0.114186 0.337999 0.000000
0.175795 0.334640 0.000000
0.246090 0.329261 0.000000
0.323219 0.321329 0.000000
0.400401 0.311232 0.000000
0.474956 0.299391 0.000000
0.545694 0.286316 0.000000
0.615236 0.271632 0.000000
0.682227 0.256202 0.000000
0.746650 0.242047 0.000000
0.809052 0.229424 0.000000
0.868601 0.218890 0.000000
0.920532 0.214637 0.000000
0.962294 0.223035 0.000000
0.994340 0.244181 0.000000
1.000000 0.274453 0.000000
1.000000 0.313951 0.023660
1.000000 0.360325 0.168095
1.000000 0.411501 0.272419
1.000000 0.466707 0.361280
1.000000 0.524701 0.443152
1.000000 0.583934 0.518754
1.000000 0.643485 0.589783
1.000000 0.702861 0.657319
1.000000 0.760690 0.722179
0.000000 0.414567 0.012599
0.000000 0.413918 0.010989
0.000000 0.413268 0.009378
0.000000 0.412618 0.007767
0.000000 0.411966 0.006156
0.000000 0.411311 0.004548
0.000000 0.410492 0.002539
0.014979 0.409316 0.000000
0.076730 0.407367 0.000000
0.147040 0.404644 0.000000
0.222316 0.400279 0.000000
0.305476 0.393525 0.000000
0.386265 0.385022 0.000000
0.464851 0.374851 0.000000
0.538237 0.363826 0.000000
0.609127 0.352092 0.000000
0.677522 0.340123 0.000000
0.742950 0.328475 0.000000
0.805987 0.317400 0.000000
0.866169 0.307800 0.000000
0.918606 0.302717 0.000000
0.960729 0.305675 0.000000
0.993055 0.319425 0.000000
1.000000 0.339833 0.000000
1.000000 0.369697 0.029540
1.000000 0.404947 0.171281
1.000000 0.448511 0.274274
1.000000 0.496619 0.362633
1.000000 0.548127 0.444073
1.000000 0.601944 0.519399
1.000000 0.657255 0.590244
1.000000 0.713152 0.657667
1.000000 0.768030 0.722425
0.000000 0.483473 0.021181
0.000000 0.482903 0.019570
0.000000 0.482333 0.017958
0.000000 0.481761 0.016347
0.000000 0.481188 0.014735
0.000000 0.480614 0.013124
0.000000 0.479896 0.011109
0.000000 0.478889 0.008290
0.024638 0.477400 0.004146
0.105869 0.475102 0.000000
0.189927 0.471598 0.000000
0.279063 0.466096 0.000000
0.368286 0.458619 0.000000
0.450972 0.449977 0.000000
0.528227 0.440465 0.000000
0.601051 0.430343 0.000000
0.671416 0.419629 0.000000
0.738213 0.408970 0.000000
0.802094 0.398652 0.000000
0.863110 0.389283 0.000000
0.916212 0.383308 0.000000
0.958792 0.383244 0.000000
0.991486 0.391727 0.000000
1.000000 0.406169 0.000000
1.000000 0.426947 0.037075
1.000000 0.455518 0.175373
1.000000 0.489956 0.276663
1.000000 0.529831 0.364366
1.000000 0.575264 0.445264
1.000000 0.623531 0.520236
1.000000 0.674038 0.590843
1.000000 0.725953 0.658123
1.000000 0.777307 0.722747
0.000000 0.553394 0.032198
0.000000 0.552881 0.030586
0.000000 0.552367 0.028974
0.000000 0.551852 0.027363
0.000000 0.551336 0.025752
0.000000 0.550819 0.024141
0.000000 0.550173 0.022124
0.000000 0.549265 0.019295
0.000000 0.548061 0.015557
0.040377 0.546159 0.009657
0.142497 0.543297 0.000808
0.243854 0.538569 0.000000
0.342414 0.531863 0.000000
0.431737 0.523979 0.000000
0.514726 0.515105 0.000000
0.590693 0.505795 0.000000
0.663496 0.495875 0.000000
0.732157 0.485855 0.000000
0.797233 0.476031 0.000000
0.859272 0.466776 0.000000
0.913254 0.460116 0.000000
0.956417 0.458301 0.000000
0.989579 0.462869 0.000000
1.000000 0.472492 0.000000
1.000000 0.486858 0.046730
1.000000 0.508752 0.180526
1.000000 0.535547 0.279690
1.000000 0.569175 0.366620
1.000000 0.606927 0.446799
1.000000 0.648690 0.521316
1.000000 0.694114 0.591618
1.000000 0.741622 0.658716
1.000000 0.788882 0.723169
0.000000 0.622586 0.046257
0.000000 0.622110 0.044644
0.000000 0.621634 0.043032
0.000000 0.621157 0.041420
0.000000 0.620680 0.039808
0.000000 0.620203 0.038196
0.000000 0.619604 0.036177
0.000000 0.618764 0.033346
0.000000 0.617648 0.029594
0.000000 0.616170 0.024637
0.063971 0.613746 0.016441
0.189487 0.609898 0.003411
0.304283 0.603864 0.000000
0.406696 0.596307 0.000000
0.496071 0.588040 0.000000
0.577527 0.579175 0.000000
0.653116 0.569892 0.000000
0.724362 0.560301 0.000000
0.791160 0.550805 0.000000
0.854472 0.541686 0.000000
0.909615 0.534620 0.000000
0.953527 0.531745 0.000000
0.987277 0.533320 0.000000
1.000000 0.539138 0.000000
1.000000 0.549135 0.059045
1.000000 0.564646 0.186921
1.000000 0.585882 0.283557
1.000000 0.611885 0.369494
1.000000 0.643503 0.448782
1.000000 0.679284 0.522725
1.000000 0.718475 0.592627
1.000000 0.760517 0.659485
1.000000 0.803086 0.723718
0.000000 0.690829 0.064214
0.000000 0.690385 0.062601
0.000000 0.689942 0.060989
0.000000 0.689498 0.059375
0.000000 0.689055 0.057761
0.000000 0.688610 0.056147
0.000000 0.688054 0.054128
0.000000 0.687273 0.051298
0.000000 0.686236 0.047545
0.000000 0.684859 0.042572
0.000000 0.682993 0.035838
0.100948 0.679899 0.024488
0.246101 0.674722 0.005342
0.368377 0.667544 0.000000
0.470260 0.659512 0.000000
0.559522 0.650929 0.000000
0.639387 0.642065 0.000000
0.714245 0.632796 0.000000
0.783506 0.623586 0.000000
0.848447 0.614747 0.000000
0.905121 0.607678 0.000000
0.950013 0.603706 0.000000
0.984500 0.603045 0.000000
1.000000 0.605935 0.000000
1.000000 0.612356 0.074613
1.000000 0.622916 0.194804
1.000000 0.638976 0.288604
1.000000 0.659007 0.373150
1.000000 0.684431 0.451322
1.000000 0.713426 0.524528
1.000000 0.747215 0.593931
1.000000 0.783137 0.660485
1.000000 0.818965 0.724417
0.000000 0.758124 0.087223
0.000000 0.757713 0.085610
0.000000 0.757301 0.083995
0.000000 0.756888 0.082380
0.000000 0.756476 0.080766
0.000000 0.756064 0.079152
0.000000 0.755547 0.077133
0.000000 0.754821 0.074301
0.000000 0.753859 0.070546
0.000000 0.752581 0.065573
0.000000 0.750884 0.058980
0.000000 0.748493 0.049659
0.150657 0.744424 0.033436
0.310782 0.737751 0.006663
0.433897 0.729810 0.000000
0.533833 0.721522 0.000000
0.621768 0.712864 0.000000
0.700811 0.704028 0.000000
0.773593 0.695173 0.000000
0.840788 0.686549 0.000000
0.899548 0.679074 0.000000
0.945746 0.674109 0.000000
0.981208 0.671818 0.000000
1.000000 0.672489 0.000000
1.000000 0.676078 0.093817
1.000000 0.682934 0.204444
1.000000 0.694442 0.295128
1.000000 0.709662 0.377787
1.000000 0.728873 0.454555
1.000000 0.752651 0.526846
1.000000 0.779515 0.595602
1.000000 0.809163 0.661771
1.000000 0.837658 0.725322
0.000000 0.825052 0.113501
0.000000 0.824668 0.112187
0.000000 0.824284 0.110877
0.000000 0.823900 0.109554
0.000000 0.823515 0.108179
0.000000 0.823130 0.106804
0.000000 0.822648 0.105084
0.000000 0.821972 0.102672
0.000000 0.821075 0.099423
0.000000 0.819885 0.094922
0.000000 0.818305 0.088859
0.000000 0.816204 0.080248
0.000000 0.813180 0.068166
0.210296 0.807677 0.045157
0.377095 0.799694 0.011479
0.498070 0.791228 0.000000
0.597025 0.782566 0.000000
0.682748 0.773848 0.000000
0.760590 0.764992 0.000000
0.831068 0.756323 0.000000
0.892623 0.748503 0.000000
0.940577 0.742818 0.000000
0.977233 0.739337 0.000000
1.000000 0.738329 0.000000
1.000000 0.739736 0.114910
1.000000 0.743846 0.216417
1.000000 0.751577 0.303696
1.000000 0.762595 0.383602
1.000000 0.776854 0.458654
1.000000 0.794447 0.529787
1.000000 0.815092 0.597735
1.000000 0.836401 0.663398
1.000000 0.858589 0.726482
0.000000 0.890543 0.143883
0.000000 0.890181 0.142778
0.000000 0.889819 0.141673
0.000000 0.889457 0.140567
0.000000 0.889094 0.139461
0.000000 0.888731 0.138355
0.000000 0.888278 0.136972
0.000000 0.887640 0.134983
0.000000 0.886796 0.132301
0.000000 0.885674 0.128748
0.000000 0.884186 0.123861
0.000000 0.882204 0.117509
0.000000 0.879567 0.108830
0.000000 0.875691 0.094790
0.275173 0.868443 0.062125
0.442174 0.859443 0.022444
0.561179 0.850511 0.000000
0.658852 0.841571 0.000000
0.743067 0.832716 0.000000
0.818446 0.823926 0.000000
0.883868 0.815798 0.000000
0.934239 0.809574 0.000000
0.972365 0.805240 0.000000
0.999728 0.802954 0.030258
1.000000 0.802702 0.139562
1.000000 0.804618 0.232071
1.000000 0.808996 0.314158
1.000000 0.816035 0.390835
1.000000 0.825748 0.463796
1.000000 0.837321 0.533492
1.000000 0.850433 0.600454
1.000000 0.865462 0.665468
1.000000 0.880548 0.727957
0.000000 0.953162 0.178530
0.000000 0.952819 0.177616
0.000000 0.952476 0.176700
0.000000 0.952133 0.175783
0.000000 0.951789 0.174880
0.000000 0.951445 0.173983
0.000000 0.951014 0.172848
0.000000 0.950410 0.171219
0.000000 0.949608 0.169079
0.000000 0.948545 0.166234
0.000000 0.947132 0.162373
0.000000 0.945259 0.157081
0.000000 0.942776 0.149684
0.000000 0.939473 0.139467
0.024484 0.934462 0.122630
0.344212 0.925179 0.084275
0.506275 0.915456 0.040701
0.623545 0.906059 0.002338
0.719232 0.896844 0.000000
0.801636 0.887825 0.000000
0.872563 0.879269 0.000000
0.926379 0.872388 0.000000
0.966502 0.867265 0.000000
0.995407 0.863870 0.077509
1.000000 0.861944 0.169393
1.000000 0.861516 0.250703
1.000000 0.862793 0.326752
1.000000 0.865966 0.399696
1.000000 0.871039 0.470149
1.000000 0.877711 0.538103
1.000000 0.884856 0.603899
1.000000 0.893870 0.668080
1.000000 0.903240 0.729837
0.000000 1.000000 0.217239
0.000000 1.000000 0.216486
0.000000 1.000000 0.215719
0.000000 1.000000 0.214950
0.000000 1.000000 0.214181
0.000000 1.000000 0.213410
0.000000 1.000000 0.212427
0.000000 1.000000 0.211040
0.000000 1.000000 0.209159
0.000000 1.000000 0.206667
0.000000 1.000000 0.203335
0.000000 1.000000 0.198882
0.000000 0.998231 0.192871
0.000000 0.995067 0.184706
0.000000 0.990852 0.173662
0.092877 0.984180 0.154150
0.412737 0.972886 0.113378
0.570999 0.962349 0.069753
0.685830 0.952348 0.034267
0.778605 0.942765 0.006496
0.857061 0.933429 0.000000
0.916796 0.925614 0.009668
0.959746 0.919535 0.053307
0.990679 0.914830 0.126926
1.000000 0.911605 0.200440
1.000000 0.909601 0.271817
1.000000 0.908818 0.341633
1.000000 0.909350 0.410405
1.000000 0.911146 0.477953
1.000000 0.914047 0.543819
1.000000 0.916842 0.608391
1.000000 0.920827 0.671372
1.000000 0.925994 0.732224
0.000000 1.000000 0.260437
0.000000 1.000000 0.259774
0.000000 1.000000 0.259111
0.000000 1.000000 0.258466
0.000000 1.000000 0.257820
0.000000 1.000000 0.257173
0.000000 1.000000 0.256363
0.000000 1.000000 0.255225
0.000000 1.000000 0.253714
0.000000 1.000000 0.251691
0.000000 1.000000 0.249015
0.000000 1.000000 0.245442
0.000000 1.000000 0.240710
0.000000 1.000000 0.234400
0.000000 1.000000 0.225647
0.000000 1.000000 0.213408
0.175200 1.000000 0.189798
0.480083 1.000000 0.150656
0.634947 0.997673 0.119099
0.746675 0.987080 0.092306
0.836016 0.977032 0.079279
0.904413 0.968279 0.088476
0.951572 0.961455 0.125953
0.985027 0.956105 0.175587
1.000000 0.952079 0.233325
1.000000 0.949079 0.295429
1.000000 0.946972 0.359008
1.000000 0.945775 0.423257
1.000000 0.945373 0.487511
1.000000 0.945453 0.551184
1.000000 0.945205 0.614081
1.000000 0.945553 0.675526
1.000000 0.946828 0.735246
0.000000 1.000000 0.311974
0.000000 1.000000 0.311478
0.000000 1.000000 0.310982
0.000000 1.000000 0.310486
0.000000 1.000000 0.309989
0.000000 1.000000 0.309492
0.000000 1.000000 0.308870
0.000000 1.000000 0.307994
0.000000 1.000000 0.306819
0.000000 1.000000 0.305253
0.000000 1.000000 0.303156
0.000000 1.000000 0.300342
0.000000 1.000000 0.296538
0.000000 1.000000 0.291398
0.000000 1.000000 0.284400
0.000000 1.000000 0.274701
0.000000 1.000000 0.261238
0.256665 1.000000 0.235495
0.545873 1.000000 0.202897
0.697281 1.000000 0.179280
0.805626 1.000000 0.165340
0.886438 1.000000 0.168803
0.941369 0.994655 0.188559
0.978137 0.988697 0.225661
1.000000 0.983999 0.272300
1.000000 0.980390 0.324618
1.000000 0.977496 0.380727
1.000000 0.975217 0.439601
1.000000 0.973406 0.500045
1.000000 0.971464 0.560771
1.000000 0.969184 0.621176
1.000000 0.967051 0.680751
1.000000 0.965298 0.739073
0.000000 1.000000 0.373945
0.000000 1.000000 0.373522
0.000000 1.000000 0.373099
0.000000 1.000000 0.372675
0.000000 1.000000 0.372249
0.000000 1.000000 0.371821
0.000000 1.000000 0.371285
0.000000 1.000000 0.370533
0.000000 1.000000 0.369535
0.000000 1.000000 0.368203
0.000000 1.000000 0.366425
0.000000 1.000000 0.364048
0.000000 1.000000 0.360864
0.000000 1.000000 0.356565
0.000000 1.000000 0.350749
0.000000 1.000000 0.342885
0.000000 1.000000 0.332832
0.000000 1.000000 0.319411
0.333035 1.000000 0.291031
0.611173 1.000000 0.261889
0.757821 1.000000 0.244438
0.860596 1.000000 0.241050
0.926959 1.000000 0.251458
0.969552 1.000000 0.277596
0.997542 1.000000 0.312362
1.000000 1.000000 0.356884
1.000000 1.000000 0.406489
1.000000 0.998003 0.459692
1.000000 0.995171 0.515488
1.000000 0.991958 0.572492
1.000000 0.988433 0.629981
1.000000 0.984710 0.687308
1.000000 0.980937 0.743919
0.000000 1.000000 0.443292
0.000000 1.000000 0.442921
0.000000 1.000000 0.442550
0.000000 1.000000 0.442176
0.000000 1.000000 0.441802
0.000000 1.000000 0.441427
0.000000 1.000000 0.440959
0.000000 1.000000 0.440301
0.000000 1.000000 0.439428
0.000000 1.000000 0.438263
0.000000 1.000000 0.436717
0.000000 1.000000 0.434670
0.000000 1.000000 0.432036
0.000000 1.000000 0.428508
0.000000 1.000000 0.423931
0.000000 1.000000 0.417876
0.000000 1.000000 0.409613
0.000000 1.000000 0.398226
0.000000 1.000000 0.382319
0.405203 1.000000 0.350086
0.674885 1.000000 0.323883
0.816467 1.000000 0.313117
0.905255 1.000000 0.315085
0.958311 1.000000 0.330516
0.990373 1.000000 0.358142
1.000000 1.000000 0.393662
1.000000 1.000000 0.435192
1.000000 1.000000 0.482697
1.000000 1.000000 0.533711
1.000000 1.000000 0.586664
1.000000 1.000000 0.640825
1.000000 0.998326 0.695498
1.000000 0.993300 0.750034
0.000000 1.000000 0.518982
0.000000 1.000000 0.518673
0.000000 1.000000 0.518364
0.000000 1.000000 0.518054
0.000000 1.000000 0.517744
0.000000 1.000000 0.517433
0.000000 1.000000 0.517044
0.000000 1.000000 0.516497
0.000000 1.000000 0.515773
0.000000 1.000000 0.514807
0.000000 1.000000 0.513526
0.000000 1.000000 0.511818
0.000000 1.000000 0.509543
0.000000 1.000000 0.506500
0.000000 1.000000 0.502422
0.000000 1.000000 0.496935
0.000000 1.000000 0.489509
0.000000 1.000000 0.479401
0.000000 1.000000 0.465500
0.000000 1.000000 0.446133
0.475189 1.000000 0.409832
0.736544 1.000000 0.387625
0.868920 1.000000 0.380250
0.940476 1.000000 0.386720
0.981107 1.000000 0.406573
1.000000 1.000000 0.433789
1.000000 1.000000 0.469738
1.000000 1.000000 0.510406
