Sony/SL3SG3tosP3D65.cube
# sP3D65 LUT
# S-Log3/S-Gamut3 to P3(D65)
LUT_3D_SIZE 9
0.000000 0.000000 0.000000
0.070443 0.000000 0.000000
0.198052 0.000000 0.000000
0.421622 0.000000 0.000000
0.651712 0.000000 0.000000
0.852955 0.000000 0.000000
0.954591 0.196299 0.207765
0.984062 0.526904 0.514177
1.000000 0.777137 0.759105
0.000000 0.069835 0.000000
0.065592 0.065097 0.000000
0.194512 0.055087 0.000000
0.420075 0.014827 0.000000
0.652187 0.000000 0.000000
0.854083 0.000000 0.000000
0.956097 0.261035 0.215437
0.984883 0.541277 0.515838
1.000000 0.781082 0.759556
0.000000 0.196074 0.011641
0.065299 0.193866 0.008732
0.190004 0.189086 0.002555
0.418267 0.167289 0.000000
0.653319 0.131889 0.000000
0.856281 0.155409 0.000000
0.958318 0.334670 0.226482
0.986201 0.563479 0.518487
1.000000 0.787140 0.760255
0.000000 0.424851 0.086616
0.084223 0.423996 0.083927
0.191094 0.422426 0.078793
0.414932 0.413905 0.052395
0.658865 0.400495 0.008578
0.863148 0.404688 0.022681
0.964118 0.474292 0.254174
0.989781 0.619335 0.525814
1.000000 0.804915 0.762359
0.000000 0.683392 0.201455
0.061107 0.682686 0.199947
0.171931 0.681566 0.197539
0.378690 0.676851 0.186426
0.661993 0.663885 0.154796
0.874948 0.654194 0.158085
0.975900 0.670119 0.307907
0.998240 0.732915 0.543756
1.000000 0.848158 0.767892
0.000000 0.918550 0.321774
0.000000 0.917951 0.320905
0.000000 0.917000 0.319588
0.203049 0.914030 0.315291
0.615626 0.902180 0.294936
0.882556 0.887286 0.289784
0.992778 0.881759 0.390768
1.000000 0.891362 0.578185
1.000000 0.919936 0.779203
0.000000 1.000000 0.464569
0.000000 1.000000 0.464118
0.000000 1.000000 0.463398
0.000000 1.000000 0.461086
0.000000 1.000000 0.453907
0.822946 1.000000 0.436277
0.999004 1.000000 0.491178
1.000000 0.997339 0.625932
1.000000 0.986203 0.797150
0.000000 1.000000 0.678475
0.000000 1.000000 0.678065
0.000000 1.000000 0.677413
0.000000 1.000000 0.675371
0.000000 1.000000 0.668948
0.000000 1.000000 0.648777
0.964221 1.000000 0.625318
1.000000 1.000000 0.699877
1.000000 1.000000 0.827409
0.000000 1.000000 0.946662
0.000000 1.000000 0.946306
0.000000 1.000000 0.945742
0.000000 1.000000 0.943978
0.000000 1.000000 0.938507
0.000000 1.000000 0.921304
0.000000 1.000000 0.865261
1.000000 1.000000 0.820959
1.000000 1.000000 0.884687
0.000000 0.000000 0.048852
0.063231 0.000000 0.045800
0.194364 0.000000 0.039327
0.419910 0.000000 0.013216
0.650507 0.000000 0.000000
0.851947 0.000000 0.000000
0.953451 0.190402 0.255065
0.983376 0.525585 0.526433
1.000000 0.776770 0.762524
0.000000 0.062898 0.059575
0.058471 0.058421 0.056736
0.190917 0.048626 0.050637
0.418378 0.007874 0.024628
0.650998 0.000000 0.000000
0.853082 0.000000 0.010632
0.954966 0.256652 0.261251
0.984199 0.540004 0.528032
1.000000 0.780715 0.762971
0.000000 0.192784 0.079650
0.057958 0.190485 0.077080
0.186214 0.185578 0.071462
0.416589 0.163637 0.045460
0.652119 0.126432 0.010112
0.855290 0.150848 0.034331
0.957190 0.331184 0.270285
0.985519 0.562245 0.530579
1.000000 0.786773 0.763663
0.000000 0.423536 0.141981
0.076851 0.422663 0.140234
0.187210 0.421062 0.136885
0.413203 0.412398 0.118930
0.657670 0.398872 0.086462
0.862133 0.402516 0.106321
0.962996 0.471708 0.293477
0.989103 0.618180 0.537615
1.000000 0.804548 0.765746
0.000000 0.682205 0.235911
0.052758 0.681493 0.234685
0.167061 0.680361 0.232787
0.376505 0.675578 0.224386
0.660682 0.662473 0.200717
0.873887 0.652617 0.206884
0.974764 0.668140 0.341170
0.997576 0.731902 0.554843
1.000000 0.847781 0.771222
0.000000 0.917426 0.347064
0.000000 0.916826 0.346290
0.000000 0.915874 0.345054
0.198158 0.912903 0.341011
0.614075 0.900967 0.323771
0.881327 0.885832 0.323570
0.991719 0.880308 0.415421
1.000000 0.890526 0.587825
1.000000 0.919558 0.782395
0.000000 1.000000 0.486818
0.000000 1.000000 0.486415
0.000000 1.000000 0.485767
0.000000 1.000000 0.483688
0.000000 1.000000 0.476753
0.821520 1.000000 0.459839
0.998051 1.000000 0.508484
1.000000 0.996608 0.634106
1.000000 0.985852 0.800057
0.000000 1.000000 0.687517
0.000000 1.000000 0.687110
0.000000 1.000000 0.686464
0.000000 1.000000 0.684440
0.000000 1.000000 0.678254
0.000000 1.000000 0.658266
0.963553 1.000000 0.634166
1.000000 1.000000 0.705530
1.000000 1.000000 0.829778
0.000000 1.000000 0.949449
0.000000 1.000000 0.949093
0.000000 1.000000 0.948528
0.000000 1.000000 0.946762
0.000000 1.000000 0.941286
0.000000 1.000000 0.924081
0.000000 1.000000 0.868212
1.000000 1.000000 0.823541
1.000000 1.000000 0.885869
0.000000 0.000000 0.156986
0.048678 0.000000 0.155292
0.186776 0.000000 0.151413
0.416534 0.000000 0.133802
0.648269 0.000000 0.110613
0.850051 0.000000 0.140331
0.951694 0.181013 0.314310
0.982380 0.523730 0.543716
1.000000 0.776212 0.767758
0.000000 0.048904 0.163797
0.044136 0.044460 0.162272
0.183380 0.034603 0.158619
0.415024 0.000000 0.142000
0.648779 0.000000 0.120245
0.851190 0.000000 0.149393
0.953218 0.249809 0.319261
0.983209 0.538263 0.545236
1.000000 0.780156 0.768198
0.000000 0.185346 0.175758
0.043325 0.183096 0.174318
0.178530 0.178289 0.171040
0.413276 0.155930 0.155905
0.649913 0.115356 0.135582
0.853412 0.140681 0.164761
0.955444 0.325747 0.326515
0.984528 0.560509 0.547643
1.000000 0.786212 0.768880
0.000000 0.420615 0.215257
0.062396 0.419725 0.214070
0.179452 0.418072 0.212061
0.409839 0.409223 0.200672
0.655517 0.395695 0.183044
0.860214 0.398074 0.206304
0.961251 0.467682 0.345514
0.988115 0.616542 0.554309
1.000000 0.803988 0.770932
0.000000 0.679939 0.288463
0.037200 0.679212 0.287643
0.157575 0.678062 0.286319
0.372591 0.673235 0.279656
0.658361 0.659933 0.263394
0.871882 0.649534 0.276986
0.973055 0.665178 0.385415
0.996596 0.730425 0.570762
1.000000 0.847204 0.776319
0.000000 0.915376 0.388148
0.000000 0.914769 0.387537
0.000000 0.913807 0.386552
0.188557 0.910782 0.383789
0.611136 0.898679 0.371048
0.879201 0.883308 0.374193
0.990084 0.878070 0.450417
1.000000 0.889186 0.602843
1.000000 0.918976 0.787289
0.000000 1.000000 0.519033
0.000000 1.000000 0.518619
0.000000 1.000000 0.517959
0.000000 1.000000 0.515860
0.000000 1.000000 0.509019
0.819461 1.000000 0.491619
0.996715 1.000000 0.531634
1.000000 0.995525 0.646007
1.000000 0.985312 0.804521
0.000000 1.000000 0.701780
0.000000 1.000000 0.701373
0.000000 1.000000 0.700727
0.000000 1.000000 0.698702
0.000000 1.000000 0.692353
0.000000 1.000000 0.671774
0.962567 1.000000 0.646966
1.000000 1.000000 0.713982
1.000000 1.000000 0.833436
0.000000 1.000000 0.953710
0.000000 1.000000 0.953354
0.000000 1.000000 0.952789
0.000000 1.000000 0.951026
0.000000 1.000000 0.945557
0.000000 1.000000 0.928483
0.000000 1.000000 0.872733
1.000000 1.000000 0.827519
1.000000 1.000000 0.887704
0.000000 0.000000 0.359037
0.000000 0.000000 0.358390
0.152406 0.000000 0.356871
0.402287 0.000000 0.350164
0.639479 0.000000 0.341503
0.843648 0.000000 0.353185
0.947050 0.156019 0.432046
0.979508 0.518533 0.590312
1.000000 0.774624 0.782819
0.000000 0.000000 0.362329
0.000000 0.000000 0.361749
0.148917 0.000000 0.360290
0.400885 0.000000 0.353712
0.640071 0.000000 0.345191
0.844830 0.000000 0.356950
0.948598 0.232282 0.435522
0.980352 0.533405 0.591674
1.000000 0.778565 0.783240
0.000000 0.151680 0.368206
0.000000 0.149281 0.367667
0.143508 0.143631 0.366339
0.399223 0.115645 0.359906
0.641342 0.065540 0.351454
0.847150 0.099584 0.363730
0.950822 0.311987 0.440551
0.981662 0.555627 0.593791
1.000000 0.784627 0.783895
0.000000 0.406931 0.389047
0.002853 0.405966 0.388522
0.143980 0.404303 0.387518
0.395862 0.395392 0.381655
0.647018 0.381520 0.373190
0.853981 0.383035 0.383375
0.956625 0.457392 0.453824
0.985251 0.611894 0.599672
1.000000 0.802389 0.785860
0.000000 0.670675 0.432610
0.000000 0.669933 0.432080
0.114906 0.668759 0.431235
0.356627 0.663781 0.427169
0.649666 0.650200 0.417574
0.865742 0.640055 0.422599
0.968494 0.657435 0.482214
0.993751 0.726203 0.614174
1.000000 0.845538 0.791007
0.000000 0.908196 0.502274
0.000000 0.907582 0.501822
0.000000 0.906610 0.501099
0.152394 0.903571 0.498818
0.601880 0.891481 0.487576
0.873310 0.876343 0.485131
0.985766 0.872211 0.530334
1.000000 0.885502 0.642274
1.000000 0.917280 0.801423
0.000000 1.000000 0.595114
0.000000 1.000000 0.594659
0.000000 1.000000 0.593937
0.000000 1.000000 0.591660
0.000000 1.000000 0.584680
0.813997 1.000000 0.566111
0.992930 0.999276 0.591307
1.000000 0.992324 0.679608
1.000000 0.983700 0.817634
0.000000 1.000000 0.738791
0.000000 1.000000 0.738376
0.000000 1.000000 0.737718
0.000000 1.000000 0.735657
0.000000 1.000000 0.729218
0.000000 1.000000 0.708578
0.959771 1.000000 0.681607
1.000000 1.000000 0.737198
1.000000 1.000000 0.844168
0.000000 1.000000 0.966621
0.000000 1.000000 0.966268
0.000000 1.000000 0.965707
0.000000 1.000000 0.963957
0.000000 1.000000 0.958529
0.000000 1.000000 0.941488
0.000000 1.000000 0.885768
1.000000 1.000000 0.839136
1.000000 1.000000 0.893209
0.000000 0.000000 0.590688
0.000000 0.000000 0.590111
0.054672 0.000000 0.588919
0.371208 0.000000 0.584344
0.621070 0.000000 0.577154
0.830931 0.000000 0.574555
0.937556 0.119888 0.603743
0.972756 0.508196 0.686461
1.000000 0.770775 0.820923
0.000000 0.000000 0.592570
0.000000 0.000000 0.592026
0.046944 0.000000 0.590895
0.370198 0.000000 0.586306
0.621805 0.000000 0.579112
0.832318 0.000000 0.576753
0.939000 0.202198 0.605798
0.973624 0.523671 0.687573
1.000000 0.774698 0.821304
0.000000 0.070126 0.595818
0.000000 0.067008 0.595328
0.042776 0.059174 0.594244
0.369165 0.024044 0.589755
0.623445 0.000000 0.582595
0.834785 0.027107 0.580532
0.941207 0.288364 0.608944
0.974903 0.545584 0.689223
1.000000 0.780774 0.821898
0.000000 0.383298 0.607294
0.000000 0.382381 0.606813
0.042112 0.380581 0.605909
0.366531 0.371055 0.601574
0.629377 0.355661 0.594098
0.841609 0.359081 0.591228
0.946956 0.438849 0.617264
0.978474 0.602046 0.693880
1.000000 0.798453 0.823671
0.000000 0.651958 0.631424
0.000000 0.651205 0.630936
0.000000 0.650015 0.630162
0.323142 0.644868 0.626695
0.631907 0.631477 0.617832
0.853329 0.622315 0.613234
0.958838 0.642220 0.635270
0.986972 0.716787 0.705301
1.000000 0.841323 0.828284
0.000000 0.893815 0.670941
0.000000 0.893206 0.670464
0.000000 0.892240 0.669710
0.051433 0.889220 0.667347
0.583369 0.877108 0.657281
0.861286 0.862408 0.649392
0.976448 0.859882 0.666036
1.000000 0.876802 0.726968
1.000000 0.912847 0.837479
0.000000 1.000000 0.724946
0.000000 1.000000 0.724499
0.000000 1.000000 0.723791
0.000000 1.000000 0.721576
0.000000 1.000000 0.714663
0.802368 1.000000 0.695161
0.984472 0.988980 0.702912
1.000000 0.984498 0.753979
1.000000 0.979499 0.850673
0.000000 1.000000 0.817303
0.000000 1.000000 0.816887
0.000000 1.000000 0.816228
0.000000 1.000000 0.814167
0.000000 1.000000 0.807755
0.000000 1.000000 0.787516
0.952958 1.000000 0.757849
1.000000 1.000000 0.793929
1.000000 1.000000 0.870262
0.000000 1.000000 0.999031
0.000000 1.000000 0.998678
0.000000 1.000000 0.998119
0.000000 1.000000 0.996373
0.000000 1.000000 0.990963
0.000000 1.000000 0.974002
0.000000 1.000000 0.918854
1.000000 1.000000 0.867821
1.000000 1.000000 0.908379
0.000000 0.000000 0.802054
0.000000 0.000000 0.801515
0.000000 0.000000 0.800490
0.336896 0.000000 0.796979
0.598344 0.000000 0.791012
0.814217 0.000000 0.785711
0.923671 0.144444 0.793784
0.961342 0.502654 0.825748
1.000000 0.766834 0.885329
0.000000 0.000000 0.803503
0.000000 0.000000 0.802983
0.000000 0.000000 0.801981
0.336284 0.000000 0.798490
0.599764 0.000000 0.792571
0.815866 0.000000 0.787298
0.924987 0.212034 0.795040
0.962138 0.516762 0.826498
1.000000 0.770715 0.885643
0.000000 0.096055 0.806018
0.000000 0.092650 0.805534
0.000000 0.084901 0.804582
0.336295 0.052032 0.801109
0.602036 0.009958 0.795059
0.818325 0.061341 0.789693
0.927037 0.288791 0.796994
0.963320 0.536962 0.827616
1.000000 0.776668 0.886130
0.000000 0.378765 0.813131
0.000000 0.377774 0.812704
0.000000 0.375601 0.811861
0.334006 0.365438 0.808340
0.607406 0.349767 0.801999
0.824520 0.350136 0.796037
0.932401 0.428360 0.802179
0.966794 0.591803 0.830910
1.000000 0.793885 0.887569
0.000000 0.634518 0.827944
0.000000 0.633762 0.827512
0.000000 0.632560 0.826826
0.284004 0.626955 0.823773
0.608999 0.613675 0.816430
0.835562 0.604164 0.809444
0.943871 0.625770 0.813644
0.975139 0.704291 0.838959
1.000000 0.835427 0.891243
0.000000 0.874489 0.852583
0.000000 0.873872 0.852155
0.000000 0.872893 0.851477
0.000000 0.869834 0.849356
0.559058 0.857489 0.840764
0.843370 0.843103 0.831306
0.961356 0.841591 0.833048
0.989676 0.862566 0.853784
1.000000 0.905537 0.898292
0.000000 1.000000 0.883608
0.000000 1.000000 0.883191
0.000000 1.000000 0.882530
0.000000 1.000000 0.880465
0.000000 1.000000 0.874053
0.784314 0.983856 0.855996
0.970106 0.971602 0.852595
1.000000 0.970268 0.869500
1.000000 0.971926 0.907251
0.000000 1.000000 0.935486
0.000000 1.000000 0.935088
0.000000 1.000000 0.934457
0.000000 1.000000 0.932486
0.000000 1.000000 0.926374
0.000000 1.000000 0.907172
0.940658 1.000000 0.875332
1.000000 1.000000 0.886787
1.000000 0.999814 0.917510
0.000000 1.000000 1.000000
0.000000 1.000000 1.000000
0.000000 1.000000 1.000000
0.000000 1.000000 1.000000
0.000000 1.000000 1.000000
0.000000 1.000000 1.000000
0.000000 1.000000 0.975523
0.995576 1.000000 0.918574
1.000000 1.000000 0.937697
0.000000 0.252660 0.932879
0.000000 0.249878 0.932276
0.110703 0.244581 0.931201
0.370126 0.231024 0.928369
0.603907 0.211507 0.923131
0.811410 0.226155 0.916778
0.917868 0.346090 0.916224
0.954771 0.551475 0.926011
0.995814 0.777725 0.945839
0.000000 0.298012 0.933956
0.000000 0.295718 0.933359
0.105919 0.291364 0.932292
0.369935 0.280126 0.929445
0.604883 0.264678 0.924196
0.812532 0.270959 0.917701
0.918919 0.372929 0.917028
0.955441 0.562044 0.926528
0.996124 0.781153 0.946087
0.000000 0.356027 0.935594
0.000000 0.354089 0.935020
0.095582 0.350281 0.933959
0.369342 0.340043 0.931048
0.605990 0.325124 0.925702
0.814283 0.329052 0.919149
0.920487 0.409528 0.918231
0.956455 0.577624 0.927312
0.996604 0.786426 0.946471
0.000000 0.475433 0.940021
0.000000 0.474175 0.939514
0.047713 0.471523 0.938518
0.363609 0.463372 0.935473
0.608413 0.450868 0.929924
0.818685 0.446326 0.923007
0.924759 0.494898 0.921534
0.959485 0.621546 0.929658
0.998024 0.801787 0.947610
0.000000 0.658339 0.949836
0.000000 0.657589 0.949429
0.000000 0.656273 0.948729
0.318017 0.650079 0.945645
0.607343 0.638237 0.939353
0.827171 0.628848 0.931776
0.934502 0.646345 0.929219
0.966950 0.716874 0.935471
1.000000 0.838198 0.950426
0.000000 0.868824 0.967135
0.000000 0.868198 0.966729
0.000000 0.867204 0.966087
0.000000 0.864096 0.964078
0.558438 0.851607 0.956163
0.832945 0.837719 0.946668
0.950331 0.836745 0.942528
0.980218 0.857748 0.945999
1.000000 0.901852 0.955784
0.000000 1.000000 0.987840
0.000000 1.000000 0.987441
0.000000 1.000000 0.986810
0.000000 1.000000 0.984836
0.000000 0.994065 0.978716
0.775202 0.969908 0.961718
0.958671 0.958581 0.954054
0.991116 0.958872 0.955569
1.000000 0.964823 0.961922
0.000000 1.000000 1.000000
0.000000 1.000000 1.000000
0.000000 1.000000 1.000000
0.000000 1.000000 1.000000
0.000000 1.000000 1.000000
0.000000 1.000000 0.993784
0.930871 0.999678 0.962094
0.994091 0.994744 0.961254
1.000000 0.992570 0.966276
0.000000 1.000000 1.000000
0.000000 1.000000 1.000000
0.000000 1.000000 1.000000
0.000000 1.000000 1.000000
0.000000 1.000000 1.000000
0.000000 1.000000 1.000000
0.000000 1.000000 1.000000
0.989463 1.000000 0.969480
1.000000 1.000000 0.973211
0.323774 0.603904 0.979644
0.359429 0.602724 0.979110
0.405881 0.601006 0.978323
0.506593 0.596627 0.976246
0.662913 0.588695 0.971972
0.835034 0.582989 0.965881
0.929496 0.608033 0.963322
0.961231 0.689065 0.966832
0.997663 0.825119 0.975277
0.320073 0.613407 0.980197
0.356156 0.612238 0.979662
0.403952 0.610491 0.978858
0.505675 0.606107 0.976766
0.662896 0.598128 0.972465
0.835555 0.592658 0.966364
0.930062 0.616151 0.963742
0.961675 0.694488 0.967156
0.997878 0.827336 0.975441
0.313697 0.627839 0.981062
0.351398 0.626673 0.980514
0.400684 0.624949 0.979695
0.504143 0.620667 0.977584
0.662912 0.612926 0.973256
0.836344 0.607170 0.967107
0.930918 0.628240 0.964380
0.962393 0.703162 0.967680
0.998213 0.830774 0.975696
0.291709 0.668225 0.983635
0.334965 0.667007 0.983043
0.388364 0.665276 0.982192
0.498345 0.660930 0.979992
0.662443 0.652920 0.975523
0.838408 0.645754 0.969191
0.933481 0.663012 0.966298
0.964472 0.727616 0.969199
0.999215 0.840970 0.976460
0.187541 0.758686 0.990399
0.255088 0.757486 0.989749
0.331474 0.755696 0.988776
0.472557 0.751126 0.986249
0.657377 0.742869 0.981357
0.842740 0.734272 0.974591
0.939873 0.742729 0.971163
0.969792 0.786262 0.973097
1.000000 0.865487 0.978343
0.000000 0.895628 1.000000
0.000000 0.895008 1.000000
0.000000 0.894026 1.000000
0.280010 0.890089 0.999623
0.615752 0.879203 0.992783
0.843284 0.867060 0.984544
0.950590 0.864526 0.979922
0.979196 0.879569 0.980057
1.000000 0.912746 0.982161
0.000000 1.000000 1.000000
0.000000 1.000000 1.000000
0.000000 1.000000 1.000000
0.000000 0.999743 1.000000
0.000000 0.991049 1.000000
0.790933 0.968378 0.995433
0.956178 0.957969 0.987938
0.987834 0.958442 0.986719
1.000000 0.964316 0.986640
0.000000 1.000000 1.000000
0.000000 1.000000 1.000000
0.000000 1.000000 1.000000
0.000000 1.000000 1.000000
0.000000 1.000000 1.000000
0.000000 1.000000 1.000000
0.930002 0.994898 0.992774
0.990567 0.990547 0.989812
1.000000 0.989270 0.989063
0.000000 1.000000 1.000000
0.000000 1.000000 1.000000
0.000000 1.000000 1.000000
0.000000 1.000000 1.000000
0.000000 1.000000 1.000000
0.000000 1.000000 1.000000
0.000000 1.000000 1.000000
0.986825 1.000000 0.992827
1.000000 1.000000 0.991872
0.634912 0.852915 1.000000
0.643683 0.852496 1.000000
0.656843 0.851855 1.000000
0.692903 0.850039 1.000000
0.771941 0.845797 1.000000
0.880451 0.840282 0.999005
0.951476 0.842350 0.996233
0.975600 0.860602 0.996748
1.000000 0.901235 0.999262
0.633906 0.855067 1.000000
0.642759 0.854645 1.000000
0.655926 0.854007 1.000000
0.692267 0.852178 1.000000
0.771618 0.847923 1.000000
0.880496 0.842367 0.999166
0.951652 0.844219 0.996372
0.975756 0.862088 0.996861
1.000000 0.902108 0.999332
0.632278 0.858411 1.000000
0.641267 0.857983 1.000000
0.654460 0.857347 1.000000
0.691242 0.855502 1.000000
0.771095 0.851225 1.000000
0.880561 0.845603 0.999416
0.951907 0.846947 0.996575
0.975999 0.864406 0.997037
1.000000 0.903477 0.999442
0.626863 0.868157 1.000000
0.636308 0.867707 1.000000
0.649987 0.867046 1.000000
0.687831 0.865139 1.000000
0.769314 0.860708 1.000000
0.880639 0.854616 1.000000
0.952666 0.855059 0.997185
0.976732 0.871359 0.997569
1.000000 0.907059 0.999732
0.607380 0.892301 1.000000
0.617854 0.891827 1.000000
0.633852 0.891085 1.000000
0.675280 0.889073 1.000000
0.762681 0.884417 1.000000
0.880343 0.877807 1.000000
0.954697 0.877121 0.998883
0.978588 0.888748 0.998923
1.000000 0.917023 1.000000
0.518613 0.940752 1.000000
0.535389 0.940131 1.000000
0.560377 0.939161 1.000000
0.620553 0.936612 1.000000
0.734619 0.930935 1.000000
0.875832 0.922548 1.000000
0.958075 0.918740 1.000000
0.982473 0.924283 1.000000
1.000000 0.939345 1.000000
0.000000 1.000000 1.000000
0.000000 1.000000 1.000000
0.000000 1.000000 1.000000
0.000000 1.000000 1.000000
0.544058 0.989258 1.000000
0.839090 0.974611 1.000000
0.958935 0.966715 1.000000
0.987062 0.966305 1.000000
1.000000 0.969487 1.000000
0.000000 1.000000 1.000000
0.000000 1.000000 1.000000
0.000000 1.000000 1.000000
0.000000 1.000000 1.000000
0.000000 1.000000 1.000000
0.000000 1.000000 1.000000
0.936831 0.992367 1.000000
0.988616 0.988657 1.000000
1.000000 0.987384 1.000000
0.000000 1.000000 1.000000
0.000000 1.000000 1.000000
0.000000 1.000000 1.000000
0.000000 1.000000 1.000000
0.000000 1.000000 1.000000
0.000000 1.000000 1.000000
0.000000 1.000000 1.000000
0.985463 1.000000 1.000000
1.000000 1.000000 1.000000
