Sony/SL3SG3tosP3D65.cube
# sP3D65 LUT
# S-Log3/S-Gamut3 to P3(D65)
LUT_3D_SIZE 33
0.000000 0.000000 0.000000
0.000000 0.000000 0.000000
0.022246 0.000000 0.000000
0.044924 0.000000 0.000000
0.070443 0.000000 0.000000
0.096927 0.000000 0.000000
0.125024 0.000000 0.000000
0.159028 0.000000 0.000000
0.198052 0.000000 0.000000
0.245772 0.000000 0.000000
0.302345 0.000000 0.000000
0.361995 0.000000 0.000000
0.421622 0.000000 0.000000
0.480278 0.000000 0.000000
0.538886 0.000000 0.000000
0.596074 0.000000 0.000000
0.651712 0.000000 0.000000
0.705789 0.000000 0.000000
0.758713 0.000000 0.000000
0.809027 0.000000 0.000000
0.852955 0.000000 0.000000
0.888721 0.000000 0.000000
0.916616 0.000000 0.010906
0.938259 0.069363 0.110572
0.954591 0.196299 0.207765
0.966478 0.292570 0.294228
0.974644 0.378325 0.372478
0.980063 0.455591 0.444861
0.984062 0.526904 0.514177
0.988877 0.594129 0.579693
0.995034 0.658635 0.642057
1.000000 0.719534 0.701660
1.000000 0.777137 0.759105
0.000000 0.000208 0.000000
0.000000 0.000000 0.000000
0.021624 0.000000 0.000000
0.044259 0.000000 0.000000
0.069352 0.000000 0.000000
0.095910 0.000000 0.000000
0.123911 0.000000 0.000000
0.158043 0.000000 0.000000
0.197232 0.000000 0.000000
0.244708 0.000000 0.000000
0.301284 0.000000 0.000000
0.361308 0.000000 0.000000
0.421222 0.000000 0.000000
0.480025 0.000000 0.000000
0.538755 0.000000 0.000000
0.596063 0.000000 0.000000
0.651781 0.000000 0.000000
0.705925 0.000000 0.000000
0.758923 0.000000 0.000000
0.809262 0.000000 0.000000
0.853221 0.000000 0.000000
0.889007 0.000000 0.000000
0.917005 0.000000 0.014813
0.938646 0.104225 0.113689
0.954944 0.213209 0.209614
0.966838 0.304465 0.295538
0.974953 0.386195 0.373349
0.980316 0.460868 0.445457
0.984268 0.530553 0.514595
0.989061 0.596963 0.580012
0.995178 0.660621 0.642281
1.000000 0.720936 0.701820
1.000000 0.778132 0.759218
0.000000 0.023314 0.000000
0.000000 0.022114 0.000000
0.021001 0.020915 0.000000
0.043639 0.019713 0.000000
0.068147 0.018365 0.000000
0.094978 0.016768 0.000000
0.122840 0.014837 0.000000
0.156894 0.011943 0.000000
0.196346 0.007783 0.000000
0.243722 0.001500 0.000000
0.300179 0.000000 0.000000
0.360603 0.000000 0.000000
0.420813 0.000000 0.000000
0.479769 0.000000 0.000000
0.538620 0.000000 0.000000
0.596056 0.000000 0.000000
0.651885 0.000000 0.000000
0.706110 0.000000 0.000000
0.759136 0.000000 0.000000
0.809500 0.000000 0.000000
0.853506 0.000000 0.000000
0.889338 0.000000 0.000000
0.917369 0.015043 0.018525
0.939006 0.131307 0.116631
0.955307 0.229316 0.211500
0.967198 0.315915 0.296842
0.975254 0.393678 0.374198
0.980564 0.465971 0.446043
0.984470 0.534112 0.515006
0.989242 0.599751 0.580327
0.995322 0.662581 0.642502
1.000000 0.722327 0.701980
1.000000 0.779122 0.759331
0.000000 0.046427 0.000000
0.000000 0.045224 0.000000
0.020379 0.044023 0.000000
0.043016 0.042821 0.000000
0.066839 0.041529 0.000000
0.093818 0.039929 0.000000
0.121826 0.038007 0.000000
0.155726 0.035147 0.000000
0.195429 0.030984 0.000000
0.242870 0.024721 0.000000
0.299054 0.015342 0.000000
0.359880 0.002898 0.000000
0.420404 0.000000 0.000000
0.479518 0.000000 0.000000
0.538521 0.000000 0.000000
0.596106 0.000000 0.000000
0.652038 0.000000 0.000000
0.706304 0.000000 0.000000
0.759350 0.000000 0.000000
0.809742 0.000000 0.000000
0.853772 0.000000 0.000000
0.889631 0.000000 0.000000
0.917712 0.048120 0.022070
0.939390 0.155872 0.119724
0.955712 0.246057 0.213516
0.967544 0.326544 0.298092
0.975546 0.400807 0.375027
0.980807 0.470910 0.446620
0.984676 0.537697 0.515421
0.989422 0.602488 0.580639
0.995463 0.664518 0.642722
1.000000 0.723705 0.702138
1.000000 0.780105 0.759444
0.000000 0.069835 0.000000
0.000000 0.068660 0.000000
0.019802 0.067486 0.000000
0.042441 0.066311 0.000000
0.065592 0.065097 0.000000
0.092190 0.063564 0.000000
0.120982 0.061629 0.000000
0.154704 0.058953 0.000000
0.194512 0.055087 0.000000
0.242071 0.049228 0.000000
0.298033 0.040466 0.000000
0.359229 0.028664 0.000000
0.420075 0.014827 0.000000
0.479376 0.000000 0.000000
0.538484 0.000000 0.000000
0.596198 0.000000 0.000000
0.652187 0.000000 0.000000
0.706498 0.000000 0.000000
0.759576 0.000000 0.000000
0.810007 0.000000 0.000000
0.854083 0.000000 0.000000
0.889997 0.002003 0.000000
0.918126 0.087090 0.026176
0.939810 0.179515 0.122901
0.956097 0.261035 0.215437
0.967878 0.336465 0.299305
0.975830 0.407611 0.375837
0.981045 0.475689 0.447186
0.984883 0.541277 0.515838
0.989599 0.605182 0.580947
0.995604 0.666431 0.642941
1.000000 0.725069 0.702295
1.000000 0.781082 0.759556
0.000000 0.095481 0.000000
0.000000 0.094445 0.000000
0.019623 0.093412 0.000000
0.042269 0.092377 0.000000
0.065185 0.091322 0.000000
0.090953 0.090021 0.000000
0.120499 0.088244 0.000000
0.154041 0.085808 0.000000
0.193744 0.082327 0.000000
0.241424 0.076779 0.000000
0.297122 0.068504 0.000000
0.358663 0.057156 0.000000
0.419811 0.043519 0.000000
0.479300 0.028165 0.000000
0.538449 0.012376 0.000000
0.596274 0.000000 0.000000
0.652335 0.000000 0.000000
0.706706 0.000000 0.000000
0.759797 0.000000 0.000000
0.810249 0.000000 0.000000
0.854387 0.000000 0.000000
0.890366 0.038034 0.000000
0.918527 0.119781 0.030192
0.940207 0.199665 0.125884
0.956463 0.274533 0.217283
0.968199 0.345748 0.300483
0.976106 0.414115 0.376627
0.981277 0.480317 0.447739
0.985098 0.544969 0.516268
0.989774 0.607826 0.581252
0.995743 0.668320 0.643157
1.000000 0.726422 0.702451
1.000000 0.782054 0.759667
0.000000 0.124177 0.000000
0.000000 0.123376 0.000000
0.019625 0.122575 0.000000
0.042283 0.121812 0.000000
0.065026 0.121045 0.000000
0.090183 0.120076 0.000000
0.119749 0.118644 0.000000
0.153437 0.116697 0.000000
0.192826 0.113826 0.000000
0.240640 0.109354 0.000000
0.296110 0.102177 0.000000
0.357906 0.091508 0.000000
0.419426 0.078024 0.000000
0.479182 0.063092 0.000000
0.538407 0.047542 0.000000
0.596381 0.032495 0.000000
0.652535 0.018045 0.000000
0.706963 0.007932 0.000000
0.760085 0.001822 0.000000
0.810620 0.007228 0.000000
0.854784 0.028465 0.000000
0.890785 0.079416 0.000000
0.918990 0.150853 0.034891
0.940672 0.221140 0.129416
0.956898 0.289805 0.219479
0.968586 0.356580 0.301899
0.976442 0.421872 0.377584
0.981576 0.486182 0.448445
0.985365 0.549511 0.516803
0.989990 0.611080 0.581630
0.995916 0.670655 0.643427
1.000000 0.728100 0.702646
1.000000 0.783262 0.759807
0.000000 0.158010 0.004188
0.000000 0.157370 0.003463
0.019702 0.156730 0.002739
0.042361 0.156088 0.002017
0.065015 0.155443 0.001295
0.089486 0.154686 0.000450
0.118482 0.153604 0.000000
0.152770 0.152020 0.000000
0.191434 0.149785 0.000000
0.239408 0.145903 0.000000
0.294798 0.140162 0.000000
0.356825 0.131811 0.000000
0.418911 0.121534 0.000000
0.479036 0.109910 0.000000
0.538370 0.097026 0.000000
0.596552 0.083501 0.000000
0.652842 0.069512 0.000000
0.707343 0.059594 0.000000
0.760553 0.057335 0.000000
0.811118 0.062193 0.000000
0.855412 0.090551 0.000000
0.891491 0.135936 0.000000
0.919683 0.189312 0.041845
0.941312 0.247887 0.134109
0.957485 0.309200 0.222413
0.969115 0.370848 0.303829
0.976919 0.432623 0.378942
0.982011 0.494571 0.449466
0.985731 0.555669 0.517539
0.990288 0.615528 0.582152
0.996154 0.673870 0.643800
1.000000 0.730421 0.702916
1.000000 0.784941 0.760000
0.000000 0.196074 0.011641
0.000000 0.195530 0.010914
0.020000 0.194984 0.010187
0.042651 0.194425 0.009460
0.065299 0.193866 0.008732
0.088274 0.193278 0.007965
0.117862 0.192324 0.006714
0.151747 0.190996 0.004977
0.190004 0.189086 0.002555
0.237692 0.186021 0.000000
0.293630 0.181344 0.000000
0.355394 0.175065 0.000000
0.418267 0.167289 0.000000
0.478902 0.158881 0.000000
0.538389 0.150147 0.000000
0.596846 0.140940 0.000000
0.653319 0.131889 0.000000
0.707928 0.125355 0.000000
0.761241 0.127372 0.000000
0.811898 0.133467 0.000000
0.856281 0.155409 0.000000
0.892332 0.186185 0.000000
0.920597 0.231353 0.051035
0.942223 0.281586 0.140580
0.958318 0.334670 0.226482
0.969859 0.389955 0.306506
0.977579 0.447026 0.380801
0.982574 0.505200 0.450790
0.986201 0.563479 0.518487
0.990674 0.621239 0.582830
0.996466 0.678032 0.644286
1.000000 0.733447 0.703271
1.000000 0.787140 0.760255
0.000000 0.240058 0.021960
0.000000 0.239678 0.021247
0.021045 0.239296 0.020533
0.043719 0.238916 0.019820
0.066394 0.238534 0.019107
0.088690 0.238151 0.018395
0.116268 0.237547 0.017301
0.150773 0.236589 0.015579
0.189439 0.235268 0.013182
0.235442 0.233223 0.009548
0.292273 0.229814 0.003678
0.353714 0.225394 0.000000
0.417647 0.219793 0.000000
0.478955 0.213857 0.000000
0.538610 0.207647 0.000000
0.597422 0.201369 0.000000
0.654125 0.195679 0.000000
0.708880 0.192134 0.000000
0.762255 0.195014 0.000000
0.813023 0.201597 0.000000
0.857407 0.215775 0.000000
0.893557 0.242306 0.000000
0.921764 0.276251 0.062851
0.943281 0.316448 0.148055
0.959322 0.362984 0.231402
0.970777 0.412249 0.309818
0.978399 0.464235 0.383122
0.983283 0.518257 0.452468
0.986801 0.573261 0.519704
0.991170 0.628498 0.583706
0.996868 0.683380 0.644918
1.000000 0.737362 0.703734
1.000000 0.790045 0.760593
0.000000 0.296009 0.037626
0.002397 0.295762 0.036928
0.025136 0.295514 0.036232
0.047860 0.295263 0.035535
0.070556 0.295013 0.034840
0.092571 0.294762 0.034144
0.117764 0.294408 0.033195
0.151808 0.293734 0.031507
0.189566 0.292810 0.029216
0.233800 0.291406 0.025833
0.290949 0.288819 0.020006
0.352438 0.285322 0.012244
0.417187 0.280842 0.002438
0.479319 0.276074 0.000000
0.539231 0.271258 0.000000
0.598381 0.266468 0.000000
0.655341 0.262298 0.000000
0.710264 0.260240 0.000000
0.763665 0.262592 0.000000
0.814512 0.267964 0.000000
0.858916 0.277750 0.000000
0.895075 0.298349 0.014794
0.923228 0.324062 0.077838
0.944718 0.358140 0.157760
0.960587 0.395640 0.237511
0.971885 0.437549 0.313843
0.979403 0.484391 0.385986
0.984165 0.534007 0.454584
0.987556 0.585336 0.521249
0.991802 0.637621 0.584830
0.997387 0.690191 0.645736
1.000000 0.742455 0.704342
1.000000 0.793826 0.761036
0.000000 0.359124 0.059259
0.008942 0.358900 0.058554
0.031671 0.358676 0.057848
0.054400 0.358451 0.057142
0.077083 0.358227 0.056438
0.098550 0.358002 0.055736
0.121739 0.357721 0.054857
0.153534 0.357190 0.053286
0.190433 0.356409 0.051036
0.234144 0.355213 0.047677
0.288732 0.353210 0.042205
0.351743 0.350206 0.034203
0.416480 0.346500 0.024389
0.479794 0.342406 0.013558
0.540187 0.338310 0.002610
0.599654 0.334228 0.000000
0.656951 0.330816 0.000000
0.712093 0.329662 0.000000
0.765488 0.330824 0.000000
0.816394 0.334275 0.000000
0.860858 0.341518 0.000000
0.896941 0.355533 0.034545
0.925099 0.376162 0.096241
0.946409 0.401599 0.168845
0.962171 0.432835 0.245036
0.973369 0.469056 0.319149
0.980706 0.509255 0.389692
0.985279 0.553203 0.457292
0.988508 0.600157 0.523209
0.992608 0.649037 0.586269
0.998060 0.698926 0.646801
1.000000 0.749253 0.705157
1.000000 0.798695 0.761613
0.000000 0.424851 0.086616
0.016129 0.424639 0.085951
0.038844 0.424425 0.085285
0.061558 0.424210 0.084619
0.084223 0.423996 0.083927
0.104677 0.423781 0.083215
0.127051 0.423513 0.082326
0.154590 0.423124 0.081039
0.191094 0.422426 0.078793
0.232857 0.421437 0.075638
0.285732 0.419775 0.070448
0.349721 0.417142 0.062313
0.414932 0.413905 0.052395
0.479908 0.410187 0.041086
0.541333 0.406494 0.029719
0.601054 0.403131 0.018585
0.658865 0.400495 0.008578
0.714256 0.398946 0.001046
0.767644 0.398661 0.000000
0.818627 0.400143 0.005194
0.863148 0.404688 0.022681
0.899181 0.413968 0.058829
0.927319 0.429695 0.115864
0.948483 0.448943 0.182016
0.964118 0.474292 0.254174
0.975100 0.503176 0.325395
0.982323 0.538324 0.394305
0.986738 0.577245 0.460823
0.989781 0.619335 0.525814
0.993689 0.663985 0.588190
0.998965 0.710466 0.648226
1.000000 0.757936 0.706215
1.000000 0.804915 0.762359
0.000000 0.490486 0.115511
0.021310 0.490292 0.114938
0.044017 0.490098 0.114365
0.066723 0.489903 0.113792
0.089021 0.489709 0.113219
0.109086 0.489514 0.112646
0.130913 0.489271 0.111930
0.157416 0.488930 0.110930
0.190122 0.488407 0.109406
0.231180 0.487563 0.106782
0.281595 0.486237 0.102676
0.344442 0.484120 0.095923
0.412824 0.481256 0.086235
0.478924 0.478090 0.074895
0.542030 0.474833 0.063053
0.602217 0.471694 0.051592
0.660748 0.468800 0.040976
0.716528 0.466556 0.032937
0.769987 0.465200 0.030771
0.821126 0.465132 0.036074
0.865763 0.467480 0.053158
0.901801 0.473495 0.088004
0.929930 0.484967 0.136886
0.950984 0.499845 0.197416
0.966414 0.518696 0.264854
0.977292 0.542978 0.333221
0.984290 0.571489 0.399941
0.988458 0.604245 0.465064
0.991322 0.641701 0.529012
0.995026 0.681972 0.590592
1.000000 0.724563 0.650019
1.000000 0.768749 0.707563
1.000000 0.812781 0.763318
0.000000 0.556266 0.144421
0.022289 0.556083 0.143936
0.044983 0.555900 0.143452
0.067677 0.555716 0.142968
0.089896 0.555532 0.142484
0.109845 0.555349 0.142000
0.131561 0.555119 0.141394
0.158034 0.554796 0.140528
0.188191 0.554367 0.139344
0.227296 0.553658 0.137370
0.275148 0.552563 0.134314
0.337359 0.550683 0.128947
0.407514 0.548010 0.121054
0.475756 0.544958 0.111571
0.541463 0.541667 0.100882
0.602796 0.538460 0.089967
0.662236 0.535343 0.079109
0.718681 0.532624 0.070861
0.772412 0.530524 0.068337
0.823789 0.529331 0.073262
0.868657 0.530029 0.089115
0.904789 0.533834 0.118142
0.932941 0.541783 0.159478
0.953877 0.552736 0.214744
0.969141 0.566618 0.277364
0.979857 0.585869 0.342423
0.986644 0.608569 0.406732
0.990636 0.636573 0.470432
0.993209 0.667976 0.532974
0.996640 0.703017 0.593540
1.000000 0.741466 0.652249
1.000000 0.782002 0.709261
1.000000 0.822600 0.764540
0.000000 0.620613 0.172999
0.014550 0.620432 0.172569
0.037226 0.620251 0.172140
0.059903 0.620070 0.171711
0.082535 0.619888 0.171282
0.103214 0.619707 0.170853
0.125787 0.619481 0.170315
0.153079 0.619162 0.169561
0.184021 0.618739 0.168562
0.218923 0.618179 0.167233
0.265403 0.617224 0.164811
0.324280 0.615670 0.160803
0.396887 0.613193 0.154131
0.470431 0.610132 0.145677
0.538501 0.606904 0.136594
0.602461 0.603604 0.127226
0.662864 0.600372 0.118358
0.720407 0.597309 0.111965
0.774734 0.594675 0.110046
0.826477 0.592710 0.112758
0.871757 0.592258 0.124415
0.908094 0.594546 0.147589
0.936327 0.599632 0.183796
0.957169 0.607272 0.233926
0.972323 0.617564 0.291775
0.982832 0.631727 0.353161
0.989477 0.650074 0.414941
0.993166 0.672013 0.476803
0.995512 0.698526 0.537860
0.998687 0.728718 0.597294
1.000000 0.762028 0.655065
1.000000 0.798009 0.711384
1.000000 0.834664 0.766081
0.000000 0.683392 0.201455
0.000000 0.683215 0.201078
0.015783 0.683039 0.200701
0.038445 0.682862 0.200324
0.061107 0.682686 0.199947
0.083721 0.682510 0.199570
0.109077 0.682289 0.199098
0.138860 0.681979 0.198437
0.171931 0.681566 0.197539
0.208730 0.681020 0.196337
0.250416 0.680279 0.194700
0.305980 0.679013 0.191765
0.378690 0.676851 0.186426
0.458371 0.673859 0.178831
0.532014 0.670589 0.170493
0.599757 0.667213 0.162083
0.661993 0.663885 0.154796
0.721261 0.660600 0.149157
0.776664 0.657635 0.147037
0.828992 0.655251 0.148859
0.874948 0.654194 0.158085
0.911604 0.655053 0.177589
0.940015 0.657910 0.209713
0.960838 0.662893 0.254709
0.975900 0.670119 0.307907
0.986239 0.680191 0.365537
0.992719 0.694342 0.424614
0.996160 0.711441 0.484450
0.998240 0.732915 0.543756
1.000000 0.757518 0.601783
1.000000 0.786351 0.658554
1.000000 0.817201 0.714031
1.000000 0.848158 0.767892
0.000000 0.744659 0.230076
0.000000 0.744491 0.229738
0.000000 0.744322 0.229398
0.000000 0.744154 0.229059
0.019564 0.743985 0.228719
0.042216 0.743817 0.228380
0.070556 0.743606 0.227956
0.107530 0.743309 0.227361
0.146314 0.742916 0.226572
0.187569 0.742395 0.225527
0.232144 0.741704 0.224115
0.283179 0.740724 0.222065
0.351549 0.739019 0.218257
0.437999 0.736190 0.211567
0.520312 0.732876 0.203725
0.592887 0.729519 0.196479
0.659390 0.726138 0.189851
0.720576 0.722843 0.185433
0.777747 0.719776 0.182789
0.831050 0.717090 0.183862
0.878003 0.715240 0.191346
0.915179 0.714863 0.208137
0.943940 0.716048 0.236603
0.964829 0.718956 0.276930
0.979843 0.723687 0.325736
0.990059 0.730615 0.379594
0.996380 0.740986 0.435907
0.999612 0.754118 0.493469
1.000000 0.770448 0.550726
1.000000 0.790724 0.607282
1.000000 0.813755 0.662733
1.000000 0.839318 0.717243
1.000000 0.864060 0.770117
0.000000 0.804977 0.259294
0.000000 0.804817 0.258990
0.000000 0.804657 0.258689
0.000000 0.804496 0.258392
0.000000 0.804336 0.258095
0.000000 0.804175 0.257798
0.001072 0.803974 0.257427
0.040809 0.803692 0.256906
0.092772 0.803318 0.256216
0.146476 0.802822 0.255302
0.199469 0.802164 0.254074
0.254287 0.801290 0.252449
0.316374 0.800022 0.250204
0.402628 0.797671 0.245421
0.498493 0.794263 0.238080
0.580831 0.790714 0.230959
0.652842 0.787172 0.224978
0.717423 0.783737 0.220073
0.777286 0.780397 0.217114
0.832215 0.777332 0.217632
0.880640 0.774866 0.223656
0.918653 0.773585 0.238393
0.947919 0.773522 0.264007
0.969057 0.774837 0.300448
0.984089 0.777607 0.345171
0.994238 0.782157 0.395506
1.000000 0.789337 0.449086
1.000000 0.798954 0.503868
1.000000 0.811144 0.558937
1.000000 0.826222 0.613671
1.000000 0.844007 0.667678
1.000000 0.862497 0.720889
1.000000 0.881880 0.772759
0.000000 0.863374 0.289887
0.000000 0.863220 0.289636
0.000000 0.863065 0.289385
0.000000 0.862910 0.289133
0.000000 0.862755 0.288881
0.000000 0.862600 0.288629
0.000000 0.862406 0.288314
0.000000 0.862134 0.287872
0.000000 0.861774 0.287287
0.053206 0.861296 0.286510
0.134459 0.860661 0.285464
0.205604 0.859814 0.284207
0.274297 0.858687 0.282599
0.350824 0.857025 0.280020
0.457147 0.853895 0.273657
0.557815 0.850032 0.266083
0.639828 0.846270 0.259630
0.710979 0.842594 0.254482
0.774190 0.839060 0.251501
0.831811 0.835681 0.251772
0.882432 0.832748 0.256656
0.921751 0.830806 0.269406
0.951718 0.829835 0.292485
0.973394 0.829941 0.325528
0.988526 0.831198 0.366754
0.998655 0.833825 0.413805
1.000000 0.838145 0.463828
1.000000 0.844393 0.515589
1.000000 0.852745 0.568239
1.000000 0.862725 0.620916
1.000000 0.874111 0.673167
1.000000 0.887258 0.725109
1.000000 0.900590 0.775772
0.000000 0.918550 0.321774
0.000000 0.918400 0.321556
0.000000 0.918251 0.321337
0.000000 0.918101 0.321117
0.000000 0.917951 0.320905
0.000000 0.917801 0.320697
0.000000 0.917613 0.320435
0.000000 0.917350 0.320066
0.000000 0.917000 0.319588
0.000000 0.916537 0.318941
0.000000 0.915921 0.318099
0.099311 0.915107 0.316927
0.203049 0.914030 0.315291
0.291428 0.912600 0.313105
0.387181 0.910425 0.309613
0.514175 0.906374 0.302105
0.615626 0.902180 0.294936
0.697227 0.898193 0.289290
0.766982 0.894347 0.286199
0.828633 0.890674 0.285642
0.882556 0.887286 0.289784
0.923892 0.884679 0.302642
0.954933 0.882919 0.323837
0.977436 0.882004 0.353549
0.992778 0.881759 0.390768
1.000000 0.882341 0.433452
1.000000 0.884000 0.479637
1.000000 0.886956 0.528195
1.000000 0.891362 0.578185
1.000000 0.897170 0.628722
1.000000 0.903469 0.679221
1.000000 0.911485 0.729757
1.000000 0.919936 0.779203
0.000000 0.966202 0.353791
0.000000 0.966056 0.353603
0.000000 0.965909 0.353415
0.000000 0.965763 0.353225
0.000000 0.965617 0.353034
0.000000 0.965470 0.352841
0.000000 0.965288 0.352589
0.000000 0.965032 0.352231
0.000000 0.964693 0.351753
0.000000 0.964244 0.351124
0.000000 0.963648 0.350295
0.000000 0.962856 0.349207
0.012152 0.961805 0.347769
0.184424 0.960409 0.345894
0.302944 0.958549 0.343492
0.425516 0.955607 0.339225
0.569523 0.950646 0.330634
0.671781 0.946062 0.324030
0.752489 0.941723 0.320614
0.820267 0.937605 0.319424
0.878828 0.933573 0.324272
0.924004 0.930231 0.334781
0.956730 0.927624 0.353429
0.980397 0.925574 0.380676
0.996187 0.924183 0.414460
1.000000 0.923395 0.453297
1.000000 0.923285 0.495888
1.000000 0.923989 0.541327
1.000000 0.925600 0.588675
1.000000 0.928190 0.637014
1.000000 0.930771 0.685908
1.000000 0.934485 0.734850
1.000000 0.939343 0.783073
0.000000 1.000000 0.386078
0.000000 1.000000 0.385894
0.000000 1.000000 0.385710
0.000000 1.000000 0.385539
0.000000 1.000000 0.385373
0.000000 1.000000 0.385206
0.000000 1.000000 0.384997
0.000000 1.000000 0.384702
0.000000 1.000000 0.384311
0.000000 1.000000 0.383800
0.000000 1.000000 0.383118
0.000000 1.000000 0.382235
0.000000 1.000000 0.381103
0.000000 0.998881 0.379647
0.135103 0.997046 0.377615
0.306918 0.994612 0.374808
0.466548 0.990598 0.369068
0.622127 0.984746 0.360522
0.724978 0.979617 0.356494
0.804356 0.974931 0.355280
0.869863 0.970458 0.358932
0.920890 0.966528 0.368099
0.956390 0.963359 0.385346
0.981689 0.960792 0.408614
0.998540 0.958745 0.438194
1.000000 0.957102 0.473371
1.000000 0.955863 0.512626
1.000000 0.955097 0.555037
1.000000 0.954833 0.599755
1.000000 0.955011 0.646028
1.000000 0.954987 0.693178
1.000000 0.955589 0.740435
1.000000 0.957115 0.787298
0.000000 1.000000 0.422120
0.000000 1.000000 0.422002
0.000000 1.000000 0.421884
0.000000 1.000000 0.421765
0.000000 1.000000 0.421646
0.000000 1.000000 0.421526
0.000000 1.000000 0.421376
0.000000 1.000000 0.421164
0.000000 1.000000 0.420882
0.000000 1.000000 0.420503
0.000000 1.000000 0.419991
0.000000 1.000000 0.419306
0.000000 1.000000 0.418374
0.000000 1.000000 0.417106
0.000000 1.000000 0.415396
0.010795 1.000000 0.412995
0.302474 1.000000 0.409724
0.510372 1.000000 0.403433
0.672287 1.000000 0.396745
0.775283 1.000000 0.394202
0.853071 0.999653 0.395788
0.912552 0.995102 0.403838
0.953500 0.991481 0.417266
0.981045 0.988485 0.438061
0.999563 0.985947 0.464499
1.000000 0.983805 0.495665
1.000000 0.981907 0.531068
1.000000 0.980234 0.570187
1.000000 0.978770 0.612199
1.000000 0.977219 0.656081
1.000000 0.975457 0.701072
1.000000 0.973934 0.746552
1.000000 0.972869 0.791954
0.000000 1.000000 0.464569
0.000000 1.000000 0.464456
0.000000 1.000000 0.464344
0.000000 1.000000 0.464231
0.000000 1.000000 0.464118
0.000000 1.000000 0.464005
0.000000 1.000000 0.463863
0.000000 1.000000 0.463663
0.000000 1.000000 0.463398
0.000000 1.000000 0.463045
0.000000 1.000000 0.462573
0.000000 1.000000 0.461938
0.000000 1.000000 0.461086
0.000000 1.000000 0.459932
0.000000 1.000000 0.458363
0.000000 1.000000 0.456272
0.000000 1.000000 0.453907
0.287389 1.000000 0.450984
0.554267 1.000000 0.443573
0.721068 1.000000 0.437339
0.822946 1.000000 0.436277
0.897439 1.000000 0.441602
0.946453 1.000000 0.452049
0.978142 1.000000 0.469388
0.999004 1.000000 0.491178
1.000000 1.000000 0.519075
1.000000 1.000000 0.551220
1.000000 0.999667 0.587027
1.000000 0.997339 0.625932
1.000000 0.994704 0.667067
1.000000 0.991879 0.709753
1.000000 0.988996 0.753321
1.000000 0.986203 0.797150
0.000000 1.000000 0.512202
0.000000 1.000000 0.512091
0.000000 1.000000 0.511980
0.000000 1.000000 0.511868
0.000000 1.000000 0.511757
0.000000 1.000000 0.511645
0.000000 1.000000 0.511506
0.000000 1.000000 0.511310
0.000000 1.000000 0.511049
0.000000 1.000000 0.510702
0.000000 1.000000 0.510242
0.000000 1.000000 0.509642
0.000000 1.000000 0.508911
0.000000 1.000000 0.507933
0.000000 1.000000 0.506741
0.000000 1.000000 0.505217
0.000000 1.000000 0.503117
0.000000 1.000000 0.500192
0.258393 1.000000 0.496073
0.597624 1.000000 0.486655
0.768043 1.000000 0.480920
0.868190 1.000000 0.482458
0.933069 1.000000 0.489435
0.972325 1.000000 0.502243
0.996106 1.000000 0.521194
1.000000 1.000000 0.544812
1.000000 1.000000 0.572588
1.000000 1.000000 0.605078
1.000000 1.000000 0.640920
1.000000 1.000000 0.679244
1.000000 1.000000 0.719459
1.000000 1.000000 0.760931
1.000000 0.996728 0.803028
0.000000 1.000000 0.564604
0.000000 1.000000 0.564512
0.000000 1.000000 0.564419
0.000000 1.000000 0.564327
0.000000 1.000000 0.564234
0.000000 1.000000 0.564141
0.000000 1.000000 0.564025
0.000000 1.000000 0.563860
0.000000 1.000000 0.563642
0.000000 1.000000 0.563353
0.000000 1.000000 0.562968
0.000000 1.000000 0.562455
0.000000 1.000000 0.561773
0.000000 1.000000 0.560854
0.000000 1.000000 0.559624
0.000000 1.000000 0.557963
0.000000 1.000000 0.555707
0.000000 1.000000 0.552637
0.000000 1.000000 0.548414
0.207529 1.000000 0.542562
0.640870 1.000000 0.531003
0.813001 1.000000 0.526778
0.908068 1.000000 0.529289
0.960683 1.000000 0.537836
0.990746 1.000000 0.553175
1.000000 1.000000 0.572485
1.000000 1.000000 0.597392
1.000000 1.000000 0.625828
