Sony/SL3SG3tosP3D65.cube
# sP3D65 LUT
# S-Log3/S-Gamut3 to P3(D65)
LUT_3D_SIZE 5
0.000000 0.000000 0.000000
0.198052 0.000000 0.000000
0.651712 0.000000 0.000000
0.954591 0.196299 0.207765
1.000000 0.777137 0.759105
0.000000 0.196074 0.011641
0.190004 0.189086 0.002555
0.653319 0.131889 0.000000
0.958318 0.334670 0.226482
1.000000 0.787140 0.760255
0.000000 0.683392 0.201455
0.171931 0.681566 0.197539
0.661993 0.663885 0.154796
0.975900 0.670119 0.307907
1.000000 0.848158 0.767892
0.000000 1.000000 0.464569
0.000000 1.000000 0.463398
0.000000 1.000000 0.453907
0.999004 1.000000 0.491178
1.000000 0.986203 0.797150
0.000000 1.000000 0.946662
0.000000 1.000000 0.945742
0.000000 1.000000 0.938507
0.000000 1.000000 0.865261
1.000000 1.000000 0.884687
0.000000 0.000000 0.156986
0.186776 0.000000 0.151413
0.648269 0.000000 0.110613
0.951694 0.181013 0.314310
1.000000 0.776212 0.767758
0.000000 0.185346 0.175758
0.178530 0.178289 0.171040
0.649913 0.115356 0.135582
0.955444 0.325747 0.326515
1.000000 0.786212 0.768880
0.000000 0.679939 0.288463
0.157575 0.678062 0.286319
0.658361 0.659933 0.263394
0.973055 0.665178 0.385415
1.000000 0.847204 0.776319
0.000000 1.000000 0.519033
0.000000 1.000000 0.517959
0.000000 1.000000 0.509019
0.996715 1.000000 0.531634
1.000000 0.985312 0.804521
0.000000 1.000000 0.953710
0.000000 1.000000 0.952789
0.000000 1.000000 0.945557
0.000000 1.000000 0.872733
1.000000 1.000000 0.887704
0.000000 0.000000 0.590688
0.054672 0.000000 0.588919
0.621070 0.000000 0.577154
0.937556 0.119888 0.603743
1.000000 0.770775 0.820923
0.000000 0.070126 0.595818
0.042776 0.059174 0.594244
0.623445 0.000000 0.582595
0.941207 0.288364 0.608944
1.000000 0.780774 0.821898
0.000000 0.651958 0.631424
0.000000 0.650015 0.630162
0.631907 0.631477 0.617832
0.958838 0.642220 0.635270
1.000000 0.841323 0.828284
0.000000 1.000000 0.724946
0.000000 1.000000 0.723791
0.000000 1.000000 0.714663
0.984472 0.988980 0.702912
1.000000 0.979499 0.850673
0.000000 1.000000 0.999031
0.000000 1.000000 0.998119
0.000000 1.000000 0.990963
0.000000 1.000000 0.918854
1.000000 1.000000 0.908379
0.000000 0.252660 0.932879
0.110703 0.244581 0.931201
0.603907 0.211507 0.923131
0.917868 0.346090 0.916224
0.995814 0.777725 0.945839
0.000000 0.356027 0.935594
0.095582 0.350281 0.933959
0.605990 0.325124 0.925702
0.920487 0.409528 0.918231
0.996604 0.786426 0.946471
0.000000 0.658339 0.949836
0.000000 0.656273 0.948729
0.607343 0.638237 0.939353
0.934502 0.646345 0.929219
1.000000 0.838198 0.950426
0.000000 1.000000 0.987840
0.000000 1.000000 0.986810
0.000000 0.994065 0.978716
0.958671 0.958581 0.954054
1.000000 0.964823 0.961922
0.000000 1.000000 1.000000
0.000000 1.000000 1.000000
0.000000 1.000000 1.000000
0.000000 1.000000 1.000000
1.000000 1.000000 0.973211
0.634912 0.852915 1.000000
0.656843 0.851855 1.000000
0.771941 0.845797 1.000000
0.951476 0.842350 0.996233
1.000000 0.901235 0.999262
0.632278 0.858411 1.000000
0.654460 0.857347 1.000000
0.771095 0.851225 1.000000
0.951907 0.846947 0.996575
1.000000 0.903477 0.999442
0.607380 0.892301 1.000000
0.633852 0.891085 1.000000
0.762681 0.884417 1.000000
0.954697 0.877121 0.998883
1.000000 0.917023 1.000000
0.000000 1.000000 1.000000
0.000000 1.000000 1.000000
0.544058 0.989258 1.000000
0.958935 0.966715 1.000000
1.000000 0.969487 1.000000
0.000000 1.000000 1.000000
0.000000 1.000000 1.000000
0.000000 1.000000 1.000000
0.000000 1.000000 1.000000
1.000000 1.000000 1.000000
