Sony/SL3SG3tos709.cube
# s709 LUT
# S-Log3/S-Gamut3 to Rec.709
LUT_3D_SIZE 5
0.000000 0.000000 0.000000
0.200283 0.000000 0.000000
0.696320 0.000000 0.000000
1.000000 0.000000 0.003671
1.000000 0.735212 0.721378
0.000000 0.182378 0.000000
0.165733 0.164660 0.000000
0.690374 0.000000 0.000000
1.000000 0.162628 0.012953
1.000000 0.747041 0.721742
0.000000 0.690829 0.064214
0.000000 0.686236 0.047545
0.639387 0.642065 0.000000
1.000000 0.612356 0.074613
1.000000 0.818965 0.724417
0.000000 1.000000 0.373945
0.000000 1.000000 0.369535
0.000000 1.000000 0.332832
0.997542 1.000000 0.312362
1.000000 0.980937 0.743919
0.000000 1.000000 1.000000
0.000000 1.000000 1.000000
0.000000 1.000000 1.000000
0.000000 1.000000 0.896573
1.000000 1.000000 0.850747
0.000000 0.000000 0.152344
0.190797 0.000000 0.138958
0.693060 0.000000 0.016583
1.000000 0.000000 0.204371
1.000000 0.734192 0.732320
0.000000 0.172635 0.158774
0.154627 0.154336 0.146482
0.687051 0.000000 0.025802
1.000000 0.147236 0.208569
1.000000 0.746018 0.732664
0.000000 0.687305 0.205115
0.000000 0.682645 0.197005
0.635629 0.637861 0.100624
1.000000 0.606771 0.237045
1.000000 0.817908 0.735193
0.000000 1.000000 0.446988
0.000000 1.000000 0.443231
0.000000 1.000000 0.412090
0.995154 1.000000 0.379420
1.000000 0.979944 0.753545
0.000000 1.000000 1.000000
0.000000 1.000000 1.000000
0.000000 1.000000 1.000000
0.000000 1.000000 0.905412
1.000000 1.000000 0.854640
0.000000 0.000000 0.611866
0.092214 0.000000 0.607732
0.667202 0.000000 0.578804
1.000000 0.000000 0.577522
1.000000 0.728244 0.799074
0.000000 0.074442 0.613446
0.030302 0.046599 0.609568
0.660799 0.000000 0.580284
1.000000 0.073417 0.578568
1.000000 0.740064 0.799326
0.000000 0.658842 0.625315
0.000000 0.653999 0.622106
0.608233 0.607662 0.591387
1.000000 0.580950 0.585205
1.000000 0.811419 0.801158
0.000000 1.000000 0.706137
0.000000 1.000000 0.703264
0.000000 1.000000 0.680348
0.982378 0.988784 0.625489
1.000000 0.973466 0.813373
0.000000 1.000000 1.000000
0.000000 1.000000 1.000000
0.000000 1.000000 1.000000
0.000000 1.000000 0.959995
1.000000 1.000000 0.881253
0.000000 0.243373 0.989801
0.048948 0.223534 0.986193
0.629422 0.106881 0.968304
0.987362 0.197840 0.942978
1.000000 0.737725 0.952340
0.000000 0.347219 0.990535
0.000000 0.333188 0.987024
0.622892 0.257413 0.968819
0.986109 0.291793 0.943220
1.000000 0.747985 0.952422
0.000000 0.666632 0.994977
0.000000 0.661554 0.992577
0.575414 0.616828 0.972192
0.978907 0.589088 0.944625
1.000000 0.808881 0.952955
0.000000 1.000000 1.000000
0.000000 1.000000 1.000000
0.000000 1.000000 1.000000
0.955262 0.955139 0.949535
1.000000 0.957186 0.955151
0.000000 1.000000 1.000000
0.000000 1.000000 1.000000
0.000000 1.000000 1.000000
0.000000 1.000000 1.000000
1.000000 1.000000 0.964080
0.551345 0.857652 1.000000
0.582119 0.855079 1.000000
0.737914 0.839921 1.000000
0.969391 0.819268 1.000000
1.000000 0.883144 1.000000
0.545755 0.864059 1.000000
0.577041 0.861483 1.000000
0.735447 0.846234 1.000000
0.969091 0.824630 1.000000
1.000000 0.885769 1.000000
0.497284 0.904012 1.000000
0.536220 0.901146 1.000000
0.715638 0.885066 1.000000
0.966935 0.859813 1.000000
1.000000 0.901616 1.000000
0.000000 1.000000 1.000000
0.000000 1.000000 1.000000
0.344683 1.000000 1.000000
0.953754 0.964584 1.000000
1.000000 0.962981 1.000000
0.000000 1.000000 1.000000
0.000000 1.000000 1.000000
0.000000 1.000000 1.000000
0.000000 1.000000 1.000000
1.000000 1.000000 1.000000
