Sony/SL3SG3tos709.cube
# s709 LUT
# S-Log3/S-Gamut3 to Rec.709
LUT_3D_SIZE 9
0.000000 0.000000 0.000000
0.072443 0.000000 0.000000
0.200283 0.000000 0.000000
0.439044 0.000000 0.000000
0.696320 0.000000 0.000000
0.926845 0.000000 0.000000
1.000000 0.000000 0.003671
1.000000 0.433388 0.440113
1.000000 0.735212 0.721378
0.000000 0.062370 0.000000
0.052606 0.052122 0.000000
0.188198 0.031283 0.000000
0.433215 0.000000 0.000000
0.694095 0.000000 0.000000
0.925856 0.000000 0.000000
1.000000 0.000000 0.007315
1.000000 0.451586 0.440653
1.000000 0.739879 0.721520
0.000000 0.182378 0.000000
0.023043 0.176599 0.000000
0.165733 0.164660 0.000000
0.423222 0.106339 0.000000
0.690374 0.000000 0.000000
0.924113 0.000000 0.000000
1.000000 0.162628 0.012953
1.000000 0.479401 0.441512
1.000000 0.747041 0.721742
0.000000 0.414567 0.012599
0.000000 0.411966 0.006156
0.076730 0.407367 0.000000
0.386265 0.385022 0.000000
0.677522 0.340123 0.000000
0.918606 0.302717 0.000000
1.000000 0.369697 0.029540
1.000000 0.548127 0.444073
1.000000 0.768030 0.722425
0.000000 0.690829 0.064214
0.000000 0.689055 0.057761
0.000000 0.686236 0.047545
0.246101 0.674722 0.005342
0.639387 0.642065 0.000000
0.905121 0.607678 0.000000
1.000000 0.612356 0.074613
1.000000 0.684431 0.451322
1.000000 0.818965 0.724417
0.000000 0.953162 0.178530
0.000000 0.951789 0.174880
0.000000 0.949608 0.169079
0.000000 0.942776 0.149684
0.506275 0.915456 0.040701
0.872563 0.879269 0.000000
1.000000 0.861944 0.169393
1.000000 0.871039 0.470149
1.000000 0.903240 0.729837
0.000000 1.000000 0.373945
0.000000 1.000000 0.372249
0.000000 1.000000 0.369535
0.000000 1.000000 0.360864
0.000000 1.000000 0.332832
0.757821 1.000000 0.244438
0.997542 1.000000 0.312362
1.000000 0.995171 0.515488
1.000000 0.980937 0.743919
0.000000 1.000000 0.682517
0.000000 1.000000 0.681454
0.000000 1.000000 0.679767
0.000000 1.000000 0.674467
0.000000 1.000000 0.657747
0.000000 1.000000 0.603272
0.943920 1.000000 0.513433
1.000000 1.000000 0.611452
1.000000 1.000000 0.779402
0.000000 1.000000 1.000000
0.000000 1.000000 1.000000
0.000000 1.000000 1.000000
0.000000 1.000000 1.000000
0.000000 1.000000 1.000000
0.000000 1.000000 1.000000
0.000000 1.000000 0.896573
0.999581 1.000000 0.769839
1.000000 1.000000 0.850747
0.000000 0.000000 0.048183
0.066606 0.000000 0.041543
0.197158 0.000000 0.028179
0.437495 0.000000 0.000000
0.695172 0.000000 0.000000
0.925841 0.000000 0.000000
1.000000 0.000000 0.102332
1.000000 0.431821 0.456150
1.000000 0.734808 0.725704
0.000000 0.056770 0.051575
0.046786 0.046735 0.045192
0.184946 0.026071 0.032190
0.431642 0.000000 0.000000
0.692931 0.000000 0.000000
0.924845 0.000000 0.000000
1.000000 0.000000 0.105169
1.000000 0.450088 0.456650
1.000000 0.739474 0.725843
0.000000 0.179404 0.057328
0.016983 0.173480 0.051210
0.162049 0.161304 0.038958
0.421611 0.102160 0.000000
0.689194 0.000000 0.000000
0.923090 0.000000 0.000000
1.000000 0.156696 0.109677
1.000000 0.477965 0.457441
1.000000 0.746635 0.726060
0.000000 0.413313 0.077040
0.000000 0.410685 0.070855
0.070626 0.406047 0.059983
0.384466 0.383502 0.009850
0.676285 0.338369 0.000000
0.917567 0.300049 0.000000
1.000000 0.366510 0.122257
1.000000 0.546811 0.459795
1.000000 0.767626 0.726729
0.000000 0.689617 0.126467
0.000000 0.687835 0.121609
0.000000 0.685001 0.113727
0.243161 0.673401 0.077045
0.638027 0.640564 0.000000
0.904037 0.605939 0.000000
1.000000 0.610118 0.155226
1.000000 0.683298 0.466456
1.000000 0.818547 0.728678
0.000000 0.951978 0.220694
0.000000 0.950602 0.217677
0.000000 0.948419 0.212803
0.000000 0.941582 0.196734
0.504467 0.914150 0.118189
0.871284 0.877674 0.030956
1.000000 0.860331 0.220857
1.000000 0.870108 0.483765
1.000000 0.902820 0.733971
0.000000 1.000000 0.404191
0.000000 1.000000 0.402651
0.000000 1.000000 0.400181
0.000000 1.000000 0.392322
0.000000 1.000000 0.366387
0.756267 1.000000 0.287103
0.996548 1.000000 0.341800
1.000000 0.994358 0.527089
1.000000 0.980547 0.747718
0.000000 1.000000 0.693111
0.000000 1.000000 0.692062
0.000000 1.000000 0.690396
0.000000 1.000000 0.685166
0.000000 1.000000 0.668889
0.000000 1.000000 0.615246
0.943215 1.000000 0.526025
1.000000 1.000000 0.619179
1.000000 1.000000 0.782490
0.000000 1.000000 1.000000
0.000000 1.000000 1.000000
0.000000 1.000000 1.000000
0.000000 1.000000 1.000000
0.000000 1.000000 1.000000
0.000000 1.000000 1.000000
0.000000 1.000000 0.900063
0.999309 1.000000 0.773215
1.000000 1.000000 0.852272
0.000000 0.000000 0.152344
0.054960 0.000000 0.148066
0.190797 0.000000 0.138958
0.434470 0.000000 0.097690
0.693060 0.000000 0.016583
0.923971 0.000000 0.000000
1.000000 0.000000 0.204371
1.000000 0.429627 0.478554
1.000000 0.734192 0.732320
0.000000 0.045468 0.154780
0.035157 0.035442 0.150724
0.178311 0.014707 0.141810
0.428567 0.000000 0.101491
0.690803 0.000000 0.020100
0.922962 0.000000 0.000000
1.000000 0.000000 0.205994
1.000000 0.448054 0.479001
1.000000 0.738858 0.732453
0.000000 0.172635 0.158774
0.005039 0.166651 0.154787
0.154627 0.154336 0.146482
0.418458 0.093036 0.107501
0.687051 0.000000 0.025802
0.921186 0.000000 0.000000
1.000000 0.147236 0.208569
1.000000 0.475953 0.479706
1.000000 0.746018 0.732664
0.000000 0.410500 0.171126
0.000000 0.407844 0.167367
0.058894 0.403125 0.160803
0.381018 0.380286 0.126793
0.674084 0.334917 0.044389
0.915629 0.294527 0.005270
1.000000 0.361535 0.216219
1.000000 0.544947 0.481816
1.000000 0.767007 0.733311
0.000000 0.687305 0.205115
0.000000 0.685504 0.202007
0.000000 0.682645 0.197005
0.237903 0.670962 0.174246
0.635629 0.637861 0.100624
0.902003 0.602530 0.055761
1.000000 0.606771 0.237045
1.000000 0.681648 0.487962
1.000000 0.817908 0.735193
0.000000 0.949818 0.283042
0.000000 0.948434 0.280721
0.000000 0.946239 0.277007
0.000000 0.939335 0.265579
0.501040 0.911689 0.213278
0.869075 0.874905 0.168422
1.000000 0.857847 0.284513
1.000000 0.868618 0.504751
1.000000 0.902173 0.740301
0.000000 1.000000 0.446988
0.000000 1.000000 0.445541
0.000000 1.000000 0.443231
0.000000 1.000000 0.435907
0.000000 1.000000 0.412090
0.754023 1.000000 0.340156
0.995154 1.000000 0.379420
1.000000 0.993150 0.543840
1.000000 0.979944 0.753545
0.000000 1.000000 0.709823
0.000000 1.000000 0.708788
0.000000 1.000000 0.707145
0.000000 1.000000 0.701988
0.000000 1.000000 0.685754
0.000000 1.000000 0.632235
0.942176 1.000000 0.544074
1.000000 1.000000 0.630689
1.000000 1.000000 0.787254
0.000000 1.000000 1.000000
0.000000 1.000000 1.000000
0.000000 1.000000 1.000000
0.000000 1.000000 1.000000
0.000000 1.000000 1.000000
0.000000 1.000000 1.000000
0.000000 1.000000 0.905412
0.998887 1.000000 0.778412
1.000000 1.000000 0.854640
0.000000 0.000000 0.360761
0.008546 0.000000 0.358840
0.163053 0.000000 0.354849
0.421896 0.000000 0.338464
0.684861 0.000000 0.309911
0.917719 0.000000 0.294961
1.000000 0.000000 0.366233
1.000000 0.423486 0.537991
1.000000 0.732447 0.751308
0.000000 0.000000 0.362066
0.000000 0.000000 0.360221
0.148959 0.000000 0.356275
0.415799 0.000000 0.339970
0.682550 0.000000 0.311233
0.916699 0.000000 0.296169
1.000000 0.000000 0.367143
1.000000 0.442384 0.538351
1.000000 0.737108 0.751430
0.000000 0.142429 0.364182
0.000000 0.135786 0.362405
0.121320 0.121320 0.358674
0.405398 0.046682 0.342420
0.678707 0.000000 0.313367
0.914892 0.000000 0.298175
1.000000 0.122086 0.368535
1.000000 0.470302 0.538918
1.000000 0.744275 0.751621
0.000000 0.397254 0.370997
0.000000 0.394469 0.369234
0.011578 0.389629 0.366055
0.366850 0.366249 0.350487
0.665568 0.319339 0.320569
0.909364 0.275620 0.304259
1.000000 0.348792 0.372585
1.000000 0.539663 0.540606
1.000000 0.765247 0.752210
0.000000 0.677846 0.389450
0.000000 0.676017 0.387719
0.000000 0.673109 0.384965
0.216080 0.661138 0.373063
0.626697 0.627497 0.340743
0.895780 0.592056 0.320143
1.000000 0.598033 0.383409
1.000000 0.676934 0.545489
1.000000 0.816066 0.753920
0.000000 0.942267 0.437645
0.000000 0.940870 0.436123
0.000000 0.938653 0.433697
0.000000 0.931706 0.426004
0.490230 0.903949 0.391641
0.862949 0.867268 0.360274
1.000000 0.851342 0.409983
1.000000 0.864526 0.558727
1.000000 0.900288 0.758532
0.000000 1.000000 0.544845
0.000000 1.000000 0.543529
0.000000 1.000000 0.541438
0.000000 1.000000 0.534842
0.000000 1.000000 0.514097
0.748076 1.000000 0.452761
0.991204 1.000000 0.469981
1.000000 0.989586 0.590360
1.000000 0.978147 0.770619
0.000000 1.000000 0.753190
0.000000 1.000000 0.752180
0.000000 1.000000 0.750576
0.000000 1.000000 0.745551
0.000000 1.000000 0.729772
0.000000 1.000000 0.678234
0.939230 1.000000 0.592086
1.000000 1.000000 0.662039
1.000000 1.000000 0.801203
0.000000 1.000000 1.000000
0.000000 1.000000 1.000000
0.000000 1.000000 1.000000
0.000000 1.000000 1.000000
0.000000 1.000000 1.000000
0.000000 1.000000 1.000000
0.000000 1.000000 0.920834
0.997639 1.000000 0.793558
1.000000 1.000000 0.861737
0.000000 0.000000 0.611866
0.000000 0.000000 0.610477
0.092214 0.000000 0.607732
0.394387 0.000000 0.597384
0.667202 0.000000 0.578804
0.904830 0.000000 0.560108
1.000000 0.000000 0.577522
1.000000 0.411440 0.657553
1.000000 0.728244 0.799074
0.000000 0.000000 0.612467
0.000000 0.000000 0.611126
0.066594 0.000000 0.608468
0.387907 0.000000 0.598065
0.664818 0.000000 0.579362
0.903738 0.000000 0.560592
1.000000 0.000000 0.577931
1.000000 0.431185 0.657802
1.000000 0.732883 0.799172
0.000000 0.074442 0.613446
0.000000 0.065578 0.612182
0.030302 0.046599 0.609568
0.376838 0.000000 0.599195
0.660799 0.000000 0.580284
0.901890 0.000000 0.561391
1.000000 0.073417 0.578568
1.000000 0.458805 0.658185
1.000000 0.740064 0.799326
0.000000 0.374953 0.616636
0.000000 0.372127 0.615384
0.000000 0.366888 0.613118
0.336254 0.341933 0.602949
0.647474 0.291138 0.583254
0.896419 0.245486 0.563775
1.000000 0.325898 0.580397
1.000000 0.528569 0.659326
1.000000 0.760938 0.799799
0.000000 0.658842 0.625315
0.000000 0.656971 0.624074
0.000000 0.653999 0.622106
0.167289 0.641519 0.613729
0.608233 0.607662 0.591387
0.882987 0.572563 0.570069
1.000000 0.580950 0.585205
1.000000 0.666475 0.662517
1.000000 0.811419 0.801158
0.000000 0.927154 0.647855
0.000000 0.925750 0.646648
0.000000 0.923521 0.644731
0.000000 0.916532 0.638710
0.468544 0.888496 0.613754
0.850392 0.852022 0.586364
0.998127 0.837685 0.597059
1.000000 0.854876 0.670731
1.000000 0.895367 0.804747
0.000000 1.000000 0.706137
0.000000 1.000000 0.705026
0.000000 1.000000 0.703264
0.000000 1.000000 0.697734
0.000000 1.000000 0.680348
0.735469 1.000000 0.629189
0.982378 0.988784 0.625489
1.000000 0.980874 0.690244
1.000000 0.973466 0.813373
0.000000 1.000000 0.845261
0.000000 1.000000 0.844311
0.000000 1.000000 0.842804
0.000000 1.000000 0.838083
0.000000 1.000000 0.823327
0.000000 1.000000 0.775831
0.932064 1.000000 0.694518
1.000000 1.000000 0.737350
1.000000 1.000000 0.834967
0.000000 1.000000 1.000000
0.000000 1.000000 1.000000
0.000000 1.000000 1.000000
0.000000 1.000000 1.000000
0.000000 1.000000 1.000000
0.000000 1.000000 1.000000
0.000000 1.000000 0.959995
0.994458 1.000000 0.830759
1.000000 1.000000 0.881253
0.000000 0.000000 0.847357
0.000000 0.000000 0.846153
0.000000 0.000000 0.843897
0.360228 0.000000 0.836222
0.642376 0.000000 0.822164
0.884979 0.000000 0.804939
1.000000 0.000000 0.802588
1.000000 0.406480 0.826556
1.000000 0.724224 0.878940
0.000000 0.000000 0.847715
0.000000 0.000000 0.846546
0.000000 0.000000 0.844331
0.352364 0.000000 0.836648
0.639708 0.000000 0.822486
0.883784 0.000000 0.805200
1.000000 0.000000 0.802781
1.000000 0.424471 0.826679
1.000000 0.728812 0.878996
0.000000 0.103387 0.848302
0.000000 0.094433 0.847190
0.000000 0.074667 0.845050
0.339291 0.000072 0.837344
0.635413 0.000000 0.822999
0.881944 0.000000 0.805601
1.000000 0.083739 0.803084
1.000000 0.449937 0.826867
1.000000 0.735844 0.879084
0.000000 0.372609 0.850065
0.000000 0.369697 0.849076
0.000000 0.363814 0.847170
0.297700 0.337882 0.839384
0.622231 0.287337 0.824531
0.876751 0.237277 0.806738
0.998978 0.314970 0.803932
1.000000 0.517730 0.827433
1.000000 0.756160 0.879349
0.000000 0.641516 0.854777
0.000000 0.639613 0.853791
0.000000 0.636587 0.852228
0.098420 0.623058 0.845433
0.583091 0.589248 0.828677
0.863666 0.553215 0.809623
0.993074 0.563086 0.806079
1.000000 0.652941 0.828951
1.000000 0.805054 0.880082
0.000000 0.906833 0.867053
0.000000 0.905403 0.866080
0.000000 0.903135 0.864538
0.000000 0.896020 0.859707
0.440216 0.867349 0.840297
0.831381 0.831018 0.816583
0.982194 0.817563 0.810973
1.000000 0.839194 0.832546
1.000000 0.887302 0.881867
0.000000 1.000000 0.899142
0.000000 1.000000 0.898203
0.000000 1.000000 0.896716
0.000000 1.000000 0.892058
0.000000 1.000000 0.877523
0.716155 0.998393 0.835639
0.967376 0.969513 0.821020
1.000000 0.965054 0.840148
1.000000 0.965038 0.885855
0.000000 1.000000 0.984242
0.000000 1.000000 0.983382
0.000000 1.000000 0.982018
0.000000 1.000000 0.977751
0.000000 1.000000 0.964462
0.000000 1.000000 0.922121
0.919189 1.000000 0.846969
1.000000 1.000000 0.857785
1.000000 0.997799 0.895628
0.000000 1.000000 1.000000
0.000000 1.000000 1.000000
0.000000 1.000000 1.000000
0.000000 1.000000 1.000000
0.000000 1.000000 1.000000
0.000000 1.000000 1.000000
0.000000 1.000000 1.000000
0.988479 1.000000 0.896015
1.000000 1.000000 0.918817
0.000000 0.243373 0.989801
0.000000 0.236463 0.988500
0.048948 0.223534 0.986193
0.362118 0.186903 0.980056
0.629422 0.106881 0.968304
0.868586 0.025177 0.952114
0.987362 0.197840 0.942978
1.000000 0.469625 0.944612
1.000000 0.737725 0.952340
0.000000 0.288514 0.990100
0.000000 0.282686 0.988807
0.023368 0.271829 0.986510
0.355458 0.241464 0.980326
0.626848 0.181588 0.968510
0.867608 0.115615 0.952248
0.986862 0.239317 0.943075
1.000000 0.482687 0.944674
1.000000 0.741768 0.952372
0.000000 0.347219 0.990535
0.000000 0.342405 0.989299
0.000000 0.333188 0.987024
0.344959 0.307006 0.980740
0.622892 0.257413 0.968819
0.866063 0.209528 0.952460
0.986109 0.291793 0.943220
1.000000 0.501832 0.944770
1.000000 0.747985 0.952422
0.000000 0.471026 0.991815
0.000000 0.467847 0.990718
0.000000 0.461403 0.988578
0.309329 0.441228 0.982023
0.610884 0.404483 0.969731
0.861638 0.364937 0.953053
0.984006 0.404240 0.943628
1.000000 0.555200 0.945059
1.000000 0.766079 0.952571
0.000000 0.666632 0.994977
0.000000 0.664775 0.994093
0.000000 0.661554 0.992577
0.152055 0.646896 0.985948
0.575414 0.616828 0.972192
0.849779 0.583136 0.954568
0.978907 0.589088 0.944625
1.000000 0.668949 0.945798
1.000000 0.808881 0.952955
0.000000 0.900434 1.000000
0.000000 0.898988 1.000000
0.000000 0.896693 1.000000
0.000000 0.889495 0.996538
0.441593 0.860566 0.979369
0.819025 0.825543 0.958073
0.969014 0.812885 0.946602
1.000000 0.834399 0.947285
1.000000 0.883499 0.953773
0.000000 1.000000 1.000000
0.000000 1.000000 1.000000
0.000000 1.000000 1.000000
0.000000 1.000000 1.000000
0.000000 1.000000 1.000000
0.707807 0.982766 0.967638
0.955262 0.955139 0.949535
0.997338 0.952456 0.949358
1.000000 0.957186 0.955151
0.000000 1.000000 1.000000
0.000000 1.000000 1.000000
0.000000 1.000000 1.000000
0.000000 1.000000 1.000000
0.000000 1.000000 1.000000
0.000000 1.000000 1.000000
0.909213 1.000000 0.957129
0.993475 0.994403 0.952721
1.000000 0.989724 0.957724
0.000000 1.000000 1.000000
0.000000 1.000000 1.000000
0.000000 1.000000 1.000000
0.000000 1.000000 1.000000
0.000000 1.000000 1.000000
0.000000 1.000000 1.000000
0.000000 1.000000 1.000000
0.982087 1.000000 0.960884
1.000000 1.000000 0.964080
0.193717 0.596059 1.000000
0.251804 0.593197 1.000000
0.320577 0.588981 1.000000
0.456907 0.577881 1.000000
0.654689 0.555516 1.000000
0.865726 0.527850 0.997213
0.977568 0.543543 0.987965
1.000000 0.636400 0.985829
1.000000 0.793779 0.984643
0.181458 0.606593 1.000000
0.242116 0.603770 1.000000
0.314185 0.599516 1.000000
0.453167 0.588485 1.000000
0.652950 0.566265 1.000000
0.865076 0.539244 0.997289
0.977267 0.553286 0.988015
1.000000 0.642836 0.985865
1.000000 0.796382 0.984662
0.159978 0.622624 1.000000
0.227012 0.619807 1.000000
0.303625 0.615593 1.000000
0.447108 0.604780 1.000000
0.650199 0.583109 1.000000
0.864057 0.556306 0.997407
0.976806 0.567753 0.988090
1.000000 0.653117 0.985923
1.000000 0.800419 0.984691
0.071131 0.667642 1.000000
0.172662 0.664764 1.000000
0.266366 0.660625 1.000000
0.427198 0.649956 1.000000
0.641637 0.628629 1.000000
0.861022 0.601474 0.997750
0.975410 0.609141 0.988317
1.000000 0.682031 0.986092
1.000000 0.812387 0.984778
0.000000 0.769734 1.000000
0.000000 0.766953 1.000000
0.074810 0.762782 1.000000
0.356021 0.751939 1.000000
0.614299 0.731173 1.000000
0.851903 0.704425 0.998731
0.971726 0.703129 0.988908
1.000000 0.751030 0.986528
1.000000 0.841138 0.984994
0.000000 0.926545 1.000000
0.000000 0.925126 1.000000
0.000000 0.922872 1.000000
0.000000 0.913880 1.000000
0.514663 0.888687 1.000000
0.825790 0.858585 1.000000
0.964132 0.845463 0.990063
0.997754 0.860192 0.987326
1.000000 0.896477 0.985445
0.000000 1.000000 1.000000
0.000000 1.000000 1.000000
0.000000 1.000000 1.000000
0.000000 1.000000 1.000000
0.000000 1.000000 1.000000
0.729799 0.979880 1.000000
0.952118 0.954599 0.991597
0.993146 0.952217 0.988169
1.000000 0.956801 0.986029
0.000000 1.000000 1.000000
0.000000 1.000000 1.000000
0.000000 1.000000 1.000000
0.000000 1.000000 1.000000
0.000000 1.000000 1.000000
0.000000 1.000000 1.000000
0.909202 1.000000 0.995618
0.989772 0.989745 0.988834
1.000000 0.986058 0.986570
0.000000 1.000000 1.000000
0.000000 1.000000 1.000000
0.000000 1.000000 1.000000
0.000000 1.000000 1.000000
0.000000 1.000000 1.000000
0.000000 1.000000 1.000000
0.000000 1.000000 1.000000
0.979360 1.000000 0.990441
1.000000 1.000000 0.987743
0.551345 0.857652 1.000000
0.563706 0.856635 1.000000
0.582119 0.855079 1.000000
0.631822 0.850625 1.000000
0.737914 0.839921 1.000000
0.879363 0.824036 1.000000
0.969391 0.819268 1.000000
0.996675 0.838183 1.000000
1.000000 0.883144 1.000000
0.549198 0.860159 1.000000
0.561702 0.859138 1.000000
0.580156 0.857587 1.000000
0.630331 0.853112 1.000000
0.736961 0.842393 1.000000
0.878995 0.826461 1.000000
0.969271 0.821448 1.000000
0.996601 0.839920 1.000000
1.000000 0.884167 1.000000
0.545755 0.864059 1.000000
0.558493 0.863027 1.000000
0.577041 0.861483 1.000000
0.627952 0.856977 1.000000
0.735447 0.846234 1.000000
0.878415 0.830226 1.000000
0.969091 0.824630 1.000000
0.996484 0.842626 1.000000
1.000000 0.885769 1.000000
0.534649 0.875462 1.000000
0.548173 0.874391 1.000000
0.567587 0.872809 1.000000
0.620390 0.868215 1.000000
0.730694 0.857286 1.000000
0.876648 0.840719 1.000000
0.968546 0.834090 1.000000
0.996131 0.850746 1.000000
1.000000 0.889961 1.000000
0.497284 0.904012 1.000000
0.512807 0.902897 1.000000
0.536220 0.901146 1.000000
0.595441 0.896363 1.000000
0.715638 0.885066 1.000000
0.871322 0.867757 1.000000
0.966935 0.859813 1.000000
0.995223 0.871045 1.000000
1.000000 0.901616 1.000000
0.329627 0.963287 1.000000
0.359885 0.961864 1.000000
0.402746 0.959638 1.000000
0.498507 0.953761 1.000000
0.664029 0.940509 1.000000
0.855301 0.920227 1.000000
0.962940 0.908361 1.000000
0.993241 0.912501 1.000000
1.000000 0.927725 1.000000
0.000000 1.000000 1.000000
0.000000 1.000000 1.000000
0.000000 1.000000 1.000000
0.000000 1.000000 1.000000
0.344683 1.000000 1.000000
0.793259 0.983620 1.000000
0.953754 0.964584 1.000000
0.990459 0.961517 1.000000
1.000000 0.962981 1.000000
0.000000 1.000000 1.000000
0.000000 1.000000 1.000000
0.000000 1.000000 1.000000
0.000000 1.000000 1.000000
0.000000 1.000000 1.000000
0.000000 1.000000 1.000000
0.918817 0.996570 1.000000
0.987626 0.987675 1.000000
1.000000 0.983987 1.000000
0.000000 1.000000 1.000000
0.000000 1.000000 1.000000
0.000000 1.000000 1.000000
0.000000 1.000000 1.000000
0.000000 1.000000 1.000000
0.000000 1.000000 1.000000
0.000000 1.000000 1.000000
0.977978 1.000000 1.000000
1.000000 1.000000 1.000000
