flim/AgX_Default_Contrast.spi1d
Version 1
From 0.0000000 1.0000000
Length 4096
Components 1
{
 -0.0000000
 0.0000327
 0.0000655
 0.0000983
 0.0001311
 0.0001640
 0.0001968
 0.0002297
 0.0002627
 0.0002956
 0.0003286
 0.0003616
 0.0003946
 0.0004277
 0.0004608
 0.0004939
 0.0005271
 0.0005602
 0.0005934
 0.0006267
 0.0006599
 0.0006932
 0.0007265
 0.0007599
 0.0007932
 0.0008266
 0.0008601
 0.0008935
 0.0009270
 0.0009605
 0.0009940
 0.0010276
 0.0010612
 0.0010948
 0.0011285
 0.0011622
 0.0011959
 0.0012296
 0.0012634
 0.0012971
 0.0013310
 0.0013648
 0.0013987
 0.0014326
 0.0014665
 0.0015005
 0.0015345
 0.0015685
 0.0016025
 0.0016366
 0.0016707
 0.0017049
 0.0017390
 0.0017732
 0.0018074
 0.0018417
 0.0018760
 0.0019103
 0.0019446
 0.0019790
 0.0020134
 0.0020478
 0.0020822
 0.0021167
 0.0021512
 0.0021858
 0.0022203
 0.0022549
 0.0022895
 0.0023242
 0.0023589
 0.0023936
 0.0024283
 0.0024631
 0.0024979
 0.0025327
 0.0025676
 0.0026025
 0.0026374
 0.0026724
 0.0027074
 0.0027424
 0.0027774
 0.0028125
 0.0028476
 0.0028827
 0.0029179
 0.0029530
 0.0029883
 0.0030235
 0.0030588
 0.0030941
 0.0031294
 0.0031648
 0.0032002
 0.0032356
 0.0032711
 0.0033066
 0.0033421
 0.0033777
 0.0034132
 0.0034488
 0.0034845
 0.0035202
 0.0035559
 0.0035916
 0.0036274
 0.0036632
 0.0036990
 0.0037348
 0.0037707
 0.0038066
 0.0038426
 0.0038786
 0.0039146
 0.0039506
 0.0039867
 0.0040228
 0.0040589
 0.0040951
 0.0041313
 0.0041675
 0.0042038
 0.0042401
 0.0042764
 0.0043127
 0.0043491
 0.0043855
 0.0044220
 0.0044585
 0.0044950
 0.0045315
 0.0045681
 0.0046047
 0.0046413
 0.0046780
 0.0047147
 0.0047514
 0.0047882
 0.0048250
 0.0048618
 0.0048986
 0.0049355
 0.0049724
 0.0050094
 0.0050464
 0.0050834
 0.0051204
 0.0051575
 0.0051946
 0.0052318
 0.0052690
 0.0053062
 0.0053434
 0.0053807
 0.0054180
 0.0054553
 0.0054927
 0.0055301
 0.0055675
 0.0056050
 0.0056425
 0.0056801
 0.0057176
 0.0057552
 0.0057929
 0.0058305
 0.0058682
 0.0059059
 0.0059437
 0.0059815
 0.0060193
 0.0060572
 0.0060951
 0.0061330
 0.0061710
 0.0062090
 0.0062470
 0.0062851
 0.0063232
 0.0063613
 0.0063995
 0.0064377
 0.0064759
 0.0065141
 0.0065524
 0.0065908
 0.0066291
 0.0066675
 0.0067060
 0.0067444
 0.0067829
 0.0068215
 0.0068600
 0.0068986
 0.0069373
 0.0069759
 0.0070146
 0.0070534
 0.0070921
 0.0071309
 0.0071698
 0.0072086
 0.0072476
 0.0072865
 0.0073255
 0.0073645
 0.0074035
 0.0074426
 0.0074817
 0.0075209
 0.0075600
 0.0075993
 0.0076385
 0.0076778
 0.0077171
 0.0077565
 0.0077959
 0.0078353
 0.0078748
 0.0079142
 0.0079538
 0.0079933
 0.0080329
 0.0080726
 0.0081123
 0.0081520
 0.0081917
 0.0082315
 0.0082713
 0.0083111
 0.0083510
 0.0083909
 0.0084309
 0.0084709
 0.0085109
 0.0085510
 0.0085911
 0.0086312
 0.0086714
 0.0087116
 0.0087518
 0.0087921
 0.0088324
 0.0088727
 0.0089131
 0.0089535
 0.0089940
 0.0090345
 0.0090750
 0.0091156
 0.0091562
 0.0091968
 0.0092375
 0.0092782
 0.0093190
 0.0093597
 0.0094006
 0.0094414
 0.0094823
 0.0095232
 0.0095642
 0.0096052
 0.0096462
 0.0096873
 0.0097284
 0.0097696
 0.0098108
 0.0098520
 0.0098933
 0.0099346
 0.0099759
 0.0100173
 0.0100587
 0.0101001
 0.0101416
 0.0101831
 0.0102247
 0.0102663
 0.0103079
 0.0103496
 0.0103913
 0.0104331
 0.0104748
 0.0105167
 0.0105585
 0.0106004
 0.0106424
 0.0106843
 0.0107264
 0.0107684
 0.0108105
 0.0108526
 0.0108948
 0.0109370
 0.0109792
 0.0110215
 0.0110638
 0.0111062
 0.0111486
 0.0111910
 0.0112335
 0.0112760
 0.0113186
 0.0113611
 0.0114038
 0.0114464
 0.0114891
 0.0115319
 0.0115747
 0.0116175
 0.0116604
 0.0117033
 0.0117462
 0.0117892
 0.0118322
 0.0118753
 0.0119184
 0.0119615
 0.0120047
 0.0120479
 0.0120911
 0.0121344
 0.0121778
 0.0122211
 0.0122645
 0.0123080
 0.0123515
 0.0123950
 0.0124386
 0.0124822
 0.0125259
 0.0125696
 0.0126133
 0.0126571
 0.0127009
 0.0127447
 0.0127886
 0.0128326
 0.0128765
 0.0129205
 0.0129646
 0.0130087
 0.0130528
 0.0130970
 0.0131412
 0.0131855
 0.0132298
 0.0132741
 0.0133185
 0.0133629
 0.0134074
 0.0134519
 0.0134964
 0.0135410
 0.0135857
 0.0136303
 0.0136750
 0.0137198
 0.0137646
 0.0138094
 0.0138543
 0.0138992
 0.0139442
 0.0139892
 0.0140342
 0.0140793
 0.0141244
 0.0141696
 0.0142148
 0.0142601
 0.0143054
 0.0143507
 0.0143961
 0.0144415
 0.0144870
 0.0145325
 0.0145780
 0.0146236
 0.0146692
 0.0147149
 0.0147606
 0.0148064
 0.0148522
 0.0148981
 0.0149439
 0.0149899
 0.0150359
 0.0150819
 0.0151279
 0.0151740
 0.0152202
 0.0152664
 0.0153126
 0.0153589
 0.0154052
 0.0154516
 0.0154980
 0.0155444
 0.0155909
 0.0156375
 0.0156840
 0.0157307
 0.0157773
 0.0158240
 0.0158708
 0.0159176
 0.0159645
 0.0160113
 0.0160583
 0.0161053
 0.0161523
 0.0161993
 0.0162465
 0.0162936
 0.0163408
 0.0163880
 0.0164353
 0.0164827
 0.0165300
 0.0165775
 0.0166249
 0.0166724
 0.0167200
 0.0167676
 0.0168153
 0.0168629
 0.0169107
 0.0169585
 0.0170063
 0.0170542
 0.0171021
 0.0171500
 0.0171981
 0.0172461
 0.0172942
 0.0173424
 0.0173905
 0.0174388
 0.0174871
 0.0175354
 0.0175838
 0.0176322
 0.0176807
 0.0177292
 0.0177777
 0.0178263
 0.0178750
 0.0179237
 0.0179724
 0.0180212
 0.0180701
 0.0181190
 0.0181679
 0.0182169
 0.0182659
 0.0183150
 0.0183641
 0.0184132
 0.0184625
 0.0185117
 0.0185610
 0.0186104
 0.0186598
 0.0187092
 0.0187587
 0.0188083
 0.0188579
 0.0189075
 0.0189572
 0.0190069
 0.0190567
 0.0191065
 0.0191564
 0.0192063
 0.0192563
 0.0193063
 0.0193564
 0.0194065
 0.0194567
 0.0195069
 0.0195571
 0.0196075
 0.0196578
 0.0197082
 0.0197587
 0.0198092
 0.0198597
 0.0199103
 0.0199610
 0.0200117
 0.0200624
 0.0201132
 0.0201641
 0.0202150
 0.0202659
 0.0203169
 0.0203680
 0.0204191
 0.0204702
 0.0205214
 0.0205726
 0.0206239
 0.0206753
 0.0207267
 0.0207781
 0.0208296
 0.0208812
 0.0209327
 0.0209844
 0.0210361
 0.0210878
 0.0211396
 0.0211915
 0.0212434
 0.0212953
 0.0213473
 0.0213993
 0.0214514
 0.0215036
 0.0215558
 0.0216080
 0.0216603
 0.0217127
 0.0217651
 0.0218175
 0.0218700
 0.0219226
 0.0219752
 0.0220279
 0.0220806
 0.0221333
 0.0221862
 0.0222390
 0.0222919
 0.0223449
 0.0223979
 0.0224510
 0.0225041
 0.0225573
 0.0226105
 0.0226638
 0.0227172
 0.0227705
 0.0228240
 0.0228775
 0.0229310
 0.0229846
 0.0230383
 0.0230920
 0.0231457
 0.0231995
 0.0232534
 0.0233073
 0.0233613
 0.0234153
 0.0234694
 0.0235235
 0.0235777
 0.0236319
 0.0236862
 0.0237406
 0.0237950
 0.0238494
 0.0239039
 0.0239585
 0.0240131
 0.0240678
 0.0241225
 0.0241773
 0.0242321
 0.0242870
 0.0243419
 0.0243969
 0.0244520
 0.0245071
 0.0245622
 0.0246174
 0.0246727
 0.0247280
 0.0247834
 0.0248388
 0.0248943
 0.0249499
 0.0250055
 0.0250611
 0.0251168
 0.0251726
 0.0252284
 0.0252843
 0.0253402
 0.0253962
 0.0254522
 0.0255083
 0.0255645
 0.0256207
 0.0256770
 0.0257333
 0.0257897
 0.0258461
 0.0259026
 0.0259592
 0.0260158
 0.0260724
 0.0261292
 0.0261859
 0.0262428
 0.0262997
 0.0263566
 0.0264136
 0.0264707
 0.0265278
 0.0265850
 0.0266422
 0.0266995
 0.0267569
 0.0268143
 0.0268718
 0.0269293
 0.0269869
 0.0270445
 0.0271022
 0.0271600
 0.0272178
 0.0272756
 0.0273336
 0.0273916
 0.0274496
 0.0275077
 0.0275659
 0.0276241
 0.0276824
 0.0277408
 0.0277992
 0.0278576
 0.0279161
 0.0279747
 0.0280334
 0.0280921
 0.0281508
 0.0282097
 0.0282685
 0.0283275
 0.0283865
 0.0284455
 0.0285047
 0.0285638
 0.0286231
 0.0286824
 0.0287417
 0.0288012
 0.0288606
 0.0289202
 0.0289798
 0.0290394
 0.0290992
 0.0291590
 0.0292188
 0.0292787
 0.0293387
 0.0293987
 0.0294588
 0.0295190
 0.0295792
 0.0296395
 0.0296998
 0.0297602
 0.0298207
 0.0298812
 0.0299418
 0.0300024
 0.0300631
 0.0301239
 0.0301847
 0.0302456
 0.0303066
 0.0303676
 0.0304287
 0.0304899
 0.0305511
 0.0306123
 0.0306737
 0.0307351
 0.0307965
 0.0308581
 0.0309197
 0.0309813
 0.0310430
 0.0311048
 0.0311667
 0.0312286
 0.0312906
 0.0313526
 0.0314147
 0.0314769
 0.0315391
 0.0316014
 0.0316637
 0.0317262
 0.0317887
 0.0318512
 0.0319138
 0.0319765
 0.0320393
 0.0321021
 0.0321650
 0.0322279
 0.0322909
 0.0323540
 0.0324171
 0.0324803
 0.0325436
 0.0326069
 0.0326703
 0.0327338
 0.0327974
 0.0328610
 0.0329246
 0.0329884
 0.0330522
 0.0331160
 0.0331800
 0.0332440
 0.0333080
 0.0333722
 0.0334364
 0.0335006
 0.0335650
 0.0336294
 0.0336939
 0.0337584
 0.0338230
 0.0338877
 0.0339524
 0.0340172
 0.0340821
 0.0341471
 0.0342121
 0.0342772
 0.0343423
 0.0344075
 0.0344728
 0.0345382
 0.0346036
 0.0346691
 0.0347347
 0.0348003
 0.0348660
 0.0349318
 0.0349976
 0.0350635
 0.0351295
 0.0351955
 0.0352617
 0.0353279
 0.0353941
 0.0354604
 0.0355268
 0.0355933
 0.0356598
 0.0357265
 0.0357931
 0.0358599
 0.0359267
 0.0359936
 0.0360606
 0.0361276
 0.0361947
 0.0362619
 0.0363291
 0.0363964
 0.0364638
 0.0365313
 0.0365988
 0.0366664
 0.0367341
 0.0368019
 0.0368697
 0.0369376
 0.0370056
 0.0370736
 0.0371417
 0.0372099
 0.0372781
 0.0373465
 0.0374149
 0.0374834
 0.0375519
 0.0376205
 0.0376892
 0.0377580
 0.0378268
 0.0378957
 0.0379647
 0.0380338
 0.0381029
 0.0381721
 0.0382414
 0.0383108
 0.0383802
 0.0384497
 0.0385193
 0.0385890
 0.0386587
 0.0387285
 0.0387984
 0.0388684
 0.0389384
 0.0390085
 0.0390787
 0.0391489
 0.0392193
 0.0392897
 0.0393602
 0.0394307
 0.0395014
 0.0395721
 0.0396429
 0.0397138
 0.0397847
 0.0398557
 0.0399268
 0.0399980
 0.0400692
 0.0401406
 0.0402120
 0.0402835
 0.0403550
 0.0404267
 0.0404984
 0.0405702
 0.0406421
 0.0407140
 0.0407860
 0.0408581
 0.0409303
 0.0410026
 0.0410749
 0.0411473
 0.0412198
 0.0412924
 0.0413651
 0.0414378
 0.0415106
 0.0415835
 0.0416565
 0.0417295
 0.0418027
 0.0418759
 0.0419492
 0.0420226
 0.0420960
 0.0421695
 0.0422432
 0.0423169
 0.0423906
 0.0424645
 0.0425384
 0.0426124
 0.0426865
 0.0427607
 0.0428350
 0.0429093
 0.0429837
 0.0430582
 0.0431328
 0.0432075
 0.0432822
 0.0433571
 0.0434320
 0.0435070
 0.0435821
 0.0436572
 0.0437325
 0.0438078
 0.0438832
 0.0439587
 0.0440343
 0.0441100
 0.0441857
 0.0442615
 0.0443374
 0.0444134
 0.0444895
 0.0445657
 0.0446419
 0.0447183
 0.0447947
 0.0448712
 0.0449478
 0.0450244
 0.0451012
 0.0451780
 0.0452549
 0.0453320
 0.0454090
 0.0454862
 0.0455635
 0.0456409
 0.0457183
 0.0457958
 0.0458734
 0.0459511
 0.0460289
 0.0461068
 0.0461847
 0.0462628
 0.0463409
 0.0464191
 0.0464974
 0.0465758
 0.0466543
 0.0467329
 0.0468115
 0.0468903
 0.0469691
 0.0470480
 0.0471270
 0.0472061
 0.0472853
 0.0473646
 0.0474439
 0.0475234
 0.0476029
 0.0476825
 0.0477623
 0.0478421
 0.0479220
 0.0480020
 0.0480820
 0.0481622
 0.0482424
 0.0483228
 0.0484032
 0.0484838
 0.0485644
 0.0486451
 0.0487259
 0.0488068
 0.0488877
 0.0489688
 0.0490500
 0.0491312
 0.0492126
 0.0492940
 0.0493755
 0.0494572
 0.0495389
 0.0496207
 0.0497026
 0.0497846
 0.0498667
 0.0499488
 0.0500311
 0.0501135
 0.0501959
 0.0502785
 0.0503611
 0.0504439
 0.0505267
 0.0506096
 0.0506926
 0.0507758
 0.0508590
 0.0509423
 0.0510257
 0.0511092
 0.0511927
 0.0512764
 0.0513602
 0.0514441
 0.0515280
 0.0516121
 0.0516963
 0.0517805
 0.0518649
 0.0519493
 0.0520339
 0.0521185
 0.0522032
 0.0522881
 0.0523730
 0.0524580
 0.0525432
 0.0526284
 0.0527137
 0.0527991
 0.0528846
 0.0529703
 0.0530560
 0.0531418
 0.0532277
 0.0533137
 0.0533998
 0.0534860
 0.0535723
 0.0536587
 0.0537452
 0.0538318
 0.0539185
 0.0540053
 0.0540922
 0.0541792
 0.0542663
 0.0543535
 0.0544408
 0.0545282
 0.0546157
 0.0547033
 0.0547911
 0.0548789
 0.0549668
 0.0550548
 0.0551429
 0.0552311
 0.0553194
 0.0554078
 0.0554964
 0.0555850
 0.0556737
 0.0557625
 0.0558515
 0.0559405
 0.0560297
 0.0561189
 0.0562082
 0.0562977
 0.0563872
 0.0564769
 0.0565667
 0.0566565
 0.0567465
 0.0568366
 0.0569268
 0.0570170
 0.0571074
 0.0571979
 0.0572885
 0.0573792
 0.0574700
 0.0575610
 0.0576520
 0.0577431
 0.0578344
 0.0579257
 0.0580172
 0.0581087
 0.0582004
 0.0582922
 0.0583840
 0.0584760
 0.0585681
 0.0586603
 0.0587526
 0.0588450
 0.0589376
 0.0590302
 0.0591230
 0.0592158
 0.0593088
 0.0594019
 0.0594950
 0.0595883
 0.0596817
 0.0597752
 0.0598689
 0.0599626
 0.0600564
 0.0601504
 0.0602445
 0.0603386
 0.0604329
 0.0605273
 0.0606218
 0.0607164
 0.0608112
 0.0609060
 0.0610010
 0.0610960
 0.0611912
 0.0612865
 0.0613819
 0.0614774
 0.0615731
 0.0616688
 0.0617647
 0.0618607
 0.0619567
 0.0620529
 0.0621493
 0.0622457
 0.0623422
 0.0624389
 0.0625357
 0.0626326
 0.0627296
 0.0628267
 0.0629239
 0.0630213
 0.0631187
 0.0632163
 0.0633140
 0.0634118
 0.0635098
 0.0636078
 0.0637060
 0.0638043
 0.0639027
 0.0640012
 0.0640998
 0.0641986
 0.0642975
 0.0643965
 0.0644956
 0.0645948
 0.0646942
 0.0647936
 0.0648932
 0.0649929
 0.0650927
 0.0651927
 0.0652928
 0.0653929
 0.0654933
 0.0655937
 0.0656942
 0.0657949
 0.0658957
 0.0659966
 0.0660976
 0.0661988
 0.0663001
 0.0664015
 0.0665030
 0.0666046
 0.0667064
 0.0668083
 0.0669103
 0.0670124
 0.0671147
 0.0672171
 0.0673196
 0.0674222
 0.0675250
 0.0676279
 0.0677309
 0.0678340
 0.0679372
 0.0680406
 0.0681441
 0.0682478
 0.0683515
 0.0684554
 0.0685594
 0.0686635
 0.0687678
 0.0688722
 0.0689767
 0.0690813
 0.0691861
 0.0692910
 0.0693960
 0.0695012
 0.0696065
 0.0697119
 0.0698174
 0.0699231
 0.0700289
 0.0701348
 0.0702409
 0.0703470
 0.0704534
 0.0705598
 0.0706664
 0.0707731
 0.0708799
 0.0709869
 0.0710940
 0.0712012
 0.0713086
 0.0714161
 0.0715237
 0.0716314
 0.0717393
 0.0718473
 0.0719555
 0.0720638
 0.0721722
 0.0722808
 0.0723894
 0.0724983
 0.0726072
 0.0727163
 0.0728255
 0.0729349
 0.0730444
 0.0731540
 0.0732638
 0.0733737
 0.0734837
 0.0735939
 0.0737042
 0.0738146
 0.0739252
 0.0740359
 0.0741467
 0.0742577
 0.0743689
 0.0744801
 0.0745915
 0.0747031
 0.0748147
 0.0749266
 0.0750385
 0.0751506
 0.0752628
 0.0753752
 0.0754877
 0.0756004
 0.0757132
 0.0758261
 0.0759392
 0.0760524
 0.0761657
 0.0762792
 0.0763929
 0.0765067
 0.0766206
 0.0767346
 0.0768488
 0.0769632
 0.0770777
 0.0771923
 0.0773071
 0.0774220
 0.0775371
 0.0776523
 0.0777676
 0.0778831
 0.0779988
 0.0781146
 0.0782305
 0.0783466
 0.0784628
 0.0785791
 0.0786957
 0.0788123
 0.0789291
 0.0790461
 0.0791632
 0.0792804
 0.0793978
 0.0795154
 0.0796330
 0.0797509
 0.0798689
 0.0799870
 0.0801053
 0.0802237
 0.0803423
 0.0804610
 0.0805799
 0.0806989
 0.0808181
 0.0809375
 0.0810569
 0.0811766
 0.0812964
 0.0814163
 0.0815364
 0.0816566
 0.0817770
 0.0818976
 0.0820183
 0.0821391
 0.0822601
 0.0823813
 0.0825026
 0.0826240
 0.0827457
 0.0828674
 0.0829894
 0.0831114
 0.0832337
 0.0833561
 0.0834786
 0.0836013
 0.0837242
 0.0838472
 0.0839704
 0.0840937
 0.0842172
 0.0843409
 0.0844647
 0.0845886
 0.0847127
 0.0848370
 0.0849615
 0.0850860
 0.0852108
 0.0853357
 0.0854608
 0.0855860
 0.0857114
 0.0858370
 0.0859627
 0.0860886
 0.0862146
 0.0863408
 0.0864672
 0.0865937
 0.0867204
 0.0868472
 0.0869743
 0.0871014
 0.0872288
 0.0873563
 0.0874839
 0.0876118
 0.0877398
 0.0878679
 0.0879963
 0.0881247
 0.0882534
 0.0883822
 0.0885112
 0.0886404
 0.0887697
 0.0888992
 0.0890288
 0.0891587
 0.0892886
 0.0894188
 0.0895491
 0.0896796
 0.0898103
 0.0899411
 0.0900721
 0.0902033
 0.0903347
 0.0904662
 0.0905978
 0.0907297
 0.0908617
 0.0909939
 0.0911263
 0.0912588
 0.0913916
 0.0915244
 0.0916575
 0.0917907
 0.0919241
 0.0920577
 0.0921915
 0.0923254
 0.0924595
 0.0925938
 0.0927282
 0.0928628
 0.0929976
 0.0931326
 0.0932678
 0.0934031
 0.0935386
 0.0936743
 0.0938102
 0.0939462
 0.0940824
 0.0942188
 0.0943554
 0.0944922
 0.0946291
 0.0947662
 0.0949035
 0.0950410
 0.0951786
 0.0953164
 0.0954545
 0.0955927
 0.0957310
 0.0958696
 0.0960083
 0.0961473
 0.0962864
 0.0964256
 0.0965651
 0.0967048
 0.0968446
 0.0969846
 0.0971248
 0.0972652
 0.0974058
 0.0975466
 0.0976875
 0.0978287
 0.0979700
 0.0981115
 0.0982532
 0.0983951
 0.0985371
 0.0986794
 0.0988219
 0.0989645
 0.0991073
 0.0992503
 0.0993935
 0.0995369
 0.0996805
 0.0998243
 0.0999682
 0.1001124
 0.1002567
 0.1004013
 0.1005460
 0.1006909
 0.1008360
 0.1009814
 0.1011269
 0.1012725
 0.1014184
 0.1015645
 0.1017108
 0.1018573
 0.1020039
 0.1021508
 0.1022979
 0.1024451
 0.1025926
 0.1027402
 0.1028881
 0.1030361
 0.1031843
 0.1033328
 0.1034814
 0.1036303
 0.1037793
 0.1039285
 0.1040780
 0.1042276
 0.1043774
 0.1045275
 0.1046777
 0.1048282
 0.1049788
 0.1051296
 0.1052807
 0.1054319
 0.1055834
 0.1057350
 0.1058869
 0.1060390
 0.1061912
 0.1063437
 0.1064964
 0.1066493
 0.1068023
 0.1069556
 0.1071091
 0.1072629
 0.1074168
 0.1075709
 0.1077252
 0.1078798
 0.1080345
 0.1081895
 0.1083446
 0.1085000
 0.1086556
 0.1088114
 0.1089674
 0.1091236
 0.1092801
 0.1094367
 0.1095936
 0.1097506
 0.1099079
 0.1100654
 0.1102231
 0.1103810
 0.1105392
 0.1106975
 0.1108561
 0.1110149
 0.1111738
 0.1113331
 0.1114925
 0.1116521
 0.1118120
 0.1119721
 0.1121324
 0.1122929
 0.1124536
 0.1126146
 0.1127758
 0.1129371
 0.1130988
 0.1132606
 0.1134226
 0.1135849
 0.1137474
 0.1139101
 0.1140731
 0.1142362
 0.1143996
 0.1145632
 0.1147271
 0.1148911
 0.1150554
 0.1152199
 0.1153847
 0.1155496
 0.1157148
 0.1158802
 0.1160459
 0.1162117
 0.1163778
 0.1165441
 0.1167107
 0.1168775
 0.1170445
 0.1172117
 0.1173792
 0.1175469
 0.1177148
 0.1178830
 0.1180514
 0.1182200
 0.1183888
 0.1185579
 0.1187272
 0.1188968
 0.1190666
 0.1192366
 0.1194069
 0.1195774
 0.1197481
 0.1199191
 0.1200903
 0.1202617
 0.1204334
 0.1206053
 0.1207774
 0.1209498
 0.1211224
 0.1212953
 0.1214684
 0.1216417
 0.1218153
 0.1219892
 0.1221632
 0.1223375
 0.1225121
 0.1226869
 0.1228619
 0.1230372
 0.1232127
 0.1233885
 0.1235645
 0.1237407
 0.1239172
 0.1240940
 0.1242709
 0.1244482
 0.1246257
 0.1248034
 0.1249814
 0.1251596
 0.1253381
 0.1255168
 0.1256958
 0.1258750
 0.1260544
 0.1262342
 0.1264141
 0.1265944
 0.1267748
 0.1269556
 0.1271365
 0.1273178
 0.1274993
 0.1276810
 0.1278630
 0.1280453
 0.1282278
 0.1284105
 0.1285935
 0.1287768
 0.1289603
 0.1291441
 0.1293282
 0.1295125
 0.1296970
 0.1298819
 0.1300669
 0.1302523
 0.1304379
 0.1306237
 0.1308099
 0.1309963
 0.1311829
 0.1313698
 0.1315570
 0.1317444
 0.1319321
 0.1321201
 0.1323083
 0.1324968
 0.1326856
 0.1328746
 0.1330639
 0.1332534
 0.1334433
 0.1336334
 0.1338237
 0.1340144
 0.1342053
 0.1343964
 0.1345879
 0.1347796
 0.1349716
 0.1351638
 0.1353564
 0.1355492
 0.1357422
 0.1359356
 0.1361292
 0.1363231
 0.1365173
 0.1367117
 0.1369064
 0.1371014
 0.1372967
 0.1374923
 0.1376881
 0.1378842
 0.1380806
 0.1382772
 0.1384742
 0.1386714
 0.1388689
 0.1390667
 0.1392648
 0.1394631
 0.1396617
 0.1398606
 0.1400598
 0.1402593
 0.1404591
 0.1406591
 0.1408595
 0.1410601
 0.1412610
 0.1414622
 0.1416637
 0.1418654
 0.1420675
 0.1422698
 0.1424725
 0.1426754
 0.1428786
 0.1430821
 0.1432859
 0.1434900
 0.1436943
 0.1438990
 0.1441040
 0.1443092
 0.1445148
 0.1447206
 0.1449268
 0.1451332
 0.1453399
 0.1455469
 0.1457543
 0.1459619
 0.1461698
 0.1463780
 0.1465865
 0.1467954
 0.1470045
 0.1472139
 0.1474236
 0.1476336
 0.1478439
 0.1480546
 0.1482655
 0.1484767
 0.1486882
 0.1489001
 0.1491122
 0.1493247
 0.1495374
 0.1497505
 0.1499638
 0.1501775
 0.1503915
 0.1506058
 0.1508204
 0.1510353
 0.1512505
 0.1514660
 0.1516819
 0.1518980
 0.1521145
 0.1523313
 0.1525484
 0.1527658
 0.1529835
 0.1532015
 0.1534199
 0.1536385
 0.1538575
 0.1540768
 0.1542964
 0.1545163
 0.1547366
 0.1549572
 0.1551781
 0.1553993
 0.1556208
 0.1558426
 0.1560648
 0.1562873
 0.1565101
 0.1567333
 0.1569567
 0.1571805
 0.1574046
 0.1576291
 0.1578538
 0.1580789
 0.1583043
 0.1585301
 0.1587562
 0.1589826
 0.1592093
 0.1594364
 0.1596638
 0.1598915
 0.1601195
 0.1603479
 0.1605766
 0.1608057
 0.1610351
 0.1612648
 0.1614948
 0.1617252
 0.1619560
 0.1621870
 0.1624184
 0.1626501
 0.1628822
 0.1631146
 0.1633474
 0.1635805
 0.1638139
 0.1640477
 0.1642818
 0.1645162
 0.1647510
 0.1649862
 0.1652217
 0.1654575
 0.1656937
 0.1659302
 0.1661670
 0.1664043
 0.1666418
 0.1668797
 0.1671180
 0.1673566
 0.1675955
 0.1678348
 0.1680745
 0.1683145
 0.1685548
 0.1687955
 0.1690366
 0.1692780
 0.1695198
 0.1697619
 0.1700044
 0.1702472
 0.1704904
 0.1707339
 0.1709778
 0.1712221
 0.1714667
 0.1717117
 0.1719570
 0.1722027
 0.1724488
 0.1726952
 0.1729420
 0.1731891
 0.1734367
 0.1736845
 0.1739328
 0.1741814
 0.1744303
 0.1746797
 0.1749294
 0.1751794
 0.1754299
 0.1756807
 0.1759318
 0.1761834
 0.1764353
 0.1766876
 0.1769402
 0.1771933
 0.1774467
 0.1777004
 0.1779546
 0.1782091
 0.1784640
 0.1787193
 0.1789749
 0.1792310
 0.1794874
 0.1797442
 0.1800013
 0.1802589
 0.1805168
 0.1807751
 0.1810338
 0.1812928
 0.1815523
 0.1818121
 0.1820723
 0.1823329
 0.1825939
 0.1828553
 0.1831170
 0.1833792
 0.1836417
 0.1839046
 0.1841679
 0.1844316
 0.1846957
 0.1849602
 0.1852250
 0.1854903
 0.1857560
 0.1860220
 0.1862884
 0.1865553
 0.1868225
 0.1870901
 0.1873581
 0.1876265
 0.1878954
 0.1881646
 0.1884342
 0.1887042
 0.1889746
 0.1892454
 0.1895166
 0.1897882
 0.1900602
 0.1903326
 0.1906055
 0.1908787
 0.1911523
 0.1914263
 0.1917008
 0.1919756
 0.1922509
 0.1925266
 0.1928026
 0.1930791
 0.1933560
 0.1936333
 0.1939110
 0.1941891
 0.1944677
 0.1947466
 0.1950260
 0.1953058
 0.1955859
 0.1958666
 0.1961476
 0.1964290
 0.1967109
 0.1969932
 0.1972759
 0.1975590
 0.1978425
 0.1981265
 0.1984108
 0.1986956
 0.1989809
 0.1992665
 0.1995526
 0.1998391
 0.2001260
 0.2004133
 0.2007011
 0.2009893
 0.2012780
 0.2015670
 0.2018565
 0.2021464
 0.2024368
 0.2027275
 0.2030187
 0.2033104
 0.2036025
 0.2038950
 0.2041879
 0.2044813
 0.2047751
 0.2050694
 0.2053641
 0.2056592
 0.2059547
 0.2062508
 0.2065472
 0.2068441
 0.2071414
 0.2074392
 0.2077374
 0.2080360
 0.2083351
 0.2086347
 0.2089347
 0.2092351
 0.2095360
 0.2098373
 0.2101391
 0.2104413
 0.2107439
 0.2110471
 0.2113506
 0.2116546
 0.2119591
 0.2122640
 0.2125694
 0.2128752
 0.2131815
 0.2134883
 0.2137955
 0.2141031
 0.2144112
 0.2147198
 0.2150288
 0.2153383
 0.2156482
 0.2159586
 0.2162695
 0.2165808
 0.2168926
 0.2172048
 0.2175176
 0.2178307
 0.2181444
 0.2184585
 0.2187731
 0.2190881
 0.2194036
 0.2197196
 0.2200360
 0.2203529
 0.2206703
 0.2209882
 0.2213065
 0.2216253
 0.2219446
 0.2222643
 0.2225845
 0.2229052
 0.2232264
 0.2235480
 0.2238701
 0.2241927
 0.2245158
 0.2248394
 0.2251634
 0.2254879
 0.2258129
 0.2261384
 0.2264643
 0.2267908
 0.2271177
 0.2274451
 0.2277730
 0.2281014
 0.2284302
 0.2287596
 0.2290894
 0.2294198
 0.2297506
 0.2300819
 0.2304137
 0.2307460
 0.2310787
 0.2314120
 0.2317458
 0.2320800
 0.2324148
 0.2327500
 0.2330857
 0.2334220
 0.2337587
 0.2340959
 0.2344336
 0.2347719
 0.2351106
 0.2354498
 0.2357895
 0.2361297
 0.2364705
 0.2368117
 0.2371534
 0.2374957
 0.2378384
 0.2381816
 0.2385254
 0.2388696
 0.2392144
 0.2395597
 0.2399054
 0.2402517
 0.2405985
 0.2409458
 0.2412937
 0.2416420
 0.2419908
 0.2423402
 0.2426900
 0.2430404
 0.2433913
 0.2437427
 0.2440946
 0.2444471
 0.2448000
 0.2451535
 0.2455075
 0.2458620
 0.2462171
 0.2465726
 0.2469287
 0.2472853
 0.2476424
 0.2480001
 0.2483582
 0.2487169
 0.2490761
 0.2494359
 0.2497961
 0.2501569
 0.2505182
 0.2508801
 0.2512425
 0.2516054
 0.2519688
 0.2523328
 0.2526973
 0.2530623
 0.2534279
 0.2537939
 0.2541606
 0.2545277
 0.2548954
 0.2552637
 0.2556324
 0.2560017
 0.2563716
 0.2567419
 0.2571129
 0.2574843
 0.2578563
 0.2582288
 0.2586019
 0.2589755
 0.2593497
 0.2597244
 0.2600996
 0.2604754
 0.2608517
 0.2612286
 0.2616060
 0.2619840
 0.2623625
 0.2627416
 0.2631212
 0.2635013
 0.2638820
 0.2642633
 0.2646451
 0.2650274
 0.2654103
 0.2657938
 0.2661778
 0.2665624
 0.2669475
 0.2673332
 0.2677194
 0.2681062
 0.2684935
 0.2688814
 0.2692698
 0.2696588
 0.2700484
 0.2704385
 0.2708292
 0.2712204
 0.2716122
 0.2720046
 0.2723975
 0.2727910
 0.2731850
 0.2735796
 0.2739748
 0.2743705
 0.2747668
 0.2751637
 0.2755611
 0.2759591
 0.2763577
 0.2767568
 0.2771565
 0.2775568
 0.2779576
 0.2783590
 0.2787610
 0.2791635
 0.2795666
 0.2799703
 0.2803745
 0.2807793
 0.2811847
 0.2815907
 0.2819972
 0.2824043
 0.2828120
 0.2832203
 0.2836291
 0.2840385
 0.2844485
 0.2848591
 0.2852702
 0.2856819
 0.2860942
 0.2865071
 0.2869206
 0.2873346
 0.2877492
 0.2881644
 0.2885802
 0.2889965
 0.2894134
 0.2898310
 0.2902490
 0.2906677
 0.2910870
 0.2915068
 0.2919273
 0.2923483
 0.2927699
 0.2931920
 0.2936148
 0.2940382
 0.2944621
 0.2948866
 0.2953117
 0.2957374
 0.2961637
 0.2965906
 0.2970180
 0.2974461
 0.2978747
 0.2983040
 0.2987338
 0.2991642
 0.2995952
